;FLAVOR:Marlin
;TIME:1781
;Filament used: 0.778428m
;Layer height: 0.2
;MINX:103.976
;MINY:102.709
;MINZ:0.2
;MAXX:131.028
;MAXY:129.762
;MAXZ:30
;Generated with Cura_SteamEngine master
M82 ;absolute extrusion mode
G92 E0 ; Reset Extruder
M140 S60 ; Set bed temperature
G28 ; Home all axis
M190 S60 ; Wait for bed temperature
M104 T0 S220 ; Set hotend temperature
G29 ; Auto bed leveling
M109 T0 S220 ; Wait for hotend temperature
G1 Z2.0 F3000 ; Move Z Axis up little to prevent scratching of Heat Bed
G1 X0.1 Y20 Z0.3 F5000.0 ; Move to start position
G1 X0.1 Y200.0 Z0.3 F1500.0 E15 ; Draw the first line
G1 X0.4 Y200.0 Z0.3 F5000.0 ; Move to side a little
G1 X0.4 Y20 Z0.3 F1500.0 E30 ; Draw the second line
G92 E0 ; Reset Extruder
G1 Z2.0 F3000 ; Move Z Axis up little to prevent scratching of Heat Bed
G1 X5 Y20 Z0.3 F5000.0 ; Move over to prevent blob squish
G92 E0
G92 E0 ; Reset Extruder
G28 ; Home all axes
G1 Z2.0 F3000 ; Move Z Axis up little to prevent scratching of Heat Bed
G1 X0.1 Y20 Z0.3 F5000.0 ; Move to start position
G1 X0.1 Y200.0 Z0.3 F1500.0 E15 ; Draw the first line
G1 X0.4 Y200.0 Z0.3 F5000.0 ; Move to side a little
G1 X0.4 Y20 Z0.3 F1500.0 E30 ; Draw the second line
G92 E0 ; Reset Extruder
G1 Z2.0 F3000 ; Move Z Axis up little to prevent scratching of Heat Bed
G1 X5 Y20 Z0.3 F5000.0 ; Move over to prevent blob squish
G92 E0
G1 F2700 E-5
;LAYER_COUNT:150
;LAYER:0
M107
G0 F6000 X107.75 Y106.86 Z0.2
;TYPE:SKIRT
G1 F2700 E0
G1 F1200 X108.078 Y106.529 E0.0155
G1 X108.362 Y106.264 E0.02842
G1 X108.555 Y106.091 E0.03704
G1 X108.738 Y105.932 E0.0451
G1 X108.934 Y105.767 E0.05362
G1 X109.312 Y105.468 E0.06965
G1 X109.571 Y105.276 E0.08038
G1 X109.835 Y105.088 E0.09116
G1 X110 Y104.976 E0.09779
G1 X110.311 Y104.776 E0.11009
G1 X110.566 Y104.62 E0.12003
G1 X110.906 Y104.424 E0.13308
G1 X111.315 Y104.206 E0.1485
G1 X111.545 Y104.09 E0.15707
G1 X111.886 Y103.928 E0.16962
G1 X112.122 Y103.823 E0.17821
G1 X112.472 Y103.677 E0.19083
G1 X112.722 Y103.58 E0.19975
G1 X113.076 Y103.452 E0.21227
G1 X113.316 Y103.372 E0.22068
G1 X113.574 Y103.291 E0.22967
G1 X113.811 Y103.221 E0.23789
G1 X114.156 Y103.128 E0.24978
G1 X114.416 Y103.064 E0.25868
G1 X114.803 Y102.979 E0.27186
G1 X115.057 Y102.93 E0.28047
G1 X115.384 Y102.874 E0.2915
G1 X115.639 Y102.836 E0.30007
G1 X116.01 Y102.79 E0.31251
G1 X116.269 Y102.764 E0.32117
G1 X116.632 Y102.736 E0.33328
G1 X116.894 Y102.722 E0.342
G1 X117.219 Y102.712 E0.35282
G1 X117.475 Y102.709 E0.36133
G1 X117.837 Y102.713 E0.37337
G1 X118.096 Y102.722 E0.38199
G1 X118.402 Y102.738 E0.39218
G1 X118.658 Y102.757 E0.40072
G1 X119.063 Y102.798 E0.41426
G1 X119.323 Y102.831 E0.42298
G1 X119.604 Y102.872 E0.43242
G1 X119.86 Y102.914 E0.44105
G1 X120.364 Y103.014 E0.45814
G1 X120.751 Y103.104 E0.47136
G1 X121.153 Y103.209 E0.48518
G1 X121.437 Y103.293 E0.49503
G1 X121.682 Y103.37 E0.50357
G1 X122.033 Y103.489 E0.5159
G1 X122.278 Y103.579 E0.52458
G1 X122.609 Y103.71 E0.53642
G1 X122.847 Y103.81 E0.545
G1 X123.097 Y103.92 E0.55409
G1 X123.333 Y104.029 E0.56273
G1 X123.684 Y104.202 E0.57575
G1 X123.911 Y104.321 E0.58427
G1 X124.258 Y104.514 E0.59748
G1 X124.483 Y104.647 E0.60617
G1 X124.806 Y104.849 E0.61884
G1 X125.023 Y104.992 E0.62749
G1 X125.239 Y105.139 E0.63618
G1 X125.448 Y105.287 E0.64469
G1 X125.803 Y105.555 E0.65949
G1 X126.035 Y105.74 E0.66936
G1 X126.231 Y105.901 E0.67779
G1 X126.4 Y106.045 E0.68518
G1 X126.765 Y106.377 E0.70159
G1 X127.057 Y106.662 E0.71516
G1 X127.24 Y106.846 E0.72379
G1 X127.628 Y107.265 E0.74279
G1 X127.804 Y107.47 E0.75177
G1 X127.962 Y107.659 E0.75997
G1 X128.119 Y107.854 E0.76829
G1 X128.327 Y108.125 E0.77965
G1 X128.477 Y108.329 E0.78808
G1 X128.646 Y108.568 E0.79781
G1 X128.792 Y108.783 E0.80646
G1 X129.053 Y109.195 E0.82268
G1 X129.299 Y109.618 E0.83895
G1 X129.433 Y109.862 E0.84821
G1 X129.62 Y110.225 E0.86179
G1 X129.733 Y110.459 E0.87044
G1 X129.878 Y110.778 E0.88209
G1 X129.98 Y111.016 E0.8907
G1 X130.09 Y111.287 E0.90043
G1 X130.182 Y111.526 E0.90895
G1 X130.323 Y111.924 E0.92299
G1 X130.404 Y112.174 E0.93173
G1 X130.491 Y112.459 E0.94164
G1 X130.561 Y112.707 E0.95021
G1 X130.655 Y113.077 E0.96291
G1 X130.713 Y113.329 E0.97151
G1 X130.784 Y113.672 E0.98316
G1 X130.83 Y113.923 E0.99165
G1 X130.893 Y114.325 E1.00518
G1 X130.927 Y114.587 E1.01397
G1 X130.957 Y114.857 E1.02301
G1 X130.981 Y115.111 E1.03149
G1 X131.009 Y115.517 E1.04503
G1 X131.02 Y115.778 E1.05372
G1 X131.027 Y116.076 E1.06363
G1 X131.028 Y116.334 E1.07221
G1 X131.018 Y116.755 E1.08622
G1 X131.005 Y117.014 E1.09484
G1 X130.986 Y117.291 E1.10408
G1 X130.964 Y117.547 E1.11262
G1 X130.919 Y117.949 E1.12608
G1 X130.883 Y118.209 E1.13481
G1 X130.843 Y118.465 E1.14343
G1 X130.799 Y118.72 E1.15203
G1 X130.698 Y119.214 E1.1688
G1 X130.638 Y119.464 E1.17735
G1 X130.575 Y119.707 E1.1857
G1 X130.507 Y119.955 E1.19426
G1 X130.38 Y120.373 E1.20879
G1 X130.279 Y120.674 E1.21935
G1 X130.165 Y120.99 E1.23052
G1 X130.092 Y121.18 E1.23729
G1 X129.976 Y121.467 E1.24759
G1 X129.874 Y121.704 E1.25617
G1 X129.728 Y122.023 E1.26784
G1 X129.616 Y122.254 E1.27637
G1 X129.448 Y122.58 E1.28857
G1 X129.313 Y122.828 E1.29796
G1 X129.127 Y123.15 E1.31033
G1 X129.003 Y123.354 E1.31827
G1 X128.823 Y123.637 E1.32943
G1 X128.678 Y123.854 E1.33811
G1 X128.509 Y124.097 E1.34795
G1 X128.359 Y124.304 E1.35645
G1 X128.084 Y124.661 E1.37144
G1 X127.919 Y124.863 E1.38012
G1 X127.748 Y125.065 E1.38892
G1 X127.58 Y125.257 E1.39741
G1 X127.29 Y125.571 E1.41162
G1 X126.958 Y125.906 E1.42731
G1 X126.758 Y126.099 E1.43655
G1 X126.418 Y126.408 E1.45183
G1 X126.222 Y126.576 E1.46042
G1 X125.953 Y126.797 E1.472
G1 X125.746 Y126.959 E1.48074
G1 X125.516 Y127.132 E1.49031
G1 X125.309 Y127.282 E1.49882
G1 X125.003 Y127.493 E1.51118
G1 X124.786 Y127.635 E1.51981
G1 X124.427 Y127.856 E1.53383
G1 X124.201 Y127.987 E1.54252
G1 X123.971 Y128.115 E1.55127
G1 X123.745 Y128.236 E1.5598
G1 X123.335 Y128.44 E1.57503
G1 X123.097 Y128.55 E1.58375
G1 X122.879 Y128.647 E1.59168
G1 X122.644 Y128.747 E1.60018
G1 X122.246 Y128.904 E1.61441
G1 X122.003 Y128.992 E1.623
G1 X121.67 Y129.104 E1.63469
G1 X121.42 Y129.182 E1.6434
G1 X121.095 Y129.276 E1.65465
G1 X120.846 Y129.342 E1.66322
G1 X120.546 Y129.415 E1.67349
G1 X120.295 Y129.471 E1.68204
G1 X119.923 Y129.544 E1.69465
G1 X119.668 Y129.588 E1.70326
G1 X119.226 Y129.652 E1.71811
G1 X118.884 Y129.691 E1.72956
G1 X118.528 Y129.723 E1.74145
G1 X118.126 Y129.747 E1.75484
G1 X117.869 Y129.757 E1.7634
G1 X117.475 Y129.762 E1.7765
G1 X117.219 Y129.759 E1.78502
G1 X116.828 Y129.745 E1.79803
G1 X116.521 Y129.726 E1.80826
G1 X116.169 Y129.696 E1.82001
G1 X115.955 Y129.673 E1.82717
G1 X115.64 Y129.633 E1.83773
G1 X115.358 Y129.591 E1.84722
G1 X114.984 Y129.526 E1.85984
G1 X114.758 Y129.481 E1.86751
G1 X114.437 Y129.41 E1.87844
G1 X114.174 Y129.346 E1.88744
G1 X113.867 Y129.264 E1.89801
G1 X113.63 Y129.196 E1.90621
G1 X113.249 Y129.077 E1.91949
G1 X113.013 Y128.996 E1.92779
G1 X112.728 Y128.891 E1.93789
G1 X112.475 Y128.793 E1.94691
G1 X112.094 Y128.634 E1.96064
G1 X111.876 Y128.536 E1.96859
G1 X111.631 Y128.421 E1.9776
G1 X111.381 Y128.298 E1.98686
G1 X110.998 Y128.096 E2.00126
G1 X110.592 Y127.863 E2.01683
G1 X110.347 Y127.715 E2.02635
G1 X109.978 Y127.478 E2.04094
G1 X109.763 Y127.331 E2.0496
G1 X109.447 Y127.103 E2.06256
G1 X109.239 Y126.945 E2.07125
G1 X109.018 Y126.771 E2.08061
G1 X108.82 Y126.609 E2.08912
G1 X108.503 Y126.335 E2.10305
G1 X108.31 Y126.159 E2.11174
G1 X108.097 Y125.957 E2.1215
G1 X107.915 Y125.778 E2.12999
G1 X107.662 Y125.518 E2.14206
G1 X107.486 Y125.328 E2.15067
G1 X107.238 Y125.047 E2.16314
G1 X107.069 Y124.846 E2.17187
G1 X106.872 Y124.602 E2.1823
G1 X106.714 Y124.398 E2.19089
G1 X106.461 Y124.052 E2.20514
G1 X106.314 Y123.839 E2.21375
G1 X106.166 Y123.616 E2.22265
G1 X106.027 Y123.399 E2.23122
G1 X105.838 Y123.088 E2.24333
G1 X105.71 Y122.866 E2.25185
G1 X105.502 Y122.482 E2.26638
G1 X105.384 Y122.248 E2.27509
G1 X105.272 Y122.016 E2.28366
G1 X105.164 Y121.783 E2.2922
G1 X105.002 Y121.408 E2.30579
G1 X104.878 Y121.099 E2.31686
G1 X104.734 Y120.711 E2.33063
G1 X104.674 Y120.535 E2.33681
G1 X104.581 Y120.243 E2.347
G1 X104.492 Y119.944 E2.35738
G1 X104.388 Y119.558 E2.37068
G1 X104.289 Y119.135 E2.38513
G1 X104.236 Y118.885 E2.39363
G1 X104.159 Y118.467 E2.40776
G1 X104.119 Y118.21 E2.41641
G1 X104.072 Y117.86 E2.42816
G1 X104.04 Y117.568 E2.43793
G1 X104.009 Y117.2 E2.45021
G1 X103.995 Y116.974 E2.45774
G1 X103.983 Y116.706 E2.46667
G1 X103.976 Y116.451 E2.47515
G1 X103.976 Y116.029 E2.48919
G1 X103.983 Y115.767 E2.4979
G1 X103.995 Y115.486 E2.50726
G1 X104.01 Y115.247 E2.51522
G1 X104.047 Y114.834 E2.52901
G1 X104.079 Y114.559 E2.53822
G1 X104.12 Y114.26 E2.54826
G1 X104.156 Y114.029 E2.55604
G1 X104.209 Y113.727 E2.56623
G1 X104.264 Y113.447 E2.57573
G1 X104.362 Y113.016 E2.59043
G1 X104.426 Y112.766 E2.59901
G1 X104.518 Y112.434 E2.61047
G1 X104.593 Y112.187 E2.61905
G1 X104.685 Y111.905 E2.62892
G1 X104.769 Y111.662 E2.63747
G1 X104.943 Y111.206 E2.6537
G1 X105.044 Y110.964 E2.66243
G1 X105.137 Y110.749 E2.67022
G1 X105.243 Y110.515 E2.67876
G1 X105.426 Y110.139 E2.69267
G1 X105.547 Y109.906 E2.7014
G1 X105.678 Y109.664 E2.71055
G1 X105.804 Y109.441 E2.71907
G1 X106.057 Y109.025 E2.73527
G1 X106.271 Y108.696 E2.74832
G1 X106.562 Y108.279 E2.76523
G1 X106.79 Y107.974 E2.7779
G1 X107.094 Y107.592 E2.79414
G1 X107.264 Y107.392 E2.80287
G1 X107.508 Y107.119 E2.81505
G1 X107.75 Y106.86 E2.82684
G0 F6000 X108.042 Y107.133
G1 F1200 X108.353 Y106.819 E2.84153
G1 X108.629 Y106.562 E2.85408
G1 X108.822 Y106.389 E2.8627
G1 X108.995 Y106.238 E2.87034
G1 X109.191 Y106.073 E2.87886
G1 X109.55 Y105.789 E2.89408
G1 X109.809 Y105.597 E2.90481
G1 X110.06 Y105.419 E2.91504
G1 X110.225 Y105.307 E2.92167
G1 X110.519 Y105.118 E2.9333
G1 X110.774 Y104.962 E2.94324
G1 X111.097 Y104.775 E2.95565
G1 X111.495 Y104.563 E2.97065
G1 X111.725 Y104.447 E2.97922
G1 X112.049 Y104.293 E2.99115
G1 X112.285 Y104.188 E2.99974
G1 X112.616 Y104.05 E3.01167
G1 X112.866 Y103.953 E3.02059
G1 X113.203 Y103.832 E3.0325
G1 X113.443 Y103.752 E3.04091
G1 X113.687 Y103.675 E3.04942
G1 X113.924 Y103.605 E3.05764
G1 X114.251 Y103.516 E3.06891
G1 X114.511 Y103.452 E3.07782
G1 X114.878 Y103.372 E3.09031
G1 X115.132 Y103.323 E3.09892
G1 X115.443 Y103.27 E3.10941
G1 X115.698 Y103.232 E3.11798
G1 X116.05 Y103.188 E3.12978
G1 X116.309 Y103.162 E3.13844
G1 X116.653 Y103.136 E3.14991
G1 X116.915 Y103.122 E3.15864
G1 X117.223 Y103.112 E3.16889
G1 X117.479 Y103.109 E3.17741
G1 X117.823 Y103.112 E3.18885
G1 X118.082 Y103.121 E3.19747
G1 X118.373 Y103.137 E3.20716
G1 X118.629 Y103.156 E3.2157
G1 X119.013 Y103.195 E3.22854
G1 X119.273 Y103.228 E3.23725
G1 X119.539 Y103.267 E3.2462
G1 X119.795 Y103.309 E3.25482
G1 X120.273 Y103.403 E3.27103
G1 X120.66 Y103.493 E3.28424
G1 X121.042 Y103.593 E3.29738
G1 X121.317 Y103.674 E3.30691
G1 X121.562 Y103.751 E3.31545
G1 X121.895 Y103.865 E3.32716
G1 X122.14 Y103.955 E3.33584
G1 X122.454 Y104.079 E3.34707
G1 X122.692 Y104.179 E3.35565
G1 X122.929 Y104.283 E3.36426
G1 X123.165 Y104.392 E3.37291
G1 X123.498 Y104.556 E3.38525
G1 X123.725 Y104.675 E3.39378
G1 X124.055 Y104.859 E3.40635
G1 X124.28 Y104.992 E3.41504
G1 X124.586 Y105.183 E3.42704
G1 X124.803 Y105.326 E3.43568
G1 X125.008 Y105.466 E3.44394
G1 X125.217 Y105.614 E3.45246
G1 X125.554 Y105.867 E3.46647
G1 X125.786 Y106.052 E3.47634
G1 X126.14 Y106.349 E3.49171
G1 X126.487 Y106.664 E3.5073
G1 X126.774 Y106.944 E3.52063
G1 X126.957 Y107.128 E3.52926
G1 X127.325 Y107.526 E3.54729
G1 X127.501 Y107.731 E3.55628
G1 X127.65 Y107.91 E3.56403
G1 X127.807 Y108.105 E3.57235
G1 X128.005 Y108.362 E3.58314
G1 X128.155 Y108.566 E3.59156
G1 X128.315 Y108.793 E3.6008
G1 X128.461 Y109.008 E3.60945
G1 X128.709 Y109.398 E3.62482
G1 X128.948 Y109.811 E3.64069
G1 X129.082 Y110.055 E3.64995
G1 X129.26 Y110.399 E3.66283
G1 X129.373 Y110.633 E3.67147
G1 X129.511 Y110.936 E3.68255
G1 X129.613 Y111.174 E3.69116
G1 X129.717 Y111.431 E3.70038
G1 X129.809 Y111.67 E3.7089
G1 X129.943 Y112.047 E3.7222
G1 X130.024 Y112.297 E3.73095
G1 X130.106 Y112.568 E3.74036
G1 X130.176 Y112.816 E3.74893
G1 X130.265 Y113.166 E3.76094
G1 X130.323 Y113.418 E3.76955
G1 X130.391 Y113.744 E3.78062
G1 X130.437 Y113.995 E3.78911
G1 X130.496 Y114.377 E3.80197
G1 X130.53 Y114.639 E3.81075
G1 X130.559 Y114.895 E3.81932
G1 X130.583 Y115.149 E3.82781
G1 X130.609 Y115.533 E3.84061
G1 X130.62 Y115.794 E3.8493
G1 X130.627 Y116.077 E3.85871
G1 X130.628 Y116.335 E3.86729
G1 X130.619 Y116.735 E3.8806
G1 X130.606 Y116.994 E3.88923
G1 X130.588 Y117.257 E3.89799
G1 X130.566 Y117.513 E3.90654
G1 X130.523 Y117.894 E3.91929
G1 X130.487 Y118.154 E3.92802
G1 X130.449 Y118.397 E3.9362
G1 X130.405 Y118.652 E3.94481
G1 X130.309 Y119.121 E3.96073
G1 X130.249 Y119.371 E3.96928
G1 X130.19 Y119.601 E3.97718
G1 X130.122 Y119.849 E3.98573
G1 X130.001 Y120.246 E3.99954
G1 X129.9 Y120.547 E4.0101
G1 X129.792 Y120.847 E4.0207
G1 X129.719 Y121.037 E4.02747
G1 X129.608 Y121.308 E4.03721
G1 X129.506 Y121.545 E4.04579
G1 X129.368 Y121.848 E4.05687
G1 X129.256 Y122.079 E4.06541
G1 X129.096 Y122.389 E4.07701
G1 X128.961 Y122.637 E4.0864
G1 X128.785 Y122.943 E4.09814
G1 X128.661 Y123.147 E4.10608
G1 X128.491 Y123.414 E4.11661
G1 X128.346 Y123.631 E4.12529
G1 X128.185 Y123.862 E4.13466
G1 X128.035 Y124.069 E4.14316
G1 X127.774 Y124.408 E4.15739
G1 X127.609 Y124.61 E4.16606
G1 X127.447 Y124.802 E4.17442
G1 X127.279 Y124.994 E4.1829
G1 X127.004 Y125.292 E4.19639
G1 X126.681 Y125.618 E4.21165
G1 X126.481 Y125.811 E4.2209
G1 X126.158 Y126.104 E4.2354
G1 X125.962 Y126.272 E4.24399
G1 X125.707 Y126.482 E4.25498
G1 X125.5 Y126.644 E4.26372
G1 X125.281 Y126.808 E4.27282
G1 X125.074 Y126.958 E4.28132
G1 X124.784 Y127.158 E4.29304
G1 X124.567 Y127.3 E4.30166
G1 X124.226 Y127.51 E4.31498
G1 X124 Y127.641 E4.32367
G1 X123.782 Y127.763 E4.33198
G1 X123.556 Y127.884 E4.34051
G1 X123.168 Y128.077 E4.35492
G1 X122.93 Y128.187 E4.36364
G1 X122.723 Y128.279 E4.37117
G1 X122.488 Y128.379 E4.37967
G1 X122.11 Y128.528 E4.39318
G1 X121.867 Y128.616 E4.40178
G1 X121.551 Y128.722 E4.41286
G1 X121.301 Y128.8 E4.42157
G1 X120.993 Y128.889 E4.43224
G1 X120.744 Y128.955 E4.44081
G1 X120.459 Y129.024 E4.45056
G1 X120.208 Y129.08 E4.45911
G1 X119.855 Y129.15 E4.47108
G1 X119.6 Y129.194 E4.47969
G1 X119.18 Y129.254 E4.4938
G1 X118.838 Y129.293 E4.50525
G1 X118.501 Y129.324 E4.5165
G1 X118.111 Y129.347 E4.5295
G1 X117.854 Y129.357 E4.53805
G1 X117.479 Y129.362 E4.55053
G1 X117.223 Y129.359 E4.55904
G1 X116.853 Y129.346 E4.57136
G1 X116.546 Y129.327 E4.58159
G1 X116.212 Y129.299 E4.59273
G1 X115.998 Y129.276 E4.59989
G1 X115.699 Y129.237 E4.60992
G1 X115.417 Y129.195 E4.6194
G1 X115.062 Y129.134 E4.63138
G1 X114.836 Y129.089 E4.63905
G1 X114.531 Y129.021 E4.64944
G1 X114.268 Y128.957 E4.65844
G1 X113.977 Y128.88 E4.66846
G1 X113.74 Y128.812 E4.67666
G1 X113.379 Y128.698 E4.68925
G1 X113.143 Y128.617 E4.69755
G1 X112.872 Y128.518 E4.70714
G1 X112.619 Y128.42 E4.71617
G1 X112.258 Y128.269 E4.72918
G1 X112.04 Y128.171 E4.73713
G1 X111.807 Y128.062 E4.74569
G1 X111.557 Y127.939 E4.75496
G1 X111.195 Y127.748 E4.76857
G1 X110.799 Y127.521 E4.78375
G1 X110.554 Y127.373 E4.79327
G1 X110.203 Y127.148 E4.80714
G1 X109.988 Y127.001 E4.8158
G1 X109.689 Y126.785 E4.82807
G1 X109.481 Y126.627 E4.83676
G1 X109.271 Y126.461 E4.84566
G1 X109.073 Y126.299 E4.85417
G1 X108.773 Y126.04 E4.86735
G1 X108.58 Y125.864 E4.87604
G1 X108.377 Y125.672 E4.88533
G1 X108.195 Y125.493 E4.89382
G1 X107.955 Y125.246 E4.90528
G1 X107.779 Y125.056 E4.91389
G1 X107.544 Y124.789 E4.92572
G1 X107.375 Y124.588 E4.93445
G1 X107.189 Y124.357 E4.94432
G1 X107.031 Y124.153 E4.9529
G1 X106.791 Y123.825 E4.96642
G1 X106.644 Y123.612 E4.97503
G1 X106.503 Y123.4 E4.98349
G1 X106.364 Y123.183 E4.99207
G1 X106.184 Y122.888 E5.00356
G1 X106.056 Y122.666 E5.01208
G1 X105.86 Y122.302 E5.02583
G1 X105.742 Y122.068 E5.03455
G1 X105.635 Y121.848 E5.04269
G1 X105.527 Y121.615 E5.05123
G1 X105.373 Y121.259 E5.06413
G1 X105.249 Y120.95 E5.0752
G1 X105.113 Y120.582 E5.08825
G1 X105.053 Y120.406 E5.09444
