; generated by Slic3r 1.3.0 on 2020-12-12 at 03:55:14

; external perimeters extrusion width = 0.44mm (2.38mm^3/s)
; perimeters extrusion width = 0.56mm (6.20mm^3/s)
; infill extrusion width = 0.50mm (7.31mm^3/s)
; solid infill extrusion width = 0.56mm (2.07mm^3/s)
; top infill extrusion width = 0.56mm (1.55mm^3/s)
; support material extrusion width = 0.44mm (4.76mm^3/s)

M107
M140 S65
M104 S150 T0
G28 ; home all axes
G29; ABL
G1 X0 Y0 Z5 F{Z_TRAVEL_SPEED}
M107 ; Turn off fan
G90 ; Absolute positioning
G1 X0 Y0 F2400 ; move to the X=0 Y=0 position on the bed at a speed of 2400 mm/min
M190 S65  ; Wait for bed to reach temperature
M109 S205 T0 ; Wait for all used extruders to reach temperature
G92 E0 ; Reset extruder position
G1 X5 Y15 Z0.25 F1000.0 ; go intro start pos
G1 X60.0 E9.0 F600.0 ; intro line to prime extruder
G1 X100.0 E16 F800.0 ; intro line
G92 E0.0 ; reset extruder distance position
; Filament gcode

G21 ; set units to millimeters
G90 ; use absolute coordinates
M82 ; use absolute distances for extrusion
G92 E0
G1 Z0.200 F7800.000
G1 E-2.00000 F2400.00000
G92 E0
G1 X78.413 Y68.392 F7800.000
G1 E2.00000 F2400.00000
G1 F1800
G1 X79.393 Y67.413 E2.04115
G1 X79.848 Y67.039 E2.05863
G1 X81.000 Y66.269 E2.09977
G1 X81.519 Y65.992 E2.11724
G1 X82.799 Y65.462 E2.15839
G1 X83.362 Y65.291 E2.17585
G1 X84.722 Y65.020 E2.21701
G1 X85.308 Y64.963 E2.23449
G1 X86.000 Y64.929 E2.25507
G1 X134.000 Y64.929 E3.68025
G1 X134.693 Y64.963 E3.70086
G1 X135.278 Y65.020 E3.71832
G1 X136.638 Y65.291 E3.75948
G1 X137.201 Y65.462 E3.77696
G1 X138.481 Y65.992 E3.81810
G1 X139.000 Y66.269 E3.83556
G1 X140.153 Y67.039 E3.87672
G1 X140.599 Y67.405 E3.89384
G1 X141.587 Y68.393 E3.93534
G1 X141.961 Y68.847 E3.95280
G1 X142.731 Y70.000 E3.99396
G1 X143.008 Y70.519 E4.01142
G1 X143.538 Y71.799 E4.05257
G1 X143.709 Y72.363 E4.07006
G1 X143.980 Y73.722 E4.11119
G1 X144.037 Y74.308 E4.12868
G1 X144.071 Y75.000 E4.14926
G1 X144.071 Y145.000 E6.22765
G1 X144.037 Y145.693 E6.24826
G1 X143.980 Y146.278 E6.26572
G1 X143.709 Y147.638 E6.30688
G1 X143.538 Y148.201 E6.32434
G1 X143.008 Y149.481 E6.36549
G1 X142.731 Y150.000 E6.38296
G1 X141.961 Y151.153 E6.42411
G1 X141.594 Y151.599 E6.44127
G1 X140.607 Y152.587 E6.48273
G1 X140.152 Y152.961 E6.50021
G1 X139.000 Y153.731 E6.54135
G1 X138.491 Y154.003 E6.55848
G1 X137.201 Y154.538 E6.59997
G1 X136.638 Y154.709 E6.61744
G1 X135.278 Y154.980 E6.65859
G1 X134.692 Y155.037 E6.67607
G1 X134.000 Y155.071 E6.69666
G1 X86.000 Y155.071 E8.12184
G1 X85.307 Y155.037 E8.14244
G1 X84.722 Y154.980 E8.15990
G1 X83.362 Y154.709 E8.20106
G1 X82.799 Y154.538 E8.21852
G1 X81.519 Y154.008 E8.25968
G1 X81.000 Y153.731 E8.27714
G1 X79.847 Y152.961 E8.31830
G1 X79.393 Y152.587 E8.33576
G1 X78.413 Y151.607 E8.37692
G1 X78.039 Y151.153 E8.39438
G1 X77.269 Y150.000 E8.43554
G1 X76.992 Y149.481 E8.45301
G1 X76.462 Y148.201 E8.49416
G1 X76.291 Y147.637 E8.51164
G1 X76.020 Y146.278 E8.55278
G1 X75.963 Y145.693 E8.57024
G1 X75.929 Y145.000 E8.59085
G1 X75.929 Y75.000 E10.66924
G1 X75.963 Y74.307 E10.68984
G1 X76.020 Y73.722 E10.70730
G1 X76.291 Y72.362 E10.74846
G1 X76.462 Y71.799 E10.76593
G1 X76.992 Y70.519 E10.80708
G1 X77.270 Y69.999 E10.82456
G1 X78.039 Y68.847 E10.86570
G1 X78.375 Y68.439 E10.88139
G1 X78.689 Y68.619 F7800.000
G1 F1800
G1 X79.619 Y67.689 E10.92046
G1 X80.074 Y67.315 E10.93794
G1 X81.168 Y66.584 E10.97700
G1 X81.687 Y66.307 E10.99447
G1 X82.903 Y65.803 E11.03354
G1 X83.466 Y65.633 E11.05101
G1 X84.757 Y65.376 E11.09008
G1 X85.342 Y65.318 E11.10756
G1 X86.000 Y65.286 E11.12711
G1 X134.000 Y65.286 E12.55229
G1 X134.658 Y65.318 E12.57185
G1 X135.243 Y65.376 E12.58932
G1 X136.534 Y65.633 E12.62840
G1 X137.098 Y65.804 E12.64588
G1 X138.313 Y66.307 E12.68494
G1 X138.832 Y66.584 E12.70240
G1 X139.926 Y67.315 E12.74148
G1 X140.372 Y67.681 E12.75860
G1 X141.311 Y68.619 E12.79802
G1 X141.685 Y69.074 E12.81548
G1 X142.416 Y70.168 E12.85456
G1 X142.693 Y70.687 E12.87202
G1 X143.197 Y71.903 E12.91110
G1 X143.368 Y72.467 E12.92859
G1 X143.624 Y73.757 E12.96764
G1 X143.682 Y74.343 E12.98512
G1 X143.714 Y75.000 E13.00467
G1 X143.714 Y145.000 E15.08306
G1 X143.682 Y145.658 E15.10262
G1 X143.624 Y146.243 E15.12008
G1 X143.367 Y147.534 E15.15916
G1 X143.197 Y148.097 E15.17663
G1 X142.693 Y149.313 E15.21570
G1 X142.416 Y149.832 E15.23317
G1 X141.685 Y150.926 E15.27225
G1 X141.319 Y151.372 E15.28937
G1 X140.381 Y152.311 E15.32879
G1 X139.926 Y152.685 E15.34626
G1 X138.832 Y153.416 E15.38533
G1 X138.323 Y153.688 E15.40245
G1 X137.097 Y154.197 E15.44187
G1 X136.534 Y154.367 E15.45934
G1 X135.243 Y154.624 E15.49841
G1 X134.657 Y154.682 E15.51589
G1 X134.000 Y154.714 E15.53543
G1 X86.000 Y154.714 E16.96062
G1 X85.342 Y154.682 E16.98018
G1 X84.757 Y154.624 E16.99764
G1 X83.466 Y154.367 E17.03672
G1 X82.903 Y154.197 E17.05418
G1 X81.687 Y153.693 E17.09326
G1 X81.168 Y153.416 E17.11073
G1 X80.074 Y152.685 E17.14980
G1 X79.619 Y152.311 E17.16727
G1 X78.689 Y151.381 E17.20634
G1 X78.315 Y150.926 E17.22381
G1 X77.584 Y149.832 E17.26289
G1 X77.307 Y149.313 E17.28036
G1 X76.803 Y148.097 E17.31943
G1 X76.632 Y147.534 E17.33691
G1 X76.376 Y146.243 E17.37597
G1 X76.318 Y145.658 E17.39343
G1 X76.286 Y145.000 E17.41299
G1 X76.286 Y75.000 E19.49139
G1 X76.318 Y74.342 E19.51095
G1 X76.376 Y73.757 E19.52841
G1 X76.633 Y72.466 E19.56749
G1 X76.803 Y71.903 E19.58495
G1 X77.307 Y70.687 E19.62403
G1 X77.584 Y70.168 E19.64151
G1 X78.315 Y69.074 E19.68057
G1 X78.651 Y68.665 E19.69626
G1 X78.965 Y68.846 F7800.000
G1 F1800
G1 X79.846 Y67.965 E19.73325
G1 X80.301 Y67.591 E19.75073
G1 X81.337 Y66.899 E19.78772
G1 X81.856 Y66.622 E19.80519
G1 X83.007 Y66.145 E19.84218
G1 X83.569 Y65.974 E19.85964
G1 X84.792 Y65.731 E19.89664
G1 X85.377 Y65.673 E19.91412
G1 X86.000 Y65.643 E19.93263
G1 X134.000 Y65.643 E21.35781
G1 X134.623 Y65.674 E21.37633
G1 X135.208 Y65.731 E21.39379
G1 X136.431 Y65.974 E21.43080
G1 X136.994 Y66.145 E21.44828
G1 X138.145 Y66.622 E21.48526
G1 X138.664 Y66.899 E21.50273
G1 X139.700 Y67.591 E21.53972
G1 X140.145 Y67.957 E21.55685
G1 X141.035 Y68.846 E21.59419
G1 X141.409 Y69.300 E21.61165
G1 X142.101 Y70.337 E21.64865
G1 X142.378 Y70.855 E21.66611
G1 X142.855 Y72.007 E21.70311
G1 X143.026 Y72.570 E21.72060
G1 X143.269 Y73.792 E21.75757
G1 X143.327 Y74.377 E21.77505
G1 X143.357 Y75.000 E21.79356
G1 X143.357 Y145.000 E23.87195
G1 X143.326 Y145.623 E23.89047
G1 X143.269 Y146.208 E23.90793
G1 X143.026 Y147.431 E23.94493
G1 X142.855 Y147.993 E23.96240
G1 X142.378 Y149.145 E23.99940
G1 X142.101 Y149.664 E24.01686
G1 X141.409 Y150.700 E24.05386
G1 X141.043 Y151.145 E24.07099
G1 X140.154 Y152.035 E24.10832
G1 X139.699 Y152.409 E24.12579
G1 X138.663 Y153.101 E24.16278
G1 X138.155 Y153.373 E24.17991
G1 X136.993 Y153.855 E24.21725
G1 X136.430 Y154.026 E24.23472
G1 X135.208 Y154.269 E24.27171
G1 X134.623 Y154.327 E24.28919
G1 X134.000 Y154.357 E24.30769
G1 X86.000 Y154.357 E25.73288
G1 X85.377 Y154.326 E25.75140
G1 X84.792 Y154.269 E25.76886
G1 X83.569 Y154.026 E25.80586
G1 X83.007 Y153.855 E25.82332
G1 X81.855 Y153.378 E25.86033
G1 X81.337 Y153.101 E25.87779
G1 X80.300 Y152.409 E25.91479
G1 X79.846 Y152.035 E25.93225
G1 X78.965 Y151.154 E25.96925
G1 X78.592 Y150.700 E25.98671
G1 X77.899 Y149.663 E26.02371
G1 X77.622 Y149.144 E26.04119
G1 X77.145 Y147.993 E26.07818
G1 X76.974 Y147.430 E26.09566
G1 X76.731 Y146.208 E26.13264
G1 X76.674 Y145.623 E26.15010
G1 X76.643 Y145.000 E26.16862
G1 X76.643 Y75.000 E28.24702
G1 X76.674 Y74.377 E28.26554
G1 X76.731 Y73.792 E28.28300
G1 X76.974 Y72.569 E28.32000
G1 X77.145 Y72.006 E28.33747
G1 X77.622 Y70.855 E28.37446
G1 X77.899 Y70.336 E28.39194
G1 X78.591 Y69.300 E28.42893
G1 X78.927 Y68.892 E28.44462
G1 E26.44462 F2400.00000
G92 E0
G1 X92.919 Y141.000 F7800.000
G1 E2.00000 F2400.00000
G1 F1800
G1 X92.839 Y141.789 E2.02354
G1 X92.601 Y142.545 E2.04709
G1 X92.216 Y143.239 E2.07063
G1 X91.700 Y143.840 E2.09417
G1 X91.073 Y144.326 E2.11772
G1 X90.361 Y144.675 E2.14126
G1 X89.593 Y144.874 E2.16480
G1 X88.802 Y144.914 E2.18835
G1 X88.018 Y144.794 E2.21189
G1 X87.274 Y144.518 E2.23543
G1 X86.601 Y144.099 E2.25897
G1 X86.027 Y143.553 E2.28252
G1 X85.574 Y142.902 E2.30606
G1 X85.261 Y142.173 E2.32960
G1 X85.101 Y141.396 E2.35315
G1 X85.101 Y140.604 E2.37669
G1 X85.261 Y139.827 E2.40023
G1 X85.574 Y139.098 E2.42378
G1 X86.027 Y138.447 E2.44732
G1 X86.601 Y137.901 E2.47086
G1 X87.274 Y137.482 E2.49441
G1 X88.018 Y137.206 E2.51795
G1 X88.792 Y137.088 E2.54122
G1 X89.592 Y137.126 E2.56499
G1 X90.361 Y137.325 E2.58857
G1 X91.073 Y137.674 E2.61212
G1 X91.700 Y138.160 E2.63566
G1 X92.216 Y138.761 E2.65920
G1 X92.601 Y139.455 E2.68275
G1 X92.839 Y140.211 E2.70629
G1 X92.913 Y140.940 E2.72805
G1 X92.560 Y141.000 F7800.000
G1 F1800
G1 X92.487 Y141.717 E2.74944
G1 X92.271 Y142.404 E2.77083
G1 X91.922 Y143.034 E2.79221
G1 X91.453 Y143.580 E2.81360
G1 X90.883 Y144.021 E2.83499
G1 X90.236 Y144.338 E2.85637
G1 X89.539 Y144.519 E2.87776
G1 X88.820 Y144.555 E2.89915
G1 X88.108 Y144.446 E2.92053
G1 X87.432 Y144.196 E2.94192
G1 X86.821 Y143.815 E2.96331
G1 X86.299 Y143.319 E2.98469
G1 X85.887 Y142.728 E3.00608
G1 X85.603 Y142.066 E3.02747
G1 X85.458 Y141.360 E3.04886
G1 X85.458 Y140.640 E3.07024
G1 X85.603 Y139.934 E3.09163
G1 X85.887 Y139.272 E3.11302
G1 X86.299 Y138.681 E3.13440
G1 X86.821 Y138.185 E3.15579
G1 X87.432 Y137.804 E3.17718
G1 X88.108 Y137.554 E3.19856
G1 X88.811 Y137.446 E3.21969
G1 X89.538 Y137.481 E3.24131
G1 X90.236 Y137.662 E3.26272
G1 X90.883 Y137.979 E3.28411
G1 X91.453 Y138.420 E3.30549
G1 X91.922 Y138.966 E3.32688
G1 X92.271 Y139.596 E3.34827
G1 X92.487 Y140.283 E3.36965
G1 X92.554 Y140.940 E3.38926
G1 X92.201 Y141.000 F7800.000
G1 F1800
G1 X92.136 Y141.644 E3.40849
G1 X91.942 Y142.262 E3.42772
G1 X91.627 Y142.829 E3.44695
G1 X91.205 Y143.320 E3.46618
G1 X90.693 Y143.717 E3.48541
G1 X90.112 Y144.002 E3.50464
G1 X89.485 Y144.164 E3.52387
G1 X88.838 Y144.197 E3.54310
G1 X88.198 Y144.099 E3.56233
G1 X87.590 Y143.874 E3.58157
G1 X87.041 Y143.531 E3.60080
G1 X86.571 Y143.085 E3.62003
G1 X86.201 Y142.553 E3.63926
G1 X85.946 Y141.958 E3.65849
G1 X85.815 Y141.324 E3.67772
G1 X85.815 Y140.676 E3.69695
G1 X85.946 Y140.042 E3.71618
G1 X86.201 Y139.447 E3.73541
G1 X86.571 Y138.915 E3.75464
G1 X87.041 Y138.469 E3.77387
G1 X87.590 Y138.126 E3.79310
G1 X88.198 Y137.901 E3.81233
G1 X88.830 Y137.804 E3.83132
G1 X89.484 Y137.836 E3.85078
G1 X90.112 Y137.998 E3.87002
G1 X90.693 Y138.283 E3.88925
G1 X91.205 Y138.680 E3.90848
G1 X91.627 Y139.171 E3.92771
G1 X91.942 Y139.738 E3.94694
G1 X92.136 Y140.356 E3.96617
G1 X92.195 Y140.940 E3.98362
G1 X92.547 Y141.200 F7800.000
G1 E1.98362 F2400.00000
G92 E0
G1 X101.586 Y144.484 F7800.000
G1 E2.00000 F2400.00000
G1 F1800
G1 X101.586 Y128.987 E2.46014
G1 X118.414 Y128.987 E2.95979
G1 X118.414 Y144.484 E3.41993
G1 X101.646 Y144.484 E3.91780
G1 X101.943 Y144.127 F7800.000
G1 F1800
G1 X101.943 Y129.344 E4.35673
G1 X118.057 Y129.344 E4.83518
G1 X118.057 Y144.127 E5.27411
G1 X102.003 Y144.127 E5.75078
G1 X102.300 Y143.770 F7800.000
G1 F1800
G1 X102.300 Y129.701 E6.16851
G1 X117.700 Y129.701 E6.62575
G1 X117.700 Y143.770 E7.04348
G1 X102.360 Y143.770 E7.49895
G1 X101.912 Y143.868 F7800.000
G1 E5.49895 F2400.00000
G92 E0
G1 X127.101 Y141.396 F7800.000
G1 E2.00000 F2400.00000
G1 F1800
G1 X127.101 Y140.604 E2.02354
G1 X127.261 Y139.827 E2.04709
G1 X127.574 Y139.098 E2.07063
G1 X128.027 Y138.447 E2.09417
G1 X128.601 Y137.901 E2.11772
G1 X129.274 Y137.482 E2.14126
G1 X130.018 Y137.206 E2.16480
G1 X130.792 Y137.088 E2.18807
G1 X131.592 Y137.126 E2.21185
G1 X132.361 Y137.325 E2.23543
G1 X133.073 Y137.674 E2.25897
G1 X133.700 Y138.160 E2.28251
G1 X134.216 Y138.761 E2.30606
G1 X134.601 Y139.455 E2.32960
G1 X134.839 Y140.211 E2.35314
G1 X134.919 Y141.000 E2.37669
G1 X134.839 Y141.789 E2.40023
G1 X134.601 Y142.545 E2.42377
G1 X134.216 Y143.239 E2.44732
G1 X133.700 Y143.840 E2.47086
G1 X133.073 Y144.326 E2.49440
G1 X132.361 Y144.675 E2.51794
G1 X131.593 Y144.874 E2.54149
G1 X130.802 Y144.914 E2.56503
G1 X130.018 Y144.794 E2.58857
G1 X129.274 Y144.518 E2.61212
G1 X128.601 Y144.099 E2.63566
G1 X128.027 Y143.553 E2.65920
G1 X127.574 Y142.902 E2.68275
G1 X127.261 Y142.173 E2.70629
G1 X127.113 Y141.455 E2.72805
G1 X127.458 Y141.360 F7800.000
G1 F1800
G1 X127.458 Y140.640 E2.74944
G1 X127.603 Y139.934 E2.77083
G1 X127.887 Y139.272 E2.79221
G1 X128.299 Y138.681 E2.81360
G1 X128.821 Y138.185 E2.83499
G1 X129.432 Y137.804 E2.85637
G1 X130.108 Y137.554 E2.87776
G1 X130.811 Y137.446 E2.89888
G1 X131.538 Y137.481 E2.92051
G1 X132.236 Y137.662 E2.94192
G1 X132.883 Y137.979 E2.96330
G1 X133.453 Y138.420 E2.98469
G1 X133.922 Y138.966 E3.00608
G1 X134.271 Y139.596 E3.02746
G1 X134.487 Y140.283 E3.04885
G1 X134.560 Y141.000 E3.07024
G1 X134.487 Y141.717 E3.09162
G1 X134.271 Y142.404 E3.11301
G1 X133.922 Y143.034 E3.13440
G1 X133.453 Y143.580 E3.15578
G1 X132.883 Y144.021 E3.17717
G1 X132.236 Y144.338 E3.19856
G1 X131.539 Y144.519 E3.21995
G1 X130.820 Y144.555 E3.24133
G1 X130.108 Y144.446 E3.26272
G1 X129.432 Y144.196 E3.28411
G1 X128.821 Y143.815 E3.30549
G1 X128.299 Y143.319 E3.32688
G1 X127.887 Y142.728 E3.34827
G1 X127.603 Y142.066 E3.36965
G1 X127.470 Y141.419 E3.38926
G1 X127.815 Y141.324 F7800.000
G1 F1800
G1 X127.815 Y140.676 E3.40849
G1 X127.946 Y140.042 E3.42772
G1 X128.201 Y139.447 E3.44695
G1 X128.571 Y138.915 E3.46618
G1 X129.041 Y138.469 E3.48541
G1 X129.590 Y138.126 E3.50464
G1 X130.198 Y137.901 E3.52387
G1 X130.830 Y137.804 E3.54286
G1 X131.484 Y137.836 E3.56232
G1 X132.112 Y137.998 E3.58156
G1 X132.693 Y138.283 E3.60079
G1 X133.205 Y138.680 E3.62002
G1 X133.627 Y139.171 E3.63925
G1 X133.942 Y139.738 E3.65848
G1 X134.136 Y140.356 E3.67771
G1 X134.201 Y141.000 E3.69694
G1 X134.136 Y141.644 E3.71618
G1 X133.942 Y142.262 E3.73541
G1 X133.627 Y142.829 E3.75464
G1 X133.205 Y143.320 E3.77387
G1 X132.693 Y143.717 E3.79310
G1 X132.112 Y144.002 E3.81233
G1 X131.485 Y144.164 E3.83156
G1 X130.838 Y144.197 E3.85079
G1 X130.198 Y144.099 E3.87002
G1 X129.590 Y143.874 E3.88925
G1 X129.041 Y143.531 E3.90848
G1 X128.571 Y143.085 E3.92771
G1 X128.201 Y142.553 E3.94694
G1 X127.946 Y141.958 E3.96617
G1 X127.827 Y141.383 E3.98362
G1 X127.451 Y141.160 F7800.000
G1 E1.98362 F2400.00000
G92 E0
G1 X130.796 Y93.912 F7800.000
G1 E2.00000 F2400.00000
G1 F1800
G1 X130.013 Y93.790 E2.02353
G1 X129.270 Y93.514 E2.04707
G1 X128.598 Y93.093 E2.07060
G1 X128.024 Y92.546 E2.09414
G1 X127.573 Y91.895 E2.11767
G1 X127.261 Y91.167 E2.14119
G1 X127.104 Y90.399 E2.16445
G1 X127.103 Y89.607 E2.18796
G1 X127.261 Y88.831 E2.21150
G1 X127.573 Y88.102 E2.23503
G1 X128.024 Y87.451 E2.25857
G1 X128.598 Y86.904 E2.28210
G1 X129.270 Y86.483 E2.30563
G1 X130.013 Y86.207 E2.32917
G1 X130.796 Y86.085 E2.35270
G1 X131.588 Y86.124 E2.37624
G1 X132.356 Y86.321 E2.39977
G1 X133.063 Y86.666 E2.42313
G1 X133.606 Y87.074 E2.44332
G1 X133.863 Y87.326 E2.45398
G1 X134.153 Y87.673 E2.46742
G1 X134.486 Y88.213 E2.48625
G1 X134.608 Y88.475 E2.49485
G1 X134.802 Y89.049 E2.51283
G1 X134.906 Y89.679 E2.53179
G1 X134.906 Y90.318 E2.55076
G1 X134.802 Y90.948 E2.56971
G1 X134.609 Y91.521 E2.58768
G1 X134.497 Y91.761 E2.59553
G1 X134.290 Y92.123 E2.60792
G1 X134.108 Y92.381 E2.61728
G1 X133.849 Y92.685 E2.62915
G1 X133.598 Y92.930 E2.63955
G1 X133.062 Y93.331 E2.65944
G1 X132.356 Y93.676 E2.68278
G1 X131.588 Y93.873 E2.70632
G1 X130.856 Y93.909 E2.72807
G1 X130.815 Y93.553 F7800.000
G1 F1800
G1 X130.103 Y93.443 E2.74945
G1 X129.429 Y93.192 E2.77083
G1 X128.818 Y92.810 E2.79221
G1 X128.297 Y92.313 E2.81359
G1 X127.887 Y91.721 E2.83497
G1 X127.604 Y91.060 E2.85633
G1 X127.461 Y90.363 E2.87745
G1 X127.460 Y89.643 E2.89882
G1 X127.604 Y88.938 E2.92020
G1 X127.887 Y88.276 E2.94158
G1 X128.297 Y87.684 E2.96295
G1 X128.818 Y87.187 E2.98433
G1 X129.429 Y86.805 E3.00571
G1 X130.103 Y86.554 E3.02709
G1 X130.815 Y86.444 E3.04847
G1 X131.534 Y86.479 E3.06985
G1 X132.232 Y86.658 E3.09123
G1 X132.875 Y86.972 E3.11250
G1 X133.373 Y87.346 E3.13098
G1 X133.600 Y87.568 E3.14041
G1 X133.863 Y87.882 E3.15257
G1 X134.171 Y88.382 E3.17002
G1 X134.276 Y88.608 E3.17741
