;FLAVOR:Marlin
;TIME:1781
;Filament used: 0.732111m
;Layer height: 0.2
;MINX:102.701
;MINY:102.701
;MINZ:0.2
;MAXX:132.299
;MAXY:132.299
;MAXZ:27.2
;Generated with Cura_SteamEngine master
M82 ;absolute extrusion mode
; Ender 3 Custom Start G-code
M140 S75 ; Set Heat Bed temperature
M104 S160 ; start warming extruder to 160
G28 ; Home all axes
G29 ; Auto bed-level (BL-Touch)
G92 E0 ; Reset Extruder
M190 S75 ; Wait for Heat Bed temperature
M104 S210 ; Set Extruder temperature
G1 X0 Y0 Z0.3 F5000.0 ; Move to 0 0
M109 S210 ; Wait for Extruder temperature
G1 X3 Y20 Z0.3 F5000.0 ; Move to start position
; G1 Z2.0 F3000 ; Move Z Axis up little to prevent scratching of Heat Bed
G1 X3 Y200.0 Z0.3 F1500.0 E15 ; Draw the first line
G1 X3.3 Y200.0 Z0.3 F5000.0 ; Move to side a little
G1 X3.3 Y20 Z0.3 F1500.0 E30 ; Draw the second line
G92 E0 ; Reset Extruder
G1 Z2.0 F3000 ; Move Z Axis up little to prevent scratching of Heat Bed
G92 E0
G92 E0
G1 F2700 E-5
;LAYER_COUNT:136
;LAYER:0
M107
M204 S500
M205 X8 Y8
;MESH:Flow_Calibration_Cube.stl
G0 F6000 X132.299 Y132.299 Z0.2
;TYPE:WALL-OUTER
G1 F2700 E0
G1 F1200 X102.701 Y132.299 E0.79739
G1 X102.701 Y102.701 E1.59478
G1 X132.299 Y102.701 E2.39217
G1 X132.299 Y132.299 E3.18956
G0 F6000 X131.909 Y131.909
;TYPE:SKIN
G1 F1200 X103.091 Y131.909 E3.96594
G1 X103.091 Y103.091 E4.74232
G1 X131.909 Y103.091 E5.5187
G1 X131.909 Y131.909 E6.29507
G0 F6000 X131.748 Y103.464
G1 F1200 X131.535 Y103.251 E6.30319
G0 F6000 X130.969 Y103.251
G1 F1200 X131.748 Y104.03 E6.33287
G0 F6000 X131.748 Y104.595
G1 F1200 X130.403 Y103.251 E6.38409
G0 F6000 X129.838 Y103.251
G1 F1200 X131.748 Y105.161 E6.45687
G0 F6000 X131.748 Y105.727
G1 F1200 X129.272 Y103.251 E6.5512
G0 F6000 X128.706 Y103.251
G1 F1200 X131.748 Y106.292 E6.66708
G0 F6000 X131.748 Y106.858
G1 F1200 X128.141 Y103.251 E6.80451
G0 F6000 X127.575 Y103.251
G1 F1200 X131.748 Y107.424 E6.9635
G0 F6000 X131.748 Y107.99
G1 F1200 X127.009 Y103.251 E7.14405
G0 F6000 X126.444 Y103.251
G1 F1200 X131.748 Y108.555 E7.34614
G0 F6000 X131.748 Y109.121
G1 F1200 X125.878 Y103.251 E7.56978
G0 F6000 X125.312 Y103.251
G1 F1200 X131.748 Y109.687 E7.81499
G0 F6000 X131.748 Y110.252
G1 F1200 X124.747 Y103.251 E8.08173
G0 F6000 X124.181 Y103.251
G1 F1200 X131.748 Y110.818 E8.37003
G0 F6000 X131.748 Y111.384
G1 F1200 X123.615 Y103.251 E8.6799
G0 F6000 X123.05 Y103.251
G1 F1200 X131.748 Y111.949 E9.01129
G0 F6000 X131.748 Y112.515
G1 F1200 X122.484 Y103.251 E9.36425
G0 F6000 X121.918 Y103.251
G1 F1200 X131.748 Y113.081 E9.73877
G0 F6000 X131.748 Y113.646
G1 F1200 X121.352 Y103.251 E10.13484
G0 F6000 X120.787 Y103.251
G1 F1200 X131.748 Y114.212 E10.55245
G0 F6000 X131.748 Y114.778
G1 F1200 X120.221 Y103.251 E10.99163
G0 F6000 X119.655 Y103.251
G1 F1200 X131.748 Y115.343 E11.45235
G0 F6000 X131.748 Y115.909
G1 F1200 X119.09 Y103.251 E11.93462
G0 F6000 X118.524 Y103.251
G1 F1200 X131.748 Y116.475 E12.43846
G0 F6000 X131.748 Y117.041
G1 F1200 X117.958 Y103.251 E12.96385
G0 F6000 X117.393 Y103.251
G1 F1200 X131.748 Y117.606 E13.51078
G0 F6000 X131.748 Y118.172
G1 F1200 X116.827 Y103.251 E14.07927
G0 F6000 X116.261 Y103.251
G1 F1200 X131.748 Y118.738 E14.66932
G0 F6000 X131.748 Y119.303
G1 F1200 X115.696 Y103.251 E15.2809
G0 F6000 X115.13 Y103.251
G1 F1200 X131.748 Y119.869 E15.91405
G0 F6000 X131.748 Y120.435
G1 F1200 X114.564 Y103.251 E16.56875
G0 F6000 X113.999 Y103.251
G1 F1200 X131.748 Y121 E17.24499
G0 F6000 X131.748 Y121.566
G1 F1200 X113.433 Y103.251 E17.94279
G0 F6000 X112.867 Y103.251
G1 F1200 X131.748 Y122.132 E18.66215
G0 F6000 X131.748 Y122.697
G1 F1200 X112.301 Y103.251 E19.40306
G0 F6000 X111.736 Y103.251
G1 F1200 X131.748 Y123.263 E20.16552
G0 F6000 X131.748 Y123.829
G1 F1200 X111.17 Y103.251 E20.94954
G0 F6000 X110.604 Y103.251
G1 F1200 X131.748 Y124.394 E21.75511
G0 F6000 X131.748 Y124.96
G1 F1200 X110.039 Y103.251 E22.58222
G0 F6000 X109.473 Y103.251
G1 F1200 X131.748 Y125.526 E23.43089
G0 F6000 X131.748 Y126.091
G1 F1200 X108.907 Y103.251 E24.30111
G0 F6000 X108.342 Y103.251
G1 F1200 X131.748 Y126.657 E25.19288
G0 F6000 X131.748 Y127.223
G1 F1200 X107.776 Y103.251 E26.10621
G0 F6000 X107.21 Y103.251
G1 F1200 X131.748 Y127.789 E27.04111
G0 F6000 X131.748 Y128.354
G1 F1200 X106.645 Y103.251 E27.99753
G0 F6000 X106.079 Y103.251
G1 F1200 X131.748 Y128.92 E28.97552
G0 F6000 X131.748 Y129.486
G1 F1200 X105.513 Y103.251 E29.97507
G0 F6000 X104.948 Y103.251
G1 F1200 X131.748 Y130.051 E30.99615
G0 F6000 X131.748 Y130.617
G1 F1200 X104.382 Y103.251 E32.03879
G0 F6000 X103.816 Y103.251
G1 F1200 X131.748 Y131.183 E33.10299
G0 F6000 X131.748 Y131.748
G1 F1200 X103.25 Y103.25 E34.18877
G0 F6000 X103.25 Y103.816
G1 F1200 X131.183 Y131.748 E35.25299
G0 F6000 X130.617 Y131.748
G1 F1200 X103.25 Y104.381 E36.29567
G0 F6000 X103.25 Y104.947
G1 F1200 X130.051 Y131.748 E37.31679
G0 F6000 X129.486 Y131.748
G1 F1200 X103.25 Y105.513 E38.31636
G0 F6000 X103.25 Y106.078
G1 F1200 X128.92 Y131.748 E39.29438
G0 F6000 X128.354 Y131.748
G1 F1200 X103.25 Y106.644 E40.25084
G0 F6000 X103.25 Y107.21
G1 F1200 X127.789 Y131.748 E41.18576
G0 F6000 X127.223 Y131.748
G1 F1200 X103.25 Y107.775 E42.09913
G0 F6000 X103.25 Y108.341
G1 F1200 X126.657 Y131.748 E42.99093
G0 F6000 X126.091 Y131.748
G1 F1200 X103.25 Y108.907 E43.86117
G0 F6000 X103.25 Y109.472
G1 F1200 X125.526 Y131.748 E44.70989
G0 F6000 X124.96 Y131.748
G1 F1200 X103.25 Y110.038 E45.53704
G0 F6000 X103.25 Y110.604
G1 F1200 X124.394 Y131.748 E46.34262
G0 F6000 X123.829 Y131.748
G1 F1200 X103.25 Y111.169 E47.12668
G0 F6000 X103.25 Y111.735
G1 F1200 X123.263 Y131.748 E47.88917
G0 F6000 X122.697 Y131.748
G1 F1200 X103.25 Y112.301 E48.6301
G0 F6000 X103.25 Y112.866
G1 F1200 X122.132 Y131.748 E49.3495
G0 F6000 X121.566 Y131.748
G1 F1200 X103.25 Y113.432 E50.04734
G0 F6000 X103.25 Y113.998
G1 F1200 X121 Y131.748 E50.72362
G0 F6000 X120.435 Y131.748
G1 F1200 X103.25 Y114.564 E51.37834
G0 F6000 X103.25 Y115.129
G1 F1200 X119.869 Y131.748 E52.01153
G0 F6000 X119.303 Y131.748
G1 F1200 X103.25 Y115.695 E52.62314
G0 F6000 X103.25 Y116.261
G1 F1200 X118.738 Y131.748 E53.21322
G0 F6000 X118.172 Y131.748
G1 F1200 X103.25 Y116.826 E53.78174
G0 F6000 X103.25 Y117.392
G1 F1200 X117.606 Y131.748 E54.32871
G0 F6000 X117.041 Y131.748
G1 F1200 X103.25 Y117.958 E54.85412
G0 F6000 X103.25 Y118.523
G1 F1200 X116.475 Y131.748 E55.35799
G0 F6000 X115.909 Y131.748
G1 F1200 X103.25 Y119.089 E55.8403
G0 F6000 X103.25 Y119.655
G1 F1200 X115.343 Y131.748 E56.30104
G0 F6000 X114.778 Y131.748
G1 F1200 X103.25 Y120.22 E56.74026
G0 F6000 X103.25 Y120.786
G1 F1200 X114.212 Y131.748 E57.15791
G0 F6000 X113.646 Y131.748
G1 F1200 X103.25 Y121.352 E57.554
G0 F6000 X103.25 Y121.917
G1 F1200 X113.081 Y131.748 E57.92856
G0 F6000 X112.515 Y131.748
G1 F1200 X103.25 Y122.483 E58.28155
G0 F6000 X103.25 Y123.049
G1 F1200 X111.949 Y131.748 E58.61298
G0 F6000 X111.384 Y131.748
G1 F1200 X103.25 Y123.614 E58.92289
G0 F6000 X103.25 Y124.18
G1 F1200 X110.818 Y131.748 E59.21123
G0 F6000 X110.252 Y131.748
G1 F1200 X103.25 Y124.746 E59.478
G0 F6000 X103.25 Y125.312
G1 F1200 X109.687 Y131.748 E59.72323
G0 F6000 X109.121 Y131.748
G1 F1200 X103.25 Y125.877 E59.94692
G0 F6000 X103.25 Y126.443
G1 F1200 X108.555 Y131.748 E60.14904
G0 F6000 X107.99 Y131.748
G1 F1200 X103.25 Y127.009 E60.32961
G0 F6000 X103.25 Y127.574
G1 F1200 X107.424 Y131.748 E60.48864
G0 F6000 X106.858 Y131.748
G1 F1200 X103.25 Y128.14 E60.62611
G0 F6000 X103.25 Y128.706
G1 F1200 X106.292 Y131.748 E60.74201
G0 F6000 X105.727 Y131.748
G1 F1200 X103.25 Y129.271 E60.83638
G0 F6000 X103.25 Y129.837
G1 F1200 X105.161 Y131.748 E60.90919
G0 F6000 X104.595 Y131.748
G1 F1200 X103.25 Y130.403 E60.96043
G0 F6000 X103.25 Y130.968
G1 F1200 X104.03 Y131.748 E60.99015
G0 F6000 X103.464 Y131.748
M104 S210
G1 F1200 X103.25 Y131.534 E60.99831
;MESH:NONMESH
G0 F300 X103.25 Y131.534 Z0.4
G0 F6000 X132.229 Y132.229
G0 X132.299 Y132.299
;TIME_ELAPSED:126.501831
;LAYER:1
M140 S70
M106 S85
;TYPE:WALL-OUTER
;MESH:Flow_Calibration_Cube.stl
G1 F1350 X102.701 Y132.299 E61.8843
G1 X102.701 Y102.701 E62.77029
G1 X132.299 Y102.701 E63.65628
G1 X132.299 Y132.299 E64.54227
G0 F7500 X131.909 Y131.909
;TYPE:SKIN
G1 F1350 X103.091 Y131.909 E65.40491
G1 X103.091 Y103.091 E66.26755
G1 X131.909 Y103.091 E67.13019
G1 X131.909 Y131.909 E67.99283
G0 F7500 X131.294 Y131.748
G1 F1350 X131.748 Y131.294 E68.01205
G0 F7500 X131.748 Y130.729
G1 F1350 X130.729 Y131.748 E68.05519
G0 F7500 X130.163 Y131.748
G1 F1350 X131.748 Y130.163 E68.12229
G0 F7500 X131.748 Y129.597
G1 F1350 X129.597 Y131.748 E68.21335
G0 F7500 X129.032 Y131.748
G1 F1350 X131.748 Y129.032 E68.32832
G0 F7500 X131.748 Y128.466
G1 F1350 X128.466 Y131.748 E68.46726
G0 F7500 X127.9 Y131.748
G1 F1350 X131.748 Y127.9 E68.63016
G0 F7500 X131.748 Y127.335
G1 F1350 X127.335 Y131.748 E68.81698
G0 F7500 X126.769 Y131.748
G1 F1350 X131.748 Y126.769 E69.02775
G0 F7500 X131.748 Y126.203
G1 F1350 X126.203 Y131.748 E69.26249
G0 F7500 X125.638 Y131.748
G1 F1350 X131.748 Y125.638 E69.52115
G0 F7500 X131.748 Y125.072
G1 F1350 X125.072 Y131.748 E69.80376
G0 F7500 X124.506 Y131.748
G1 F1350 X131.748 Y124.506 E70.11034
G0 F7500 X131.748 Y123.94
G1 F1350 X123.94 Y131.748 E70.44088
G0 F7500 X123.375 Y131.748
G1 F1350 X131.748 Y123.375 E70.79533
G0 F7500 X131.748 Y122.809
G1 F1350 X122.809 Y131.748 E71.17375
G0 F7500 X122.243 Y131.748
G1 F1350 X131.748 Y122.243 E71.57613
G0 F7500 X131.748 Y121.678
G1 F1350 X121.678 Y131.748 E72.00242
G0 F7500 X121.112 Y131.748
G1 F1350 X131.748 Y121.112 E72.45268
G0 F7500 X131.748 Y120.546
G1 F1350 X120.546 Y131.748 E72.9269
G0 F7500 X119.981 Y131.748
G1 F1350 X131.748 Y119.981 E73.42503
G0 F7500 X131.748 Y119.415
G1 F1350 X119.415 Y131.748 E73.94713
G0 F7500 X118.849 Y131.748
G1 F1350 X131.748 Y118.849 E74.49319
G0 F7500 X131.748 Y118.284
G1 F1350 X118.284 Y131.748 E75.06316
G0 F7500 X117.718 Y131.748
G1 F1350 X131.748 Y117.718 E75.6571
G0 F7500 X131.748 Y117.152
G1 F1350 X117.152 Y131.748 E76.27499
G0 F7500 X116.587 Y131.748
G1 F1350 X131.748 Y116.587 E76.91681
G0 F7500 X131.748 Y116.021
G1 F1350 X116.021 Y131.748 E77.58258
G0 F7500 X115.455 Y131.748
G1 F1350 X131.748 Y115.455 E78.27232
G0 F7500 X131.748 Y114.89
G1 F1350 X114.89 Y131.748 E78.98597
G0 F7500 X114.324 Y131.748
G1 F1350 X131.748 Y114.324 E79.72358
G0 F7500 X131.748 Y113.758
G1 F1350 X113.758 Y131.748 E80.48516
G0 F7500 X113.192 Y131.748
G1 F1350 X131.748 Y113.192 E81.2707
G0 F7500 X131.748 Y112.627
G1 F1350 X112.627 Y131.748 E82.08015
G0 F7500 X112.061 Y131.748
G1 F1350 X131.748 Y112.061 E82.91356
G0 F7500 X131.748 Y111.495
G1 F1350 X111.495 Y131.748 E83.77094
G0 F7500 X110.93 Y131.748
G1 F1350 X131.748 Y110.93 E84.65223
G0 F7500 X131.748 Y110.364
G1 F1350 X110.364 Y131.748 E85.55749
G0 F7500 X109.798 Y131.748
G1 F1350 X131.748 Y109.798 E86.4867
G0 F7500 X131.748 Y109.233
G1 F1350 X109.233 Y131.748 E87.43983
G0 F7500 X108.667 Y131.748
G1 F1350 X131.748 Y108.667 E88.41693
G0 F7500 X131.748 Y108.101
G1 F1350 X108.101 Y131.748 E89.41798
G0 F7500 X107.536 Y131.748
G1 F1350 X131.748 Y107.536 E90.44295
G0 F7500 X131.748 Y106.97
G1 F1350 X106.97 Y131.748 E91.49189
G0 F7500 X106.404 Y131.748
G1 F1350 X131.748 Y106.404 E92.56478
G0 F7500 X131.748 Y105.839
G1 F1350 X105.839 Y131.748 E93.66159
G0 F7500 X105.273 Y131.748
G1 F1350 X131.748 Y105.273 E94.78237
G0 F7500 X131.748 Y104.707
G1 F1350 X104.707 Y131.748 E95.9271
G0 F7500 X104.141 Y131.748
G1 F1350 X131.748 Y104.141 E97.09579
G0 F7500 X131.748 Y103.576
G1 F1350 X103.576 Y131.748 E98.2884
G0 F7500 X103.251 Y131.508
G1 F1350 X131.509 Y103.25 E99.48466
G0 F7500 X130.943 Y103.25
G1 F1350 X103.251 Y130.942 E100.65695
G0 F7500 X103.251 Y130.377
G1 F1350 X130.377 Y103.25 E101.8053
G0 F7500 X129.812 Y103.25
G1 F1350 X103.251 Y129.811 E102.92971
G0 F7500 X103.251 Y129.245
G1 F1350 X129.246 Y103.25 E104.03017
G0 F7500 X128.68 Y103.25
G1 F1350 X103.251 Y128.679 E105.10666
G0 F7500 X103.251 Y128.114
G1 F1350 X128.115 Y103.25 E106.15923
G0 F7500 X127.549 Y103.25
G1 F1350 X103.251 Y127.548 E107.18785
G0 F7500 X103.251 Y126.982
G1 F1350 X126.983 Y103.25 E108.1925
G0 F7500 X126.417 Y103.25
G1 F1350 X103.251 Y126.417 E109.17321
G0 F7500 X103.251 Y125.851
G1 F1350 X125.852 Y103.25 E110.12999
G0 F7500 X125.286 Y103.25
G1 F1350 X103.251 Y125.285 E111.0628
G0 F7500 X103.251 Y124.72
G1 F1350 X124.72 Y103.25 E111.97167
G0 F7500 X124.155 Y103.25
G1 F1350 X103.251 Y124.154 E112.85661
G0 F7500 X103.251 Y123.588
G1 F1350 X123.589 Y103.25 E113.71758
G0 F7500 X123.023 Y103.25
G1 F1350 X103.251 Y123.023 E114.55461
G0 F7500 X103.251 Y122.457
G1 F1350 X122.458 Y103.25 E115.36771
G0 F7500 X121.892 Y103.25
G1 F1350 X103.251 Y121.891 E116.15684
G0 F7500 X103.251 Y121.326
G1 F1350 X121.326 Y103.25 E116.92204
G0 F7500 X120.761 Y103.25
G1 F1350 X103.251 Y120.76 E117.66329
G0 F7500 X103.251 Y120.194
G1 F1350 X120.195 Y103.25 E118.38059
G0 F7500 X119.629 Y103.25
G1 F1350 X103.251 Y119.629 E119.07394
G0 F7500 X103.251 Y119.063
G1 F1350 X119.064 Y103.25 E119.74336
G0 F7500 X118.498 Y103.25
G1 F1350 X103.251 Y118.497 E120.38881
G0 F7500 X103.251 Y117.931
G1 F1350 X117.932 Y103.25 E121.01031
G0 F7500 X117.366 Y103.25
G1 F1350 X103.251 Y117.366 E121.60786
G0 F7500 X103.251 Y116.8
G1 F1350 X116.801 Y103.25 E122.18148
G0 F7500 X116.235 Y103.25
G1 F1350 X103.251 Y116.234 E122.73113
G0 F7500 X103.251 Y115.669
G1 F1350 X115.669 Y103.25 E123.25685
G0 F7500 X115.104 Y103.25
G1 F1350 X103.251 Y115.103 E123.75862
G0 F7500 X103.251 Y114.537
G1 F1350 X114.538 Y103.25 E124.23644
G0 F7500 X113.972 Y103.25
G1 F1350 X103.251 Y113.972 E124.69031
G0 F7500 X103.251 Y113.406
G1 F1350 X113.407 Y103.25 E125.12025
G0 F7500 X112.841 Y103.25
G1 F1350 X103.251 Y112.84 E125.52622
G0 F7500 X103.251 Y112.275
G1 F1350 X112.275 Y103.25 E125.90826
G0 F7500 X111.71 Y103.25
G1 F1350 X103.251 Y111.709 E126.26636
G0 F7500 X103.251 Y111.143
G1 F1350 X111.144 Y103.25 E126.60049
G0 F7500 X110.578 Y103.25
G1 F1350 X103.251 Y110.578 E126.91069
G0 F7500 X103.251 Y110.012
G1 F1350 X110.013 Y103.25 E127.19695
G0 F7500 X109.447 Y103.25
G1 F1350 X103.251 Y109.446 E127.45925
G0 F7500 X103.251 Y108.881
G1 F1350 X108.881 Y103.25 E127.6976
G0 F7500 X108.316 Y103.25
G1 F1350 X103.251 Y108.315 E127.91202
G0 F7500 X103.251 Y107.749
G1 F1350 X107.75 Y103.25 E128.10248
G0 F7500 X107.184 Y103.25
G1 F1350 X103.251 Y107.183 E128.26897
G0 F7500 X103.251 Y106.618
G1 F1350 X106.618 Y103.25 E128.41153
G0 F7500 X106.053 Y103.25
G1 F1350 X103.251 Y106.052 E128.53015
G0 F7500 X103.251 Y105.486
G1 F1350 X105.487 Y103.25 E128.62481
G0 F7500 X104.921 Y103.25
G1 F1350 X103.251 Y104.921 E128.69552
G0 F7500 X103.251 Y104.355
G1 F1350 X104.356 Y103.25 E128.7423
G0 F7500 X103.79 Y103.25
G1 F1350 X103.251 Y103.789 E128.76512
G1 F2700 E123.76512
;MESH:NONMESH
G0 F300 X103.251 Y103.789 Z0.6
G0 F7500 X132.229 Y132.229
G0 X132.299 Y132.299
;TIME_ELAPSED:236.310655
;LAYER:2
M106 S170
;TYPE:WALL-OUTER
;MESH:Flow_Calibration_Cube.stl
G1 F2700 E128.76512
G1 F1500 X102.701 Y132.299 E129.65111
G1 X102.701 Y102.701 E130.5371
G1 X132.299 Y102.701 E131.42309
G1 X132.299 Y132.299 E132.30908
G0 F9000 X131.909 Y131.909
;TYPE:SKIN
G1 F1500 X103.091 Y131.909 E133.17172
G1 X103.091 Y103.091 E134.03436
G1 X131.909 Y103.091 E134.89701
G1 X131.909 Y131.909 E135.75965
G0 F9000 X131.748 Y103.464
G1 F1500 X131.535 Y103.251 E135.76866
G0 F9000 X130.969 Y103.251
G1 F1500 X131.748 Y104.03 E135.80164
G0 F9000 X131.748 Y104.595
G1 F1500 X130.403 Y103.251 E135.85856
G0 F9000 X129.838 Y103.251
G1 F1500 X131.748 Y105.161 E135.93941
G0 F9000 X131.748 Y105.727
G1 F1500 X129.272 Y103.251 E136.04423
G0 F9000 X128.706 Y103.251
G1 F1500 X131.748 Y106.292 E136.17299
G0 F9000 X131.748 Y106.858
G1 F1500 X128.141 Y103.251 E136.32568
G0 F9000 X127.575 Y103.251
G1 F1500 X131.748 Y107.424 E136.50234
G0 F9000 X131.748 Y107.99
G1 F1500 X127.009 Y103.251 E136.70296
G0 F9000 X126.444 Y103.251
G1 F1500 X131.748 Y108.555 E136.92749
G0 F9000 X131.748 Y109.121
G1 F1500 X125.878 Y103.251 E137.17599
G0 F9000 X125.312 Y103.251
G1 F1500 X131.748 Y109.687 E137.44845
G0 F9000 X131.748 Y110.252
G1 F1500 X124.747 Y103.251 E137.74482
