;FLAVOR:Marlin
;TIME:13241
;Filament used: 7.5827m
;Layer height: 0.2
;MINX:87.835
;MINY:103.91
;MINZ:0.2
;MAXX:147.161
;MAXY:131.09
;MAXZ:43.4
;Generated with Cura_SteamEngine master
M82 ;absolute extrusion mode
; Ender 3 Custom Start G-code
M140 S75 ; Set Heat Bed temperature
M104 S160 ; start warming extruder to 160
G28 ; Home all axes
G29 ; Auto bed-level (BL-Touch)
G92 E0 ; Reset Extruder
M190 S75 ; Wait for Heat Bed temperature
M104 S210 ; Set Extruder temperature
G1 X0 Y0 Z0.3 F5000.0 ; Move to 0 0
M109 S210 ; Wait for Extruder temperature
G1 X1 Y20 Z0.3 F5000.0 ; Move to start position
; G1 Z2.0 F3000 ; Move Z Axis up little to prevent scratching of Heat Bed
G1 X3 Y200.0 Z0.3 F1500.0 E15 ; Draw the first line
G1 X3.3 Y200.0 Z0.3 F5000.0 ; Move to side a little
G1 X3.3 Y20 Z0.3 F1500.0 E30 ; Draw the second line
G92 E0 ; Reset Extruder
G1 Z2.0 F3000 ; Move Z Axis up little to prevent scratching of Heat Bed
G92 E0
G92 E0
G1 F2700 E-5
;LAYER_COUNT:217
;LAYER:0
M107
M204 S500
M205 X8 Y8
G0 F6000 X136.816 Y123.375 Z0.2
;TYPE:SKIRT
G1 F2700 E0
G1 F1200 X141.002 Y123.375 E0.12565
G1 X141.002 Y123.421 E0.12703
G1 X140.944 Y123.434 E0.12882
G1 X140.429 Y123.63 E0.14536
G1 X139.948 Y123.898 E0.16189
G1 X139.345 Y124.388 E0.18521
G1 X139.063 Y124.67 E0.19718
G1 X138.999 Y124.745 E0.20014
G1 X138.938 Y124.67 E0.20304
G1 X138.656 Y124.388 E0.21501
G1 X138.239 Y124.028 E0.23155
G1 X137.775 Y123.731 E0.24809
G1 X137.272 Y123.505 E0.26464
G1 X136.816 Y123.375 E0.27887
G0 F6000 X136.55 Y123.725
G1 F1200 X135.969 Y123.675 E0.29638
G1 X134.802 Y123.675 E0.33141
G1 X134.801 Y122.975 E0.35242
G1 X141.401 Y122.975 E0.55053
G1 X141.402 Y123.741 E0.57353
G1 X141.005 Y123.834 E0.58577
G1 X140.522 Y124.029 E0.6014
G1 X140.074 Y124.295 E0.61704
G1 X139.628 Y124.671 E0.63455
G1 X139.346 Y124.953 E0.64652
G1 X139.007 Y125.349 E0.66217
G1 X138.999 Y125.361 E0.6626
G1 X138.655 Y124.953 E0.67862
G1 X138.373 Y124.671 E0.69059
G1 X137.977 Y124.332 E0.70624
G1 X137.535 Y124.057 E0.72187
G1 X137.055 Y123.853 E0.73752
G1 X136.55 Y123.725 E0.75316
G0 F6000 X136.842 Y124.205
G1 F1200 X136.364 Y124.101 E0.76784
G1 X135.969 Y124.075 E0.77973
G1 X134.402 Y124.075 E0.82676
G1 X134.401 Y122.575 E0.87179
G1 X141.801 Y122.575 E1.09392
G1 X141.802 Y124.094 E1.13951
G1 X141.544 Y124.115 E1.14728
G1 X141.069 Y124.234 E1.16198
G1 X140.62 Y124.428 E1.17666
G1 X140.208 Y124.693 E1.19137
G1 X139.911 Y124.954 E1.20324
G1 X139.629 Y125.236 E1.21521
G1 X139.312 Y125.609 E1.2299
G1 X139.06 Y126.029 E1.2446
G1 X139 Y126.181 E1.24951
G1 X138.898 Y125.945 E1.25723
G1 X138.633 Y125.533 E1.27193
G1 X138.372 Y125.236 E1.2838
G1 X138.09 Y124.954 E1.29577
G1 X137.717 Y124.637 E1.31046
G1 X137.297 Y124.385 E1.32517
G1 X136.842 Y124.205 E1.33986
G0 F6000 X136.635 Y124.562
G1 F1200 X135.969 Y124.475 E1.36002
G1 X134.002 Y124.475 E1.41906
G1 X134.001 Y122.175 E1.4881
G1 X142.201 Y122.175 E1.73424
G1 X142.202 Y124.475 E1.80328
G1 X142.032 Y124.475 E1.80838
G1 X141.578 Y124.515 E1.82207
G1 X141.138 Y124.633 E1.83574
G1 X140.726 Y124.827 E1.84941
G1 X140.194 Y125.237 E1.86957
G1 X139.912 Y125.519 E1.88154
G1 X139.619 Y125.868 E1.89522
G1 X139.392 Y126.263 E1.9089
G1 X139.237 Y126.691 E1.92256
G1 X139.15 Y127.357 E1.94272
G1 X139.15 Y127.825 E1.95677
G1 X138.851 Y127.825 E1.96574
G1 X138.851 Y127.357 E1.97979
G1 X138.811 Y126.903 E1.99347
G1 X138.693 Y126.463 E2.00715
G1 X138.499 Y126.051 E2.02082
G1 X138.089 Y125.519 E2.04098
G1 X137.807 Y125.237 E2.05295
G1 X137.458 Y124.944 E2.06663
G1 X137.063 Y124.717 E2.0803
G1 X136.635 Y124.562 E2.09397
G0 F6000 X136.434 Y124.925
G1 F1200 X135.969 Y124.875 E2.108
G1 X133.602 Y124.875 E2.17906
G1 X133.601 Y121.775 E2.27211
G1 X142.601 Y121.775 E2.54226
G1 X142.602 Y124.875 E2.63532
G1 X142.032 Y124.875 E2.65243
G1 X141.615 Y124.915 E2.665
G1 X141.213 Y125.033 E2.67758
G1 X140.841 Y125.226 E2.69016
G1 X140.476 Y125.519 E2.70421
G1 X140.194 Y125.801 E2.71618
G1 X139.928 Y126.125 E2.72876
G1 X139.727 Y126.492 E2.74132
G1 X139.6 Y126.892 E2.75392
G1 X139.55 Y127.357 E2.76796
G1 X139.55 Y128.225 E2.79401
G1 X138.451 Y128.225 E2.827
G1 X138.451 Y127.357 E2.85306
G1 X138.411 Y126.94 E2.86563
G1 X138.293 Y126.538 E2.87821
G1 X138.1 Y126.166 E2.89079
G1 X137.807 Y125.801 E2.90484
G1 X137.525 Y125.519 E2.91681
G1 X137.201 Y125.253 E2.92939
G1 X136.834 Y125.052 E2.94195
G1 X136.434 Y124.925 E2.95455
G0 F6000 X136.243 Y125.296
G1 F1200 X135.969 Y125.275 E2.9628
G1 X133.202 Y125.275 E3.04586
G1 X133.201 Y121.375 E3.16292
G1 X143.001 Y121.375 E3.45709
G1 X143.002 Y125.275 E3.57416
G1 X142.032 Y125.275 E3.60328
G1 X141.655 Y125.315 E3.61466
G1 X141.295 Y125.433 E3.62603
G1 X140.968 Y125.623 E3.63738
G1 X140.759 Y125.802 E3.64564
G1 X140.477 Y126.084 E3.65761
G1 X140.239 Y126.379 E3.66899
G1 X140.068 Y126.717 E3.68036
G1 X139.971 Y127.083 E3.69173
G1 X139.95 Y127.357 E3.69998
G1 X139.95 Y128.625 E3.73804
G1 X138.051 Y128.625 E3.79504
G1 X138.051 Y127.357 E3.8331
G1 X138.011 Y126.98 E3.84448
G1 X137.893 Y126.62 E3.85585
G1 X137.703 Y126.293 E3.86721
G1 X137.524 Y126.084 E3.87547
G1 X137.242 Y125.802 E3.88744
G1 X136.947 Y125.564 E3.89882
G1 X136.609 Y125.393 E3.91019
G1 X136.243 Y125.296 E3.92155
G0 F6000 X136.392 Y125.74
G1 F1200 X135.969 Y125.675 E3.9344
G1 X132.802 Y125.675 E4.02946
G1 X132.801 Y120.975 E4.17054
G1 X143.401 Y120.975 E4.48873
G1 X143.402 Y125.675 E4.62981
G1 X142.032 Y125.675 E4.67093
G1 X141.7 Y125.715 E4.68097
G1 X141.388 Y125.832 E4.69097
G1 X141.042 Y126.085 E4.70384
G1 X140.76 Y126.367 E4.71581
G1 X140.554 Y126.63 E4.72584
G1 X140.415 Y126.934 E4.73587
G1 X140.35 Y127.357 E4.74872
G1 X140.35 Y129.025 E4.79879
G1 X137.651 Y129.025 E4.8798
G1 X137.651 Y127.357 E4.92987
G1 X137.611 Y127.025 E4.93991
G1 X137.494 Y126.713 E4.94991
G1 X137.241 Y126.367 E4.96278
G1 X136.959 Y126.085 E4.97475
G1 X136.696 Y125.879 E4.98478
G1 X136.392 Y125.74 E4.99481
G0 F6000 X136.186 Y126.099
G1 F1200 X135.969 Y126.075 E5.00136
G1 X132.402 Y126.075 E5.10844
G1 X132.401 Y120.575 E5.27353
G1 X143.801 Y120.575 E5.61573
G1 X143.802 Y126.075 E5.78082
G1 X142.032 Y126.075 E5.83395
G1 X141.753 Y126.115 E5.84241
G1 X141.496 Y126.231 E5.85088
G1 X141.325 Y126.368 E5.85746
G1 X141.043 Y126.65 E5.86943
G1 X140.874 Y126.876 E5.8779
G1 X140.774 Y127.14 E5.88637
G1 X140.75 Y127.357 E5.89292
G1 X140.75 Y129.425 E5.955
G1 X137.251 Y129.425 E6.06003
G1 X137.251 Y127.357 E6.12211
G1 X137.211 Y127.078 E6.13057
G1 X137.095 Y126.821 E6.13903
G1 X136.958 Y126.65 E6.14561
G1 X136.676 Y126.368 E6.15758
G1 X136.45 Y126.199 E6.16605
G1 X136.186 Y126.099 E6.17452
G0 F6000 X136.214 Y126.527
G1 F1200 X135.969 Y126.475 E6.18204
G1 X132.002 Y126.475 E6.30112
G1 X132.001 Y120.175 E6.49023
G1 X144.201 Y120.175 E6.85644
G1 X144.202 Y126.475 E7.04555
G1 X142.032 Y126.475 E7.11069
G1 X141.817 Y126.515 E7.11725
G1 X141.608 Y126.651 E7.12474
G1 X141.326 Y126.933 E7.13671
G1 X141.202 Y127.112 E7.14324
G1 X141.15 Y127.357 E7.15076
G1 X141.15 Y129.825 E7.22484
G1 X136.851 Y129.825 E7.35389
G1 X136.851 Y127.357 E7.42797
G1 X136.811 Y127.142 E7.43454
G1 X136.675 Y126.933 E7.44202
G1 X136.393 Y126.651 E7.45399
G1 X136.214 Y126.527 E7.46053
G0 F6000 X135.969 Y126.875
G1 F1200 X131.602 Y126.875 E7.59161
G1 X131.601 Y119.775 E7.80474
G1 X144.532 Y119.775 E8.19289
G1 X144.601 Y119.844 E8.19582
G1 X144.602 Y126.875 E8.40687
G1 X142.032 Y126.875 E8.48401
G1 X141.891 Y126.934 E8.4886
G1 X141.609 Y127.216 E8.50057
G1 X141.55 Y127.357 E8.50516
G1 X141.55 Y130.225 E8.59125
G1 X136.603 Y130.225 E8.73975
G1 X136.451 Y130.074 E8.74618
G1 X136.451 Y127.357 E8.82773
G1 X136.392 Y127.216 E8.83232
G1 X136.11 Y126.934 E8.84429
G1 X135.969 Y126.875 E8.84888
G1 F2700 E3.84888
G0 F6000 X130.759 Y127.736
G0 X127.846 Y127.736
G0 X127.003 Y126.875
G1 F2700 E8.84888
G1 F1200 X122.997 Y126.875 E8.96913
G1 X122.997 Y118.572 E9.21836
G1 X127.003 Y118.572 E9.33861
G1 X127.003 Y126.875 E9.58785
G0 F6000 X126.603 Y126.475
G1 F1200 X123.397 Y126.475 E9.68408
G1 X123.397 Y118.972 E9.9093
G1 X126.603 Y118.972 E10.00554
G1 X126.603 Y126.475 E10.23076
G0 F6000 X126.203 Y126.075
G1 F1200 X123.797 Y126.075 E10.30298
G1 X123.797 Y119.372 E10.50418
G1 X126.203 Y119.372 E10.57641
G1 X126.203 Y126.075 E10.77761
G0 F6000 X125.803 Y125.675
G1 F1200 X124.197 Y125.675 E10.82582
G1 X124.197 Y119.772 E11.00301
G1 X125.803 Y119.772 E11.05122
G1 X125.803 Y125.675 E11.22841
G0 F6000 X125.403 Y125.275
G1 F1200 X124.597 Y125.275 E11.25261
G1 X124.597 Y120.172 E11.40578
G1 X125.403 Y120.172 E11.42998
G1 X125.403 Y125.275 E11.58316
G0 F6000 X125.003 Y124.875
G1 F1200 X124.997 Y124.875 E11.58334
G1 X124.997 Y120.572 E11.7125
G1 X125.003 Y120.572 E11.71268
G1 X125.003 Y124.875 E11.84184
G1 F2700 E6.84184
G0 F6000 X122.154 Y127.736
G0 X101.55 Y128.075
G1 F2700 E11.84184
G1 F1200 X101.55 Y130.225 E11.90638
G1 X96.579 Y130.225 E12.0556
G1 X96.455 Y130.101 E12.06086
G1 X96.452 Y127.821 E12.1293
G1 X96.647 Y128.016 E12.13758
G1 X96.788 Y128.075 E12.14217
G1 X98.505 Y128.075 E12.19371
G1 X98.642 Y128.254 E12.20047
G1 X98.801 Y128.332 E12.20579
G1 X99.199 Y128.332 E12.21774
G1 X99.358 Y128.254 E12.22305
G1 X99.495 Y128.075 E12.22982
G1 X101.55 Y128.075 E12.2915
G0 F6000 X101.15 Y128.475
G1 F1200 X101.15 Y129.825 E12.33203
G1 X96.855 Y129.825 E12.46095
G1 X96.853 Y128.475 E12.50147
G1 X98.308 Y128.475 E12.54515
G1 X98.487 Y128.643 E12.55252
G1 X98.801 Y128.732 E12.56231
G1 X99.199 Y128.732 E12.57426
G1 X99.414 Y128.692 E12.58083
G1 X99.675 Y128.497 E12.59061
G1 X99.692 Y128.475 E12.59144
G1 X101.15 Y128.475 E12.63521
G0 F6000 X100.75 Y128.875
G1 F1200 X100.75 Y129.425 E12.65171
G1 X97.254 Y129.425 E12.75666
G1 X97.254 Y128.875 E12.77316
G1 X98.145 Y128.875 E12.79991
G1 X98.209 Y128.938 E12.80261
G1 X98.458 Y129.071 E12.81108
G1 X98.801 Y129.132 E12.82154
G1 X99.199 Y129.132 E12.83348
G1 X99.478 Y129.092 E12.84194
G1 X99.735 Y128.976 E12.85041
G1 X99.845 Y128.875 E12.85489
G1 X100.75 Y128.875 E12.88206
G1 F2700 E7.88206
G0 F6000 X96.845 Y127.736
G0 X96.002 Y126.888
G1 F2700 E12.88206
G1 F1200 X95.97 Y126.875 E12.88309
G1 X91.997 Y126.875 E13.00235
G1 X91.997 Y118.572 E13.25159
G1 X96.002 Y118.572 E13.3718
G1 X96.002 Y126.888 E13.62143
G0 F6000 X95.602 Y126.475
G1 F1200 X92.397 Y126.475 E13.71763
G1 X92.397 Y118.972 E13.94285
G1 X95.602 Y118.972 E14.03906
G1 X95.602 Y126.475 E14.26428
G0 F6000 X95.202 Y126.075
G1 F1200 X92.797 Y126.075 E14.33647
G1 X92.797 Y119.372 E14.53768
G1 X95.202 Y119.372 E14.60987
G1 X95.202 Y126.075 E14.81107
G0 F6000 X94.802 Y125.675
G1 F1200 X93.197 Y125.675 E14.85925
G1 X93.197 Y119.772 E15.03644
G1 X94.802 Y119.772 E15.08462
G1 X94.802 Y125.675 E15.26181
G0 F6000 X94.402 Y125.275
G1 F1200 X93.597 Y125.275 E15.28598
G1 X93.597 Y120.172 E15.43915
G1 X94.402 Y120.172 E15.46332
G1 X94.402 Y125.275 E15.6165
G0 F6000 X94.002 Y124.875
G1 F1200 X93.997 Y124.875 E15.61665
G1 X93.997 Y120.572 E15.74581
G1 X94.002 Y120.572 E15.74596
G1 X94.002 Y124.875 E15.87512
G1 F2700 E10.87512
G0 F6000 X96.845 Y127.736
G0 X130.759 Y127.736
G0 X137.997 Y124.386
G0 X138.608 Y123.775
;TYPE:SUPPORT
G1 F2700 E15.87512
G1 F1200 X139.392 Y123.775 E15.89866
G1 X139 Y124.167 E15.9153
G1 X138.608 Y123.775 E15.93194
G1 F2700 E10.93194
;MESH:adapter.stl
G0 F6000 X137.997 Y124.386
G0 X131.266 Y123.775
G0 X130.001 Y123.776
G0 X128.631 Y116.944
G0 X121.369 Y116.944
G0 X120.597 Y125.675
;TYPE:WALL-INNER
G1 F2700 E15.93194
G1 F1200 X98.402 Y125.675 E16.59817
G1 X98.402 Y116.172 E16.88343
G1 X89.9 Y116.172 E17.13863
G1 X89.9 Y106.489 E17.42929
G1 X95.847 Y106.489 E17.6078
G1 X95.847 Y111.654 E17.76284
G1 X101.668 Y117.477 E18.00999
G1 X105.332 Y117.477 E18.11998
G1 X111.152 Y111.654 E18.3671
G1 X111.152 Y106.688 E18.51617
G1 X111.152 Y106.489 E18.52214
G1 X111.351 Y106.489 E18.52601
G1 X129.1 Y106.49 E19.05878
G1 X129.1 Y116.172 E19.34941
G1 X120.597 Y116.172 E19.60465
G1 X120.597 Y125.675 E19.8899
G0 F6000 X121.369 Y116.944
G0 X128.631 Y116.944
G0 X129.602 Y126.075
G1 F1200 X129.403 Y126.075 E19.89588
G1 X129.003 Y126.075 E19.90788
G1 X129.003 Y116.572 E20.19314
G1 X120.997 Y116.572 E20.43345
G1 X120.997 Y126.075 E20.71871
G1 X98.002 Y126.075 E21.40896
G1 X98.002 Y116.572 E21.69421
G1 X89.997 Y116.572 E21.9345
G1 X89.997 Y126.075 E22.21975
G1 X89.5 Y126.075 E22.23467
G1 X89.5 Y106.089 E22.8346
G1 X96.247 Y106.089 E23.03712
G1 X96.247 Y111.488 E23.19919
G1 X101.834 Y117.077 E23.4364
G1 X105.166 Y117.077 E23.53642
G1 X110.752 Y111.488 E23.77361
G1 X110.752 Y106.288 E23.9297
G1 X110.752 Y106.089 E23.93568
G1 X110.951 Y106.089 E23.93954
G1 X129.5 Y106.09 E24.49633
G1 X129.5 Y120.575 E24.93113
G1 X129.601 Y120.575 E24.93416
G1 X129.602 Y125.876 E25.09328
G1 X129.602 Y126.075 E25.09715
G0 F6000 X130.002 Y126.475
G1 F1200 X129.803 Y126.475 E25.10312
G1 X128.603 Y126.475 E25.13914
G1 X128.603 Y116.972 E25.4244
G1 X121.397 Y116.972 E25.6407
G1 X121.397 Y126.475 E25.92596
G1 X97.602 Y126.475 E26.64022
G1 X97.602 Y116.972 E26.92547
G1 X90.397 Y116.972 E27.14175
G1 X90.397 Y126.475 E27.427
G1 X89.1 Y126.475 E27.46593
G1 X89.1 Y105.689 E28.08987
G1 X96.647 Y105.689 E28.31641
G1 X96.647 Y111.322 E28.4855
G1 X102 Y116.677 E28.71278
G1 X105 Y116.677 E28.80283
G1 X110.352 Y111.322 E29.03009
G1 X110.352 Y105.888 E29.19321
G1 X110.352 Y105.689 E29.19918
G1 X110.551 Y105.689 E29.20305
G1 X129.9 Y105.69 E29.78385
G1 X129.9 Y120.175 E30.21865
G1 X130.001 Y120.175 E30.22168
G1 X130.002 Y126.276 E30.40482
G1 X130.002 Y126.475 E30.40868
G0 F6000 X130.402 Y126.875
;TYPE:WALL-OUTER
G1 F1200 X128.203 Y126.875 E30.47469
G1 X128.203 Y117.372 E30.75994
G1 X121.797 Y117.372 E30.95223
G1 X121.797 Y126.875 E31.23749
G1 X97.202 Y126.875 E31.97576
G1 X97.202 Y117.372 E32.26102
G1 X90.797 Y117.372 E32.45328
G1 X90.797 Y126.875 E32.73853
G1 X88.7 Y126.875 E32.80148
G1 X88.7 Y105.289 E33.44943
G1 X96.989 Y105.289 E33.69824
G1 X97.047 Y105.375 E33.70136
G1 X97.047 Y111.156 E33.87489
G1 X102.166 Y116.277 E34.09224
G1 X104.834 Y116.277 E34.17232
G1 X109.952 Y111.156 E34.38965
G1 X109.952 Y105.375 E34.56318
G1 X110.01 Y105.289 E34.56629
G1 X130.3 Y105.29 E35.17534
G1 X130.3 Y119.775 E35.61014
G1 X130.401 Y119.775 E35.61318
G1 X130.402 Y126.875 E35.8263
G0 F6000 X129.932 Y126.405
G0 X128.631 Y116.944
G0 X121.369 Y116.944
G0 X120.207 Y125.285
;TYPE:SKIN
G1 F1200 X98.792 Y125.285 E36.46912
G1 X98.792 Y115.782 E36.75437
G1 X90.29 Y115.782 E37.00958
G1 X90.29 Y106.879 E37.27682
G1 X95.457 Y106.879 E37.43192
G1 X95.457 Y111.816 E37.58012
G1 X101.506 Y117.867 E37.83694
G1 X105.494 Y117.867 E37.95665
G1 X111.542 Y111.816 E38.21346
G1 X111.542 Y106.879 E38.36165
G1 X128.71 Y106.88 E38.87699
G1 X128.71 Y115.782 E39.14421
G1 X120.207 Y115.782 E39.39944
G1 X120.207 Y125.285 E39.6847
G0 F6000 X121.369 Y116.944
G0 X128.549 Y107.618
G1 F1200 X127.97 Y107.04 E39.70925
G0 F6000 X127.405 Y107.04
G1 F1200 X128.549 Y108.184 E39.75782
G0 F6000 X128.549 Y108.75
G1 F1200 X126.839 Y107.04 E39.83041
G0 F6000 X126.273 Y107.04
G1 F1200 X128.549 Y109.315 E39.92701
G0 F6000 X128.549 Y109.881
G1 F1200 X125.708 Y107.04 E40.04761
G0 F6000 X125.142 Y107.04
G1 F1200 X128.549 Y110.447 E40.19224
G0 F6000 X128.549 Y111.012
G1 F1200 X124.576 Y107.04 E40.36087
G0 F6000 X124.01 Y107.04
G1 F1200 X128.549 Y111.578 E40.55354
G0 F6000 X128.549 Y112.144
G1 F1200 X123.445 Y107.04 E40.77021
G0 F6000 X122.879 Y107.04
G1 F1200 X128.549 Y112.709 E41.01088
G0 F6000 X128.549 Y113.275
G1 F1200 X122.313 Y107.04 E41.27558
G0 F6000 X121.748 Y107.04
G1 F1200 X128.549 Y113.841 E41.56429
G0 F6000 X128.549 Y114.407
G1 F1200 X121.182 Y107.04 E41.87703
G0 F6000 X120.616 Y107.04
G1 F1200 X128.549 Y114.972 E42.21377
G0 F6000 X128.549 Y115.538
G1 F1200 X120.05 Y107.039 E42.57456
G0 F6000 X119.484 Y107.039
G1 F1200 X128.066 Y115.621 E42.93887
G0 F6000 X127.501 Y115.621
G1 F1200 X118.919 Y107.039 E43.30318
G0 F6000 X118.353 Y107.039
G1 F1200 X126.935 Y115.621 E43.6675
G0 F6000 X126.369 Y115.621
G1 F1200 X117.787 Y107.039 E44.03181
G0 F6000 X117.222 Y107.039
G1 F1200 X125.804 Y115.621 E44.39612
G0 F6000 X125.238 Y115.621
G1 F1200 X116.656 Y107.039 E44.76044
G0 F6000 X116.09 Y107.039
G1 F1200 X124.672 Y115.621 E45.12475
G0 F6000 X124.107 Y115.621
