;FLAVOR:Marlin
;TIME:1835
;Filament used: 1.13879m
;Layer height: 0.2
;MINX:97.202
;MINY:97.202
;MINZ:0.2
;MAXX:137.798
;MAXY:137.798
;MAXZ:2.4
;Generated with Cura_SteamEngine master
M82 ;absolute extrusion mode
; Ender 3 Custom Start G-code
M140 S75 ; Set Heat Bed temperature
M104 S160 ; start warming extruder to 160
G28 ; Home all axes
G29 ; Auto bed-level (BL-Touch)
G92 E0 ; Reset Extruder
M190 S75 ; Wait for Heat Bed temperature
M104 S210 ; Set Extruder temperature
G1 X0 Y0 Z0.3 F5000.0 ; Move to 0 0
M109 S210 ; Wait for Extruder temperature
G1 X1 Y20 Z0.3 F5000.0 ; Move to start position
; G1 Z2.0 F3000 ; Move Z Axis up little to prevent scratching of Heat Bed
G1 X3 Y200.0 Z0.3 F1500.0 E15 ; Draw the first line
G1 X3.3 Y200.0 Z0.3 F5000.0 ; Move to side a little
G1 X3.3 Y20 Z0.3 F1500.0 E30 ; Draw the second line
G92 E0 ; Reset Extruder
G1 Z2.0 F3000 ; Move Z Axis up little to prevent scratching of Heat Bed
G92 E0
G92 E0
G1 F2700 E-5
;LAYER_COUNT:12
;LAYER:0
M107
M204 S500
M205 X8 Y8
;MESH:stepper_spacer.stl
G0 F6000 X136.028 Y134.56 Z0.2
;TYPE:WALL-INNER
G1 F2700 E0
G1 F1200 X136.236 Y134.039 E0.01684
G1 X136.269 Y133.957 E0.01949
G1 X136.39 Y133.323 E0.03887
G1 X136.39 Y132.933 E0.05057
G1 X136.39 Y132.677 E0.05826
G1 X136.269 Y132.043 E0.07763
G1 X136.202 Y131.875 E0.08306
G1 X136.028 Y131.44 E0.09713
G1 X135.677 Y130.893 E0.11663
G1 X135.231 Y130.428 E0.13597
G1 X134.704 Y130.05 E0.15544
G1 X134.112 Y129.78 E0.17497
G1 X133.484 Y129.627 E0.19438
G1 X132.835 Y129.598 E0.21388
G1 X132.198 Y129.691 E0.2332
G1 X131.584 Y129.9 E0.25267
G1 X131.02 Y130.226 E0.27222
G1 X130.535 Y130.65 E0.29156
G1 X130.134 Y131.156 E0.31094
G1 X129.837 Y131.735 E0.33047
G1 X129.653 Y132.356 E0.34992
G1 X129.593 Y133 E0.36933
G1 X129.653 Y133.645 E0.38878
G1 X129.837 Y134.268 E0.40827
G1 X130.134 Y134.844 E0.42773
G1 X130.535 Y135.35 E0.44711
G1 X131.02 Y135.774 E0.46645
G1 X131.584 Y136.1 E0.486
G1 X131.884 Y136.202 E0.49551
G1 X132.198 Y136.309 E0.50547
G1 X132.835 Y136.402 E0.52479
G1 X132.923 Y136.399 E0.52744
G1 X133.484 Y136.373 E0.54429
G1 X134.064 Y136.233 E0.5622
G1 X134.115 Y136.22 E0.56378
G1 X134.703 Y135.95 E0.58321
G1 X134.993 Y135.745 E0.59387
G1 X135.23 Y135.576 E0.6026
G1 X135.677 Y135.104 E0.62212
G1 X135.742 Y135.003 E0.62572
G1 X136.028 Y134.56 E0.64155
G0 F6000 X135.671 Y134.376
G1 F1200 X135.883 Y133.844 E0.65874
G1 X135.99 Y133.285 E0.67582
G1 X135.99 Y132.715 E0.69293
G1 X135.883 Y132.156 E0.71002
G1 X135.671 Y131.624 E0.72721
G1 X135.361 Y131.142 E0.74441
G1 X134.968 Y130.731 E0.76148
G1 X134.503 Y130.398 E0.77865
G1 X133.981 Y130.16 E0.79587
G1 X133.427 Y130.025 E0.81299
G1 X132.855 Y129.999 E0.83017
G1 X132.292 Y130.081 E0.84725
G1 X131.75 Y130.266 E0.86444
G1 X131.254 Y130.553 E0.88164
G1 X130.826 Y130.927 E0.89871
G1 X130.472 Y131.374 E0.91582
G1 X130.21 Y131.884 E0.93303
G1 X130.048 Y132.432 E0.95019
G1 X129.995 Y133 E0.96731
G1 X130.048 Y133.569 E0.98446
G1 X130.21 Y134.118 E1.00164
G1 X130.472 Y134.626 E1.0188
G1 X130.826 Y135.073 E1.03592
G1 X131.254 Y135.447 E1.05298
G1 X131.75 Y135.734 E1.07018
G1 X132.292 Y135.919 E1.08737
G1 X132.855 Y136.001 E1.10445
G1 X133.427 Y135.975 E1.12164
G1 X133.983 Y135.84 E1.13881
G1 X134.502 Y135.602 E1.15595
G1 X134.967 Y135.272 E1.17307
G1 X135.361 Y134.856 E1.19027
G1 X135.671 Y134.376 E1.20742
G0 F6000 X135.314 Y134.192
G1 F1200 X135.497 Y133.731 E1.22231
G1 X135.59 Y133.247 E1.2371
G1 X135.59 Y132.753 E1.25193
G1 X135.497 Y132.269 E1.26672
G1 X135.314 Y131.808 E1.28161
G1 X135.045 Y131.391 E1.29651
G1 X134.705 Y131.034 E1.3113
G1 X134.302 Y130.746 E1.32617
G1 X133.85 Y130.54 E1.34108
G1 X133.37 Y130.423 E1.35591
G1 X132.875 Y130.4 E1.37079
G1 X132.386 Y130.471 E1.38562
G1 X131.917 Y130.632 E1.40051
G1 X131.488 Y130.88 E1.41538
G1 X131.117 Y131.204 E1.43017
G1 X130.81 Y131.592 E1.44502
G1 X130.583 Y132.033 E1.45991
G1 X130.443 Y132.508 E1.47477
G1 X130.397 Y133 E1.4896
G1 X130.443 Y133.493 E1.50447
G1 X130.583 Y133.968 E1.51933
G1 X130.81 Y134.408 E1.53419
G1 X131.117 Y134.796 E1.54904
G1 X131.488 Y135.12 E1.56383
G1 X131.917 Y135.368 E1.5787
G1 X132.386 Y135.529 E1.59359
G1 X132.875 Y135.6 E1.60842
G1 X133.37 Y135.577 E1.62329
G1 X133.851 Y135.46 E1.63815
G1 X134.301 Y135.254 E1.65301
G1 X134.704 Y134.968 E1.66784
G1 X135.045 Y134.608 E1.68273
G1 X135.314 Y134.192 E1.6976
G0 F6000 X134.957 Y134.008
;TYPE:WALL-OUTER
G1 F1200 X135.111 Y133.619 E1.71016
G1 X135.19 Y133.209 E1.72269
G1 X135.19 Y132.791 E1.73524
G1 X135.111 Y132.381 E1.74777
G1 X134.957 Y131.992 E1.76033
G1 X134.729 Y131.64 E1.77292
G1 X134.441 Y131.337 E1.78547
G1 X134.101 Y131.094 E1.79801
G1 X133.719 Y130.92 E1.81061
G1 X133.313 Y130.821 E1.82315
G1 X132.894 Y130.801 E1.83575
G1 X132.481 Y130.861 E1.84827
G1 X132.084 Y130.998 E1.86088
G1 X131.722 Y131.207 E1.87343
G1 X131.408 Y131.481 E1.88594
G1 X131.148 Y131.81 E1.89852
G1 X130.956 Y132.182 E1.91109
G1 X130.838 Y132.584 E1.92367
G1 X130.799 Y133 E1.93621
G1 X130.838 Y133.417 E1.94878
G1 X130.956 Y133.818 E1.96133
G1 X131.148 Y134.19 E1.97389
G1 X131.408 Y134.519 E1.98648
G1 X131.722 Y134.793 E1.99899
G1 X132.084 Y135.002 E2.01154
G1 X132.481 Y135.139 E2.02414
G1 X132.894 Y135.199 E2.03667
G1 X133.313 Y135.179 E2.04926
G1 X133.719 Y135.08 E2.06181
G1 X134.1 Y134.906 E2.07438
G1 X134.441 Y134.664 E2.08693
G1 X134.729 Y134.36 E2.0995
G1 X134.957 Y134.008 E2.11209
G0 F6000 X135.348 Y134.209
G1 F2700 E-2.88791
G0 F6000 X135.402 Y134.237
G0 X134.73 Y134.998
G0 X134.32 Y135.288
G0 X133.864 Y135.497
G0 X133.375 Y135.616
G0 X105.028 Y134.56
;TYPE:WALL-INNER
G1 F2700 E2.11209
G1 F1200 X105.269 Y133.957 E2.13158
G1 X105.39 Y133.323 E2.15096
G1 X105.39 Y132.755 E2.16801
G1 X105.373 Y132.592 E2.17293
G1 X105.269 Y132.045 E2.18964
G1 X105.028 Y131.44 E2.20919
G1 X104.677 Y130.893 E2.2287
G1 X104.231 Y130.428 E2.24804
G1 X103.705 Y130.05 E2.26748
G1 X103.115 Y129.78 E2.28696
G1 X102.486 Y129.627 E2.30639
G1 X101.835 Y129.598 E2.32595
G1 X101.198 Y129.691 E2.34527
G1 X100.583 Y129.9 E2.36477
G1 X100.024 Y130.226 E2.3842
G1 X99.537 Y130.647 E2.40352
G1 X99.133 Y131.156 E2.42303
G1 X98.836 Y131.735 E2.44256
G1 X98.797 Y131.865 E2.44663
G1 X98.653 Y132.358 E2.46205
G1 X98.597 Y132.957 E2.48011
G1 X98.593 Y133 E2.4814
G1 X98.653 Y133.643 E2.50079
G1 X98.773 Y134.054 E2.51364
G1 X98.836 Y134.265 E2.52025
G1 X99.133 Y134.844 E2.53978
G1 X99.246 Y134.986 E2.54523
G1 X99.537 Y135.353 E2.55929
G1 X100.012 Y135.764 E2.57815
G1 X100.024 Y135.774 E2.57861
G1 X100.583 Y136.1 E2.59804
G1 X100.953 Y136.225 E2.60976
G1 X101.198 Y136.309 E2.61754
G1 X101.835 Y136.402 E2.63686
G1 X102.056 Y136.393 E2.6435
G1 X102.486 Y136.373 E2.65642
G1 X103.115 Y136.22 E2.67585
G1 X103.158 Y136.2 E2.67728
G1 X103.705 Y135.95 E2.69533
G1 X104.231 Y135.572 E2.71477
G1 X104.677 Y135.107 E2.73411
G1 X105.028 Y134.56 E2.75362
G0 F6000 X104.671 Y134.376
G1 F1200 X104.883 Y133.844 E2.77081
G1 X104.99 Y133.285 E2.7879
G1 X104.99 Y132.776 E2.80318
G1 X104.977 Y132.65 E2.80698
G1 X104.883 Y132.157 E2.82204
G1 X104.671 Y131.624 E2.83926
G1 X104.361 Y131.142 E2.85646
G1 X103.968 Y130.731 E2.87353
G1 X103.503 Y130.398 E2.8907
G1 X102.983 Y130.16 E2.90787
G1 X102.429 Y130.025 E2.92498
G1 X101.855 Y129.999 E2.94223
G1 X101.292 Y130.081 E2.95931
G1 X100.75 Y130.266 E2.9765
G1 X100.257 Y130.553 E2.99362
G1 X99.827 Y130.925 E3.01069
G1 X99.471 Y131.374 E3.02789
G1 X99.209 Y131.884 E3.0451
G1 X99.048 Y132.434 E3.0623
G1 X98.995 Y133 E3.07937
G1 X99.048 Y133.567 E3.09646
G1 X99.209 Y134.116 E3.11364
G1 X99.471 Y134.626 E3.13085
G1 X99.827 Y135.075 E3.14805
G1 X100.257 Y135.447 E3.16511
G1 X100.75 Y135.734 E3.18224
G1 X101.292 Y135.919 E3.19943
G1 X101.855 Y136.001 E3.21651
G1 X102.429 Y135.975 E3.23375
G1 X102.983 Y135.84 E3.25087
G1 X103.503 Y135.602 E3.26804
G1 X103.968 Y135.269 E3.2852
G1 X104.361 Y134.858 E3.30227
G1 X104.671 Y134.376 E3.31948
G0 F6000 X104.314 Y134.192
G1 F1200 X104.497 Y133.731 E3.33436
G1 X104.59 Y133.247 E3.34916
G1 X104.59 Y132.796 E3.3627
G1 X104.581 Y132.708 E3.36535
G1 X104.497 Y132.269 E3.37877
G1 X104.314 Y131.808 E3.39366
G1 X104.045 Y131.391 E3.40855
G1 X103.705 Y131.034 E3.42335
G1 X103.302 Y130.746 E3.43822
G1 X102.851 Y130.54 E3.4531
G1 X102.372 Y130.423 E3.4679
G1 X101.875 Y130.4 E3.48284
G1 X101.386 Y130.471 E3.49767
G1 X100.917 Y130.632 E3.51256
G1 X100.49 Y130.88 E3.52738
G1 X100.117 Y131.203 E3.54219
G1 X99.809 Y131.592 E3.55708
G1 X99.582 Y132.033 E3.57197
G1 X99.443 Y132.509 E3.58686
G1 X99.397 Y133 E3.60166
G1 X99.443 Y133.492 E3.61649
G1 X99.582 Y133.967 E3.63135
G1 X99.809 Y134.408 E3.64624
G1 X100.117 Y134.797 E3.66113
G1 X100.49 Y135.12 E3.67594
G1 X100.917 Y135.368 E3.69076
G1 X101.386 Y135.529 E3.70565
G1 X101.875 Y135.6 E3.72048
G1 X102.372 Y135.577 E3.73541
G1 X102.851 Y135.46 E3.75022
G1 X103.302 Y135.254 E3.7651
G1 X103.705 Y134.966 E3.77997
G1 X104.045 Y134.609 E3.79477
G1 X104.314 Y134.192 E3.80966
G0 F6000 X103.957 Y134.008
;TYPE:WALL-OUTER
G1 F1200 X104.111 Y133.619 E3.82222
G1 X104.19 Y133.209 E3.83475
G1 X104.19 Y132.816 E3.84655
G1 X104.185 Y132.766 E3.84806
G1 X104.111 Y132.381 E3.85983
G1 X103.957 Y131.992 E3.87239
G1 X103.729 Y131.64 E3.88497
G1 X103.441 Y131.337 E3.89752
G1 X103.101 Y131.094 E3.91007
G1 X102.719 Y130.92 E3.92267
G1 X102.314 Y130.821 E3.93518
G1 X101.894 Y130.801 E3.9478
G1 X101.481 Y130.861 E3.96033
G1 X101.084 Y130.998 E3.97294
G1 X100.723 Y131.207 E3.98546
G1 X100.407 Y131.481 E3.99801
G1 X100.147 Y131.81 E4.0106
G1 X99.955 Y132.182 E4.02317
G1 X99.838 Y132.584 E4.03573
G1 X99.799 Y133 E4.04828
G1 X99.838 Y133.417 E4.06085
G1 X99.955 Y133.818 E4.07339
G1 X100.147 Y134.19 E4.08595
G1 X100.407 Y134.519 E4.09854
G1 X100.723 Y134.793 E4.11109
G1 X101.084 Y135.002 E4.12362
G1 X101.481 Y135.139 E4.13622
G1 X101.894 Y135.199 E4.14875
G1 X102.314 Y135.179 E4.16137
G1 X102.719 Y135.08 E4.17389
G1 X103.101 Y134.906 E4.18649
G1 X103.441 Y134.663 E4.19903
G1 X103.729 Y134.36 E4.21158
G1 X103.957 Y134.008 E4.22417
G0 F6000 X104.348 Y134.209
G1 F2700 E-0.77583
G0 F6000 X104.402 Y134.237
G0 X104.606 Y133.349
G0 X105.028 Y103.56
;TYPE:WALL-INNER
G1 F2700 E4.22417
G1 F1200 X105.269 Y102.957 E4.24366
G1 X105.39 Y102.323 E4.26303
G1 X105.39 Y101.677 E4.28243
G1 X105.269 Y101.043 E4.3018
G1 X105.028 Y100.44 E4.32129
G1 X104.677 Y99.893 E4.3408
G1 X104.231 Y99.428 E4.36014
G1 X103.705 Y99.05 E4.37959
G1 X103.158 Y98.8 E4.39764
G1 X103.115 Y98.78 E4.39906
G1 X102.486 Y98.627 E4.41849
G1 X102.057 Y98.608 E4.43138
G1 X101.835 Y98.598 E4.43805
G1 X101.198 Y98.691 E4.45738
G1 X100.954 Y98.774 E4.46511
G1 X100.583 Y98.9 E4.47688
G1 X100.024 Y99.226 E4.4963
G1 X100.013 Y99.235 E4.49673
G1 X99.537 Y99.647 E4.51562
G1 X99.247 Y100.013 E4.52964
G1 X99.133 Y100.156 E4.53513
G1 X98.836 Y100.735 E4.55466
G1 X98.774 Y100.945 E4.56124
G1 X98.653 Y101.357 E4.57413
G1 X98.593 Y102 E4.59351
G1 X98.596 Y102.042 E4.59477
G1 X98.653 Y102.643 E4.6129
G1 X98.797 Y103.135 E4.62828
G1 X98.836 Y103.265 E4.63236
G1 X99.133 Y103.844 E4.65189
G1 X99.537 Y104.353 E4.6714
G1 X100.024 Y104.774 E4.69072
G1 X100.583 Y105.1 E4.71015
G1 X101.198 Y105.309 E4.72964
G1 X101.835 Y105.402 E4.74897
G1 X102.486 Y105.373 E4.76853
G1 X103.115 Y105.22 E4.78796
G1 X103.705 Y104.95 E4.80744
G1 X104.231 Y104.572 E4.82688
G1 X104.677 Y104.107 E4.84622
G1 X105.028 Y103.56 E4.86573
G0 F6000 X104.671 Y103.376
G1 F1200 X104.883 Y102.844 E4.88292
G1 X104.99 Y102.285 E4.9
G1 X104.99 Y101.715 E4.91711
G1 X104.883 Y101.156 E4.9342
G1 X104.671 Y100.624 E4.95139
G1 X104.361 Y100.142 E4.96859
G1 X103.968 Y99.731 E4.98566
G1 X103.503 Y99.398 E5.00283
G1 X102.983 Y99.16 E5.01999
G1 X102.429 Y99.025 E5.03711
G1 X101.855 Y98.999 E5.05436
G1 X101.292 Y99.081 E5.07144
G1 X100.75 Y99.266 E5.08863
G1 X100.257 Y99.553 E5.10575
G1 X99.827 Y99.925 E5.12282
G1 X99.471 Y100.374 E5.14002
G1 X99.209 Y100.884 E5.15723
G1 X99.048 Y101.433 E5.1744
G1 X98.995 Y102 E5.1915
G1 X99.048 Y102.567 E5.20859
G1 X99.209 Y103.116 E5.22576
G1 X99.471 Y103.626 E5.24297
G1 X99.827 Y104.075 E5.26017
G1 X100.257 Y104.447 E5.27724
G1 X100.75 Y104.734 E5.29437
G1 X101.292 Y104.919 E5.31156
G1 X101.855 Y105.001 E5.32863
G1 X102.429 Y104.975 E5.34588
G1 X102.983 Y104.84 E5.363
G1 X103.503 Y104.602 E5.38016
G1 X103.968 Y104.269 E5.39733
G1 X104.361 Y103.858 E5.4144
G1 X104.671 Y103.376 E5.4316
G0 F6000 X104.314 Y103.192
G1 F1200 X104.497 Y102.731 E5.44649
G1 X104.59 Y102.247 E5.46129
G1 X104.59 Y101.753 E5.47612
G1 X104.497 Y101.269 E5.49091
G1 X104.314 Y100.808 E5.5058
G1 X104.045 Y100.391 E5.52069
G1 X103.705 Y100.034 E5.53549
G1 X103.302 Y99.746 E5.55036
G1 X102.851 Y99.54 E5.56524
G1 X102.372 Y99.423 E5.58004
G1 X101.875 Y99.4 E5.59498
G1 X101.386 Y99.471 E5.60981
G1 X100.917 Y99.632 E5.6247
G1 X100.49 Y99.88 E5.63952
G1 X100.117 Y100.203 E5.65433
G1 X99.809 Y100.592 E5.66922
G1 X99.582 Y101.033 E5.68411
G1 X99.443 Y101.508 E5.69897
G1 X99.397 Y102 E5.7138
G1 X99.443 Y102.492 E5.72863
G1 X99.582 Y102.967 E5.74349
G1 X99.809 Y103.408 E5.75838
G1 X100.117 Y103.797 E5.77327
G1 X100.49 Y104.12 E5.78808
G1 X100.917 Y104.368 E5.8029
G1 X101.386 Y104.529 E5.81779
G1 X101.875 Y104.6 E5.83262
G1 X102.372 Y104.577 E5.84756
G1 X102.851 Y104.46 E5.86236
G1 X103.302 Y104.254 E5.87724
G1 X103.705 Y103.966 E5.89211
G1 X104.045 Y103.609 E5.90691
G1 X104.314 Y103.192 E5.9218
G0 F6000 X103.957 Y103.008
;TYPE:WALL-OUTER
G1 F1200 X104.111 Y102.619 E5.93436
G1 X104.19 Y102.209 E5.94689
G1 X104.19 Y101.791 E5.95944
G1 X104.111 Y101.381 E5.97198
G1 X103.957 Y100.992 E5.98453
G1 X103.729 Y100.64 E5.99712
G1 X103.441 Y100.337 E6.00967
G1 X103.101 Y100.094 E6.02222
G1 X102.719 Y99.92 E6.03482
G1 X102.314 Y99.821 E6.04733
G1 X101.894 Y99.801 E6.05995
G1 X101.481 Y99.861 E6.07248
G1 X101.084 Y99.998 E6.08509
G1 X100.723 Y100.207 E6.09761
G1 X100.407 Y100.481 E6.11016
G1 X100.147 Y100.81 E6.12275
G1 X99.955 Y101.182 E6.13532
G1 X99.838 Y101.583 E6.14785
G1 X99.799 Y102 E6.16043
G1 X99.838 Y102.417 E6.173
G1 X99.955 Y102.818 E6.18554
G1 X100.147 Y103.19 E6.1981
G1 X100.407 Y103.519 E6.21069
G1 X100.723 Y103.793 E6.22324
G1 X101.084 Y104.002 E6.23577
G1 X101.481 Y104.139 E6.24837
G1 X101.894 Y104.199 E6.2609
G1 X102.314 Y104.179 E6.27352
G1 X102.719 Y104.08 E6.28604
G1 X103.101 Y103.906 E6.29864
G1 X103.441 Y103.663 E6.31118
G1 X103.729 Y103.36 E6.32373
G1 X103.957 Y103.008 E6.33632
G0 F6000 X104.348 Y103.209
G0 X104.402 Y103.237
G0 X105.15 Y113.776
;TYPE:WALL-INNER
G1 F1200 X104.847 Y114.985 E6.37373
G1 X104.66 Y116.238 E6.41176
G1 X104.6 Y117.502 E6.44974
G1 X104.66 Y118.766 E6.48773
G1 X104.847 Y120.019 E6.52576
G1 X105.154 Y121.247 E6.56375
G1 X105.58 Y122.44 E6.60178
G1 X106.122 Y123.585 E6.6398
G1 X106.773 Y124.67 E6.67778
G1 X107.526 Y125.688 E6.71579
G1 X108.378 Y126.626 E6.75383
G1 X109.316 Y127.479 E6.79189
G1 X110.335 Y128.232 E6.82992
G1 X111.419 Y128.882 E6.86786
G1 X112.564 Y129.424 E6.90589
G1 X113.757 Y129.85 E6.94391
G1 X114.985 Y130.158 E6.98192
G1 X116.238 Y130.345 E7.01994
G1 X117.502 Y130.405 E7.05793
G1 X118.766 Y130.345 E7.09591
G1 X120.019 Y130.158 E7.13394
G1 X121.247 Y129.85 E7.17194
G1 X122.44 Y129.424 E7.20997
G1 X123.585 Y128.882 E7.248
G1 X124.669 Y128.232 E7.28594
G1 X125.688 Y127.479 E7.32397
G1 X126.626 Y126.626 E7.36203
G1 X127.479 Y125.688 E7.40008
G1 X128.232 Y124.669 E7.43812
G1 X128.882 Y123.585 E7.47606
G1 X129.424 Y122.44 E7.51408
G1 X129.85 Y121.247 E7.55211
G1 X130.158 Y120.019 E7.59011
G1 X130.345 Y118.766 E7.62814
G1 X130.405 Y117.502 E7.66612
G1 X130.345 Y116.238 E7.70411
G1 X130.158 Y114.985 E7.74214
G1 X129.85 Y113.757 E7.78014
G1 X129.424 Y112.564 E7.81816
G1 X128.882 Y111.419 E7.85619
G1 X128.232 Y110.335 E7.89413
G1 X127.479 Y109.316 E7.93216
G1 X126.626 Y108.378 E7.97022
G1 X125.688 Y107.525 E8.00828
G1 X124.669 Y106.772 E8.04631
G1 X123.585 Y106.122 E8.08425
G1 X122.44 Y105.58 E8.12228
G1 X121.247 Y105.154 E8.1603
G1 X120.019 Y104.846 E8.1983
G1 X118.766 Y104.659 E8.23633
G1 X117.502 Y104.599 E8.27432
G1 X116.238 Y104.659 E8.3123
G1 X114.985 Y104.846 E8.35033
G1 X113.757 Y105.154 E8.38833
G1 X112.564 Y105.58 E8.42636
G1 X111.419 Y106.122 E8.46438
G1 X110.335 Y106.772 E8.50232
