;FLAVOR:Marlin
;TIME:14405
;Filament used: 8.98335m
;Layer height: 0.2
;MINX:80.352
;MINY:82.939
;MINZ:0.2
;MAXX:154.648
;MAXY:152.277
;MAXZ:34.2
;Generated with Cura_SteamEngine master
M82 ;absolute extrusion mode
; Ender 3 Custom Start G-code
M140 S75 ; Set Heat Bed temperature
M104 S160 ; start warming extruder to 160
G28 ; Home all axes
G29 ; Auto bed-level (BL-Touch)
G92 E0 ; Reset Extruder
M190 S75 ; Wait for Heat Bed temperature
M104 S210 ; Set Extruder temperature
G1 X0 Y0 Z0.3 F5000.0 ; Move to 0 0
M109 S210 ; Wait for Extruder temperature
G1 X3 Y20 Z0.3 F5000.0 ; Move to start position
; G1 Z2.0 F3000 ; Move Z Axis up little to prevent scratching of Heat Bed
G1 X3 Y200.0 Z0.3 F1500.0 E15 ; Draw the first line
G1 X3.3 Y200.0 Z0.3 F5000.0 ; Move to side a little
G1 X3.3 Y20 Z0.3 F1500.0 E30 ; Draw the second line
G92 E0 ; Reset Extruder
G1 Z2.0 F3000 ; Move Z Axis up little to prevent scratching of Heat Bed
G92 E0
G92 E0
G1 F2700 E-5
;LAYER_COUNT:171
;LAYER:0
M107
M204 S500
M205 X8 Y8
G0 F6000 X84.821 Y136.988 Z0.2
;TYPE:SKIRT
G1 F2700 E0
G1 F1200 X86.218 Y136.988 E0.03764
G1 X85.934 Y137.061 E0.04554
G1 X85.623 Y137.155 E0.05429
G1 X85.221 Y137.296 E0.06577
G1 X84.82 Y137.463 E0.07747
G1 X84.821 Y136.988 E0.09027
G0 F6000 X84.421 Y136.588
G1 F1200 X150.577 Y136.588 E1.87256
G1 X150.577 Y137.171 E1.88826
G1 X135.221 Y142.909 E2.3299
G1 X135.139 Y142.583 E2.33896
G1 X135.043 Y142.266 E2.34788
G1 X134.91 Y141.896 E2.35847
G1 X134.776 Y141.576 E2.36782
G1 X134.601 Y141.211 E2.37872
G1 X134.466 Y140.957 E2.38647
G1 X134.276 Y140.634 E2.39657
G1 X134.091 Y140.353 E2.40563
G1 X133.853 Y140.027 E2.41651
G1 X133.601 Y139.721 E2.42719
G1 X133.31 Y139.407 E2.43872
G1 X133.066 Y139.169 E2.4479
G1 X132.794 Y138.929 E2.45768
G1 X132.575 Y138.751 E2.46528
G1 X132.277 Y138.529 E2.47529
G1 X131.989 Y138.337 E2.48462
G1 X131.619 Y138.116 E2.49623
G1 X131.345 Y137.969 E2.5046
G1 X131.009 Y137.808 E2.51464
G1 X130.646 Y137.659 E2.52521
G1 X130.265 Y137.528 E2.53607
G1 X129.974 Y137.442 E2.54424
G1 X129.662 Y137.365 E2.5529
G1 X129.343 Y137.302 E2.56166
G1 X128.862 Y137.231 E2.57476
G1 X128.557 Y137.2 E2.58302
G1 X128.201 Y137.18 E2.59262
G1 X127.828 Y137.18 E2.60267
G1 X127.436 Y137.201 E2.61325
G1 X127.136 Y137.23 E2.62137
G1 X126.745 Y137.286 E2.63201
G1 X126.38 Y137.359 E2.64204
G1 X126.034 Y137.448 E2.65166
G1 X125.756 Y137.533 E2.65949
G1 X125.354 Y137.674 E2.67097
G1 X125.006 Y137.818 E2.68112
G1 X124.644 Y137.992 E2.69194
G1 X124.377 Y138.135 E2.7001
G1 X124.063 Y138.322 E2.70994
G1 X123.731 Y138.547 E2.72075
G1 X123.381 Y138.816 E2.73264
G1 X123.215 Y138.952 E2.73842
G1 X122.953 Y139.181 E2.7478
G1 X122.683 Y139.445 E2.75797
G1 X122.423 Y139.729 E2.76834
G1 X122.174 Y140.036 E2.77899
G1 X121.946 Y140.352 E2.78949
G1 X121.8 Y140.572 E2.7966
G1 X121.58 Y140.933 E2.80799
G1 X121.415 Y141.237 E2.81731
G1 X121.257 Y141.568 E2.82719
G1 X121.115 Y141.912 E2.83722
G1 X120.969 Y142.33 E2.84915
G1 X120.875 Y142.65 E2.85813
G1 X120.796 Y142.976 E2.86717
G1 X120.74 Y143.254 E2.87481
G1 X120.677 Y143.659 E2.88585
G1 X120.644 Y143.96 E2.89401
G1 X120.623 Y144.281 E2.90268
G1 X120.62 Y144.663 E2.91297
G1 X120.644 Y145.172 E2.9267
G1 X120.68 Y145.53 E2.93639
G1 X120.731 Y145.861 E2.94541
G1 X120.797 Y146.185 E2.95432
G1 X120.897 Y146.576 E2.96519
G1 X120.982 Y146.857 E2.9731
G1 X121.109 Y147.22 E2.98346
G1 X121.231 Y147.521 E2.99221
G1 X121.398 Y147.883 E3.00295
G1 X121.573 Y148.212 E3.01299
G1 X112.354 Y148.212 E3.26136
G1 X112.382 Y148.09 E3.26473
G1 X112.43 Y147.761 E3.27369
G1 X112.464 Y147.378 E3.28405
G1 X112.473 Y147.095 E3.29168
G1 X112.465 Y146.729 E3.30154
G1 X112.428 Y146.242 E3.3147
G1 X112.349 Y145.727 E3.32873
G1 X112.236 Y145.346 E3.33944
G1 X112.115 Y144.992 E3.34952
G1 X111.923 Y144.519 E3.36327
G1 X111.815 Y144.302 E3.3698
G1 X111.686 Y144.068 E3.377
G1 X111.512 Y143.778 E3.38611
G1 X111.153 Y143.285 E3.40254
G1 X110.197 Y142.195 E3.4416
G1 X109.824 Y141.831 E3.45564
G1 X109.401 Y141.528 E3.46966
G1 X108.778 Y141.233 E3.48823
G1 X108.403 Y141.1 E3.49895
G1 X107.899 Y140.964 E3.51301
G1 X107.381 Y140.906 E3.52706
G1 X106.683 Y140.954 E3.5459
G1 X105.286 Y141.197 E3.58411
G1 X104.794 Y141.321 E3.59778
G1 X104.455 Y141.434 E3.6074
G1 X103.957 Y141.646 E3.62198
G1 X103.66 Y141.801 E3.63101
G1 X103.406 Y141.948 E3.63892
G1 X103.158 Y142.106 E3.64684
G1 X102.759 Y142.403 E3.66024
G1 X102.52 Y142.61 E3.66876
G1 X102.266 Y142.855 E3.67826
G1 X102.071 Y143.063 E3.68594
G1 X101.826 Y143.354 E3.69619
G1 X101.561 Y143.709 E3.70813
G1 X101.283 Y144.149 E3.72215
G1 X101.15 Y144.43 E3.73052
G1 X100.939 Y144.934 E3.74524
G1 X100.764 Y145.474 E3.76054
G1 X100.446 Y146.836 E3.79822
G1 X100.367 Y147.351 E3.81225
G1 X100.367 Y147.872 E3.82629
G1 X100.428 Y148.212 E3.8356
G1 X94.455 Y148.212 E3.99651
G1 X94.508 Y148.119 E3.9994
G1 X94.64 Y147.864 E4.00713
G1 X94.803 Y147.514 E4.01753
G1 X94.908 Y147.265 E4.02482
G1 X95.033 Y146.929 E4.03447
G1 X95.142 Y146.577 E4.0444
G1 X95.245 Y146.17 E4.05571
G1 X95.321 Y145.768 E4.06673
G1 X95.374 Y145.354 E4.07798
G1 X95.4 Y145.05 E4.0862
G1 X95.415 Y144.651 E4.09695
G1 X95.413 Y144.367 E4.10461
G1 X95.399 Y144.063 E4.1128
G1 X95.362 Y143.69 E4.1229
G1 X95.291 Y143.239 E4.1352
G1 X95.228 Y142.935 E4.14357
G1 X95.139 Y142.583 E4.15335
G1 X95.043 Y142.266 E4.16227
G1 X94.91 Y141.896 E4.17286
G1 X94.776 Y141.576 E4.18221
G1 X94.601 Y141.211 E4.19312
G1 X94.466 Y140.957 E4.20086
G1 X94.276 Y140.634 E4.21096
G1 X94.091 Y140.353 E4.22002
G1 X93.853 Y140.027 E4.2309
G1 X93.601 Y139.721 E4.24158
G1 X93.31 Y139.407 E4.25311
G1 X93.066 Y139.169 E4.26229
G1 X92.794 Y138.929 E4.27207
G1 X92.575 Y138.751 E4.27967
G1 X92.277 Y138.529 E4.28968
G1 X91.989 Y138.337 E4.29901
G1 X91.619 Y138.116 E4.31062
G1 X91.345 Y137.969 E4.31899
G1 X91.009 Y137.808 E4.32903
G1 X90.646 Y137.659 E4.3396
G1 X90.265 Y137.528 E4.35046
G1 X89.974 Y137.442 E4.35863
G1 X89.662 Y137.365 E4.36729
G1 X89.343 Y137.302 E4.37605
G1 X88.862 Y137.231 E4.38915
G1 X88.557 Y137.2 E4.39741
G1 X88.201 Y137.18 E4.40701
G1 X87.828 Y137.18 E4.41706
G1 X87.436 Y137.201 E4.42764
G1 X87.136 Y137.23 E4.43576
G1 X86.745 Y137.286 E4.4464
G1 X86.38 Y137.359 E4.45643
G1 X86.034 Y137.448 E4.46605
G1 X85.756 Y137.533 E4.47388
G1 X85.354 Y137.674 E4.48536
G1 X85.006 Y137.818 E4.49551
G1 X84.644 Y137.992 E4.50633
G1 X84.42 Y138.112 E4.51318
G1 X84.421 Y136.588 E4.55423
G0 F6000 X84.021 Y136.188
G1 F1200 X150.977 Y136.188 E6.35807
G1 X150.977 Y137.449 E6.39205
G1 X134.919 Y143.449 E6.85387
G1 X134.896 Y143.301 E6.85791
G1 X134.84 Y143.033 E6.86528
G1 X134.751 Y142.681 E6.87507
G1 X134.666 Y142.401 E6.88295
G1 X134.533 Y142.031 E6.89354
G1 X134.415 Y141.749 E6.90178
G1 X134.24 Y141.384 E6.91268
G1 X134.121 Y141.16 E6.91952
G1 X133.931 Y140.837 E6.92961
G1 X133.768 Y140.589 E6.93761
G1 X133.53 Y140.263 E6.94848
G1 X133.307 Y139.993 E6.95792
G1 X133.016 Y139.679 E6.96945
G1 X132.801 Y139.468 E6.97756
G1 X132.529 Y139.228 E6.98734
G1 X132.336 Y139.072 E6.99402
G1 X132.038 Y138.85 E7.00403
G1 X131.784 Y138.68 E7.01227
G1 X131.414 Y138.459 E7.02388
G1 X131.172 Y138.33 E7.03127
G1 X130.836 Y138.169 E7.0413
G1 X130.515 Y138.037 E7.05066
G1 X130.134 Y137.906 E7.06151
G1 X129.878 Y137.83 E7.0687
G1 X129.566 Y137.753 E7.07736
G1 X129.285 Y137.698 E7.08508
G1 X128.804 Y137.627 E7.09817
G1 X128.534 Y137.6 E7.10548
G1 X128.178 Y137.58 E7.11509
G1 X127.85 Y137.579 E7.12393
G1 X127.458 Y137.6 E7.1345
G1 X127.193 Y137.626 E7.14168
G1 X126.802 Y137.682 E7.15232
G1 X126.48 Y137.747 E7.16117
G1 X126.134 Y137.836 E7.17079
G1 X125.888 Y137.91 E7.17771
G1 X125.486 Y138.051 E7.18919
G1 X125.179 Y138.178 E7.19814
G1 X124.817 Y138.352 E7.20896
G1 X124.582 Y138.478 E7.21615
G1 X124.268 Y138.665 E7.22599
G1 X123.975 Y138.864 E7.23553
G1 X123.625 Y139.133 E7.24743
G1 X123.479 Y139.253 E7.25252
G1 X123.217 Y139.482 E7.26189
G1 X122.978 Y139.715 E7.27088
G1 X122.718 Y139.999 E7.28126
G1 X122.498 Y140.27 E7.29066
G1 X122.27 Y140.586 E7.30116
G1 X122.141 Y140.78 E7.30744
G1 X121.921 Y141.141 E7.31883
G1 X121.776 Y141.41 E7.32706
G1 X121.618 Y141.741 E7.33694
G1 X121.493 Y142.044 E7.34577
G1 X121.347 Y142.462 E7.3577
G1 X121.263 Y142.744 E7.36563
G1 X121.184 Y143.07 E7.37466
G1 X121.136 Y143.316 E7.38141
G1 X121.073 Y143.721 E7.39246
G1 X121.043 Y143.986 E7.39964
G1 X121.022 Y144.307 E7.40831
G1 X121.019 Y144.644 E7.41739
G1 X121.043 Y145.153 E7.43112
G1 X121.075 Y145.469 E7.43967
G1 X121.126 Y145.8 E7.4487
G1 X121.185 Y146.086 E7.45656
G1 X121.285 Y146.477 E7.46744
G1 X121.359 Y146.725 E7.47441
G1 X121.486 Y147.088 E7.48477
G1 X121.594 Y147.354 E7.4925
G1 X121.761 Y147.716 E7.50324
G1 X121.923 Y148.021 E7.51255
G1 X122.126 Y148.354 E7.52305
G1 X122.303 Y148.612 E7.53148
G1 X111.843 Y148.612 E7.81328
G1 X111.872 Y148.523 E7.8158
G1 X111.987 Y148.032 E7.82939
G1 X112.035 Y147.703 E7.83835
G1 X112.064 Y147.365 E7.84749
G1 X112.073 Y147.082 E7.85512
G1 X112.066 Y146.76 E7.86379
G1 X112.029 Y146.273 E7.87695
G1 X111.953 Y145.789 E7.89015
G1 X111.86 Y145.482 E7.89879
G1 X111.735 Y145.114 E7.90926
G1 X111.565 Y144.697 E7.92139
G1 X111.343 Y144.274 E7.93426
G1 X111.169 Y143.984 E7.94338
G1 X110.852 Y143.549 E7.95788
G1 X109.896 Y142.459 E7.99694
G1 X109.545 Y142.118 E8.01012
G1 X109.142 Y141.84 E8.02331
G1 X108.644 Y141.61 E8.03809
G1 X108.269 Y141.477 E8.04881
G1 X107.796 Y141.351 E8.06199
G1 X107.308 Y141.304 E8.0752
G1 X106.752 Y141.348 E8.09023
G1 X105.355 Y141.591 E8.12843
G1 X104.92 Y141.701 E8.14052
G1 X104.581 Y141.814 E8.15014
G1 X104.142 Y142 E8.16299
G1 X103.845 Y142.155 E8.17201
G1 X103.621 Y142.285 E8.17899
G1 X103.373 Y142.443 E8.18691
G1 X103.021 Y142.705 E8.19874
G1 X102.782 Y142.912 E8.20725
G1 X102.557 Y143.128 E8.21566
G1 X102.362 Y143.336 E8.22334
G1 X102.147 Y143.593 E8.23236
G1 X101.882 Y143.948 E8.2443
G1 X101.519 Y144.584 E8.26403
G1 X101.308 Y145.088 E8.27875
G1 X101.154 Y145.565 E8.29225
G1 X100.836 Y146.927 E8.32993
G1 X100.764 Y147.411 E8.34311
G1 X100.771 Y147.9 E8.35629
G1 X100.874 Y148.437 E8.37102
G1 X100.924 Y148.612 E8.37592
G1 X93.733 Y148.612 E8.56966
G1 X93.96 Y148.271 E8.58069
G1 X94.161 Y147.92 E8.59159
G1 X94.278 Y147.696 E8.5984
G1 X94.441 Y147.346 E8.6088
G1 X94.533 Y147.125 E8.61525
G1 X94.658 Y146.789 E8.62491
G1 X94.754 Y146.479 E8.63365
G1 X94.857 Y146.072 E8.64496
G1 X94.925 Y145.717 E8.6547
G1 X94.978 Y145.303 E8.66594
G1 X95 Y145.035 E8.67319
G1 X95.015 Y144.636 E8.68394
G1 X95.014 Y144.385 E8.6907
G1 X95 Y144.081 E8.6989
G1 X94.967 Y143.752 E8.70781
G1 X94.896 Y143.301 E8.72011
G1 X94.84 Y143.033 E8.72749
G1 X94.751 Y142.681 E8.73727
G1 X94.666 Y142.401 E8.74515
G1 X94.533 Y142.031 E8.75574
G1 X94.415 Y141.749 E8.76398
G1 X94.24 Y141.384 E8.77489
G1 X94.121 Y141.16 E8.78172
G1 X93.931 Y140.837 E8.79181
G1 X93.768 Y140.589 E8.79981
G1 X93.53 Y140.263 E8.81068
G1 X93.307 Y139.993 E8.82012
G1 X93.016 Y139.679 E8.83165
G1 X92.801 Y139.468 E8.83977
G1 X92.529 Y139.228 E8.84954
G1 X92.336 Y139.072 E8.85623
G1 X92.038 Y138.85 E8.86624
G1 X91.784 Y138.68 E8.87447
G1 X91.414 Y138.459 E8.88608
G1 X91.172 Y138.33 E8.89347
G1 X90.836 Y138.169 E8.90351
G1 X90.515 Y138.037 E8.91286
G1 X90.134 Y137.906 E8.92371
G1 X89.878 Y137.83 E8.93091
G1 X89.566 Y137.753 E8.93956
G1 X89.285 Y137.698 E8.94728
G1 X88.804 Y137.627 E8.96038
G1 X88.534 Y137.6 E8.96769
G1 X88.178 Y137.58 E8.97729
G1 X87.85 Y137.579 E8.98613
G1 X87.458 Y137.6 E8.99671
G1 X87.193 Y137.626 E9.00388
G1 X86.802 Y137.682 E9.01452
G1 X86.48 Y137.747 E9.02337
G1 X86.134 Y137.836 E9.033
G1 X85.888 Y137.91 E9.03992
G1 X85.486 Y138.051 E9.05139
G1 X85.179 Y138.178 E9.06034
G1 X84.817 Y138.352 E9.07116
G1 X84.582 Y138.478 E9.07835
G1 X84.268 Y138.665 E9.08819
G1 X84.02 Y138.834 E9.09628
G1 X84.021 Y136.188 E9.16756
G0 F6000 X82.421 Y134.588
G1 F1200 X152.577 Y134.588 E11.05762
G1 X152.577 Y138.559 E11.1646
G1 X134.872 Y145.175 E11.6738
G1 X134.575 Y145.328 E11.6828
G1 X134.306 Y145.567 E11.69249
G1 X134.045 Y145.867 E11.70321
G1 X133.857 Y146.143 E11.7122
G1 X133.735 Y146.479 E11.72183
G1 X133.504 Y147.507 E11.75022
G1 X133.402 Y147.832 E11.7594
G1 X133.268 Y148.152 E11.76874
G1 X133.154 Y148.377 E11.77554
G1 X132.983 Y148.646 E11.78412
G1 X132.758 Y148.942 E11.79414
G1 X132.556 Y149.162 E11.80219
G1 X132.337 Y149.361 E11.81016
G1 X132.084 Y149.558 E11.8188
G1 X131.806 Y149.734 E11.82766
G1 X131.546 Y149.869 E11.83556
G1 X131.212 Y150.007 E11.84529
G1 X130.961 Y150.087 E11.85239
G1 X130.628 Y150.159 E11.86157
G1 X130.343 Y150.197 E11.86931
G1 X130.004 Y150.212 E11.87846
G1 X108.883 Y150.212 E12.44747
G1 X108.899 Y150.202 E12.44798
G1 X109.165 Y149.983 E12.45726
G1 X109.483 Y149.648 E12.4697
G1 X109.601 Y149.506 E12.47468
G1 X109.895 Y149.101 E12.48816
G1 X110.056 Y148.814 E12.49703
G1 X110.221 Y148.415 E12.50866
G1 X110.259 Y148.311 E12.51164
G1 X110.35 Y148.03 E12.5196
G1 X110.403 Y147.801 E12.52593
G1 X110.451 Y147.472 E12.53489
G1 X110.465 Y147.315 E12.53914
G1 X110.474 Y147.032 E12.54676
G1 X110.471 Y146.881 E12.55083
G1 X110.434 Y146.394 E12.56399
G1 X110.355 Y146.025 E12.57416
G1 X110.212 Y145.605 E12.58611
G1 X110.024 Y145.193 E12.59831
G1 X109.971 Y145.097 E12.60126
G1 X109.797 Y144.807 E12.61038
G1 X109.65 Y144.604 E12.61713
G1 X108.694 Y143.514 E12.65619
G1 X108.445 Y143.291 E12.66519
G1 X108.109 Y143.118 E12.67537
G1 X107.734 Y142.985 E12.68609
G1 X107.408 Y142.911 E12.6951
G1 X107.026 Y142.925 E12.7054
G1 X105.629 Y143.168 E12.7436
G1 X105.426 Y143.219 E12.74924
G1 X105.087 Y143.332 E12.75887
G1 X104.882 Y143.419 E12.76487
G1 X104.585 Y143.574 E12.77389
G1 X104.481 Y143.634 E12.77713
G1 X104.233 Y143.792 E12.78505
G1 X104.068 Y143.915 E12.79059
G1 X103.829 Y144.122 E12.79911
G1 X103.725 Y144.222 E12.803
G1 X103.53 Y144.43 E12.81068
G1 X103.429 Y144.551 E12.81492
G1 X103.164 Y144.906 E12.82686
G1 X102.995 Y145.202 E12.83604
G1 X102.784 Y145.706 E12.85076
G1 X102.712 Y145.929 E12.85707
G1 X102.394 Y147.291 E12.89475
G1 X102.357 Y147.623 E12.90375
G1 X102.411 Y147.995 E12.91388
G1 X102.521 Y148.378 E12.92462
G1 X102.651 Y148.686 E12.93362
G1 X102.877 Y148.981 E12.94364
G1 X103.871 Y149.976 E12.98153
G1 X104.17 Y150.212 E12.99179
G1 X86.058 Y150.212 E13.47974
G1 X85.66 Y150.194 E13.49047
G1 X85.426 Y150.164 E13.49683
G1 X85.076 Y150.084 E13.5065
G1 X84.795 Y149.993 E13.51446
G1 X84.463 Y149.856 E13.52413
G1 X84.223 Y149.732 E13.53141
G1 X83.943 Y149.553 E13.54036
G1 X83.714 Y149.378 E13.54813
G1 X83.465 Y149.147 E13.55728
G1 X83.274 Y148.936 E13.56495
G1 X83.054 Y148.657 E13.57452
G1 X82.907 Y148.423 E13.58196
G1 X82.77 Y148.16 E13.58995
G1 X82.631 Y147.826 E13.5997
G1 X82.53 Y147.504 E13.60879
G1 X82.475 Y147.259 E13.61556
G1 X82.433 Y146.931 E13.62446
G1 X82.417 Y146.567 E13.63428
G1 X82.421 Y134.588 E13.957
G0 F6000 X82.022 Y134.188
G1 F1200 X152.977 Y134.188 E15.86858
G1 X152.977 Y138.836 E15.9938
G1 X135.012 Y145.549 E16.51048
G1 X134.764 Y145.684 E16.51808
G1 X134.608 Y145.83 E16.52384
G1 X134.347 Y146.13 E16.53455
G1 X134.193 Y146.366 E16.54214
G1 X134.125 Y146.566 E16.54784
G1 X133.889 Y147.614 E16.57678
G1 X133.775 Y147.977 E16.58703
G1 X133.619 Y148.354 E16.59802
G1 X133.496 Y148.586 E16.60509
G1 X133.315 Y148.871 E16.61419
G1 X133.068 Y149.196 E16.62519
G1 X132.843 Y149.44 E16.63413
G1 X132.59 Y149.67 E16.64334
G1 X132.312 Y149.888 E16.65286
G1 X131.999 Y150.086 E16.66284
G1 X131.729 Y150.225 E16.67102
G1 X131.347 Y150.384 E16.68216
G1 X131.062 Y150.474 E16.69022
G1 X130.687 Y150.555 E16.70055
G1 X130.382 Y150.596 E16.70884
G1 X130.021 Y150.612 E16.71858
G1 X86.04 Y150.612 E17.90346
G1 X85.637 Y150.594 E17.91432
G1 X85.349 Y150.556 E17.92215
G1 X84.976 Y150.472 E17.93245
G1 X84.656 Y150.368 E17.94152
G1 X84.29 Y150.217 E17.95218
G1 X84.017 Y150.075 E17.96047
G1 X83.718 Y149.885 E17.97002
G1 X83.458 Y149.685 E17.97885
G1 X83.178 Y149.426 E17.98913
G1 X82.966 Y149.191 E17.99766
G1 X82.726 Y148.887 E18.00809
G1 X82.558 Y148.62 E18.01659
G1 X82.403 Y148.321 E18.02566
G1 X82.26 Y147.977 E18.0357
G1 X82.14 Y147.598 E18.04641
G1 X82.083 Y147.339 E18.05355
G1 X82.033 Y146.954 E18.06401
G1 X82.017 Y146.595 E18.0737
G1 X82.022 Y134.188 E18.40795
G0 F6000 X81.622 Y133.788
