;FLAVOR:Marlin
;TIME:718
;Filament used: 0.192324m
;Layer height: 0.2
;MINX:113.95
;MINY:113.95
;MINZ:0.2
;MAXX:121.05
;MAXY:121.05
;MAXZ:12.4
;Generated with Cura_SteamEngine master
M82 ;absolute extrusion mode
; Ender 3 Custom Start G-code
M140 S75 ; Set Heat Bed temperature
M104 S160 ; start warming extruder to 160
G28 ; Home all axes
G29 ; Auto bed-level (BL-Touch)
G92 E0 ; Reset Extruder
M190 S75 ; Wait for Heat Bed temperature
M104 S210 ; Set Extruder temperature
G1 X0 Y0 Z0.3 F5000.0 ; Move to 0 0
M109 S210 ; Wait for Extruder temperature
G1 X3 Y20 Z0.3 F5000.0 ; Move to start position
; G1 Z2.0 F3000 ; Move Z Axis up little to prevent scratching of Heat Bed
G1 X3 Y200.0 Z0.3 F1500.0 E15 ; Draw the first line
G1 X3.3 Y200.0 Z0.3 F5000.0 ; Move to side a little
G1 X3.3 Y20 Z0.3 F1500.0 E30 ; Draw the second line
G92 E0 ; Reset Extruder
G1 Z2.0 F3000 ; Move Z Axis up little to prevent scratching of Heat Bed
G92 E0
G92 E0
G1 F2700 E-5
;LAYER_COUNT:62
;LAYER:0
M107
M204 S500
M205 X8 Y8
;MESH:speedDrive_endstop.stl
G0 F6000 X119.285 Y115.715 Z0.2
;TYPE:WALL-INNER
G1 F2700 E0
G1 F745 X119.287 Y117.708 E0.05369
G1 X119.285 Y119.285 E0.09618
G1 X117.292 Y119.287 E0.14987
G1 X115.715 Y119.285 E0.19236
G1 X115.713 Y117.292 E0.24605
G1 X115.715 Y115.715 E0.28854
G1 X117.708 Y115.713 E0.34223
G1 X119.285 Y115.715 E0.38471
G0 F6000 X119.685 Y115.315
G1 F745 X119.687 Y117.708 E0.44918
G1 X119.685 Y119.685 E0.50244
G1 X117.292 Y119.687 E0.56691
G1 X115.315 Y119.685 E0.62018
G1 X115.313 Y117.292 E0.68464
G1 X115.315 Y115.315 E0.73791
G1 X117.708 Y115.313 E0.80238
G1 X119.685 Y115.315 E0.85564
G0 F6000 X120.085 Y114.916
G1 F745 X120.087 Y117.708 E0.93086
G1 X120.084 Y120.085 E0.99489
G1 X117.292 Y120.087 E1.07011
G1 X114.915 Y120.084 E1.13415
G1 X114.913 Y117.292 E1.20937
G1 X114.916 Y114.915 E1.27341
G1 X117.708 Y114.913 E1.34863
G1 X120.085 Y114.916 E1.41266
G0 F6000 X120.396 Y114.576
;TYPE:WALL-OUTER
G1 F745 X120.485 Y114.768 E1.41837
G1 X120.487 Y117.708 E1.49757
G1 X120.484 Y120.226 E1.56541
G1 X120.454 Y120.353 E1.56892
G1 X120.382 Y120.435 E1.57186
G1 X120.22 Y120.485 E1.57643
G1 X117.292 Y120.487 E1.65531
G1 X114.753 Y120.484 E1.72372
G1 X114.604 Y120.424 E1.72804
G1 X114.515 Y120.232 E1.73374
G1 X114.513 Y117.292 E1.81295
G1 X114.516 Y114.774 E1.88079
G1 X114.546 Y114.647 E1.8843
G1 X114.62 Y114.563 E1.88732
G1 X114.768 Y114.515 E1.89151
G1 X117.708 Y114.513 E1.97072
G1 X120.247 Y114.516 E2.03912
G1 X120.396 Y114.576 E2.04345
G0 F6000 X120.015 Y114.986
G0 X118.895 Y116.105
;TYPE:SKIN
G1 F745 X118.897 Y117.708 E2.08663
G1 X118.895 Y118.895 E2.11861
G1 X117.292 Y118.897 E2.1618
G1 X116.105 Y118.895 E2.19377
G1 X116.103 Y117.292 E2.23696
G1 X116.105 Y116.105 E2.26894
G1 X117.708 Y116.103 E2.31213
G1 X118.895 Y116.105 E2.3441
G0 F6000 X118.528 Y116.265
G1 F745 X118.735 Y116.472 E2.35199
G0 F6000 X118.735 Y117.038
G1 F745 X117.96 Y116.263 E2.38152
G0 F6000 X117.395 Y116.263
G1 F745 X118.735 Y117.604 E2.43259
G0 F6000 X118.735 Y118.17
G1 F745 X116.83 Y116.264 E2.50519
G0 F6000 X116.264 Y116.264
G1 F745 X118.734 Y118.734 E2.5993
G0 F6000 X118.168 Y118.734
G1 F745 X116.263 Y116.828 E2.6719
G0 F6000 X116.263 Y117.394
G1 F745 X117.603 Y118.735 E2.72297
G0 F6000 X117.038 Y118.735
G1 F745 X116.263 Y117.96 E2.7525
G0 F6000 X116.264 Y118.527
M104 S210
G1 F745 X116.471 Y118.734 E2.76038
;MESH:NONMESH
G0 F300 X116.471 Y118.734 Z0.4
G0 F6000 X119.563 Y119.563
;TIME_ELAPSED:13.884605
;LAYER:1
M140 S70
M106 S85
;TYPE:WALL-INNER
;MESH:speedDrive_endstop.stl
G1 F728.3 X115.437 Y119.563 E2.88389
G1 X115.437 Y115.437 E3.0074
G1 X119.563 Y115.437 E3.13091
G1 X119.563 Y119.563 E3.25442
G0 F7500 X119.963 Y119.963
G1 F728.3 X115.037 Y119.963 E3.40187
G1 X115.037 Y115.037 E3.54933
G1 X119.963 Y115.037 E3.69678
G1 X119.963 Y119.963 E3.84424
G0 F7500 X120.317 Y120.325
G1 F728.3 X120.204 Y120.363 E3.84781
G1 X114.805 Y120.363 E4.00942
G1 X114.688 Y120.332 E4.01304
G1 X114.637 Y120.211 E4.01698
G1 X114.637 Y114.814 E4.17853
G1 X114.683 Y114.675 E4.18291
G1 X114.796 Y114.637 E4.18648
G1 X120.195 Y114.637 E4.3481
G1 X120.312 Y114.668 E4.35172
G1 X120.363 Y114.789 E4.35565
G1 X120.363 Y120.186 E4.5172
G1 X120.317 Y120.325 E4.52159
G0 F7500 X120.708 Y120.473
;TYPE:WALL-OUTER
G1 F728.3 X120.588 Y120.629 E4.52748
G1 X120.415 Y120.734 E4.53354
G1 X120.237 Y120.763 E4.53893
G1 X114.767 Y120.763 E4.70267
G1 X114.572 Y120.728 E4.7086
G1 X114.415 Y120.635 E4.71407
G1 X114.286 Y120.462 E4.72053
G1 X114.237 Y120.26 E4.72675
G1 X114.237 Y114.769 E4.89112
G1 X114.292 Y114.527 E4.89855
G1 X114.412 Y114.371 E4.90444
G1 X114.585 Y114.266 E4.91049
G1 X114.763 Y114.237 E4.91589
G1 X120.233 Y114.237 E5.07963
G1 X120.428 Y114.272 E5.08556
G1 X120.585 Y114.365 E5.09103
G1 X120.714 Y114.538 E5.09749
G1 X120.763 Y114.74 E5.10371
G1 X120.763 Y120.231 E5.26808
G1 X120.708 Y120.473 E5.2755
G0 F7500 X120.31 Y120.286
G0 X120.233 Y120.26
G0 X119.173 Y119.173
;TYPE:SKIN
G1 F728.3 X115.827 Y119.173 E5.37566
G1 X115.827 Y115.827 E5.47582
G1 X119.173 Y115.827 E5.57598
G1 X119.173 Y119.173 E5.67614
G0 F7500 X118.575 Y119.012
G1 F728.3 X119.012 Y118.575 E5.69464
G0 F7500 X119.012 Y118.009
G1 F728.3 X118.009 Y119.012 E5.7371
G0 F7500 X117.444 Y119.012
G1 F728.3 X119.012 Y117.444 E5.80348
G0 F7500 X119.012 Y116.878
G1 F728.3 X116.878 Y119.012 E5.89382
G0 F7500 X116.312 Y119.012
G1 F728.3 X119.012 Y116.312 E6.00812
G0 F7500 X118.772 Y115.986
G1 F728.3 X115.987 Y118.772 E6.12604
G0 F7500 X115.987 Y118.206
G1 F728.3 X118.207 Y115.986 E6.22002
G0 F7500 X117.641 Y115.986
G1 F728.3 X115.987 Y117.64 E6.29004
G0 F7500 X115.987 Y117.074
G1 F728.3 X117.075 Y115.986 E6.3361
G0 F7500 X116.509 Y115.986
G1 F728.3 X115.987 Y116.509 E6.35822
;MESH:NONMESH
G0 F300 X115.987 Y116.509 Z0.6
G0 F7500 X115.285 Y115.285
;TIME_ELAPSED:24.990434
;LAYER:2
M106 S170
;TYPE:WALL-INNER
;MESH:speedDrive_endstop.stl
G1 F802.3 X119.516 Y115.284 E6.48487
G1 X119.715 Y115.284 E6.49082
G1 X119.715 Y115.483 E6.49468
G1 X119.715 Y119.516 E6.6154
G1 X119.715 Y119.715 E6.62136
G1 X119.516 Y119.715 E6.62521
G1 X115.285 Y119.714 E6.75186
G1 X115.285 Y115.285 E6.88444
G0 F9000 X114.885 Y114.885
G1 F802.3 X119.916 Y114.884 E7.03504
G1 X120.115 Y114.884 E7.041
G1 X120.115 Y115.083 E7.04485
G1 X120.115 Y120.114 E7.19545
G1 X119.245 Y120.116 E7.22149
G1 X114.885 Y120.114 E7.35201
G1 X114.885 Y114.885 E7.50853
G0 F9000 X114.568 Y114.57
G1 F802.3 X114.807 Y114.485 E7.51613
G1 X120.199 Y114.484 E7.67753
G1 X120.411 Y114.55 E7.68418
G1 X120.507 Y114.711 E7.68979
G1 X120.515 Y114.782 E7.69193
G1 X120.515 Y120.217 E7.85462
G1 X120.432 Y120.43 E7.86146
G1 X120.218 Y120.514 E7.86834
G1 X119.246 Y120.516 E7.89744
G1 X114.774 Y120.514 E8.0313
G1 X114.594 Y120.455 E8.03697
G1 X114.493 Y120.289 E8.04279
G1 X114.485 Y120.216 E8.04499
G1 X114.485 Y114.783 E8.20762
G1 X114.568 Y114.57 E8.21446
G0 F9000 X114.428 Y114.17
;TYPE:WALL-OUTER
G1 F802.3 X114.757 Y114.085 E8.22464
G1 X120.235 Y114.084 E8.38862
G1 X120.457 Y114.121 E8.39535
G1 X120.662 Y114.231 E8.40232
G1 X120.808 Y114.392 E8.40882
G1 X120.897 Y114.607 E8.41579
G1 X120.915 Y114.76 E8.4204
G1 X120.915 Y120.261 E8.58507
G1 X120.855 Y120.517 E8.59294
G1 X120.732 Y120.703 E8.59961
G1 X120.572 Y120.83 E8.60573
G1 X120.274 Y120.914 E8.615
G1 X119.247 Y120.916 E8.64574
G1 X114.732 Y120.914 E8.78089
G1 X114.509 Y120.868 E8.78771
G1 X114.34 Y120.771 E8.79354
G1 X114.192 Y120.608 E8.80013
G1 X114.103 Y120.393 E8.8071
G1 X114.085 Y120.236 E8.81183
G1 X114.085 Y114.739 E8.97637
G1 X114.145 Y114.483 E8.98424
G1 X114.268 Y114.297 E8.99092
G1 X114.428 Y114.17 E8.99703
G0 F9000 X114.624 Y114.563
G0 X114.652 Y114.646
G0 X115.675 Y115.675
;TYPE:SKIN
G1 F802.3 X119.325 Y115.674 E9.10629
G1 X119.325 Y119.325 E9.21558
G1 X115.675 Y119.324 E9.32484
G1 X115.675 Y115.675 E9.43407
G0 F9000 X116.334 Y119.163
G1 F802.3 X115.834 Y118.663 E9.45524
G0 F9000 X115.834 Y118.097
G1 F802.3 X116.9 Y119.163 E9.50037
G0 F9000 X117.465 Y119.163
G1 F802.3 X115.834 Y117.531 E9.56943
G0 F9000 X115.834 Y116.966
G1 F802.3 X118.032 Y119.163 E9.66246
G0 F9000 X118.598 Y119.163
G1 F802.3 X115.834 Y116.4 E9.77945
G0 F9000 X115.834 Y115.834
G1 F802.3 X119.164 Y119.164 E9.92042
G0 F9000 X119.164 Y118.598
G1 F802.3 X116.4 Y115.834 E10.03743
G0 F9000 X116.966 Y115.834
G1 F802.3 X119.164 Y118.033 E10.1305
G0 F9000 X119.164 Y117.467
G1 F802.3 X117.531 Y115.834 E10.19963
G0 F9000 X118.097 Y115.834
G1 F802.3 X119.164 Y116.901 E10.2448
G0 F9000 X119.164 Y116.336
G1 F802.3 X118.663 Y115.834 E10.26603
G0 F9000 X114.72 Y114.622
G0 X114.605 Y114.322
;TYPE:SKIN
G1 F802.3 X114.333 Y114.615 E10.26802
G0 F9000 X114.607 Y114.743
G0 X120.393 Y120.256
G0 X120.633 Y120.35
G1 F802.3 X120.698 Y120.416 E10.26941
G0 F9000 X120.1 Y120.114
;MESH:NONMESH
G0 F300 X120.1 Y120.114 Z0.8
G0 F9000 X119.804 Y119.803
;TIME_ELAPSED:36.689059
;LAYER:3
M106 S255
;TYPE:WALL-INNER
;MESH:speedDrive_endstop.stl
G1 F845.7 X117.464 Y119.805 E10.33945
G1 X115.196 Y119.804 E10.40734
G1 X115.196 Y115.197 E10.54525
G1 X117.536 Y115.195 E10.6153
G1 X119.804 Y115.196 E10.68319
G1 X119.804 Y119.803 E10.82109
G0 F9000 X120.179 Y120.203
G1 F845.7 X117.464 Y120.205 E10.90236
G1 X114.836 Y120.204 E10.98103
G1 X114.796 Y120.156 E10.9829
G1 X114.796 Y114.833 E11.14224
G1 X114.84 Y114.797 E11.14394
G1 X117.536 Y114.795 E11.22465
G1 X120.164 Y114.796 E11.30331
G1 X120.204 Y114.844 E11.30518
G1 X120.204 Y120.145 E11.46386
G1 X120.179 Y120.203 E11.46575
G0 F9000 X120.509 Y120.481
G1 F845.7 X120.338 Y120.586 E11.47176
G1 X120.21 Y120.603 E11.47563
G1 X117.464 Y120.605 E11.55783
G1 X114.785 Y120.604 E11.63802
G1 X114.568 Y120.546 E11.64474
G1 X114.444 Y120.41 E11.65025
G1 X114.396 Y120.203 E11.65661
G1 X114.396 Y114.77 E11.81924
G1 X114.472 Y114.542 E11.82644
G1 X114.61 Y114.435 E11.83167
G1 X114.802 Y114.397 E11.83752
G1 X117.536 Y114.395 E11.91936
G1 X120.215 Y114.396 E11.99956
G1 X120.432 Y114.454 E12.00628
G1 X120.556 Y114.59 E12.01179
G1 X120.604 Y114.797 E12.01815
G1 X120.604 Y120.216 E12.18036
G1 X120.509 Y120.481 E12.18879
G0 F9000 X120.929 Y120.577
;TYPE:WALL-OUTER
G1 F845.7 X120.81 Y120.75 E12.19508
G1 X120.636 Y120.896 E12.20188
G1 X120.443 Y120.976 E12.20813
G1 X120.239 Y121.003 E12.21429
G1 X117.464 Y121.005 E12.29736
G1 X114.751 Y121.004 E12.37857
G1 X114.539 Y120.972 E12.38499
G1 X114.355 Y120.889 E12.39103
G1 X114.192 Y120.753 E12.39738
G1 X114.07 Y120.569 E12.40399
G1 X113.996 Y120.25 E12.41379
G1 X113.996 Y114.737 E12.57882
G1 X114.029 Y114.535 E12.58495
G1 X114.14 Y114.31 E12.59246
G1 X114.275 Y114.169 E12.5983
G1 X114.465 Y114.055 E12.60493
G1 X114.761 Y113.997 E12.61396
G1 X117.536 Y113.995 E12.69703
G1 X120.249 Y113.996 E12.77824
G1 X120.461 Y114.028 E12.78466
G1 X120.645 Y114.111 E12.7907
G1 X120.808 Y114.247 E12.79706
G1 X120.93 Y114.431 E12.80367
G1 X121.004 Y114.75 E12.81347
G1 X121.004 Y120.263 E12.97849
G1 X120.929 Y120.577 E12.98816
G0 F9000 X120.527 Y120.399
G0 X120.444 Y120.369
G0 X119.414 Y119.413
;TYPE:SKIN
G1 F845.7 X117.464 Y119.415 E13.04653
G1 X115.586 Y119.414 E13.10275
G1 X115.586 Y115.587 E13.2173
G1 X117.536 Y115.585 E13.27568
G1 X119.414 Y115.586 E13.33189
G1 X119.414 Y119.413 E13.44645
G0 F9000 X119.252 Y118.9
G1 F845.7 X118.9 Y119.253 E13.46137
G0 F9000 X118.333 Y119.254
G1 F845.7 X119.252 Y118.335 E13.50028
G0 F9000 X119.252 Y117.769
G1 F845.7 X117.767 Y119.254 E13.56314
G0 F9000 X117.202 Y119.254
G1 F845.7 X119.252 Y117.203 E13.64995
G0 F9000 X119.252 Y116.637
G1 F845.7 X116.636 Y119.254 E13.76071
G0 F9000 X116.07 Y119.254
G1 F845.7 X119.252 Y116.072 E13.89542
G0 F9000 X119.013 Y115.745
G1 F845.7 X115.746 Y119.013 E14.03374
G0 F9000 X115.746 Y118.447
G1 F845.7 X118.448 Y115.745 E14.14812
G0 F9000 X117.883 Y115.744
G1 F845.7 X115.746 Y117.881 E14.23859
G0 F9000 X115.746 Y117.316
G1 F845.7 X117.317 Y115.744 E14.30512
G0 F9000 X116.751 Y115.744
G1 F845.7 X115.746 Y116.75 E14.34768
G0 F9000 X115.746 Y116.184
G1 F845.7 X116.185 Y115.745 E14.36627
G0 F9000 X114.764 Y114.62
G0 X114.703 Y114.681
;TYPE:SKIN
G1 F845.7 X114.235 Y114.583 E14.37077
G0 F9000 X114.512 Y114.736
G0 X114.723 Y120.319
G0 X114.69 Y120.351
G1 F845.7 X114.574 Y120.749 E14.37343
G0 F9000 X114.629 Y120.46
G0 X120.331 Y120.473
G0 X120.505 Y120.759
G1 F845.7 X120.575 Y120.688 E14.37492
G0 F9000 X120.703 Y120.56
G1 F845.7 X120.766 Y120.498 E14.37624
G0 F9000 X120.439 Y120.381
G0 X120.314 Y114.727
G1 F845.7 X120.382 Y114.66 E14.37767
G0 F9000 X120.197 Y114.813
;MESH:NONMESH
G0 F300 X120.197 Y114.813 Z1
G0 F9000 X119.845 Y115.155
;TIME_ELAPSED:48.756070
;LAYER:4
;TYPE:WALL-INNER
;MESH:speedDrive_endstop.stl
G1 F607.8 X119.845 Y115.354 E14.38363
G1 X119.844 Y119.844 E14.51803
G1 X115.354 Y119.845 E14.65244
G1 X115.155 Y119.845 E14.65839
G1 X115.155 Y119.646 E14.66225
G1 X115.156 Y115.156 E14.79665
G1 X119.646 Y115.155 E14.93105
G1 X119.845 Y115.155 E14.93491
G0 F9000 X120.225 Y114.77
G1 F607.8 X120.245 Y114.855 E14.93752
G1 X120.245 Y114.991 E14.94159
G1 X120.244 Y120.152 E15.09608
G1 X120.208 Y120.244 E15.09904
G1 X114.968 Y120.245 E15.2559
G1 X114.832 Y120.245 E15.25997
G1 X114.775 Y120.23 E15.26173
G1 X114.755 Y120.145 E15.26434
G1 X114.755 Y120.009 E15.26842
G1 X114.756 Y114.823 E15.42365
G1 X114.77 Y114.777 E15.42509
G1 X114.855 Y114.756 E15.42771
G1 X120.032 Y114.755 E15.58268
G1 X120.168 Y114.755 E15.58675
G1 X120.225 Y114.77 E15.58852
G0 F9000 X120.585 Y114.558
G1 F607.8 X120.645 Y114.808 E15.59621
G1 X120.644 Y120.219 E15.75819
G1 X120.545 Y120.505 E15.76725
G1 X120.361 Y120.622 E15.77378
G1 X120.282 Y120.636 E15.77618
G1 X120.243 Y120.644 E15.77737
G1 X114.777 Y120.645 E15.94099
G1 X114.547 Y120.582 E15.94813
G1 X114.415 Y120.442 E15.95389
G1 X114.355 Y120.192 E15.96158
G1 X114.356 Y114.765 E16.12404
G1 X114.422 Y114.54 E16.13105
G1 X114.554 Y114.417 E16.13645
G1 X114.807 Y114.356 E16.14425
G1 X120.223 Y114.355 E16.30637
G1 X120.453 Y114.418 E16.31351
G1 X120.585 Y114.558 E16.31927
G0 F9000 X120.956 Y114.391
;TYPE:WALL-OUTER
G1 F607.8 X121.045 Y114.76 E16.33063
G1 X121.044 Y120.267 E16.49548
G1 X120.962 Y120.598 E16.50568
G1 X120.849 Y120.771 E16.51187
G1 X120.695 Y120.905 E16.51798
G1 X120.489 Y121.005 E16.52483
G1 X120.277 Y121.044 E16.53129
G1 X114.747 Y121.045 E16.69682
G1 X114.524 Y121.01 E16.70358
G1 X114.334 Y120.925 E16.70981
G1 X114.171 Y120.791 E16.71613
G1 X114.044 Y120.609 E16.72277
G1 X113.955 Y120.24 E16.73413
G1 X113.956 Y114.733 E16.89898
G1 X113.994 Y114.509 E16.90578
G1 X114.083 Y114.32 E16.91203
G1 X114.225 Y114.156 E16.91853
G1 X114.391 Y114.045 E16.92451
G1 X114.757 Y113.956 E16.93578
G1 X120.253 Y113.955 E17.1003
G1 X120.476 Y113.99 E17.10706
G1 X120.666 Y114.075 E17.11329
G1 X120.829 Y114.209 E17.1196
G1 X120.956 Y114.391 E17.12625
G0 F9000 X120.555 Y114.571
G0 X120.505 Y114.617
G0 X119.564 Y116.736
;TYPE:FILL
G1 F1215.6 X118.264 Y115.435 E17.1813
G1 X115.435 Y115.435 E17.26598
G1 X119.563 Y119.563 E17.44074
G1 X116.735 Y119.563 E17.52539
G1 X115.435 Y118.263 E17.58042
G0 F9000 X114.613 Y120.497
G0 X114.54 Y120.763
;TYPE:SKIN
G1 F607.8 X114.626 Y120.849 E17.58224
G0 F9000 X114.715 Y120.525
G0 X120.489 Y120.365
G0 X120.732 Y120.449
G1 F607.8 X120.801 Y120.518 E17.5837
G0 F9000 X120.475 Y120.405
G0 X120.385 Y114.502
G0 X120.458 Y114.235
G1 F607.8 X120.372 Y114.149 E17.58552
G0 F9000 X120.204 Y114.764
;MESH:NONMESH
G0 F300 X120.204 Y114.764 Z1.2
G0 F9000 X119.85 Y119.85
;TIME_ELAPSED:59.988113
;LAYER:5
;TYPE:WALL-INNER
;MESH:speedDrive_endstop.stl
G1 F616.7 X119.651 Y119.85 E17.59148
G1 X115.151 Y119.85 E17.72618
G1 X115.15 Y115.151 E17.86684
G1 X119.849 Y115.15 E18.00751
G1 X119.85 Y119.651 E18.14224
G1 X119.85 Y119.85 E18.14609
G0 F9000 X120.212 Y120.244
G1 F616.7 X120.172 Y120.25 E18.1473
G1 X120.038 Y120.25 E18.15131
G1 X114.854 Y120.25 E18.30649
G1 X114.755 Y120.212 E18.30967
G1 X114.751 Y120.188 E18.3104
G1 X114.75 Y114.854 E18.47006
G1 X114.788 Y114.756 E18.47321
G1 X114.822 Y114.751 E18.47424
G1 X120.146 Y114.75 E18.63361
G1 X120.245 Y114.788 E18.63678
G1 X120.249 Y114.812 E18.63751
G1 X120.25 Y120.012 E18.79317
G1 X120.25 Y120.146 E18.79718
G1 X120.212 Y120.244 E18.80033
G0 F9000 X120.446 Y120.567
G1 F616.7 X120.368 Y120.624 E18.80322
