;1001
;Printer Name: Creality Ender 3
;Print time: 1031s
;Extruder 1 Material used: 1039mm
;Extruder 1 Material name: PLA 1.75mm
;Extruder 1 Filament diameter: 1.75mm
;Extruder 1 Nozzle diameter: 0.4mm
;Extruder 1 offset x: 0mm
;Extruder 1 offset y: 0mm
;Extruder 1 offset z: 0mm
;Max temp: 220
;Bed temp: 60
;Layer Count: 25
;width: 220mm
;depth: 220mm
;height: 250mm
;center x: 110mm
;center y: 110mm
;center z: 0mm
;Count of bodies: 1
;Version of Fusion: 2.0.8407
;--------------------------------
;Selected Profile: PLA 1.75mm, 0.4mm Nozzle
;Selected Printer: Creality, Ender 3
;--------------------------------
M140 S60
M190 S60
M104 S220
M105
M109 S220
G1 F15000
G21
G90
M82
;Reset multiplier
M220 S100
M221 S100
;Enable auto bed leveling
M420 S1 Z2
G28
G1 Z10 F6000
G92 E0
G0 X0 Y0
G92 E0
;--------------------------------
;Layer : 1 of 25
M107
;rapid-leaky
G0 X10 Y10.8 Z0.3
G1 F1800 E0.5
;bead-prime
G1 X210 F270 E40.412
G1 F1800 E39.912
;rapid-dry
G1 F15000
G0 X126.966 Y90.092
G1 F1800 E40.412
;bead-skirt/brim
G1 X128.033 Y93.341 F780 E40.583
G1 X127.614 Y94.901 E40.663
G1 X127.983 Y94.903 E40.682
G1 X128.697 Y94.971 E40.718
G1 X129.659 Y95.228 E40.767
G1 X131.735 Y96.259 E40.883
G1 X133.016 Y97.524 E40.973
G1 X133.945 Y99.438 E41.079
G1 X134.29 Y100.241 E41.122
G1 X135.163 Y102.454 E41.241
G1 X134.3 Y105.782 E41.413
G1 X133.103 Y106.836 E41.492
G1 X133.753 Y107.27 E41.531
G1 X134.579 Y108.096 E41.589
G1 X135.843 Y110.194 E41.712
G1 X136.236 Y111.935 E41.801
G1 X136.048 Y113.639 E41.886
G1 X135.919 Y114.515 E41.93
G1 X135.395 Y117.223 E42.068
G1 X132.91 Y119.588 E42.239
G1 X131.286 Y119.861 E42.321
G1 X131.528 Y120.402 E42.351
G1 X131.778 Y121.337 E42.399
G1 X131.833 Y122.161 E42.44
G1 X131.765 Y124.165 E42.541
G1 X131.156 Y125.855 E42.63
G1 X129.832 Y127.459 E42.734
G1 X129.253 Y128.103 E42.777
G1 X127.567 Y129.867 E42.899
G1 X124.171 Y130.464 E43.071
G1 X122.722 Y129.817 E43.15
G1 X122.651 Y130.292 E43.174
G1 X122.407 Y131.168 E43.219
G1 X121.975 Y132 E43.266
G1 X120.798 Y133.705 E43.37
G1 X119.379 Y134.793 E43.459
G1 X117.805 Y135.308 E43.541
G1 X116.988 Y135.548 E43.584
G1 X116.172 Y135.758 E43.626
G1 X114.042 Y136.246 E43.735
G1 X110.885 Y134.917 E43.906
G1 X110.012 Y133.573 E43.986
G1 X109.415 Y134.222 E44.03
G1 X108.48 Y134.881 E44.087
G1 X106.287 Y135.792 E44.205
G1 X104.485 Y135.93 E44.295
G1 X102.652 Y135.435 E44.39
G1 X101.818 Y135.175 E44.434
G1 X99.363 Y134.317 E44.564
G1 X97.422 Y131.461 E44.736
G1 X97.414 Y129.877 E44.815
G1 X96.777 Y130.056 E44.848
G1 X95.786 Y130.152 E44.897
G1 X95.021 Y130.081 E44.936
G1 X93.056 Y129.725 E45.035
G1 X91.495 Y128.869 E45.124
G1 X90.494 Y127.783 E45.198
G1 X89.941 Y127.147 E45.24
G1 X89.411 Y126.496 E45.282
G1 X88.044 Y124.721 E45.394
G1 X87.949 Y121.292 E45.565
G1 X88.8 Y119.951 E45.644
G1 X88.289 Y119.796 E45.671
G1 X87.441 Y119.402 E45.717
G1 X86.726 Y118.874 E45.762
G1 X85.243 Y117.489 E45.863
G1 X84.362 Y115.925 E45.953
G1 X84.052 Y114.079 E46.046
G1 X83.939 Y113.213 E46.089
G1 X83.69 Y110.577 E46.222
G1 X85.474 Y107.609 E46.394
G1 X86.918 Y106.945 E46.474
G1 X86.665 Y106.649 E46.493
G1 X86.25 Y106.062 E46.529
G1 X85.82 Y105.168 E46.578
G1 X85.253 Y102.953 E46.692
G1 X85.36 Y101.15 E46.783
G1 X86.24 Y99.122 E46.893
G1 X86.635 Y98.317 E46.938
G1 X87.696 Y96.294 E47.052
G1 X90.788 Y94.771 E47.224
G1 X92.353 Y94.992 E47.302
G1 X92.284 Y94.496 E47.327
G1 X92.294 Y93.206 E47.392
G1 X93.114 Y90.709 E47.523
G1 X94.194 Y89.264 E47.613
G1 X95.678 Y88.254 E47.702
G1 X96.418 Y87.79 E47.746
G1 X98.73 Y86.451 E47.879
G1 X102.176 Y86.83 E48.052
G1 X103.391 Y87.874 E48.132
G1 X103.665 Y87.282 E48.165
G1 X104.218 Y86.499 E48.213
G1 X104.761 Y85.956 E48.251
G1 X106.324 Y84.692 E48.351
G1 X108.003 Y84.036 E48.441
G1 X110.21 Y83.99 E48.551
G1 X111.085 Y84.011 E48.595
G1 X113.422 Y84.141 E48.712
G1 X116.092 Y86.308 E48.883
G1 X116.549 Y87.836 E48.963
G1 X116.967 Y87.57 E48.987
G1 X117.792 Y87.187 E49.033
G1 X118.688 Y86.974 E49.079
G1 X120.772 Y86.749 E49.183
G1 X122.491 Y87.122 E49.271
G1 X123.999 Y88.023 E49.359
G1 X124.726 Y88.497 E49.402
G1 X126.966 Y90.092 E49.539
;rapid-leaky
G1 F15000
G0 X126.627 Y90.341
;bead-skirt/brim
G1 X127.616 Y93.352 F780 E49.697
G1 X127.201 Y94.898 E49.777
G1 X127.2 Y95.013 E49.783
G1 X127.254 Y95.148 E49.79
G1 X127.357 Y95.247 E49.797
G1 X127.479 Y95.293 E49.804
G1 X127.964 Y95.303 E49.828
G1 X128.626 Y95.366 E49.861
G1 X129.517 Y95.604 E49.907
G1 X131.5 Y96.588 E50.018
G1 X132.686 Y97.761 E50.101
G1 X133.581 Y99.605 E50.203
G1 X133.92 Y100.394 E50.246
G1 X134.743 Y102.479 E50.358
G1 X133.943 Y105.563 E50.517
G1 X132.834 Y106.539 E50.59
G1 X132.72 Y106.672 E50.599
G1 X132.687 Y106.756 E50.604
G1 X132.675 Y106.85 E50.608
G1 X132.71 Y106.99 E50.616
G1 X132.788 Y107.095 E50.622
G1 X133.498 Y107.58 E50.665
G1 X134.262 Y108.344 E50.719
G1 X135.467 Y110.345 E50.835
G1 X135.831 Y111.958 E50.918
G1 X135.651 Y113.588 E51
G1 X135.525 Y114.448 E51.043
G1 X135.027 Y117.021 E51.174
G1 X132.723 Y119.214 E51.333
G1 X131.111 Y119.485 E51.414
G1 X130.994 Y119.543 E51.421
G1 X130.906 Y119.647 E51.427
G1 X130.861 Y119.802 E51.436
G1 X130.873 Y119.9 E51.44
G1 X131.15 Y120.536 E51.475
G1 X131.381 Y121.402 E51.52
G1 X131.432 Y122.168 E51.558
G1 X131.367 Y124.089 E51.654
G1 X130.803 Y125.654 E51.737
G1 X129.529 Y127.197 E51.837
G1 X128.959 Y127.831 E51.879
G1 X127.368 Y129.496 E51.994
G1 X124.222 Y130.049 E52.154
G1 X122.874 Y129.446 E52.227
G1 X122.717 Y129.398 E52.235
G1 X122.615 Y129.404 E52.241
G1 X122.519 Y129.437 E52.246
G1 X122.414 Y129.521 E52.252
G1 X122.355 Y129.623 E52.258
G1 X122.259 Y130.209 E52.288
G1 X122.033 Y131.02 E52.33
G1 X121.632 Y131.793 E52.373
G1 X120.504 Y133.426 E52.472
G1 X119.189 Y134.434 E52.555
G1 X117.686 Y134.926 E52.634
G1 X116.881 Y135.162 E52.676
G1 X116.077 Y135.369 E52.717
G1 X114.079 Y135.827 E52.819
G1 X111.154 Y134.596 E52.978
G1 X110.342 Y133.344 E53.052
G1 X110.272 Y133.256 E53.058
G1 X110.192 Y133.192 E53.063
G1 X110.108 Y133.157 E53.067
G1 X110.027 Y133.146 E53.071
G1 X109.883 Y133.173 E53.079
G1 X109.8 Y133.225 E53.084
G1 X109.149 Y133.92 E53.131
G1 X108.286 Y134.529 E53.184
G1 X106.192 Y135.398 E53.297
G1 X104.523 Y135.526 E53.381
G1 X102.764 Y135.05 E53.471
G1 X101.944 Y134.795 E53.514
G1 X99.619 Y133.983 E53.637
G1 X97.821 Y131.337 E53.797
G1 X97.815 Y129.866 E53.87
G1 X97.805 Y129.756 E53.876
G1 X97.77 Y129.65 E53.881
G1 X97.721 Y129.579 E53.885
G1 X97.659 Y129.524 E53.89
G1 X97.541 Y129.473 E53.896
G1 X97.428 Y129.466 E53.902
G1 X96.703 Y129.661 E53.939
G1 X95.785 Y129.75 E53.985
G1 X95.075 Y129.684 E54.021
G1 X93.191 Y129.343 E54.116
G1 X91.744 Y128.55 E54.199
G1 X90.793 Y127.517 E54.269
G1 X90.247 Y126.889 E54.31
G1 X89.724 Y126.247 E54.351
G1 X88.44 Y124.58 E54.456
G1 X88.352 Y121.403 E54.615
G1 X89.194 Y120.061 E54.694
G1 X89.219 Y119.976 E54.698
G1 X89.223 Y119.884 E54.703
G1 X89.184 Y119.758 E54.71
G1 X89.107 Y119.66 E54.716
G1 X89.033 Y119.611 E54.72
G1 X88.432 Y119.421 E54.752
G1 X87.646 Y119.056 E54.795
G1 X86.982 Y118.566 E54.836
G1 X85.561 Y117.239 E54.933
G1 X84.745 Y115.789 E55.016
G1 X84.448 Y114.02 E55.106
G1 X84.337 Y113.168 E55.148
G1 X84.101 Y110.67 E55.274
G1 X85.754 Y107.921 E55.434
G1 X87.102 Y107.3 E55.508
G1 X87.192 Y107.249 E55.513
G1 X87.267 Y107.183 E55.518
G1 X87.336 Y107.041 E55.526
G1 X87.341 Y106.906 E55.533
G1 X87.295 Y106.782 E55.539
G1 X86.981 Y106.403 E55.564
G1 X86.596 Y105.858 E55.597
G1 X86.197 Y105.03 E55.643
G1 X85.656 Y102.914 E55.752
G1 X85.755 Y101.244 E55.835
G1 X86.604 Y99.29 E55.942
G1 X86.992 Y98.498 E55.986
G1 X87.99 Y96.595 E56.093
G1 X90.854 Y95.184 E56.252
G1 X92.348 Y95.395 E56.327
G1 X92.531 Y95.376 E56.337
G1 X92.65 Y95.305 E56.343
G1 X92.731 Y95.189 E56.35
G1 X92.76 Y95.059 E56.357
G1 X92.684 Y94.47 E56.387
G1 X92.694 Y93.271 E56.447
G1 X93.473 Y90.896 E56.571
G1 X94.474 Y89.557 E56.655
G1 X95.897 Y88.589 E56.741
G1 X96.625 Y88.133 E56.783
G1 X98.817 Y86.863 E56.91
G1 X102.009 Y87.214 E57.07
G1 X103.142 Y88.188 E57.145
G1 X103.285 Y88.278 E57.153
G1 X103.395 Y88.301 E57.159
G1 X103.475 Y88.295 E57.163
G1 X103.6 Y88.244 E57.169
G1 X103.693 Y88.152 E57.176
G1 X104.013 Y87.483 E57.213
G1 X104.525 Y86.757 E57.257
G1 X105.029 Y86.253 E57.293
G1 X106.527 Y85.042 E57.389
G1 X108.082 Y84.434 E57.472
G1 X110.209 Y84.39 E57.578
G1 X111.069 Y84.411 E57.621
G1 X113.27 Y84.533 E57.731
G1 X115.744 Y86.541 E57.89
G1 X116.166 Y87.956 E57.964
G1 X116.235 Y88.112 E57.972
G1 X116.303 Y88.184 E57.977
G1 X116.387 Y88.235 E57.982
G1 X116.534 Y88.26 E57.99
G1 X116.657 Y88.232 E57.996
G1 X117.159 Y87.922 E58.025
G1 X117.924 Y87.567 E58.067
G1 X118.756 Y87.369 E58.11
G1 X120.751 Y87.153 E58.21
G1 X122.344 Y87.5 E58.291
G1 X123.786 Y88.361 E58.375
G1 X124.501 Y88.827 E58.418
G1 X126.627 Y90.341 E58.548
;rapid-leaky
G1 F15000
G0 X126.288 Y90.591
;bead-skirt/brim
G1 X127.199 Y93.363 F780 E58.694
G1 X126.808 Y94.82 E58.769
G1 X126.797 Y94.904 E58.773
G1 X126.806 Y95.088 E58.782
G1 X126.868 Y95.277 E58.792
G1 X126.923 Y95.376 E58.798
G1 X127.072 Y95.535 E58.809
G1 X127.227 Y95.631 E58.818
G1 X127.319 Y95.666 E58.823
G1 X127.526 Y95.701 E58.833
G1 X127.944 Y95.703 E58.854
G1 X128.555 Y95.761 E58.885
G1 X129.375 Y95.98 E58.927
G1 X131.264 Y96.918 E59.032
G1 X132.356 Y97.997 E59.109
G1 X133.217 Y99.771 E59.207
G1 X133.55 Y100.546 E59.249
G1 X134.323 Y102.505 E59.354
G1 X133.587 Y105.344 E59.501
G1 X132.557 Y106.25 E59.569
G1 X132.432 Y106.38 E59.578
G1 X132.37 Y106.478 E59.584
G1 X132.299 Y106.655 E59.593
G1 X132.274 Y106.862 E59.604
G1 X132.288 Y106.979 E59.61
G1 X132.348 Y107.163 E59.619
G1 X132.449 Y107.32 E59.629
G1 X132.515 Y107.389 E59.634
G1 X132.624 Y107.478 E59.64
G1 X133.243 Y107.891 E59.678
G1 X133.944 Y108.592 E59.727
G1 X135.091 Y110.496 E59.838
G1 X135.426 Y111.981 E59.914
G1 X135.254 Y113.537 E59.992
G1 X135.13 Y114.381 E60.035
G1 X134.659 Y116.819 E60.159
G1 X132.536 Y118.84 E60.305
G1 X130.945 Y119.117 E60.385
G1 X130.751 Y119.223 E60.396
G1 X130.669 Y119.298 E60.402
G1 X130.606 Y119.374 E60.407
G1 X130.515 Y119.537 E60.416
G1 X130.478 Y119.652 E60.422
G1 X130.46 Y119.789 E60.429
G1 X130.485 Y119.999 E60.44
G1 X130.522 Y120.112 E60.446
G1 X130.772 Y120.671 E60.476
G1 X130.985 Y121.468 E60.517
G1 X131.032 Y122.174 E60.553
G1 X130.97 Y124.012 E60.644
G1 X130.451 Y125.453 E60.721
G1 X129.226 Y126.936 E60.817
G1 X128.666 Y127.559 E60.858
G1 X127.17 Y129.124 E60.966
G1 X124.273 Y129.634 E61.113
G1 X123.021 Y129.074 E61.182
G1 X122.878 Y129.024 E61.189
G1 X122.763 Y128.999 E61.195
G1 X122.546 Y129.009 E61.206
G1 X122.437 Y129.035 E61.211
G1 X122.242 Y129.138 E61.222
G1 X122.107 Y129.263 E61.232
G1 X122.038 Y129.356 E61.237
G1 X121.977 Y129.485 E61.245
G1 X121.943 Y129.615 E61.251
G1 X121.867 Y130.125 E61.277
G1 X121.659 Y130.873 E61.316
G1 X121.288 Y131.587 E61.356
G1 X120.211 Y133.147 E61.45
G1 X119 Y134.075 E61.527
G1 X117.568 Y134.544 E61.602
G1 X116.775 Y134.776 E61.643
G1 X115.982 Y134.981 E61.684
G1 X114.115 Y135.408 E61.779
G1 X111.422 Y134.275 E61.925
G1 X110.667 Y133.111 E61.994
G1 X110.571 Y132.989 E62.002
G1 X110.493 Y132.912 E62.008
G1 X110.31 Y132.804 E62.018
G1 X110.129 Y132.753 E62.028
G1 X109.933 Y132.75 E62.037
G1 X109.728 Y132.802 E62.048
G1 X109.548 Y132.913 E62.058
G1 X109.441 Y133.011 E62.066
G1 X108.884 Y133.618 E62.107
G1 X108.091 Y134.177 E62.155
G1 X106.098 Y135.004 E62.263
G1 X104.561 Y135.122 E62.34
G1 X102.875 Y134.666 E62.427
G1 X102.069 Y134.415 E62.469
G1 X99.876 Y133.649 E62.585
G1 X98.221 Y131.213 E62.732
G1 X98.215 Y129.847 E62.8
G1 X98.201 Y129.694 E62.808
G1 X98.174 Y129.576 E62.814
G1 X98.079 Y129.386 E62.824
G1 X98.02 Y129.312 E62.829
G1 X97.882 Y129.191 E62.838
G1 X97.796 Y129.141 E62.843
G1 X97.624 Y129.081 E62.852
G1 X97.501 Y129.063 E62.858
G1 X97.385 Y129.068 E62.864
G1 X97.259 Y129.09 E62.871
G1 X96.629 Y129.266 E62.903
G1 X95.785 Y129.348 E62.946
G1 X95.129 Y129.288 E62.978
G1 X93.327 Y128.961 E63.07
G1 X91.994 Y128.231 E63.146
G1 X91.091 Y127.25 E63.212
G1 X90.553 Y126.632 E63.253
G1 X90.038 Y125.999 E63.294
G1 X88.836 Y124.438 E63.392
G1 X88.755 Y121.515 E63.538
G1 X89.49 Y120.358 E63.606
G1 X89.56 Y120.223 E63.614
G1 X89.615 Y120.041 E63.623
G1 X89.625 Y119.941 E63.628
G1 X89.608 Y119.76 E63.637
G1 X89.54 Y119.575 E63.647
G1 X89.435 Y119.422 E63.656
G1 X89.369 Y119.357 E63.661
G1 X89.211 Y119.252 E63.671
G1 X88.575 Y119.046 E63.704
G1 X87.851 Y118.71 E63.744
G1 X87.239 Y118.258 E63.782
G1 X85.879 Y116.989 E63.874
G1 X85.128 Y115.654 E63.951
G1 X84.843 Y113.961 E64.037
G1 X84.734 Y113.124 E64.079
G1 X84.512 Y110.764 E64.197
G1 X86.033 Y108.233 E64.344
G1 X87.286 Y107.656 E64.413
G1 X87.414 Y107.582 E64.42
G1 X87.575 Y107.441 E64.431
G1 X87.656 Y107.323 E64.438
G1 X87.727 Y107.13 E64.449
G1 X87.746 Y106.936 E64.458
G1 X87.716 Y106.752 E64.468
G1 X87.684 Y106.662 E64.472
G1 X87.576 Y106.484 E64.483
G1 X87.297 Y106.157 E64.504
G1 X86.942 Y105.654 E64.535
G1 X86.575 Y104.893 E64.577
G1 X86.059 Y102.875 E64.681
G1 X86.15 Y101.339 E64.758
G1 X86.967 Y99.458 E64.86
G1 X87.348 Y98.679 E64.903
G1 X88.283 Y96.896 E65.004
G1 X90.92 Y95.598 E65.15
G1 X92.323 Y95.795 E65.221
G1 X92.481 Y95.793 E65.229
G1 X92.662 Y95.754 E65.238
G1 X92.829 Y95.672 E65.247
G1 X92.923 Y95.6 E65.253
G1 X93.002 Y95.512 E65.259
G1 X93.098 Y95.35 E65.269
G1 X93.151 Y95.175 E65.278
G1 X93.16 Y95.072 E65.283
G1 X93.085 Y94.444 E65.315
G1 X93.093 Y93.337 E65.37
G1 X93.833 Y91.083 E65.488
G1 X94.754 Y89.85 E65.565
G1 X96.115 Y88.924 E65.647
G1 X96.831 Y88.475 E65.689
G1 X98.904 Y87.275 E65.809
G1 X101.842 Y87.598 E65.956
G1 X102.896 Y88.503 E66.025
G1 X103.038 Y88.605 E66.034
G1 X103.258 Y88.688 E66.046
G1 X103.376 Y88.701 E66.052
G1 X103.557 Y88.688 E66.061
G1 X103.648 Y88.663 E66.066
G1 X103.822 Y88.578 E66.075
G1 X103.966 Y88.452 E66.085
G1 X104.023 Y88.38 E66.089
G1 X104.087 Y88.273 E66.096
G1 X104.36 Y87.684 E66.128
G1 X104.832 Y87.016 E66.169
G1 X105.297 Y86.551 E66.202
G1 X106.73 Y85.392 E66.294
G1 X108.161 Y84.833 E66.37
G1 X110.208 Y84.79 E66.472
G1 X111.053 Y84.811 E66.514
G1 X113.119 Y84.926 E66.618
G1 X115.396 Y86.774 E66.764
G1 X115.788 Y88.087 E66.832
G1 X115.85 Y88.242 E66.841
G1 X115.904 Y88.339 E66.846
G1 X115.98 Y88.43 E66.852
G1 X116.125 Y88.548 E66.862
G1 X116.232 Y88.606 E66.868
G1 X116.435 Y88.656 E66.878
G1 X116.541 Y88.661 E66.883
G1 X116.713 Y88.636 E66.892
G1 X116.915 Y88.551 E66.903
G1 X117.351 Y88.274 E66.929
G1 X118.056 Y87.947 E66.967
G1 X118.824 Y87.764 E67.007
G1 X120.729 Y87.558 E67.102
G1 X122.196 Y87.877 E67.177
G1 X123.573 Y88.7 E67.257
G1 X124.276 Y89.158 E67.299
G1 X126.288 Y90.591 E67.423
;rapid-leaky
G1 F15000
G0 X125.949 Y90.841
;bead-skirt/brim
G1 X126.782 Y93.375 F780 E67.556
G1 X126.414 Y94.742 E67.626
G1 X126.397 Y94.878 E67.633
G1 X126.413 Y95.164 E67.647
G1 X126.452 Y95.315 E67.655
G1 X126.506 Y95.449 E67.662
G1 X126.592 Y95.604 E67.671
G1 X126.71 Y95.745 E67.68
G1 X126.819 Y95.846 E67.688
G1 X127.061 Y95.996 E67.702
G1 X127.2 Y96.049 E67.709
G1 X127.503 Y96.101 E67.725
G1 X127.924 Y96.103 E67.746
G1 X128.484 Y96.156 E67.774
G1 X129.233 Y96.356 E67.813
G1 X131.029 Y97.248 E67.913
G1 X132.026 Y98.233 E67.982
G1 X132.853 Y99.938 E68.077
G1 X133.181 Y100.699 E68.118
G1 X133.904 Y102.531 E68.217
G1 X133.23 Y105.124 E68.35
G1 X132.28 Y105.961 E68.413
G1 X132.117 Y106.131 E68.425
G1 X132.019 Y106.283 E68.434
G1 X131.911 Y106.554 E68.449
G1 X131.883 Y106.697 E68.456
G1 X131.872 Y106.874 E68.465
G1 X131.895 Y107.054 E68.474
G1 X131.932 Y107.198 E68.481
G1 X132.056 Y107.461 E68.496
G1 X132.142 Y107.578 E68.503
G1 X132.243 Y107.683 E68.51
G1 X132.386 Y107.8 E68.52
G1 X132.988 Y108.202 E68.556
G1 X133.627 Y108.84 E68.601
G1 X134.715 Y110.648 E68.706
G1 X135.021 Y112.003 E68.775
G1 X134.857 Y113.486 E68.85
G1 X134.736 Y114.314 E68.891
G1 X134.29 Y116.618 E69.009
G1 X132.348 Y118.466 E69.142
G1 X130.925 Y118.704 E69.214
G1 X130.803 Y118.742 E69.221
G1 X130.67 Y118.802 E69.228
G1 X130.507 Y118.903 E69.238
G1 X130.379 Y119.022 E69.246
G1 X130.283 Y119.137 E69.254
G1 X130.143 Y119.388 E69.268
G1 X130.085 Y119.566 E69.277
G1 X130.058 Y119.775 E69.288
G1 X130.069 Y119.954 E69.297
G1 X130.148 Y120.256 E69.312
G1 X130.394 Y120.805 E69.342
G1 X130.588 Y121.533 E69.38
G1 X130.631 Y122.181 E69.412
G1 X130.572 Y123.936 E69.5
G1 X130.098 Y125.252 E69.57
G1 X128.923 Y126.675 E69.662
G1 X128.372 Y127.287 E69.703
G1 X126.971 Y128.753 E69.804
G1 X124.325 Y129.219 E69.938
G1 X123.169 Y128.702 E70.001
G1 X122.986 Y128.638 E70.011
G1 X122.809 Y128.6 E70.02
G1 X122.632 Y128.597 E70.029
G1 X122.477 Y128.614 E70.037
G1 X122.306 Y128.655 E70.045
G1 X122.142 Y128.729 E70.054
G1 X122.01 Y128.811 E70.062
G1 X121.8 Y129.006 E70.076
G1 X121.694 Y129.15 E70.085
G1 X121.6 Y129.347 E70.096
G1 X121.551 Y129.535 E70.106
G1 X121.475 Y130.042 E70.132
G1 X121.285 Y130.726 E70.167
G1 X120.945 Y131.38 E70.204
G1 X119.918 Y132.868 E70.294
G1 X118.811 Y133.716 E70.364
G1 X117.449 Y134.162 E70.435
G1 X116.669 Y134.391 E70.476
G1 X115.888 Y134.592 E70.516
G1 X114.151 Y134.99 E70.605
G1 X111.691 Y133.954 E70.738
G1 X110.993 Y132.878 E70.802
G1 X110.87 Y132.722 E70.812
G1 X110.748 Y132.601 E70.82
G1 X110.593 Y132.498 E70.83
G1 X110.322 Y132.385 E70.844
G1 X110.042 Y132.344 E70.858
G1 X109.889 Y132.351 E70.866
G1 X109.756 Y132.375 E70.873
G1 X109.568 Y132.433 E70.883
G1 X109.419 Y132.514 E70.891
G1 X109.295 Y132.602 E70.899
G1 X109.158 Y132.728 E70.908
G1 X108.618 Y133.316 E70.948
G1 X107.897 Y133.824 E70.992
G1 X106.004 Y134.61 E71.094
G1 X104.599 Y134.718 E71.164
G1 X102.987 Y134.282 E71.248
G1 X102.195 Y134.035 E71.289
G1 X100.132 Y133.315 E71.398
G1 X98.62 Y131.089 E71.532
G1 X98.615 Y129.827 E71.595
G1 X98.597 Y129.632 E71.605
G1 X98.556 Y129.451 E71.614
G1 X98.483 Y129.282 E71.623
G1 X98.409 Y129.159 E71.631
G1 X98.319 Y129.045 E71.638
G1 X98.105 Y128.858 E71.652
G1 X97.837 Y128.725 E71.667
G1 X97.522 Y128.661 E71.683
G1 X97.342 Y128.669 E71.692
G1 X97.17 Y128.699 E71.701
G1 X96.555 Y128.872 E71.733
G1 X95.784 Y128.946 E71.771
G1 X95.183 Y128.891 E71.801
G1 X93.462 Y128.579 E71.889
G1 X92.244 Y127.912 E71.958
G1 X91.389 Y126.983 E72.021
G1 X90.859 Y126.374 E72.061
G1 X90.352 Y125.751 E72.101
G1 X89.232 Y124.297 E72.193
G1 X89.159 Y121.626 E72.326
G1 X89.837 Y120.558 E72.389
G1 X89.927 Y120.384 E72.399
G1 X89.978 Y120.245 E72.406
G1 X90.011 Y120.105 E72.413
G1 X90.021 Y119.808 E72.428
G1 X89.959 Y119.533 E72.442
G1 X89.897 Y119.391 E72.45
G1 X89.824 Y119.27 E72.457
G1 X89.632 Y119.054 E72.472
G1 X89.39 Y118.893 E72.486
G1 X89.241 Y118.83 E72.494
G1 X88.717 Y118.672 E72.521
G1 X88.056 Y118.365 E72.558
G1 X87.495 Y117.95 E72.593
G1 X86.198 Y116.739 E72.681
G1 X85.511 Y115.519 E72.751
G1 X85.239 Y113.902 E72.833
G1 X85.132 Y113.079 E72.874
G1 X84.922 Y110.857 E72.986
G1 X86.312 Y108.545 E73.12
G1 X87.47 Y108.012 E73.184
G1 X87.636 Y107.916 E73.193
G1 X87.752 Y107.828 E73.201
G1 X87.883 Y107.699 E73.21
G1 X88.007 Y107.518 E73.221
G1 X88.118 Y107.219 E73.237
G1 X88.146 Y106.923 E73.251
G1 X88.133 Y106.779 E73.259
G1 X88.051 Y106.502 E73.273
G1 X87.894 Y106.241 E73.288
G1 X87.613 Y105.912 E73.31
G1 X87.288 Y105.451 E73.338
G1 X86.952 Y104.755 E73.377
G1 X86.462 Y102.837 E73.475
G1 X86.545 Y101.433 E73.545
G1 X87.33 Y99.626 E73.644
G1 X87.705 Y98.86 E73.686
G1 X88.577 Y97.197 E73.78
G1 X90.987 Y96.011 E73.914
G1 X92.282 Y96.193 E73.979
G1 X92.512 E73.991
G1 X92.792 Y96.133 E74.005
G1 X92.926 Y96.078 E74.012
G1 X93.051 Y96.005 E74.019
G1 X93.196 Y95.895 E74.028
G1 X93.317 Y95.759 E74.038
G1 X93.397 Y95.643 E74.045
G1 X93.465 Y95.511 E74.052
G1 X93.546 Y95.239 E74.066
G1 X93.556 Y94.936 E74.081
G1 X93.485 Y94.418 E74.107
G1 X93.493 Y93.402 E74.158
G1 X94.193 Y91.27 E74.27
G1 X95.035 Y90.143 E74.34
G1 X96.334 Y89.259 E74.419
G1 X97.038 Y88.818 E74.46
G1 X98.991 Y87.687 E74.573
G1 X101.676 Y87.982 E74.707
G1 X102.649 Y88.819 E74.771
G1 X102.837 Y88.952 E74.783
G1 X102.999 Y89.027 E74.792
G1 X103.176 Y89.081 E74.801
G1 X103.357 Y89.102 E74.81
G1 X103.638 Y89.08 E74.824
G1 X103.923 Y88.981 E74.839
G1 X104.158 Y88.824 E74.853
G1 X104.265 Y88.72 E74.861
G1 X104.441 Y88.461 E74.877
G1 X104.708 Y87.885 E74.908
G1 X105.139 Y87.275 E74.945
G1 X105.565 Y86.849 E74.975
G1 X106.934 Y85.742 E75.063
G1 X108.241 Y85.231 E75.133
G1 X110.207 Y85.19 E75.231
G1 X111.037 Y85.211 E75.273
G1 X112.967 Y85.318 E75.369
G1 X115.048 Y87.007 E75.503
G1 X115.41 Y88.219 E75.566
G1 X115.488 Y88.414 E75.577
G1 X115.574 Y88.569 E75.585
G1 X115.69 Y88.707 E75.594
G1 X115.914 Y88.889 E75.609
G1 X116.077 Y88.976 E75.618
G1 X116.249 Y89.03 E75.627
G1 X116.391 Y89.055 E75.634
G1 X116.547 Y89.062 E75.642
G1 X116.819 Y89.023 E75.656
G1 X116.966 Y88.972 E75.664
G1 X117.112 Y88.9 E75.672
G1 X117.544 Y88.626 E75.697
G1 X118.188 Y88.327 E75.733
G1 X118.892 Y88.159 E75.769
G1 X120.708 Y87.963 E75.86
G1 X122.048 Y88.254 E75.928
G1 X123.36 Y89.039 E76.004
G1 X124.05 Y89.489 E76.046
G1 X125.949 Y90.841 E76.162
;rapid-leaky
G1 F15000
G0 X125.61 Y91.09
;bead-skirt/brim
G1 X126.364 Y93.386 F780 E76.282
G1 X126.021 Y94.663 E76.348
G1 X125.997 Y94.852 E76.358
G1 X125.996 Y95.058 E76.368
G1 X126.019 Y95.239 E76.377
G1 X126.071 Y95.44 E76.388
G1 X126.144 Y95.621 E76.397
G1 X126.254 Y95.819 E76.409
G1 X126.42 Y96.022 E76.422
G1 X126.566 Y96.157 E76.432
G1 X126.724 Y96.269 E76.441
G1 X126.895 Y96.361 E76.451
G1 X127.081 Y96.432 E76.461
G1 X127.27 Y96.478 E76.471
G1 X127.48 Y96.501 E76.481
G1 X127.904 Y96.503 E76.502
G1 X128.413 Y96.551 E76.528
G1 X129.091 Y96.732 E76.563
G1 X130.793 Y97.578 E76.658
G1 X131.696 Y98.47 E76.721
G1 X132.489 Y100.104 E76.812
G1 X132.811 Y100.851 E76.852
G1 X133.484 Y102.556 E76.944
G1 X132.874 Y104.905 E77.065
G1 X132.002 Y105.672 E77.123
G1 X131.793 Y105.895 E77.138
G1 X131.668 Y106.089 E77.149
G1 X131.585 Y106.266 E77.159
G1 X131.523 Y106.453 E77.169
G1 X131.486 Y106.646 E77.179
G1 X131.473 Y106.902 E77.192
G1 X131.501 Y107.129 E77.203
G1 X131.551 Y107.323 E77.213
G1 X131.625 Y107.507 E77.223
G1 X131.719 Y107.677 E77.233
G1 X131.835 Y107.835 E77.242
G1 X131.971 Y107.978 E77.252
G1 X132.148 Y108.122 E77.264
G1 X132.733 Y108.512 E77.299
G1 X133.309 Y109.089 E77.339
G1 X134.339 Y110.799 E77.439
G1 X134.617 Y112.026 E77.502
G1 X134.461 Y113.435 E77.573
G1 X134.342 Y114.247 E77.613
G1 X133.922 Y116.416 E77.724
G1 X132.161 Y118.091 E77.845
G1 X130.833 Y118.314 E77.912
G1 X130.661 Y118.368 E77.921
G1 X130.482 Y118.449 E77.931
G1 X130.275 Y118.577 E77.943
G1 X130.089 Y118.745 E77.956
G1 X129.96 Y118.899 E77.966
G1 X129.855 Y119.062 E77.975
G1 X129.771 Y119.239 E77.985
G1 X129.691 Y119.496 E77.998
G1 X129.659 Y119.742 E78.011
G1 X129.672 Y120.004 E78.024
G1 X129.708 Y120.197 E78.034
G1 X129.774 Y120.4 E78.044
G1 X130.016 Y120.939 E78.074
G1 X130.192 Y121.599 E78.108
G1 X130.231 Y122.187 E78.137
G1 X130.174 Y123.86 E78.221
G1 X129.745 Y125.051 E78.284
G1 X128.619 Y126.414 E78.372
G1 X128.079 Y127.016 E78.413
G1 X126.773 Y128.382 E78.507
G1 X124.376 Y128.804 E78.628
G1 X123.317 Y128.33 E78.686
G1 X123.094 Y128.252 E78.698
G1 X122.873 Y128.205 E78.709
G1 X122.614 Y128.197 E78.722
G1 X122.408 Y128.219 E78.732
G1 X122.184 Y128.273 E78.744
G1 X121.954 Y128.376 E78.757
G1 X121.778 Y128.484 E78.767
G1 X121.629 Y128.605 E78.776
G1 X121.493 Y128.748 E78.786
G1 X121.342 Y128.957 E78.799
G1 X121.229 Y129.195 E78.812
G1 X121.158 Y129.454 E78.826
G1 X121.083 Y129.958 E78.851
G1 X120.911 Y130.578 E78.883
G1 X120.601 Y131.174 E78.917
G1 X119.624 Y132.589 E79.002
G1 X118.622 Y133.357 E79.065
G1 X117.331 Y133.78 E79.133
G1 X116.562 Y134.005 E79.173
G1 X115.793 Y134.203 E79.213
G1 X114.188 Y134.571 E79.295
G1 X111.959 Y133.633 E79.416
G1 X111.319 Y132.645 E79.474
G1 X111.169 Y132.455 E79.486
G1 X110.983 Y132.277 E79.499
G1 X110.793 Y132.151 E79.511
G1 X110.619 Y132.064 E79.52
G1 X110.429 Y131.999 E79.53
G1 X110.245 Y131.96 E79.54
G1 X110.05 Y131.944 E79.55
G1 X109.845 Y131.953 E79.56
G1 X109.663 Y131.985 E79.569
G1 X109.441 Y132.053 E79.581
G1 X109.207 Y132.174 E79.594
G1 X109.043 Y132.291 E79.604
G1 X108.875 Y132.445 E79.615
G1 X108.353 Y133.013 E79.654
G1 X107.703 Y133.472 E79.693
G1 X105.91 Y134.216 E79.79
G1 X104.637 Y134.313 E79.854
G1 X103.099 Y133.898 E79.933
G1 X102.32 Y133.655 E79.974
G1 X100.389 Y132.981 E80.076
G1 X99.02 Y130.966 E80.198
G1 X99.015 Y129.808 E80.255
G1 X98.993 Y129.57 E80.267
G1 X98.943 Y129.345 E80.279
G1 X98.839 Y129.099 E80.292
G1 X98.739 Y128.932 E80.302
G1 X98.617 Y128.778 E80.312
G1 X98.476 Y128.638 E80.322
G1 X98.327 Y128.524 E80.331
G1 X98.152 Y128.423 E80.341
G1 X97.968 Y128.346 E80.351
G1 X97.79 Y128.297 E80.36
G1 X97.556 Y128.262 E80.372
G1 X97.299 Y128.271 E80.385
G1 X97.082 Y128.309 E80.396
G1 X96.481 Y128.477 E80.427
G1 X95.783 Y128.545 E80.462
G1 X95.237 Y128.494 E80.489
G1 X93.597 Y128.197 E80.572
G1 X92.494 Y127.592 E80.635
G1 X91.687 Y126.716 E80.695
G1 X91.165 Y126.116 E80.734
G1 X90.665 Y125.502 E80.774
G1 X89.629 Y124.156 E80.859
G1 X89.562 Y121.737 E80.979
G1 X90.184 Y120.758 E81.037
G1 X90.294 Y120.546 E81.049
G1 X90.363 Y120.359 E81.059
G1 X90.406 Y120.169 E81.069
G1 X90.426 Y119.967 E81.079
G1 X90.42 Y119.771 E81.089
G1 X90.39 Y119.585 E81.098
G1 X90.336 Y119.396 E81.108
G1 X90.253 Y119.208 E81.118
G1 X90.154 Y119.043 E81.128
G1 X90.033 Y118.888 E81.138
G1 X89.894 Y118.751 E81.147
G1 X89.735 Y118.63 E81.157
G1 X89.568 Y118.534 E81.167
G1 X89.377 Y118.453 E81.177
G1 X88.86 Y118.297 E81.204
G1 X88.261 Y118.019 E81.237
G1 X87.751 Y117.642 E81.269
G1 X86.516 Y116.489 E81.353
G1 X85.893 Y115.383 E81.416
G1 X85.635 Y113.843 E81.494
G1 X85.529 Y113.035 E81.535
G1 X85.333 Y110.95 E81.639
G1 X86.591 Y108.856 E81.761
G1 X87.654 Y108.367 E81.82
G1 X87.858 Y108.25 E81.831
G1 X88.014 Y108.131 E81.841
G1 X88.197 Y107.948 E81.854
G1 X88.35 Y107.726 E81.867
G1 X88.452 Y107.499 E81.88
G1 X88.509 Y107.309 E81.89
G1 X88.541 Y107.11 E81.9
G1 X88.547 Y106.911 E81.91
G1 X88.528 Y106.716 E81.92
G1 X88.485 Y106.526 E81.929
G1 X88.418 Y106.341 E81.939
G1 X88.327 Y106.165 E81.949
G1 X88.212 Y105.997 E81.959
G1 X87.929 Y105.666 E81.981
G1 X87.634 Y105.247 E82.006
G1 X87.33 Y104.617 E82.041
G1 X86.865 Y102.798 E82.135
G1 X86.94 Y101.527 E82.198
G1 X87.693 Y99.793 E82.293
G1 X88.062 Y99.041 E82.335
G1 X88.871 Y97.499 E82.421
G1 X91.053 Y96.424 E82.543
G1 X92.238 Y96.591 E82.603
G1 X92.543 Y96.592 E82.618
G1 X92.727 Y96.566 E82.627
G1 X92.923 Y96.512 E82.637
G1 X93.104 Y96.437 E82.647
G1 X93.273 Y96.339 E82.657
G1 X93.459 Y96.198 E82.668
G1 X93.632 Y96.007 E82.681
G1 X93.741 Y95.848 E82.691
G1 X93.832 Y95.671 E82.701
G1 X93.9 Y95.486 E82.711
G1 X93.942 Y95.303 E82.72
G1 X93.962 Y95.098 E82.73
G1 X93.956 Y94.902 E82.74
G1 X93.885 Y94.392 E82.766
G1 X93.892 Y93.468 E82.812
G1 X94.552 Y91.457 E82.917
G1 X95.315 Y90.436 E82.981
G1 X96.553 Y89.594 E83.056
G1 X97.244 Y89.16 E83.096
G1 X99.078 Y88.099 E83.202
G1 X101.509 Y88.366 E83.324
G1 X102.402 Y89.134 E83.383
G1 X102.65 Y89.307 E83.398
G1 X102.857 Y89.402 E83.409
G1 X103.109 Y89.476 E83.422
G1 X103.338 Y89.502 E83.434
G1 X103.534 Y89.499 E83.444
G1 X103.72 Y89.472 E83.453
G1 X103.908 Y89.421 E83.463
G1 X104.1 Y89.341 E83.473
G1 X104.266 Y89.245 E83.483
G1 X104.421 Y89.127 E83.492
G1 X104.563 Y88.987 E83.502
G1 X104.683 Y88.834 E83.512
G1 X104.795 Y88.648 E83.523
G1 X105.056 Y88.086 E83.554
G1 X105.446 Y87.533 E83.588
G1 X105.833 Y87.147 E83.615
G1 X107.137 Y86.092 E83.699
G1 X108.32 Y85.63 E83.762
G1 X110.207 Y85.59 E83.856
G1 X111.021 Y85.61 E83.897
G1 X112.816 Y85.71 E83.986
G1 X114.7 Y87.239 E84.107
G1 X115.032 Y88.351 E84.165
G1 X115.126 Y88.586 E84.178
G1 X115.231 Y88.776 E84.189
G1 X115.4 Y88.984 E84.202
G1 X115.545 Y89.117 E84.212
G1 X115.703 Y89.23 E84.222
G1 X115.909 Y89.34 E84.233
G1 X116.154 Y89.419 E84.246
G1 X116.347 Y89.453 E84.256
G1 X116.554 Y89.463 E84.266
G1 X116.74 Y89.448 E84.276
G1 X116.925 Y89.409 E84.285
G1 X117.121 Y89.342 E84.295
G1 X117.309 Y89.249 E84.306
G1 X117.736 Y88.977 E84.331
G1 X118.319 Y88.706 E84.363
G1 X118.96 Y88.554 E84.396
G1 X120.686 Y88.367 E84.483
G1 X121.901 Y88.631 E84.545
G1 X123.146 Y89.377 E84.617
G1 X123.825 Y89.819 E84.658
G1 X125.61 Y91.09 E84.767
;rapid-leaky
G1 F15000
G0 X125.271 Y91.34
;bead-skirt/brim
G1 X125.947 Y93.398 F780 E84.875
G1 X125.628 Y94.585 E84.936
G1 X125.597 Y94.825 E84.948
G1 X125.596 Y95.083 E84.961
G1 X125.626 Y95.315 E84.973
G1 X125.69 Y95.564 E84.986
G1 X125.782 Y95.793 E84.998
G1 X125.952 Y96.086 E85.015
G1 X126.13 Y96.298 E85.029
G1 X126.313 Y96.468 E85.041
G1 X126.512 Y96.61 E85.053
G1 X126.728 Y96.725 E85.066
G1 X126.962 Y96.814 E85.078
G1 X127.201 Y96.872 E85.09
G1 X127.457 Y96.901 E85.103
G1 X127.884 Y96.903 E85.124
G1 X128.342 Y96.946 E85.147
G1 X128.949 Y97.109 E85.179
G1 X130.558 Y97.907 E85.268
G1 X131.366 Y98.706 E85.325
G1 X132.125 Y100.271 E85.412
G1 X132.441 Y101.004 E85.452
G1 X133.064 Y102.582 E85.536
G1 X132.518 Y104.686 E85.645
G1 X131.725 Y105.383 E85.697
G1 X131.508 Y105.61 E85.713
G1 X131.318 Y105.894 E85.73
G1 X131.213 Y106.117 E85.742
G1 X131.135 Y106.352 E85.755
G1 X131.088 Y106.595 E85.767
G1 X131.073 Y106.933 E85.784
G1 X131.107 Y107.204 E85.798
G1 X131.17 Y107.448 E85.81
G1 X131.263 Y107.68 E85.823
G1 X131.382 Y107.894 E85.835
G1 X131.528 Y108.093 E85.847
G1 X131.699 Y108.272 E85.86
G1 X131.91 Y108.444 E85.873
G1 X132.478 Y108.823 E85.907
G1 X132.992 Y109.337 E85.943
G1 X133.963 Y110.95 E86.037
G1 X134.212 Y112.049 E86.094
G1 X134.064 Y113.384 E86.161
G1 X133.947 Y114.18 E86.201
G1 X133.553 Y116.215 E86.304
G1 X131.974 Y117.717 E86.413
G1 X130.74 Y117.924 E86.475
G1 X130.519 Y117.993 E86.487
G1 X130.293 Y118.095 E86.499
G1 X130.048 Y118.247 E86.514
G1 X129.799 Y118.469 E86.53
G1 X129.637 Y118.661 E86.543
G1 X129.505 Y118.867 E86.555
G1 X129.399 Y119.09 E86.567
G1 X129.297 Y119.425 E86.585
G1 X129.26 Y119.71 E86.599
G1 X129.274 Y120.054 E86.616
G1 X129.32 Y120.297 E86.629
G1 X129.4 Y120.544 E86.642
G1 X129.637 Y121.073 E86.671
G1 X129.795 Y121.664 E86.701
G1 X129.83 Y122.194 E86.728
G1 X129.777 Y123.783 E86.807
G1 X129.392 Y124.85 E86.863
G1 X128.316 Y126.153 E86.948
G1 X127.786 Y126.744 E86.987
G1 X126.574 Y128.011 E87.075
G1 X124.428 Y128.388 E87.184
G1 X123.465 Y127.958 E87.236
G1 X123.202 Y127.866 E87.25
G1 X122.937 Y127.809 E87.264
G1 X122.595 Y127.796 E87.281
G1 X122.339 Y127.825 E87.294
G1 X122.072 Y127.889 E87.307
G1 X121.765 Y128.022 E87.324
G1 X121.546 Y128.158 E87.337
G1 X121.357 Y128.311 E87.349
G1 X121.186 Y128.491 E87.361
G1 X120.989 Y128.768 E87.378
G1 X120.86 Y129.04 E87.393
G1 X120.766 Y129.374 E87.411
G1 X120.691 Y129.875 E87.436
G1 X120.536 Y130.431 E87.465
G1 X120.258 Y130.967 E87.495
G1 X119.331 Y132.31 E87.576
G1 X118.433 Y132.998 E87.633
G1 X117.212 Y133.397 E87.697
G1 X116.456 Y133.619 E87.736
G1 X115.699 Y133.815 E87.775
G1 X114.224 Y134.152 E87.851
G1 X112.228 Y133.312 E87.959
G1 X111.645 Y132.413 E88.012
G1 X111.468 Y132.188 E88.026
G1 X111.22 Y131.954 E88.043
G1 X110.994 Y131.804 E88.057
G1 X110.774 Y131.695 E88.069
G1 X110.536 Y131.613 E88.082
G1 X110.303 Y131.563 E88.094
G1 X110.057 Y131.543 E88.106
G1 X109.801 Y131.555 E88.119
G1 X109.569 Y131.595 E88.13
G1 X109.305 Y131.676 E88.144
G1 X108.995 Y131.834 E88.162
G1 X108.791 Y131.979 E88.174
G1 X108.592 Y132.162 E88.188
G1 X108.087 Y132.711 E88.225
G1 X107.508 Y133.119 E88.26
G1 X105.815 Y133.822 E88.352
G1 X104.675 Y133.909 E88.409
G1 X103.21 Y133.514 E88.484
G1 X102.446 Y133.275 E88.524
G1 X100.646 Y132.647 E88.619
G1 X99.419 Y130.842 E88.728
G1 X99.415 Y129.788 E88.781
G1 X99.389 Y129.508 E88.795
G1 X99.305 Y129.167 E88.812
G1 X99.195 Y128.915 E88.826
G1 X99.069 Y128.704 E88.838
G1 X98.916 Y128.51 E88.851
G1 X98.739 Y128.336 E88.863
G1 X98.55 Y128.191 E88.875
G1 X98.331 Y128.064 E88.888
G1 X98.099 Y127.967 E88.9
G1 X97.873 Y127.904 E88.912
G1 X97.596 Y127.864 E88.926
G1 X97.256 Y127.872 E88.943
G1 X96.993 Y127.918 E88.956
G1 X96.408 Y128.082 E88.986
G1 X95.782 Y128.143 E89.018
G1 X95.292 Y128.097 E89.042
G1 X93.732 Y127.815 E89.121
G1 X92.744 Y127.273 E89.178
G1 X91.985 Y126.45 E89.233
G1 X91.471 Y125.859 E89.273
G1 X90.979 Y125.254 E89.311
G1 X90.025 Y124.015 E89.389
G1 X89.965 Y121.848 E89.498
G1 X90.531 Y120.957 E89.55
G1 X90.661 Y120.707 E89.564
G1 X90.747 Y120.473 E89.577
G1 X90.802 Y120.234 E89.589
G1 X90.826 Y119.98 E89.602
G1 X90.819 Y119.733 E89.614
G1 X90.781 Y119.498 E89.626
G1 X90.713 Y119.26 E89.638
G1 X90.61 Y119.025 E89.651
G1 X90.485 Y118.815 E89.663
G1 X90.331 Y118.62 E89.676
G1 X90.157 Y118.448 E89.688
G1 X89.957 Y118.297 E89.7
G1 X89.747 Y118.175 E89.713
G1 X89.512 Y118.076 E89.725
G1 X89.003 Y117.922 E89.752
G1 X88.466 Y117.673 E89.781
G1 X88.007 Y117.334 E89.81
G1 X86.834 Y116.239 E89.89
G1 X86.276 Y115.248 E89.947
G1 X86.03 Y113.784 E90.021
G1 X85.927 Y112.99 E90.061
G1 X85.743 Y111.044 E90.158
G1 X86.871 Y109.168 E90.267
G1 X87.838 Y108.723 E90.32
G1 X88.08 Y108.583 E90.334
G1 X88.277 Y108.434 E90.347
G1 X88.516 Y108.191 E90.364
G1 X88.69 Y107.937 E90.379
G1 X88.829 Y107.636 E90.396
G1 X88.899 Y107.398 E90.408
G1 X88.94 Y107.148 E90.421
G1 X88.947 Y106.898 E90.433
G1 X88.924 Y106.653 E90.445
G1 X88.87 Y106.413 E90.458
G1 X88.785 Y106.18 E90.47
G1 X88.672 Y105.96 E90.482
G1 X88.53 Y105.754 E90.495
G1 X88.246 Y105.42 E90.517
G1 X87.98 Y105.044 E90.54
G1 X87.708 Y104.479 E90.571
G1 X87.268 Y102.76 E90.66
G1 X87.335 Y101.622 E90.716
G1 X88.057 Y99.961 E90.807
G1 X88.419 Y99.221 E90.848
G1 X89.164 Y97.8 E90.928
G1 X91.119 Y96.837 E91.037
G1 X92.195 Y96.989 E91.091
G1 X92.574 Y96.992 E91.11
G1 X92.809 Y96.959 E91.122
G1 X93.054 Y96.891 E91.134
G1 X93.282 Y96.796 E91.147
G1 X93.495 Y96.673 E91.159
G1 X93.762 Y96.463 E91.176
G1 X93.948 Y96.254 E91.19
G1 X94.085 Y96.054 E91.202
G1 X94.2 Y95.832 E91.214
G1 X94.285 Y95.599 E91.227
G1 X94.338 Y95.367 E91.239
G1 X94.362 Y95.111 E91.251
G1 X94.355 Y94.868 E91.263
G1 X94.285 Y94.366 E91.289
G1 X94.292 Y93.533 E91.33
G1 X94.912 Y91.644 E91.43
G1 X95.595 Y90.729 E91.486
G1 X96.772 Y89.929 E91.557
G1 X97.451 Y89.503 E91.597
G1 X99.164 Y88.511 E91.696
G1 X101.342 Y88.75 E91.806
G1 X102.155 Y89.449 E91.859
G1 X102.406 Y89.628 E91.874
G1 X102.714 Y89.776 E91.891
G1 X103.046 Y89.872 E91.909
G1 X103.319 Y89.902 E91.922
G1 X103.566 Y89.898 E91.935
G1 X103.801 Y89.865 E91.947
G1 X104.039 Y89.8 E91.959
G1 X104.278 Y89.7 E91.972
G1 X104.488 Y89.579 E91.984
G1 X104.684 Y89.43 E91.996
G1 X104.862 Y89.254 E92.009
G1 X105.013 Y89.062 E92.021
G1 X105.149 Y88.836 E92.034
G1 X105.403 Y88.287 E92.064
G1 X105.753 Y87.792 E92.094
G1 X106.101 Y87.445 E92.119
G1 X107.34 Y86.442 E92.198
G1 X108.4 Y86.028 E92.255
G1 X110.206 Y85.99 E92.345
G1 X111.005 Y86.01 E92.385
G1 X112.664 Y86.102 E92.468
G1 X114.352 Y87.472 E92.577
G1 X114.654 Y88.482 E92.629
G1 X114.764 Y88.758 E92.644
G1 X114.89 Y88.986 E92.657
G1 X115.11 Y89.26 E92.675
G1 X115.292 Y89.428 E92.687
G1 X115.492 Y89.571 E92.699
G1 X115.799 Y89.728 E92.716
G1 X116.06 Y89.809 E92.73
G1 X116.303 Y89.851 E92.742
G1 X116.561 Y89.863 E92.755
G1 X116.797 Y89.844 E92.767
G1 X117.031 Y89.796 E92.779
G1 X117.275 Y89.712 E92.792
G1 X117.505 Y89.598 E92.805
G1 X117.928 Y89.329 E92.83
G1 X118.451 Y89.086 E92.858
G1 X119.028 Y88.949 E92.888
G1 X120.664 Y88.772 E92.97
G1 X121.753 Y89.009 E93.026
G1 X122.933 Y89.716 E93.094
G1 X123.6 Y90.15 E93.134
G1 X125.271 Y91.34 E93.236
;rapid-leaky
G1 F15000
G0 X124.932 Y91.59
;bead-skirt/brim
G1 X125.53 Y93.409 F780 E93.332
G1 X125.235 Y94.507 E93.389
G1 X125.197 Y94.799 E93.403
G1 X125.196 Y95.107 E93.419
G1 X125.232 Y95.39 E93.433
G1 X125.309 Y95.689 E93.448
G1 X125.42 Y95.965 E93.463
G1 X125.634 Y96.329 E93.484
G1 X125.84 Y96.575 E93.5
G1 X126.06 Y96.779 E93.515
G1 X126.301 Y96.95 E93.53
G1 X126.562 Y97.09 E93.545
G1 X126.843 Y97.197 E93.56
G1 X127.131 Y97.267 E93.575
G1 X127.434 Y97.301 E93.59
G1 X127.864 Y97.303 E93.611
G1 X128.271 Y97.341 E93.632
G1 X128.808 Y97.485 E93.659
G1 X130.322 Y98.237 E93.744
G1 X131.036 Y98.942 E93.794
G1 X131.762 Y100.437 E93.877
G1 X132.071 Y101.156 E93.916
G1 X132.644 Y102.608 E93.994
G1 X132.161 Y104.467 E94.089
G1 X131.448 Y105.094 E94.137
G1 X131.206 Y105.348 E94.154
G1 X130.967 Y105.7 E94.175
G1 X130.84 Y105.969 E94.19
G1 X130.747 Y106.251 E94.205
G1 X130.691 Y106.545 E94.22
G1 X130.674 Y106.963 E94.241
G1 X130.713 Y107.279 E94.257
G1 X130.789 Y107.573 E94.272
G1 X130.901 Y107.852 E94.287
G1 X131.044 Y108.11 E94.302
G1 X131.221 Y108.351 E94.317
G1 X131.427 Y108.566 E94.331
G1 X131.672 Y108.766 E94.347
G1 X132.223 Y109.134 E94.38
G1 X132.675 Y109.585 E94.412
G1 X133.587 Y111.101 E94.5
G1 X133.807 Y112.071 E94.55
G1 X133.667 Y113.333 E94.613
G1 X133.553 Y114.113 E94.653
G1 X133.185 Y116.013 E94.749
G1 X131.787 Y117.343 E94.845
G1 X130.647 Y117.534 E94.903
G1 X130.377 Y117.618 E94.917
G1 X130.105 Y117.741 E94.932
G1 X129.822 Y117.916 E94.949
G1 X129.508 Y118.193 E94.97
G1 X129.315 Y118.424 E94.985
G1 X129.155 Y118.672 E94.999
G1 X129.027 Y118.941 E95.014
G1 X128.903 Y119.354 E95.036
G1 X128.861 Y119.678 E95.052
G1 X128.876 Y120.104 E95.073
G1 X128.932 Y120.396 E95.088
G1 X129.026 Y120.688 E95.103
G1 X129.259 Y121.207 E95.132
G1 X129.399 Y121.73 E95.159
G1 X129.43 Y122.201 E95.182
G1 X129.379 Y123.707 E95.258
G1 X129.04 Y124.649 E95.308
G1 X128.013 Y125.892 E95.388
G1 X127.492 Y126.472 E95.427
G1 X126.376 Y127.639 E95.507
G1 X124.479 Y127.973 E95.604
G1 X123.613 Y127.586 E95.651
G1 X123.31 Y127.48 E95.667
G1 X123.001 Y127.414 E95.683
G1 X122.576 Y127.396 E95.704
G1 X122.269 Y127.43 E95.719
G1 X121.959 Y127.505 E95.735
G1 X121.577 Y127.668 E95.756
G1 X121.314 Y127.831 E95.771
G1 X121.085 Y128.016 E95.786
G1 X120.879 Y128.233 E95.801
G1 X120.636 Y128.579 E95.822
G1 X120.454 Y128.987 E95.844
G1 X120.373 Y129.293 E95.86
G1 X120.299 Y129.792 E95.885
G1 X120.162 Y130.283 E95.911
G1 X119.915 Y130.76 E95.938
G1 X119.038 Y132.03 E96.015
G1 X118.243 Y132.639 E96.064
G1 X117.093 Y133.015 E96.125
G1 X116.35 Y133.234 E96.164
G1 X115.604 Y133.426 E96.202
G1 X114.261 Y133.734 E96.271
G1 X112.497 Y132.991 E96.366
G1 X111.97 Y132.18 E96.414
G1 X111.767 Y131.921 E96.431
G1 X111.458 Y131.632 E96.452
G1 X111.194 Y131.457 E96.468
G1 X110.929 Y131.325 E96.483
G1 X110.643 Y131.226 E96.498
G1 X110.361 Y131.167 E96.512
G1 X110.065 Y131.142 E96.527
G1 X109.757 Y131.156 E96.542
G1 X109.476 Y131.206 E96.556
G1 X109.169 Y131.3 E96.572
G1 X108.783 Y131.493 E96.594
G1 X108.538 Y131.668 E96.609
G1 X108.309 Y131.879 E96.625
G1 X107.821 Y132.409 E96.66
G1 X107.314 Y132.767 E96.691
G1 X105.721 Y133.428 E96.778
G1 X104.713 Y133.505 E96.828
G1 X103.322 Y133.13 E96.9
G1 X102.571 Y132.896 E96.939
G1 X100.902 Y132.312 E97.027
G1 X99.819 Y130.718 E97.123
G1 X99.814 Y129.769 E97.171
G1 X99.784 Y129.446 E97.187
G1 X99.715 Y129.134 E97.203
G1 X99.551 Y128.732 E97.225
G1 X99.399 Y128.477 E97.239
G1 X99.215 Y128.243 E97.254
G1 X99.002 Y128.033 E97.269
G1 X98.773 Y127.858 E97.284
G1 X98.509 Y127.705 E97.299
G1 X98.231 Y127.589 E97.314
G1 X97.956 Y127.512 E97.328
G1 X97.635 Y127.465 E97.344
G1 X97.212 Y127.474 E97.365
G1 X96.905 Y127.527 E97.381
G1 X96.334 Y127.687 E97.411
G1 X95.781 Y127.741 E97.438
G1 X95.346 Y127.701 E97.46
G1 X93.868 Y127.433 E97.535
G1 X92.993 Y126.954 E97.585
G1 X92.283 Y126.183 E97.637
G1 X91.778 Y125.601 E97.675
G1 X91.292 Y125.006 E97.714
G1 X90.421 Y123.874 E97.785
G1 X90.368 Y121.96 E97.881
G1 X90.878 Y121.157 E97.928
G1 X91.028 Y120.869 E97.944
G1 X91.131 Y120.587 E97.959
G1 X91.197 Y120.298 E97.974
G1 X91.227 Y119.993 E97.989
G1 X91.218 Y119.695 E98.004
G1 X91.173 Y119.411 E98.018
G1 X91.09 Y119.124 E98.033
G1 X90.966 Y118.841 E98.049
G1 X90.815 Y118.588 E98.063
G1 X90.63 Y118.353 E98.078
G1 X90.419 Y118.145 E98.093
G1 X90.179 Y117.963 E98.108
G1 X89.925 Y117.816 E98.123
G1 X89.648 Y117.7 E98.138
G1 X89.146 Y117.548 E98.164
G1 X88.671 Y117.327 E98.19
G1 X88.263 Y117.026 E98.215
G1 X87.152 Y115.988 E98.291
G1 X86.659 Y115.113 E98.341
G1 X86.426 Y113.725 E98.412
G1 X86.324 Y112.945 E98.451
G1 X86.154 Y111.137 E98.541
G1 X87.15 Y109.48 E98.638
G1 X88.022 Y109.079 E98.686
G1 X88.303 Y108.917 E98.702
G1 X88.539 Y108.737 E98.717
G1 X88.834 Y108.433 E98.738
G1 X89.03 Y108.148 E98.755
G1 X89.205 Y107.774 E98.776
G1 X89.29 Y107.487 E98.791
G1 X89.339 Y107.186 E98.806
G1 X89.348 Y106.886 E98.821
G1 X89.32 Y106.59 E98.836
G1 X89.254 Y106.3 E98.851
G1 X89.152 Y106.019 E98.865
G1 X89.016 Y105.755 E98.88
G1 X88.848 Y105.51 E98.895
G1 X88.562 Y105.174 E98.917
G1 X88.326 Y104.84 E98.938
G1 X88.085 Y104.342 E98.965
G1 X87.671 Y102.721 E99.049
G1 X87.73 Y101.716 E99.099
G1 X88.42 Y100.129 E99.185
G1 X88.776 Y99.402 E99.226
G1 X89.458 Y98.101 E99.299
G1 X91.185 Y97.251 E99.395
G1 X92.269 Y97.396 E99.449
G1 X92.606 Y97.392 E99.466
G1 X92.89 Y97.351 E99.481
G1 X93.184 Y97.27 E99.496
G1 X93.459 Y97.155 E99.511
G1 X93.717 Y97.006 E99.526
G1 X94.047 Y96.743 E99.547
G1 X94.263 Y96.502 E99.563
G1 X94.429 Y96.26 E99.577
G1 X94.567 Y95.993 E99.592
G1 X94.669 Y95.713 E99.607
G1 X94.733 Y95.431 E99.622
G1 X94.763 Y95.124 E99.637
G1 X94.754 Y94.835 E99.651
G1 X94.686 Y94.34 E99.676
G1 X94.691 Y93.599 E99.713
G1 X95.271 Y91.831 E99.806
G1 X95.876 Y91.022 E99.857
G1 X96.991 Y90.264 E99.924
G1 X97.657 Y89.846 E99.963
G1 X99.251 Y88.923 E100.055
G1 X101.175 Y89.134 E100.152
G1 X101.908 Y89.764 E100.2
G1 X102.19 Y89.965 E100.217
G1 X102.571 Y90.151 E100.238
G1 X102.982 Y90.267 E100.26
G1 X103.3 Y90.303 E100.275
G1 X103.597 Y90.298 E100.29
G1 X103.882 Y90.257 E100.305
G1 X104.169 Y90.179 E100.32
G1 X104.455 Y90.06 E100.335
G1 X104.71 Y89.913 E100.35
G1 X104.946 Y89.732 E100.364
G1 X105.161 Y89.522 E100.379
G1 X105.343 Y89.289 E100.394
G1 X105.503 Y89.024 E100.41
G1 X105.751 Y88.488 E100.439
G1 X106.06 Y88.051 E100.466
G1 X106.368 Y87.742 E100.488
G1 X107.544 Y86.792 E100.563
G1 X108.479 Y86.427 E100.613
G1 X110.205 Y86.391 E100.699
G1 X110.989 Y86.41 E100.738
G1 X112.513 Y86.494 E100.814
G1 X114.004 Y87.705 E100.91
G1 X114.276 Y88.614 E100.958
G1 X114.402 Y88.93 E100.975
G1 X114.617 Y89.295 E100.996
G1 X114.82 Y89.537 E101.012
G1 X115.039 Y89.739 E101.026
G1 X115.281 Y89.911 E101.041
G1 X115.661 Y90.104 E101.062
G1 X115.965 Y90.198 E101.078
G1 X116.259 Y90.25 E101.093
G1 X116.568 Y90.264 E101.109
G1 X116.854 Y90.241 E101.123
G1 X117.138 Y90.182 E101.137
G1 X117.43 Y90.082 E101.153
G1 X117.702 Y89.947 E101.168
G1 X118.121 Y89.681 E101.193
G1 X118.583 Y89.466 E101.218
G1 X119.096 Y89.344 E101.245
G1 X120.643 Y89.177 E101.322
G1 X121.606 Y89.386 E101.371
G1 X122.72 Y90.054 E101.436
G1 X123.375 Y90.481 E101.475
G1 X124.932 Y91.59 E101.57
;rapid-leaky
G1 F15000
G0 X124.593 Y91.839
;bead-skirt/brim
G1 X125.113 Y93.421 F780 E101.654
G1 X124.842 Y94.429 E101.706
G1 X124.797 Y94.773 E101.723
G1 X124.796 Y95.132 E101.741
G1 X124.838 Y95.466 E101.758
G1 X124.929 Y95.814 E101.776
G1 X125.058 Y96.137 E101.793
G1 X125.234 Y96.454 E101.811
G1 X125.315 Y96.572 E101.818
G1 X125.549 Y96.851 E101.836
G1 X125.807 Y97.09 E101.854
G1 X126.09 Y97.291 E101.871
G1 X126.396 Y97.455 E101.888
G1 X126.724 Y97.58 E101.906
G1 X127.062 Y97.662 E101.923
G1 X127.411 Y97.701 E101.941
G1 X127.844 Y97.703 E101.962
G1 X128.2 Y97.736 E101.98
G1 X128.666 Y97.861 E102.004
G1 X130.087 Y98.567 E102.084
G1 X130.706 Y99.179 E102.127
G1 X131.398 Y100.603 E102.206
G1 X131.701 Y101.309 E102.244
G1 X132.224 Y102.633 E102.315
G1 X131.805 Y104.247 E102.399
G1 X131.171 Y104.805 E102.441
G1 X130.903 Y105.085 E102.46
G1 X130.617 Y105.505 E102.485
G1 X130.468 Y105.82 E102.503
G1 X130.359 Y106.15 E102.52
G1 X130.293 Y106.494 E102.538
G1 X130.275 Y106.993 E102.562
G1 X130.319 Y107.354 E102.581
G1 X130.408 Y107.698 E102.598
G1 X130.539 Y108.024 E102.616
G1 X130.707 Y108.327 E102.633
G1 X130.914 Y108.608 E102.651
G1 X131.155 Y108.86 E102.668
G1 X131.434 Y109.088 E102.686
G1 X131.968 Y109.445 E102.718
G1 X132.357 Y109.834 E102.745
G1 X133.211 Y111.252 E102.828
G1 X133.402 Y112.094 E102.871
G1 X133.27 Y113.282 E102.931
G1 X133.158 Y114.045 E102.969
G1 X132.817 Y115.812 E103.059
G1 X131.6 Y116.969 E103.143
G1 X130.555 Y117.144 E103.196
G1 X130.234 Y117.243 E103.212
G1 X129.917 Y117.387 E103.23
G1 X129.595 Y117.586 E103.249
G1 X129.218 Y117.916 E103.274
G1 X128.992 Y118.186 E103.291
G1 X128.805 Y118.477 E103.308
G1 X128.655 Y118.792 E103.326
G1 X128.544 Y119.13 E103.344
G1 X128.509 Y119.284 E103.351
G1 X128.462 Y119.645 E103.37
G1 X128.457 Y119.801 E103.377
G1 X128.479 Y120.154 E103.395
G1 X128.543 Y120.495 E103.412
G1 X128.653 Y120.832 E103.43
G1 X128.881 Y121.342 E103.458
G1 X129.002 Y121.795 E103.481
G1 X129.03 Y122.207 E103.502
G1 X128.982 Y123.63 E103.573
G1 X128.687 Y124.448 E103.616
G1 X127.71 Y125.631 E103.693
G1 X127.199 Y126.2 E103.731
G1 X126.177 Y127.268 E103.805
G1 X124.531 Y127.558 E103.888
G1 X123.76 Y127.214 E103.93
G1 X123.419 Y127.094 E103.948
G1 X123.065 Y127.019 E103.966
G1 X122.911 Y127.001 E103.974
G1 X122.558 Y126.995 E103.992
G1 X122.2 Y127.035 E104.01
G1 X121.846 Y127.12 E104.028
G1 X121.389 Y127.314 E104.053
G1 X121.082 Y127.504 E104.071
G1 X120.813 Y127.722 E104.088
G1 X120.572 Y127.975 E104.105
G1 X120.356 Y128.267 E104.123
G1 X120.283 Y128.391 E104.131
G1 X120.121 Y128.732 E104.149
G1 X120.071 Y128.868 E104.157
G1 X119.981 Y129.213 E104.174
G1 X119.907 Y129.708 E104.199
G1 X119.788 Y130.136 E104.222
G1 X119.571 Y130.554 E104.245
G1 X118.744 Y131.751 E104.318
G1 X118.054 Y132.28 E104.361
G1 X116.975 Y132.633 E104.418
G1 X116.244 Y132.848 E104.456
G1 X115.509 Y133.037 E104.494
G1 X114.297 Y133.315 E104.556
G1 X112.765 Y132.67 E104.639
G1 X112.296 Y131.947 E104.682
G1 X112.066 Y131.654 E104.7
G1 X111.818 Y131.409 E104.718
G1 X111.696 Y131.31 E104.725
G1 X111.394 Y131.109 E104.743
G1 X111.083 Y130.955 E104.761
G1 X110.75 Y130.84 E104.778
G1 X110.42 Y130.77 E104.795
G1 X110.072 Y130.741 E104.813
G1 X109.714 Y130.758 E104.831
G1 X109.382 Y130.816 E104.847
G1 X109.033 Y130.923 E104.866
G1 X108.879 Y130.987 E104.874
G1 X108.571 Y131.153 E104.891
G1 X108.286 Y131.357 E104.909
G1 X108.026 Y131.595 E104.926
G1 X107.556 Y132.107 E104.961
G1 X107.12 Y132.415 E104.988
G1 X105.627 Y133.034 E105.068
G1 X104.751 Y133.101 E105.112
G1 X103.434 Y132.745 E105.18
G1 X102.697 Y132.516 E105.219
G1 X101.159 Y131.978 E105.3
G1 X100.218 Y130.594 E105.383
G1 X100.214 Y129.75 E105.426
G1 X100.18 Y129.383 E105.444
G1 X100.101 Y129.028 E105.462
G1 X100.053 Y128.881 E105.47
G1 X99.908 Y128.548 E105.488
G1 X99.729 Y128.249 E105.505
G1 X99.514 Y127.976 E105.523
G1 X99.264 Y127.73 E105.54
G1 X98.995 Y127.525 E105.557
G1 X98.687 Y127.346 E105.575
G1 X98.362 Y127.21 E105.592
G1 X98.039 Y127.12 E105.609
G1 X97.674 Y127.067 E105.628
G1 X97.169 Y127.075 E105.653
G1 X96.816 Y127.137 E105.671
G1 X96.26 Y127.293 E105.699
G1 X95.78 Y127.339 E105.723
G1 X95.4 Y127.304 E105.743
G1 X94.003 Y127.051 E105.813
G1 X93.243 Y126.635 E105.857
G1 X92.581 Y125.916 E105.905
G1 X92.084 Y125.344 E105.943
G1 X91.606 Y124.757 E105.981
G1 X90.817 Y123.733 E106.045
G1 X90.772 Y122.071 E106.128
G1 X91.225 Y121.357 E106.171
G1 X91.395 Y121.03 E106.189
G1 X91.515 Y120.701 E106.206
G1 X91.593 Y120.362 E106.224
G1 X91.628 Y120.006 E106.242
G1 X91.617 Y119.657 E106.259
G1 X91.564 Y119.324 E106.276
G1 X91.467 Y118.988 E106.293
G1 X91.323 Y118.658 E106.311
G1 X91.145 Y118.361 E106.329
G1 X90.929 Y118.086 E106.346
G1 X90.681 Y117.842 E106.363
G1 X90.401 Y117.63 E106.381
G1 X90.103 Y117.457 E106.398
G1 X89.784 Y117.323 E106.415
G1 X89.289 Y117.173 E106.441
G1 X88.877 Y116.982 E106.464
G1 X88.519 Y116.718 E106.486
G1 X87.47 Y115.738 E106.558
G1 X87.042 Y114.978 E106.601
G1 X86.822 Y113.666 E106.667
G1 X86.722 Y112.901 E106.706
G1 X86.564 Y111.231 E106.79
G1 X87.429 Y109.792 E106.873
G1 X88.206 Y109.434 E106.916
G1 X88.525 Y109.25 E106.934
G1 X88.801 Y109.04 E106.952
G1 X89.153 Y108.676 E106.977
G1 X89.37 Y108.36 E106.996
G1 X89.581 Y107.912 E107.021
G1 X89.681 Y107.576 E107.038
G1 X89.738 Y107.224 E107.056
G1 X89.749 Y106.873 E107.074
G1 X89.716 Y106.527 E107.091
G1 X89.639 Y106.187 E107.108
G1 X89.519 Y105.858 E107.126
G1 X89.36 Y105.549 E107.143
G1 X89.166 Y105.267 E107.16
G1 X88.878 Y104.929 E107.182
G1 X88.672 Y104.637 E107.2
G1 X88.463 Y104.204 E107.224
G1 X88.074 Y102.682 E107.303
G1 X88.126 Y101.81 E107.346
G1 X88.783 Y100.296 E107.429
G1 X89.132 Y99.583 E107.468
G1 X89.752 Y98.402 E107.535
G1 X91.251 Y97.664 E107.618
G1 X92.256 Y97.796 E107.669
G1 X92.637 Y97.791 E107.688
G1 X92.972 Y97.743 E107.704
G1 X93.315 Y97.649 E107.722
G1 X93.637 Y97.514 E107.74
G1 X93.939 Y97.34 E107.757
G1 X94.333 Y97.024 E107.782
G1 X94.578 Y96.749 E107.801
G1 X94.773 Y96.466 E107.818
G1 X94.934 Y96.154 E107.835
G1 X95.053 Y95.827 E107.853
G1 X95.129 Y95.495 E107.87
G1 X95.163 Y95.136 E107.888
G1 X95.153 Y94.801 E107.904
G1 X95.086 Y94.314 E107.929
G1 X95.091 Y93.664 E107.961
G1 X95.631 Y92.018 E108.048
G1 X96.156 Y91.315 E108.092
G1 X97.209 Y90.598 E108.155
G1 X97.864 Y90.188 E108.194
G1 X99.338 Y89.334 E108.279
G1 X101.008 Y89.518 E108.362
G1 X101.661 Y90.079 E108.405
G1 X101.973 Y90.302 E108.424
G1 X102.428 Y90.525 E108.45
G1 X102.778 Y90.633 E108.468
G1 X103.28 Y90.703 E108.493
G1 X103.628 Y90.698 E108.511
G1 X103.964 Y90.65 E108.528
G1 X104.299 Y90.558 E108.545
G1 X104.633 Y90.419 E108.563
G1 X104.933 Y90.246 E108.58
G1 X105.209 Y90.035 E108.598
G1 X105.46 Y89.789 E108.615
G1 X105.673 Y89.517 E108.632
G1 X105.857 Y89.212 E108.65
G1 X106.099 Y88.69 E108.679
G1 X106.367 Y88.309 E108.702
G1 X106.636 Y88.04 E108.721
G1 X107.747 Y87.142 E108.792
G1 X108.559 Y86.825 E108.836
G1 X110.204 Y86.791 E108.918
G1 X110.973 Y86.81 E108.956
G1 X112.361 Y86.887 E109.026
G1 X113.656 Y87.938 E109.109
G1 X113.897 Y88.746 E109.151
G1 X114.04 Y89.102 E109.17
G1 X114.209 Y89.407 E109.188
G1 X114.298 Y89.537 E109.195
G1 X114.53 Y89.813 E109.213
G1 X114.787 Y90.051 E109.231
G1 X115.069 Y90.252 E109.248
G1 X115.524 Y90.48 E109.274
G1 X115.871 Y90.588 E109.292
G1 X116.215 Y90.648 E109.309
G1 X116.575 Y90.665 E109.327
G1 X116.911 Y90.638 E109.344
G1 X117.244 Y90.569 E109.361
G1 X117.584 Y90.451 E109.379
G1 X117.898 Y90.296 E109.396
G1 X118.313 Y90.032 E109.421
G1 X118.715 Y89.846 E109.443
G1 X119.164 Y89.739 E109.466
G1 X120.621 Y89.581 E109.539
G1 X121.458 Y89.763 E109.582
G1 X122.507 Y90.393 E109.643
G1 X123.149 Y90.811 E109.681
G1 X124.593 Y91.839 E109.769
;rapid-leaky
G1 F15000
G0 X124.254 Y92.089
;bead-skirt/brim
G1 X124.695 Y93.432 F780 E109.84
G1 X124.449 Y94.351 E109.887
G1 X124.397 Y94.746 E109.907
G1 X124.396 Y95.157 E109.928
G1 X124.445 Y95.541 E109.947
G1 X124.548 Y95.939 E109.968
G1 X124.696 Y96.309 E109.988
G1 X124.894 Y96.666 E110.008
G1 X124.997 Y96.815 E110.017
G1 X125.259 Y97.127 E110.037
G1 X125.554 Y97.401 E110.057
G1 X125.878 Y97.631 E110.077
G1 X126.229 Y97.819 E110.097
G1 X126.605 Y97.962 E110.117
G1 X126.992 Y98.057 E110.137
G1 X127.388 Y98.1 E110.157
G1 X127.824 Y98.102 E110.179
G1 X128.129 Y98.131 E110.194
G1 X128.524 Y98.237 E110.214
G1 X129.852 Y98.896 E110.288
G1 X130.376 Y99.415 E110.325
G1 X131.034 Y100.77 E110.4
G1 X131.331 Y101.461 E110.438
G1 X131.804 Y102.659 E110.502
G1 X131.449 Y104.028 E110.573
G1 X130.894 Y104.516 E110.609
G1 X130.601 Y104.823 E110.631
G1 X130.488 Y104.966 E110.64
G1 X130.266 Y105.311 E110.66
G1 X130.096 Y105.671 E110.68
G1 X129.971 Y106.049 E110.7
G1 X129.896 Y106.443 E110.72
G1 X129.87 Y106.84 E110.74
G1 X129.875 Y107.024 E110.749
G1 X129.926 Y107.428 E110.769
G1 X130.027 Y107.823 E110.79
G1 X130.177 Y108.197 E110.81
G1 X130.37 Y108.543 E110.829
G1 X130.607 Y108.866 E110.849
G1 X130.883 Y109.155 E110.869
G1 X131.196 Y109.41 E110.889
G1 X131.713 Y109.755 E110.921
G1 X132.04 Y110.082 E110.944
G1 X132.835 Y111.403 E111.021
G1 X132.997 Y112.117 E111.057
G1 X132.873 Y113.231 E111.113
G1 X132.764 Y113.978 E111.151
G1 X132.448 Y115.61 E111.234
G1 X131.413 Y116.595 E111.305
G1 X130.462 Y116.754 E111.353
G1 X130.092 Y116.869 E111.372
G1 X129.728 Y117.033 E111.392
G1 X129.369 Y117.256 E111.413
G1 X129.227 Y117.363 E111.422
G1 X128.928 Y117.64 E111.442
G1 X128.669 Y117.949 E111.463
G1 X128.454 Y118.283 E111.482
G1 X128.282 Y118.643 E111.502
G1 X128.158 Y119.023 E111.522
G1 X128.114 Y119.213 E111.532
G1 X128.063 Y119.613 E111.552
G1 X128.056 Y119.807 E111.562
G1 X128.081 Y120.204 E111.582
G1 X128.155 Y120.594 E111.601
G1 X128.279 Y120.976 E111.621
G1 X128.503 Y121.476 E111.649
G1 X128.606 Y121.861 E111.669
G1 X128.629 Y122.214 E111.686
G1 X128.584 Y123.554 E111.753
G1 X128.334 Y124.247 E111.79
G1 X127.407 Y125.37 E111.863
G1 X126.905 Y125.928 E111.9
G1 X125.979 Y126.897 E111.967
G1 X124.582 Y127.143 E112.038
G1 X123.908 Y126.841 E112.075
G1 X123.527 Y126.708 E112.095
G1 X123.129 Y126.623 E112.115
G1 X122.936 Y126.602 E112.125
G1 X122.539 Y126.595 E112.144
G1 X122.131 Y126.64 E112.165
G1 X121.734 Y126.736 E112.185
G1 X121.575 Y126.791 E112.194
G1 X121.2 Y126.96 E112.214
G1 X120.849 Y127.177 E112.235
G1 X120.542 Y127.427 E112.255
G1 X120.265 Y127.718 E112.275
G1 X120.023 Y128.046 E112.295
G1 X119.93 Y128.202 E112.304
G1 X119.751 Y128.577 E112.325
G1 X119.689 Y128.749 E112.334
G1 X119.588 Y129.133 E112.354
G1 X119.515 Y129.625 E112.378
G1 X119.414 Y129.988 E112.397
G1 X119.228 Y130.347 E112.417
G1 X118.451 Y131.472 E112.486
G1 X117.865 Y131.921 E112.523
G1 X116.856 Y132.251 E112.575
G1 X116.137 Y132.462 E112.613
G1 X115.415 Y132.649 E112.65
G1 X114.333 Y132.896 E112.705
G1 X113.034 Y132.349 E112.776
G1 X112.622 Y131.714 E112.814
G1 X112.365 Y131.387 E112.834
G1 X112.085 Y131.111 E112.854
G1 X111.933 Y130.987 E112.864
G1 X111.595 Y130.762 E112.884
G1 X111.238 Y130.585 E112.904
G1 X110.857 Y130.454 E112.924
G1 X110.478 Y130.374 E112.943
G1 X110.079 Y130.341 E112.963
G1 X109.67 Y130.359 E112.984
G1 X109.288 Y130.426 E113.003
G1 X108.897 Y130.547 E113.023
G1 X108.706 Y130.626 E113.034
G1 X108.359 Y130.813 E113.053
G1 X108.033 Y131.046 E113.073
G1 X107.743 Y131.312 E113.093
G1 X107.29 Y131.805 E113.126
G1 X106.925 Y132.062 E113.149
G1 X105.532 Y132.641 E113.224
G1 X104.789 Y132.697 E113.261
G1 X103.545 Y132.361 E113.325
G1 X102.822 Y132.136 E113.363
G1 X101.416 Y131.644 E113.438
G1 X100.618 Y130.47 E113.508
G1 X100.614 Y129.73 E113.545
G1 X100.576 Y129.321 E113.566
G1 X100.488 Y128.922 E113.586
G1 X100.428 Y128.739 E113.596
G1 X100.264 Y128.364 E113.616
G1 X100.059 Y128.022 E113.636
G1 X99.812 Y127.709 E113.656
G1 X99.527 Y127.428 E113.676
G1 X99.218 Y127.191 E113.695
G1 X98.865 Y126.987 E113.716
G1 X98.493 Y126.831 E113.736
G1 X98.122 Y126.728 E113.755
G1 X97.713 Y126.668 E113.776
G1 X97.534 Y126.659 E113.785
G1 X97.126 Y126.677 E113.805
G1 X96.728 Y126.746 E113.825
G1 X96.186 Y126.898 E113.853
G1 X95.779 Y126.937 E113.874
G1 X95.454 Y126.907 E113.89
G1 X94.138 Y126.669 E113.957
G1 X93.493 Y126.315 E113.993
G1 X92.879 Y125.649 E114.038
G1 X92.39 Y125.086 E114.076
G1 X91.919 Y124.509 E114.113
G1 X91.214 Y123.592 E114.171
G1 X91.175 Y122.182 E114.241
G1 X91.572 Y121.557 E114.278
G1 X91.762 Y121.191 E114.298
G1 X91.9 Y120.815 E114.318
G1 X91.989 Y120.427 E114.338
G1 X92.028 Y120.019 E114.359
G1 X92.016 Y119.62 E114.379
G1 X91.955 Y119.236 E114.398
G1 X91.843 Y118.852 E114.418
G1 X91.679 Y118.475 E114.439
G1 X91.475 Y118.134 E114.458
G1 X91.227 Y117.819 E114.478
G1 X90.944 Y117.539 E114.498
G1 X90.624 Y117.296 E114.518
G1 X90.282 Y117.098 E114.538
G1 X89.92 Y116.946 E114.558
G1 X89.432 Y116.798 E114.583
G1 X89.082 Y116.636 E114.602
G1 X88.776 Y116.41 E114.621
G1 X87.789 Y115.488 E114.689
G1 X87.425 Y114.842 E114.726
G1 X87.217 Y113.607 E114.788
G1 X87.12 Y112.856 E114.826
G1 X86.975 Y111.324 E114.903
G1 X87.708 Y110.104 E114.974
G1 X88.39 Y109.79 E115.011
G1 X88.747 Y109.584 E115.032
G1 X89.064 Y109.343 E115.052
G1 X89.357 Y109.054 E115.072
G1 X89.472 Y108.918 E115.081
G1 X89.71 Y108.571 E115.102
G1 X89.798 Y108.414 E115.111
G1 X89.958 Y108.049 E115.131
G1 X90.072 Y107.665 E115.151
G1 X90.137 Y107.262 E115.171
G1 X90.149 Y106.86 E115.191
G1 X90.112 Y106.464 E115.211
G1 X90.024 Y106.074 E115.231
G1 X89.886 Y105.698 E115.251
G1 X89.704 Y105.344 E115.271
G1 X89.484 Y105.023 E115.29
G1 X89.194 Y104.683 E115.313
G1 X89.018 Y104.433 E115.328
G1 X88.841 Y104.066 E115.348
G1 X88.477 Y102.644 E115.421
G1 X88.521 Y101.905 E115.458
G1 X89.146 Y100.464 E115.537
G1 X89.489 Y99.764 E115.576
G1 X90.045 Y98.704 E115.635
G1 X91.317 Y98.077 E115.706
G1 X92.063 Y98.182 E115.744
G1 X92.243 Y98.197 E115.753
G1 X92.668 Y98.191 E115.774
G1 X93.053 Y98.136 E115.793
G1 X93.446 Y98.028 E115.814
G1 X93.815 Y97.874 E115.834
G1 X94.161 Y97.674 E115.854
G1 X94.488 Y97.425 E115.874
G1 X94.619 Y97.305 E115.883
G1 X94.893 Y96.997 E115.903
G1 X95.117 Y96.671 E115.923
G1 X95.301 Y96.315 E115.943
G1 X95.438 Y95.94 E115.963
G1 X95.525 Y95.559 E115.983
G1 X95.564 Y95.149 E116.003
G1 X95.552 Y94.767 E116.022
G1 X95.486 Y94.288 E116.046
G1 X95.49 Y93.73 E116.074
G1 X95.991 Y92.205 E116.154
G1 X96.436 Y91.608 E116.191
G1 X97.428 Y90.933 E116.251
G1 X98.07 Y90.531 E116.289
G1 X99.425 Y89.746 E116.367
G1 X100.841 Y89.902 E116.438
G1 X101.414 Y90.395 E116.476
G1 X101.756 Y90.639 E116.497
G1 X101.915 Y90.73 E116.506
G1 X102.286 Y90.9 E116.526
G1 X102.677 Y91.02 E116.547
G1 X102.855 Y91.058 E116.556
G1 X103.261 Y91.103 E116.576
G1 X103.66 Y91.097 E116.596
G1 X104.045 Y91.042 E116.616
G1 X104.43 Y90.937 E116.635
G1 X104.81 Y90.778 E116.656
G1 X105.155 Y90.58 E116.676
G1 X105.471 Y90.338 E116.696
G1 X105.758 Y90.056 E116.716
G1 X106.003 Y89.744 E116.736
G1 X106.21 Y89.399 E116.756
G1 X106.446 Y88.891 E116.784
G1 X106.674 Y88.568 E116.803
G1 X106.904 Y88.338 E116.82
G1 X107.95 Y87.492 E116.887
G1 X108.638 Y87.223 E116.924
G1 X110.204 Y87.191 E117.002
G1 X110.957 Y87.209 E117.039
G1 X112.21 Y87.279 E117.102
G1 X113.308 Y88.17 E117.172
G1 X113.519 Y88.878 E117.209
G1 X113.678 Y89.274 E117.231
G1 X113.868 Y89.618 E117.25
G1 X113.979 Y89.779 E117.26
G1 X114.24 Y90.09 E117.28
G1 X114.534 Y90.362 E117.3
G1 X114.858 Y90.593 E117.32
G1 X115.221 Y90.786 E117.34
G1 X115.387 Y90.856 E117.35
G1 X115.776 Y90.977 E117.37
G1 X116.171 Y91.047 E117.39
G1 X116.582 Y91.065 E117.41
G1 X116.967 Y91.035 E117.43
G1 X117.35 Y90.955 E117.449
G1 X117.739 Y90.821 E117.47
G1 X118.095 Y90.645 E117.489
G1 X118.505 Y90.384 E117.514
G1 X118.847 Y90.226 E117.533
G1 X119.232 Y90.134 E117.552
G1 X120.6 Y89.986 E117.621
G1 X121.31 Y90.14 E117.657
G1 X122.294 Y90.731 E117.714
G1 X122.924 Y91.142 E117.752
G1 X124.254 Y92.089 E117.833
;rapid-leaky
G1 F15000
G0 X123.915 Y92.339
;bead-skirt/brim
G1 X124.278 Y93.444 F780 E117.891
G1 X124.055 Y94.272 E117.934
G1 X123.997 Y94.72 E117.957
G1 X123.996 Y95.182 E117.98
G1 X124.051 Y95.617 E118.002
G1 X124.167 Y96.064 E118.025
G1 X124.334 Y96.481 E118.047
G1 X124.554 Y96.877 E118.07
G1 X124.679 Y97.058 E118.081
G1 X124.969 Y97.404 E118.103
G1 X125.302 Y97.712 E118.126
G1 X125.667 Y97.972 E118.148
G1 X126.063 Y98.184 E118.171
G1 X126.486 Y98.345 E118.193
G1 X126.923 Y98.452 E118.216
G1 X127.365 Y98.5 E118.238
G1 X127.804 Y98.502 E118.26
G1 X128.057 Y98.526 E118.272
G1 X128.382 Y98.613 E118.289
G1 X129.616 Y99.226 E118.358
G1 X130.046 Y99.651 E118.388
G1 X130.67 Y100.936 E118.459
G1 X130.962 Y101.614 E118.496
G1 X131.384 Y102.684 E118.554
G1 X131.092 Y103.809 E118.612
G1 X130.616 Y104.228 E118.643
G1 X130.298 Y104.561 E118.666
G1 X130.162 Y104.734 E118.677
G1 X129.916 Y105.116 E118.7
G1 X129.724 Y105.523 E118.722
G1 X129.584 Y105.948 E118.745
G1 X129.498 Y106.392 E118.767
G1 X129.47 Y106.833 E118.789
G1 X129.476 Y107.054 E118.8
G1 X129.532 Y107.503 E118.823
G1 X129.646 Y107.948 E118.846
G1 X129.815 Y108.369 E118.868
G1 X130.033 Y108.76 E118.891
G1 X130.3 Y109.124 E118.913
G1 X130.611 Y109.449 E118.936
G1 X130.958 Y109.732 E118.958
G1 X131.458 Y110.066 E118.988
G1 X131.722 Y110.33 E119.007
G1 X132.459 Y111.554 E119.078
G1 X132.592 Y112.14 E119.108
G1 X132.477 Y113.18 E119.16
G1 X132.369 Y113.911 E119.197
G1 X132.08 Y115.408 E119.273
G1 X131.226 Y116.22 E119.332
G1 X130.369 Y116.364 E119.375
G1 X129.95 Y116.494 E119.397
G1 X129.54 Y116.68 E119.42
G1 X129.142 Y116.925 E119.443
G1 X128.97 Y117.056 E119.454
G1 X128.638 Y117.363 E119.476
G1 X128.346 Y117.711 E119.499
G1 X128.104 Y118.088 E119.521
G1 X127.91 Y118.494 E119.544
G1 X127.772 Y118.915 E119.566
G1 X127.72 Y119.142 E119.577
G1 X127.663 Y119.581 E119.599
G1 X127.656 Y119.813 E119.611
G1 X127.684 Y120.254 E119.633
G1 X127.767 Y120.694 E119.655
G1 X127.905 Y121.119 E119.678
G1 X128.125 Y121.61 E119.705
G1 X128.209 Y121.926 E119.721
G1 X128.229 Y122.22 E119.736
G1 X128.186 Y123.478 E119.798
G1 X127.981 Y124.046 E119.829
G1 X127.104 Y125.108 E119.897
G1 X126.612 Y125.656 E119.934
G1 X125.78 Y126.526 E119.994
G1 X124.633 Y126.728 E120.052
G1 X124.056 Y126.469 E120.084
G1 X123.635 Y126.322 E120.106
G1 X123.193 Y126.228 E120.128
G1 X122.962 Y126.202 E120.14
G1 X122.521 Y126.195 E120.162
G1 X122.062 Y126.245 E120.185
G1 X121.621 Y126.352 E120.208
G1 X121.427 Y126.419 E120.218
G1 X121.012 Y126.607 E120.241
G1 X120.617 Y126.851 E120.264
G1 X120.27 Y127.132 E120.286
G1 X119.958 Y127.46 E120.309
G1 X119.689 Y127.824 E120.331
G1 X119.577 Y128.013 E120.342
G1 X119.382 Y128.423 E120.365
G1 X119.307 Y128.63 E120.376
G1 X119.196 Y129.052 E120.398
G1 X119.123 Y129.542 E120.422
G1 X119.04 Y129.841 E120.438
G1 X118.884 Y130.141 E120.455
G1 X118.158 Y131.193 E120.519
G1 X117.676 Y131.562 E120.549
G1 X116.738 Y131.869 E120.598
G1 X116.031 Y132.077 E120.635
G1 X115.32 Y132.26 E120.671
G1 X114.37 Y132.478 E120.72
G1 X113.302 Y132.029 E120.778
G1 X112.947 Y131.481 E120.81
G1 X112.664 Y131.12 E120.833
G1 X112.352 Y130.813 E120.855
G1 X112.171 Y130.665 E120.867
G1 X111.795 Y130.415 E120.889
G1 X111.393 Y130.216 E120.912
G1 X110.964 Y130.068 E120.934
G1 X110.536 Y129.977 E120.956
G1 X110.087 Y129.94 E120.979
G1 X109.626 Y129.961 E121.002
G1 X109.195 Y130.036 E121.024
G1 X108.76 Y130.17 E121.046
G1 X108.534 Y130.264 E121.058
G1 X108.148 Y130.473 E121.08
G1 X107.781 Y130.734 E121.103
G1 X107.46 Y131.029 E121.125
G1 X107.025 Y131.502 E121.157
G1 X106.731 Y131.71 E121.175
G1 X105.438 Y132.247 E121.244
G1 X104.827 Y132.293 E121.275
G1 X103.657 Y131.977 E121.335
G1 X102.948 Y131.756 E121.373
G1 X101.672 Y131.31 E121.44
G1 X101.017 Y130.346 E121.498
G1 X101.014 Y129.711 E121.53
G1 X100.972 Y129.259 E121.552
G1 X100.874 Y128.816 E121.575
G1 X100.802 Y128.596 E121.587
G1 X100.62 Y128.181 E121.609
G1 X100.389 Y127.794 E121.632
G1 X100.111 Y127.441 E121.654
G1 X99.79 Y127.125 E121.677
G1 X99.441 Y126.858 E121.699
G1 X99.043 Y126.628 E121.721
G1 X98.624 Y126.453 E121.744
G1 X98.205 Y126.336 E121.766
G1 X97.752 Y126.27 E121.789
G1 X97.535 Y126.259 E121.799
G1 X97.083 Y126.278 E121.822
G1 X96.639 Y126.356 E121.845
G1 X96.112 Y126.503 E121.872
G1 X95.778 Y126.536 E121.889
G1 X95.508 Y126.511 E121.902
G1 X94.273 Y126.287 E121.965
G1 X93.743 Y125.996 E121.995
G1 X93.178 Y125.383 E122.037
G1 X92.696 Y124.828 E122.073
G1 X92.233 Y124.26 E122.11
G1 X91.61 Y123.451 E122.161
G1 X91.578 Y122.294 E122.218
G1 X91.919 Y121.756 E122.25
G1 X92.129 Y121.353 E122.273
G1 X92.284 Y120.929 E122.295
G1 X92.384 Y120.491 E122.318
G1 X92.429 Y120.032 E122.341
G1 X92.415 Y119.582 E122.363
G1 X92.346 Y119.149 E122.385
G1 X92.22 Y118.715 E122.408
G1 X92.035 Y118.291 E122.431
G1 X91.806 Y117.907 E122.453
G1 X91.526 Y117.551 E122.476
G1 X91.206 Y117.237 E122.498
G1 X90.846 Y116.962 E122.521
G1 X90.46 Y116.739 E122.543
G1 X90.055 Y116.569 E122.565
G1 X89.575 Y116.424 E122.59
G1 X89.287 Y116.29 E122.606
G1 X89.032 Y116.102 E122.622
G1 X88.107 Y115.238 E122.685
G1 X87.808 Y114.707 E122.715
G1 X87.613 Y113.548 E122.774
G1 X87.517 Y112.811 E122.811
G1 X87.386 Y111.417 E122.881
G1 X87.988 Y110.416 E122.939
G1 X88.574 Y110.146 E122.971
G1 X88.969 Y109.918 E122.994
G1 X89.326 Y109.646 E123.016
G1 X89.651 Y109.326 E123.039
G1 X89.791 Y109.161 E123.05
G1 X90.05 Y108.782 E123.073
G1 X90.157 Y108.592 E123.084
G1 X90.334 Y108.187 E123.106
G1 X90.463 Y107.754 E123.128
G1 X90.536 Y107.301 E123.151
G1 X90.55 Y106.848 E123.174
G1 X90.507 Y106.4 E123.196
G1 X90.408 Y105.961 E123.219
G1 X90.254 Y105.537 E123.241
G1 X90.048 Y105.138 E123.263
G1 X89.802 Y104.78 E123.285
G1 X89.51 Y104.437 E123.308
G1 X89.364 Y104.229 E123.32
G1 X89.218 Y103.928 E123.337
G1 X88.88 Y102.605 E123.405
G1 X88.916 Y101.999 E123.435
G1 X89.509 Y100.632 E123.51
G1 X89.846 Y99.945 E123.548
G1 X90.339 Y99.005 E123.601
G1 X91.384 Y98.491 E123.659
G1 X92.23 Y98.597 E123.702
G1 X92.699 Y98.59 E123.725
G1 X93.135 Y98.528 E123.747
G1 X93.576 Y98.407 E123.77
G1 X93.993 Y98.233 E123.792
G1 X94.383 Y98.008 E123.815
G1 X94.746 Y97.732 E123.837
G1 X94.904 Y97.585 E123.848
G1 X95.209 Y97.244 E123.871
G1 X95.461 Y96.877 E123.893
G1 X95.668 Y96.475 E123.916
G1 X95.822 Y96.054 E123.938
G1 X95.92 Y95.623 E123.96
G1 X95.965 Y95.162 E123.983
G1 X95.951 Y94.733 E124.005
G1 X95.886 Y94.263 E124.028
G1 X95.89 Y93.795 E124.052
G1 X96.35 Y92.392 E124.125
G1 X96.717 Y91.901 E124.156
G1 X97.647 Y91.268 E124.212
G1 X98.277 Y90.874 E124.249
G1 X99.512 Y90.158 E124.32
G1 X100.675 Y90.286 E124.379
G1 X101.167 Y90.71 E124.411
G1 X101.54 Y90.975 E124.434
G1 X101.731 Y91.086 E124.445
G1 X102.143 Y91.274 E124.468
G1 X102.577 Y91.408 E124.49
G1 X102.791 Y91.453 E124.501
G1 X103.242 Y91.504 E124.524
G1 X103.691 Y91.497 E124.546
G1 X104.127 Y91.435 E124.568
G1 X104.56 Y91.316 E124.591
G1 X104.987 Y91.138 E124.614
G1 X105.377 Y90.914 E124.636
G1 X105.734 Y90.641 E124.659
G1 X106.057 Y90.323 E124.681
G1 X106.333 Y89.972 E124.703
G1 X106.564 Y89.587 E124.726
G1 X106.794 Y89.092 E124.753
G1 X106.981 Y88.827 E124.769
G1 X107.172 Y88.636 E124.783
G1 X108.154 Y87.842 E124.846
G1 X108.718 Y87.622 E124.876
G1 X110.203 Y87.591 E124.95
G1 X110.941 Y87.609 E124.987
G1 X112.058 Y87.671 E125.043
G1 X112.96 Y88.403 E125.101
G1 X113.141 Y89.009 E125.132
G1 X113.316 Y89.446 E125.156
G1 X113.528 Y89.828 E125.178
G1 X113.66 Y90.021 E125.189
G1 X113.95 Y90.367 E125.212
G1 X114.281 Y90.673 E125.234
G1 X114.647 Y90.933 E125.257
G1 X115.048 Y91.148 E125.279
G1 X115.25 Y91.233 E125.29
G1 X115.682 Y91.367 E125.313
G1 X116.127 Y91.445 E125.335
G1 X116.589 Y91.466 E125.358
G1 X117.024 Y91.431 E125.38
G1 X117.456 Y91.342 E125.402
G1 X117.893 Y91.191 E125.425
G1 X118.291 Y90.994 E125.447
G1 X118.698 Y90.736 E125.471
G1 X118.979 Y90.605 E125.487
G1 X119.3 Y90.529 E125.503
G1 X120.578 Y90.391 E125.568
G1 X121.163 Y90.518 E125.597
G1 X122.081 Y91.07 E125.651
G1 X122.699 Y91.472 E125.688
G1 X123.915 Y92.339 E125.762
G1 F1800 E125.262
;rapid-dry
G1 F15000
G0 X118.167 Y100.314
G1 F1800 E125.762
;bead-perimeter_inner
G1 X118.599 Y100.685 F780 E125.791
G1 X119.322 Y101.387 E125.841
G1 X119.676 Y101.774 E125.867
G1 X120.014 Y102.176 E125.893
G1 X120.335 Y102.593 E125.919
G1 X120.665 Y103.059 E125.948
G1 X120.926 Y103.462 E125.972
G1 X121.216 Y103.952 E126
G1 X121.674 Y104.849 E126.05
G1 X121.902 Y105.372 E126.079
G1 X122.247 Y106.316 E126.129
G1 X122.397 Y106.821 E126.155
G1 X122.536 Y107.374 E126.184
G1 X122.643 Y107.887 E126.21
G1 X122.789 Y108.885 E126.26
G1 X122.834 Y109.407 E126.286
G1 X122.858 Y109.977 E126.315
G1 Y110.503 E126.341
G1 X122.837 Y111.027 E126.367
G1 X122.789 Y111.595 E126.396
G1 X122.643 Y112.592 E126.446
G1 X122.536 Y113.106 E126.472
G1 X122.397 Y113.658 E126.501
G1 X122.247 Y114.163 E126.527
G1 X122.091 Y114.618 E126.551
G1 X121.886 Y115.149 E126.579
G1 X121.674 Y115.631 E126.606
G1 X121.216 Y116.527 E126.656
G1 X120.926 Y117.017 E126.684
G1 X120.641 Y117.457 E126.71
G1 X120.335 Y117.886 E126.737
G1 X120.014 Y118.303 E126.763
G1 X119.705 Y118.67 E126.787
G1 X119.321 Y119.093 E126.815
G1 X118.951 Y119.465 E126.841
G1 X118.566 Y119.824 E126.868
G1 X118.167 Y120.165 E126.894
G1 X117.789 Y120.463 E126.918
G1 X117.328 Y120.799 E126.946
G1 X116.89 Y121.089 E126.973
G1 X116.44 Y121.361 E126.999
G1 X115.98 Y121.614 E127.025
G1 X115.509 Y121.848 E127.051
G1 X115.03 Y122.064 E127.078
G1 X114.542 Y122.258 E127.104
G1 X114.047 Y122.433 E127.13
G1 X113.501 Y122.599 E127.158
G1 X113.035 Y122.722 E127.182
G1 X112.522 Y122.835 E127.209
G1 X112.005 Y122.927 E127.235
G1 X111.484 Y122.996 E127.261
G1 X110.915 Y123.049 E127.29
G1 X110.392 Y123.076 E127.316
G1 X109.867 Y123.08 E127.342
G1 X109.341 Y123.063 E127.368
G1 X108.817 Y123.024 E127.394
G1 X107.819 Y122.89 E127.445
G1 X107.302 Y122.79 E127.471
G1 X106.791 Y122.668 E127.497
G1 X106.243 Y122.514 E127.525
G1 X105.745 Y122.348 E127.552
G1 X105.252 Y122.163 E127.578
G1 X104.809 Y121.976 E127.602
G1 X104.292 Y121.733 E127.63
G1 X103.828 Y121.49 E127.657
G1 X103.373 Y121.228 E127.683
G1 X102.892 Y120.921 E127.711
G1 X102.076 Y120.329 E127.761
G1 X101.671 Y119.996 E127.788
G1 X101.278 Y119.647 E127.814
G1 X100.902 Y119.281 E127.84
G1 X100.539 Y118.9 E127.866
G1 X99.863 Y118.096 E127.919
G1 X99.549 Y117.674 E127.945
G1 X99.254 Y117.239 E127.971
G1 X98.976 Y116.793 E127.997
G1 X98.697 Y116.296 E128.026
G1 X98.257 Y115.39 E128.076
G1 X98.056 Y114.905 E128.102
G1 X97.861 Y114.37 E128.131
G1 X97.702 Y113.868 E128.157
G1 X97.564 Y113.362 E128.183
G1 X97.446 Y112.849 E128.209
G1 X97.275 Y111.812 E128.262
G1 X97.221 Y111.29 E128.288
G1 X97.19 Y110.767 E128.314
G1 X97.179 Y110.195 E128.343
G1 X97.221 Y109.189 E128.393
G1 X97.275 Y108.667 E128.419
G1 X97.351 Y108.147 E128.445
G1 X97.446 Y107.63 E128.472
G1 X97.575 Y107.075 E128.5
G1 X97.861 Y106.109 E128.55
G1 X98.056 Y105.574 E128.579
G1 X98.257 Y105.089 E128.605
G1 X98.478 Y104.612 E128.631
G1 X98.954 Y103.724 E128.681
G1 X99.254 Y103.24 E128.71
G1 X99.549 Y102.805 E128.736
G1 X99.863 Y102.383 E128.762
G1 X100.509 Y101.612 E128.812
G1 X100.902 Y101.197 E128.841
G1 X101.278 Y100.833 E128.867
G1 X101.671 Y100.483 E128.893
G1 X102.461 Y99.859 E128.943
G1 X102.93 Y99.533 E128.972
G1 X103.373 Y99.253 E128.998
G1 X103.789 Y99.012 E129.022
G1 X104.294 Y98.745 E129.051
G1 X104.767 Y98.521 E129.077
G1 X105.744 Y98.131 E129.129
G1 X106.243 Y97.966 E129.155
G1 X106.748 Y97.823 E129.182
G1 X107.303 Y97.689 E129.21
G1 X107.819 Y97.589 E129.236
G1 X108.294 Y97.515 E129.26
G1 X108.861 Y97.451 E129.289
G1 X109.867 Y97.399 E129.339
G1 X110.392 Y97.404 E129.365
G1 X110.916 Y97.43 E129.391
G1 X111.484 Y97.483 E129.42
G1 X112.005 Y97.552 E129.446
G1 X112.522 Y97.644 E129.472
G1 X113.035 Y97.757 E129.498
G1 X114.004 Y98.032 E129.549
G1 X114.543 Y98.221 E129.577
G1 X115.03 Y98.415 E129.603
G1 X115.509 Y98.631 E129.63
G1 X115.98 Y98.866 E129.656
G1 X116.44 Y99.118 E129.682
G1 X117.328 Y99.681 E129.734
G1 X118.167 Y100.314 E129.787
;rapid-leaky
G1 F15000
G0 X118.399 Y100.032
;bead-perimeter_outer
G1 X118.843 Y100.414 F540 E129.816
G1 X119.586 Y101.135 E129.868
G1 X119.951 Y101.534 E129.895
G1 X120.298 Y101.947 E129.922
G1 X120.628 Y102.376 E129.949
G1 X120.967 Y102.854 E129.978
G1 X121.236 Y103.269 E130.003
G1 X121.535 Y103.773 E130.032
G1 X122.005 Y104.696 E130.084
G1 X122.24 Y105.233 E130.113
G1 X122.594 Y106.205 E130.164
G1 X122.749 Y106.724 E130.191
G1 X122.892 Y107.292 E130.221
G1 X123.002 Y107.821 E130.248
G1 X123.152 Y108.846 E130.299
G1 X123.198 Y109.384 E130.326
G1 X123.223 Y109.969 E130.355
G1 Y110.51 E130.382
G1 X123.201 Y111.05 E130.409
G1 X123.152 Y111.633 E130.439
G1 X123.002 Y112.658 E130.49
G1 X122.892 Y113.188 E130.517
G1 X122.749 Y113.755 E130.546
G1 X122.594 Y114.274 E130.573
G1 X122.434 Y114.743 E130.598
G1 X122.223 Y115.289 E130.627
G1 X122.005 Y115.784 E130.654
G1 X121.535 Y116.706 E130.706
G1 X121.236 Y117.21 E130.735
G1 X120.943 Y117.663 E130.762
G1 X120.628 Y118.104 E130.789
G1 X120.298 Y118.532 E130.816
G1 X119.98 Y118.91 E130.841
G1 X119.586 Y119.344 E130.87
G1 X119.205 Y119.727 E130.897
G1 X118.81 Y120.096 E130.924
G1 X118.399 Y120.447 E130.951
G1 X118.009 Y120.755 E130.976
G1 X117.536 Y121.099 E131.005
G1 X117.085 Y121.397 E131.032
G1 X116.623 Y121.677 E131.059
G1 X116.149 Y121.938 E131.086
G1 X115.665 Y122.178 E131.113
G1 X115.172 Y122.4 E131.14
G1 X114.671 Y122.6 E131.167
G1 X114.161 Y122.78 E131.194
G1 X113.6 Y122.951 E131.223
G1 X113.121 Y123.077 E131.248
G1 X112.593 Y123.193 E131.275
G1 X112.061 Y123.287 E131.301
G1 X111.525 Y123.359 E131.328
G1 X110.942 Y123.413 E131.358
G1 X110.402 Y123.441 E131.385
G1 X109.863 Y123.445 E131.412
G1 X109.322 Y123.427 E131.439
G1 X108.783 Y123.388 E131.466
G1 X107.756 Y123.25 E131.517
G1 X107.225 Y123.146 E131.544
G1 X106.699 Y123.021 E131.571
G1 X106.136 Y122.863 E131.6
G1 X105.623 Y122.692 E131.627
G1 X105.117 Y122.502 E131.654
G1 X104.66 Y122.309 E131.679
G1 X104.13 Y122.06 E131.708
G1 X103.652 Y121.81 E131.735
G1 X103.184 Y121.54 E131.762
G1 X102.69 Y121.225 E131.791
G1 X102.283 Y120.942 E131.816
G1 X101.851 Y120.616 E131.843
G1 X101.434 Y120.274 E131.87
G1 X101.029 Y119.914 E131.897
G1 X100.642 Y119.538 E131.924
G1 X100.269 Y119.146 E131.951
G1 X99.884 Y118.705 E131.98
G1 X99.574 Y118.32 E132.005
G1 X99.251 Y117.885 E132.032
G1 X98.948 Y117.438 E132.059
G1 X98.662 Y116.979 E132.086
G1 X98.375 Y116.469 E132.115
G1 X97.922 Y115.537 E132.167
G1 X97.715 Y115.038 E132.194
G1 X97.515 Y114.488 E132.223
G1 X97.352 Y113.971 E132.25
G1 X97.21 Y113.451 E132.277
G1 X97.089 Y112.923 E132.304
G1 X96.912 Y111.857 E132.358
G1 X96.857 Y111.32 E132.385
G1 X96.825 Y110.781 E132.412
G1 X96.814 Y110.194 E132.441
G1 X96.857 Y109.159 E132.493
G1 X96.913 Y108.622 E132.519
G1 X96.99 Y108.088 E132.546
G1 X97.089 Y107.556 E132.573
G1 X97.221 Y106.985 E132.603
G1 X97.365 Y106.464 E132.63
G1 X97.515 Y105.992 E132.654
G1 X97.715 Y105.441 E132.684
G1 X97.922 Y104.942 E132.71
G1 X98.15 Y104.452 E132.737
G1 X98.396 Y103.971 E132.764
G1 X98.639 Y103.539 E132.789
G1 X98.948 Y103.041 E132.818
G1 X99.251 Y102.594 E132.845
G1 X99.574 Y102.16 E132.872
G1 X100.239 Y101.367 E132.924
G1 X100.642 Y100.941 E132.953
G1 X101.029 Y100.566 E132.98
G1 X101.434 Y100.205 E133.007
G1 X101.851 Y99.863 E133.034
G1 X102.247 Y99.564 E133.059
G1 X102.728 Y99.229 E133.088
G1 X103.184 Y98.94 E133.115
G1 X103.613 Y98.692 E133.14
G1 X104.131 Y98.419 E133.169
G1 X104.619 Y98.188 E133.196
G1 X105.159 Y97.961 E133.225
G1 X105.623 Y97.787 E133.25
G1 X106.136 Y97.617 E133.277
G1 X106.656 Y97.47 E133.304
G1 X107.226 Y97.332 E133.333
G1 X107.756 Y97.229 E133.36
G1 X108.246 Y97.153 E133.385
G1 X108.827 Y97.087 E133.414
G1 X109.321 Y97.052 E133.439
G1 X109.862 Y97.034 E133.466
G1 X110.402 Y97.039 E133.493
G1 X110.942 Y97.066 E133.519
G1 X111.525 Y97.12 E133.549
G1 X112.061 Y97.192 E133.576
G1 X112.593 Y97.286 E133.603
G1 X113.121 Y97.402 E133.63
G1 X113.644 Y97.54 E133.657
G1 X114.118 Y97.685 E133.681
G1 X114.671 Y97.879 E133.711
G1 X115.172 Y98.079 E133.737
G1 X115.665 Y98.301 E133.764
G1 X116.149 Y98.542 E133.791
G1 X116.623 Y98.802 E133.818
G1 X117.536 Y99.381 E133.872
G1 X117.974 Y99.698 E133.899
G1 X118.399 Y100.032 E133.926
G1 F1800 E133.426
;rapid-dry
G1 F15000
G0 X115.504 Y103.464
G1 F1800 E133.926
;bead-perimeter_inner
G1 X115.145 Y103.189 F780 E133.949
G1 X114.769 Y102.93 E133.972
G1 X114.378 Y102.69 E133.995
G1 X113.977 Y102.472 E134.017
G1 X113.568 Y102.277 E134.04
G1 X113.147 Y102.102 E134.063
G1 X112.716 Y101.95 E134.085
G1 X112.278 Y101.82 E134.108
G1 X111.83 Y101.713 E134.131
G1 X111.383 Y101.63 E134.154
G1 X110.934 Y101.57 E134.176
G1 X110.478 Y101.535 E134.199
G1 X110.023 Y101.523 E134.222
G1 X109.563 Y101.535 E134.245
G1 X109.108 Y101.57 E134.268
G1 X108.655 Y101.63 E134.29
G1 X108.211 Y101.712 E134.313
G1 X107.763 Y101.819 E134.336
G1 X107.325 Y101.949 E134.359
G1 X106.895 Y102.101 E134.382
G1 X106.473 Y102.276 E134.404
G1 X106.061 Y102.474 E134.427
G1 X105.661 Y102.69 E134.45
G1 X105.275 Y102.926 E134.472
G1 X104.899 Y103.185 E134.495
G1 X104.533 Y103.466 E134.518
G1 X104.186 Y103.762 E134.541
G1 X103.858 Y104.073 E134.564
G1 X103.541 Y104.407 E134.586
G1 X103.245 Y104.754 E134.609
G1 X102.967 Y105.115 E134.632
G1 X102.708 Y105.493 E134.655
G1 X102.47 Y105.882 E134.678
G1 X102.253 Y106.282 E134.7
G1 X102.056 Y106.694 E134.723
G1 X101.881 Y107.117 E134.746
G1 X101.731 Y107.541 E134.768
G1 X101.6 Y107.98 E134.791
G1 X101.493 Y108.428 E134.814
G1 X101.41 Y108.876 E134.837
G1 X101.35 Y109.329 E134.86
G1 X101.315 Y109.78 E134.882
G1 X101.303 Y110.236 E134.905
G1 X101.315 Y110.699 E134.928
G1 X101.35 Y111.151 E134.951
G1 X101.41 Y111.604 E134.974
G1 X101.493 Y112.051 E134.996
G1 X101.6 Y112.5 E135.019
G1 X101.731 Y112.937 E135.042
G1 X101.881 Y113.362 E135.065
G1 X102.055 Y113.784 E135.087
G1 X102.252 Y114.198 E135.11
G1 X102.471 Y114.599 E135.133
G1 X102.708 Y114.987 E135.156
G1 X102.967 Y115.363 E135.178
G1 X103.245 Y115.726 E135.201
G1 X103.541 Y116.072 E135.224
G1 X103.858 Y116.407 E135.247
G1 X104.186 Y116.717 E135.27
G1 X104.533 Y117.013 E135.292
G1 X104.899 Y117.294 E135.315
G1 X105.275 Y117.553 E135.338
G1 X105.661 Y117.789 E135.361
G1 X106.062 Y118.006 E135.383
G1 X106.477 Y118.204 E135.406
G1 X106.895 Y118.377 E135.429
G1 X107.325 Y118.53 E135.452
G1 X107.763 Y118.66 E135.474
G1 X108.211 Y118.768 E135.497
G1 X108.656 Y118.849 E135.52
G1 X109.108 Y118.909 E135.543
G1 X109.562 Y118.944 E135.565
G1 X110.019 Y118.957 E135.588
G1 X110.479 Y118.944 E135.611
G1 X110.934 Y118.909 E135.634
G1 X111.383 Y118.849 E135.657
G1 X111.83 Y118.767 E135.679
G1 X112.278 Y118.659 E135.702
G1 X112.716 Y118.53 E135.725
G1 X113.147 Y118.377 E135.748
G1 X113.568 Y118.202 E135.771
G1 X113.977 Y118.007 E135.793
G1 X114.378 Y117.789 E135.816
G1 X114.766 Y117.551 E135.839
G1 X115.142 Y117.294 E135.861
G1 X115.505 Y117.015 E135.884
G1 X115.851 Y116.719 E135.907
G1 X116.183 Y116.406 E135.93
G1 X116.496 Y116.074 E135.952
G1 X116.792 Y115.728 E135.975
G1 X117.071 Y115.366 E135.998
G1 X117.33 Y114.989 E136.021
G1 X117.568 Y114.601 E136.044
G1 X117.786 Y114.199 E136.066
G1 X117.984 Y113.783 E136.089
G1 X118.159 Y113.361 E136.112
G1 X118.311 Y112.931 E136.135
G1 X118.441 Y112.493 E136.158
G1 X118.546 Y112.053 E136.18
G1 X118.629 Y111.606 E136.203
G1 X118.689 Y111.153 E136.226
G1 X118.724 Y110.698 E136.249
G1 X118.737 Y110.242 E136.271
G1 X118.724 Y109.781 E136.294
G1 X118.689 Y109.327 E136.317
G1 X118.629 Y108.874 E136.34
G1 X118.546 Y108.426 E136.363
G1 X118.441 Y107.986 E136.385
G1 X118.311 Y107.548 E136.408
G1 X118.159 Y107.118 E136.431
G1 X117.984 Y106.696 E136.453
G1 X117.786 Y106.28 E136.476
G1 X117.569 Y105.88 E136.499
G1 X117.33 Y105.49 E136.522
G1 X117.071 Y105.113 E136.545
G1 X116.792 Y104.752 E136.568
G1 X116.496 Y104.405 E136.59
G1 X116.183 Y104.074 E136.613
G1 X115.851 Y103.76 E136.636
G1 X115.504 Y103.464 E136.659
;rapid-leaky
G1 F15000
G0 X115.275 Y103.747
;bead-perimeter_outer
G1 X114.93 Y103.484 F540 E136.68
G1 X114.57 Y103.236 E136.702
G1 X114.195 Y103.006 E136.724
G1 X113.811 Y102.798 E136.746
G1 X113.419 Y102.61 E136.767
G1 X113.016 Y102.443 E136.789
G1 X112.603 Y102.297 E136.811
G1 X112.184 Y102.173 E136.833
G1 X111.755 Y102.07 E136.855
G1 X111.326 Y101.99 E136.877
G1 X110.896 Y101.933 E136.898
G1 X110.459 Y101.899 E136.92
G1 X110.023 Y101.888 E136.942
G1 X109.582 Y101.899 E136.964
G1 X109.146 Y101.933 E136.986
G1 X108.713 Y101.99 E137.008
G1 X108.287 Y102.069 E137.029
G1 X107.857 Y102.172 E137.051
G1 X107.438 Y102.296 E137.073
G1 X107.026 Y102.442 E137.095
G1 X106.621 Y102.609 E137.117
G1 X106.227 Y102.799 E137.138
G1 X105.843 Y103.007 E137.16
G1 X105.474 Y103.232 E137.182
G1 X105.113 Y103.48 E137.204
G1 X104.763 Y103.75 E137.226
G1 X104.43 Y104.033 E137.248
G1 X104.117 Y104.332 E137.269
G1 X103.812 Y104.651 E137.291
G1 X103.529 Y104.984 E137.313
G1 X103.262 Y105.33 E137.335
G1 X103.014 Y105.691 E137.357
G1 X102.787 Y106.064 E137.378
G1 X102.578 Y106.448 E137.4
G1 X102.389 Y106.843 E137.422
G1 X102.222 Y107.247 E137.444
G1 X102.078 Y107.654 E137.465
G1 X101.953 Y108.074 E137.487
G1 X101.85 Y108.504 E137.509
G1 X101.77 Y108.934 E137.531
G1 X101.713 Y109.367 E137.553
G1 X101.679 Y109.799 E137.575
G1 X101.668 Y110.236 E137.596
G1 X101.679 Y110.68 E137.619
G1 X101.713 Y111.113 E137.64
G1 X101.77 Y111.546 E137.662
G1 X101.85 Y111.976 E137.684
G1 X101.953 Y112.406 E137.706
G1 X102.078 Y112.824 E137.728
G1 X102.222 Y113.232 E137.749
G1 X102.389 Y113.636 E137.771
G1 X102.578 Y114.032 E137.793
G1 X102.787 Y114.416 E137.815
G1 X103.014 Y114.788 E137.836
G1 X103.262 Y115.149 E137.858
G1 X103.529 Y115.496 E137.88
G1 X103.812 Y115.828 E137.902
G1 X104.117 Y116.149 E137.924
G1 X104.43 Y116.446 E137.946
G1 X104.763 Y116.729 E137.967
G1 X105.113 Y116.999 E137.989
G1 X105.474 Y117.247 E138.011
G1 X105.843 Y117.472 E138.033
G1 X106.227 Y117.68 E138.055
G1 X106.626 Y117.871 E138.077
G1 X107.026 Y118.037 E138.098
G1 X107.438 Y118.183 E138.12
G1 X107.857 Y118.307 E138.142
G1 X108.287 Y118.411 E138.164
G1 X108.713 Y118.489 E138.186
G1 X109.146 Y118.546 E138.207
G1 X109.581 Y118.58 E138.229
G1 X110.019 Y118.592 E138.251
G1 X110.46 Y118.58 E138.273
G1 X110.896 Y118.546 E138.295
G1 X111.325 Y118.489 E138.316
G1 X111.755 Y118.41 E138.338
G1 X112.184 Y118.306 E138.36
G1 X112.603 Y118.182 E138.382
G1 X113.016 Y118.036 E138.404
G1 X113.419 Y117.869 E138.426
G1 X113.811 Y117.681 E138.447
G1 X114.195 Y117.473 E138.469
G1 X114.567 Y117.245 E138.491
G1 X114.927 Y116.998 E138.513
G1 X115.275 Y116.731 E138.535
G1 X115.607 Y116.448 E138.556
G1 X115.924 Y116.147 E138.578
G1 X116.225 Y115.83 E138.6
G1 X116.508 Y115.498 E138.622
G1 X116.776 Y115.151 E138.644
G1 X117.024 Y114.79 E138.665
G1 X117.252 Y114.418 E138.687
G1 X117.46 Y114.034 E138.709
G1 X117.651 Y113.634 E138.731
G1 X117.818 Y113.23 E138.753
G1 X117.964 Y112.818 E138.775
G1 X118.088 Y112.399 E138.797
G1 X118.189 Y111.978 E138.818
G1 X118.269 Y111.548 E138.84
G1 X118.326 Y111.115 E138.862
G1 X118.36 Y110.679 E138.884
G1 X118.372 Y110.242 E138.905
G1 X118.36 Y109.8 E138.927
G1 X118.326 Y109.365 E138.949
G1 X118.269 Y108.932 E138.971
G1 X118.189 Y108.502 E138.993
G1 X118.088 Y108.08 E139.014
G1 X117.964 Y107.661 E139.036
G1 X117.818 Y107.249 E139.058
G1 X117.651 Y106.845 E139.08
G1 X117.46 Y106.446 E139.102
G1 X117.252 Y106.062 E139.124
G1 X117.024 Y105.689 E139.145
G1 X116.776 Y105.328 E139.167
G1 X116.508 Y104.982 E139.189
G1 X116.225 Y104.649 E139.211
G1 X115.924 Y104.333 E139.233
G1 X115.607 Y104.031 E139.255
G1 X115.275 Y103.747 E139.276
G1 F1800 E138.776
;rapid-dry
G1 F15000
G0 X122.535 Y110.567
G1 F1800 E139.276
;bead-solid_infill
G1 X110.346 Y122.756 F1200 E140.136
G1 X110.382 E140.138
G1 X110.649 Y122.743 E140.152
G1 X110.892 Y122.73 E140.164
G1 X110.943 Y122.725 E140.166
G1 X122.504 Y111.164 E140.982
G1 X122.471 Y111.558 E141.002
G1 X122.436 Y111.798 E141.014
G1 X111.572 Y122.662 E141.78
G1 X111.956 Y122.61 E141.8
G1 X112.24 Y122.56 E141.814
G1 X122.339 Y112.46 E142.527
G1 X122.328 Y112.536 E142.53
G1 X122.224 Y113.035 E142.556
G1 X122.189 Y113.177 E142.563
G1 X112.953 Y122.412 E143.215
G1 X112.96 Y122.411
G1 X113.271 Y122.329 E143.231
G1 X113.413 Y122.291 E143.238
G1 X113.738 Y122.192 E143.255
G1 X121.974 Y113.957 E143.836
G1 X121.942 Y114.065 E143.842
G1 X121.79 Y114.508 E143.866
G1 X121.666 Y114.831 E143.883
G1 X114.61 Y121.886 E144.381
G1 X114.905 Y121.769 E144.396
G1 X115.373 Y121.559 E144.422
G1 X115.633 Y121.43 E144.436
G1 X121.193 Y115.869 E144.829
G1 X120.936 Y116.372 E144.857
G1 X120.654 Y116.849 E144.885
G1 X120.457 Y117.153 E144.903
G1 X120.423 Y117.205 E144.906
G1 X116.988 Y120.64 E145.148
G1 F1800 E144.648
;rapid-dry
G1 F15000
G0 X118.526 Y122.688
G1 F1800 E145.148
;bead-support-structure
G1 X118.764 Y122.824 F2100 E145.162
G1 X119.104 Y123.05 E145.182
G1 X119.423 Y123.296 E145.202
G1 X119.724 Y123.561 E145.222
G1 X120.149 Y123.136 E145.252
G1 X121.114 Y121.605 E145.342
G1 X124.501 Y117.653 E145.602
G1 X123.823 Y117.199 E145.643
G1 X125.369 Y115.087 E145.773
G1 X125.748 Y114.143 E145.824
G1 F1800 E145.324
G1 F2400
G0 X125.45 Y114.885
G0 X125.748 Y114.143
;rapid-dry
G1 F15000
G0 X112.026 Y89.816
G1 F1800 E145.824
;bead-support-structure
G1 X112.254 Y90.29 F2100 E145.85
G1 X112.589 Y90.811 E145.881
G1 X112.987 Y91.285 E145.912
G1 X113.208 Y91.502 E145.928
G1 X113.442 Y91.706 E145.943
G1 X113.942 Y92.062 E145.974
G1 X114.497 Y92.359 E146.005
G1 X115.07 Y92.578 E146.036
G1 X115.364 Y92.659 E146.051
G1 X115.984 Y92.768 E146.082
G1 X116.612 Y92.797 E146.114
G1 X117.209 Y92.749 E146.144
G1 X117.812 Y92.624 E146.174
G1 X118.406 Y92.419 E146.206
G1 X118.962 Y92.144 E146.237
G1 X119.414 Y91.862 E146.263
G1 X120.505 Y91.736 E146.318
G1 X120.674 Y91.773 E146.327
G1 X121.372 Y92.195 E146.367
G1 X121.954 Y92.575 E146.402
G1 X122.788 Y93.164 E146.453
G1 X122.886 Y93.464 E146.469
G1 X122.75 Y94.015 E146.497
G1 X122.669 Y94.636 E146.528
G1 X122.668 Y95.26 E146.559
G1 X122.744 Y95.87 E146.59
G1 X122.811 Y96.167 E146.605
G1 X122.902 Y96.478 E146.621
G1 X123.132 Y97.053 E146.652
G1 X123.43 Y97.59 E146.683
G1 X123.803 Y98.097 E146.714
G1 X124.228 Y98.541 E146.745
G1 X124.461 Y98.744 E146.76
G1 X124.708 Y98.932 E146.776
G1 X125.234 Y99.258 E146.807
G1 X125.511 Y99.395 E146.822
G1 X126.091 Y99.616 E146.853
G1 X126.692 Y99.762 E146.884
G1 X127.31 Y99.83 E146.915
G1 X127.871 Y99.844 E146.943
G1 X128.833 Y100.322 E146.997
G1 X128.956 Y100.444 E147.005
G1 X129.458 Y101.485 E147.063
G1 X129.989 Y102.767 E147.132
G1 X129.909 Y103.073 E147.148
G1 X129.485 Y103.475 E147.177
G1 X129.089 Y103.947 E147.208
G1 X128.754 Y104.467 E147.239
G1 X128.489 Y105.028 E147.27
G1 X128.382 Y105.318 E147.285
G1 X128.295 Y105.615 E147.301
G1 X128.178 Y106.223 E147.331
G1 X128.149 Y106.526 E147.347
G1 X128.148 Y107.142 E147.377
G1 X128.176 Y107.445 E147.393
G1 X128.224 Y107.751 E147.408
G1 X128.291 Y108.053 E147.423
G1 X128.382 Y108.364 E147.44
G1 X128.613 Y108.939 E147.471
G1 X128.754 Y109.215 E147.486
G1 X128.914 Y109.48 E147.501
G1 X129.281 Y109.979 E147.532
G1 X129.708 Y110.426 E147.563
G1 X130.189 Y110.818 E147.594
G1 X130.648 Y111.124 E147.622
G1 X131.209 Y112.057 E147.676
G1 X131.247 Y112.225 E147.685
G1 X131.158 Y113.008 E147.724
G1 X131.057 Y113.696 E147.759
G1 X130.859 Y114.749 E147.812
G1 X130.627 Y114.963 E147.828
G1 X130.053 Y115.071 E147.857
G1 X129.478 Y115.25 E147.887
G1 X128.913 Y115.505 E147.918
G1 X128.632 Y115.667 E147.934
G1 X128.375 Y115.839 E147.95
G1 X128.132 Y116.022 E147.965
G1 X127.674 Y116.446 E147.996
G1 X127.273 Y116.925 E148.027
G1 X127.1 Y117.175 E148.042
G1 X126.941 Y117.441 E148.058
G1 X126.677 Y117.995 E148.088
G1 X126.485 Y118.581 E148.119
G1 X126.414 Y118.886 E148.135
G1 X126.336 Y119.496 E148.165
G1 X126.325 Y119.814 E148.181
G1 X126.363 Y120.418 E148.211
G1 X126.41 Y120.724 E148.227
G1 X126.478 Y121.026 E148.242
G1 X126.67 Y121.616 E148.273
G1 X126.896 Y122.132 E148.301
G1 X126.864 Y123.223 E148.356
G1 X126.806 Y123.386 E148.364
G1 X126.101 Y124.235 E148.419
G1 X125.636 Y124.752 E148.454
G1 X125.12 Y125.291 E148.491
G1 X124.811 Y125.346 E148.507
G1 X124.285 Y125.132 E148.535
G1 X123.992 Y125.04 E148.551
G1 X123.678 Y124.964 E148.567
G1 X123.388 Y124.911 E148.582
G1 X123.065 Y124.876 E148.598
G1 X122.46 Y124.865 E148.628
G1 X122.138 Y124.89 E148.644
G1 X121.831 Y124.935 E148.66
G1 X121.229 Y125.08 E148.69
G1 X120.65 Y125.302 E148.721
G1 X120.385 Y125.432 E148.736
G1 X120.104 Y125.594 E148.752
G1 X119.6 Y125.952 E148.783
G1 X119.366 Y126.155 E148.799
G1 X118.941 Y126.601 E148.829
G1 X118.572 Y127.102 E148.86
G1 X118.274 Y127.635 E148.891
G1 X118.043 Y128.214 E148.922
G1 X117.887 Y128.809 E148.953
G1 X117.802 Y129.354 E148.98
G1 X117.183 Y130.264 E149.035
G1 X117.047 Y130.369 E149.044
G1 X116.343 Y130.599 E149.081
G1 X115.676 Y130.795 E149.115
G1 X114.494 Y131.087 E149.176
G1 X114.202 Y130.964 E149.192
G1 X113.862 Y130.481 E149.221
G1 X113.657 Y130.234 E149.237
G1 X113.227 Y129.81 E149.267
G1 X112.735 Y129.433 E149.298
G1 X112.461 Y129.263 E149.314
G1 X112.188 Y129.116 E149.33
G1 X111.906 Y128.988 E149.345
G1 X111.616 Y128.877 E149.361
G1 X111.019 Y128.712 E149.392
G1 X110.421 Y128.625 E149.422
G1 X109.802 Y128.613 E149.453
G1 X109.484 Y128.638 E149.469
G1 X108.877 Y128.744 E149.499
G1 X108.291 Y128.925 E149.53
G1 X107.978 Y129.056 E149.547
G1 X107.445 Y129.342 E149.577
G1 X107.188 Y129.513 E149.593
G1 X106.942 Y129.701 E149.608
G1 X106.495 Y130.112 E149.638
G1 X106.122 Y130.522 E149.666
G1 X105.125 Y130.937 E149.72
G1 X104.954 Y130.95 E149.728
G1 X104.028 Y130.7 E149.776
G1 X103.365 Y130.493 E149.811
G1 X102.525 Y130.2 E149.855
G1 X102.35 Y129.941 E149.871
G1 X102.323 Y129.34 E149.901
G1 X102.287 Y129.051 E149.915
G1 X102.152 Y128.447 E149.946
G1 X102.052 Y128.139 E149.962
G1 X101.936 Y127.851 E149.978
G1 X101.804 Y127.571 E149.993
G1 X101.653 Y127.3 E150.009
G1 X101.302 Y126.791 E150.04
G1 X100.889 Y126.329 E150.071
G1 X100.665 Y126.123 E150.086
G1 X100.176 Y125.749 E150.116
G1 X99.906 Y125.581 E150.132
G1 X99.633 Y125.435 E150.148
G1 X99.061 Y125.195 E150.179
G1 X98.479 Y125.034 E150.209
G1 X97.866 Y124.944 E150.24
G1 X97.557 Y124.928 E150.255
G1 X96.943 Y124.955 E150.286
G1 X96.321 Y125.063 E150.317
G1 X95.791 Y125.207 E150.345
G1 X94.723 Y125.017 E150.399
G1 X94.573 Y124.935 E150.407
G1 X93.714 Y123.972 E150.472
G1 X92.928 Y122.982 E150.535
G1 X92.919 Y122.671 E150.55
G1 X93.22 Y122.153 E150.58
G1 X93.347 Y121.889 E150.595
G1 X93.463 Y121.602 E150.61
G1 X93.56 Y121.307 E150.626
G1 X93.639 Y121.008 E150.641
G1 X93.739 Y120.397 E150.672
G1 X93.759 Y119.764 E150.704
G1 X93.74 Y119.455 E150.719
G1 X93.7 Y119.148 E150.735
G1 X93.646 Y118.863 E150.749
G1 X93.47 Y118.258 E150.781
G1 X93.352 Y117.962 E150.796
G1 X93.069 Y117.411 E150.827
G1 X92.904 Y117.155 E150.842
G1 X92.515 Y116.661 E150.874
G1 X92.077 Y116.23 E150.905
G1 X91.584 Y115.855 E150.935
G1 X91.322 Y115.692 E150.951
G1 X91.054 Y115.548 E150.966
G1 X90.485 Y115.309 E150.997
G1 X89.969 Y115.149 E151.024
G1 X89.165 Y114.407 E151.078
G1 X89.081 Y114.257 E151.087
G1 X88.929 Y113.352 E151.133
G1 X88.839 Y112.663 E151.167
G1 X88.751 Y111.728 E151.214
G1 X88.912 Y111.459 E151.23
G1 X89.446 Y111.187 E151.26
G1 X89.706 Y111.026 E151.275
G1 X89.958 Y110.847 E151.29
G1 X90.198 Y110.651 E151.306
G1 X90.64 Y110.217 E151.337
G1 X90.839 Y109.98 E151.352
G1 X91.022 Y109.73 E151.368
G1 X91.338 Y109.204 E151.398
G1 X91.585 Y108.64 E151.429
G1 X91.76 Y108.051 E151.46
G1 X91.82 Y107.747 E151.475
G1 X91.861 Y107.426 E151.491
G1 X91.88 Y106.806 E151.522
G1 X91.861 Y106.498 E151.538
G1 X91.764 Y105.889 E151.568
G1 X91.685 Y105.587 E151.584
G1 X91.473 Y105.004 E151.615
G1 X91.192 Y104.459 E151.646
G1 X90.843 Y103.949 E151.676
G1 X90.485 Y103.513 E151.705
G1 X90.22 Y102.476 E151.758
G1 X90.23 Y102.304 E151.767
G1 X90.714 Y101.196 E151.827
G1 X91.313 Y100.008 E151.893
G1 X91.597 Y99.868 E151.909
G1 X92.173 Y99.926 E151.938
G1 X92.797 Y99.918 E151.969
G1 X93.407 Y99.831 E152
G1 X93.703 Y99.761 E152.015
G1 X94.006 Y99.666 E152.031
G1 X94.584 Y99.425 E152.062
G1 X95.12 Y99.115 E152.093
G1 X95.617 Y98.737 E152.124
G1 X95.837 Y98.535 E152.139
G1 X96.256 Y98.065 E152.17
G1 X96.437 Y97.82 E152.186
G1 X96.755 Y97.289 E152.216
G1 X97.008 Y96.707 E152.248
G1 X97.098 Y96.432 E152.263
G1 X97.235 Y95.832 E152.293
G1 X97.295 Y95.206 E152.325
G1 X97.275 Y94.598 E152.355
G1 X97.211 Y94.034 E152.383
G1 X97.546 Y93.013 E152.437
G1 X97.649 Y92.876 E152.445
G1 X98.374 Y92.382 E152.489
G1 X98.963 Y92.013 E152.524
G1 X99.8 Y91.528 E152.572
G1 X100.112 Y91.563 E152.588
G1 X100.581 Y91.936 E152.618
G1 X100.836 Y92.105 E152.633
G1 X101.382 Y92.397 E152.664
G1 X101.946 Y92.614 E152.694
G1 X102.558 Y92.763 E152.725
G1 X103.183 Y92.833 E152.757
G1 X103.791 Y92.824 E152.787
G1 X104.401 Y92.737 E152.818
G1 X104.992 Y92.575 E152.848
G1 X105.296 Y92.459 E152.865
G1 X105.851 Y92.184 E152.896
G1 X106.114 Y92.022 E152.911
G1 X106.606 Y91.646 E152.942
G1 X107.048 Y91.212 E152.973
G1 X107.247 Y90.975 E152.988
G1 X107.43 Y90.725 E153.004
G1 X107.749 Y90.194 E153.035
G1 X107.988 Y89.691 E153.062
G1 X108.829 Y89.006 E153.117
G1 X108.991 Y88.943 E153.125
G1 X110.194 Y88.921 E153.185
G1 X111.552 Y88.973 E153.253
G1 X110.847 Y89.942 E153.313
G1 X110.186 Y89.926 E153.346
G1 X109.271 Y89.942 E153.391
G1 X108.796 Y90.326 E153.422
G1 X108.644 Y90.652 E153.44
G1 X108.46 Y90.982 E153.459
G1 X108.259 Y91.295 E153.477
G1 X108.038 Y91.596 E153.496
G1 X107.796 Y91.884 E153.515
G1 X107.538 Y92.153 E153.533
G1 X107.265 Y92.406 E153.552
G1 X106.976 Y92.641 E153.57
G1 X106.671 Y92.859 E153.589
G1 X106.353 Y93.056 E153.608
G1 X106.024 Y93.232 E153.626
G1 X105.684 Y93.387 E153.645
G1 X105.318 Y93.526 E153.665
G1 X104.963 Y93.635 E153.683
G1 X104.599 Y93.723 E153.702
G1 X104.231 Y93.786 E153.72
G1 X103.876 Y93.826 E153.738
G1 X103.503 Y93.843 E153.757
G1 X103.129 Y93.837 E153.776
G1 X102.757 Y93.807 E153.794
G1 X102.388 Y93.755 E153.813
G1 X102.022 Y93.678 E153.831
G1 X101.648 Y93.574 E153.851
G1 X101.308 Y93.457 E153.869
G1 X100.963 Y93.312 E153.887
G1 X100.629 Y93.146 E153.906
G1 X100.307 Y92.96 E153.925
G1 X99.864 Y92.653 E153.951
G1 X98.924 Y93.224 E154.006
G1 X98.423 Y93.565 E154.037
G1 X98.229 Y94.157 E154.068
G1 X98.276 Y94.501 E154.085
G1 X98.3 Y94.864 E154.103
G1 Y95.239 E154.122
G1 X98.274 Y95.628 E154.141
G1 X98.226 Y95.999 E154.16
G1 X98.154 Y96.365 E154.179
G1 X98.065 Y96.709 E154.196
G1 X97.954 Y97.05 E154.214
G1 X97.809 Y97.412 E154.234
G1 X97.649 Y97.749 E154.252
G1 X97.467 Y98.076 E154.271
G1 X97.266 Y98.39 E154.29
G1 X97.042 Y98.692 E154.308
G1 X96.793 Y98.988 E154.328
G1 X96.547 Y99.247 E154.345
G1 X96.271 Y99.502 E154.364
G1 X95.981 Y99.736 E154.383
G1 X95.677 Y99.953 E154.401
G1 X95.36 Y100.149 E154.42
G1 X95.03 Y100.327 E154.439
G1 X94.69 Y100.481 E154.457
G1 X94.341 Y100.615 E154.476
G1 X93.968 Y100.73 E154.495
G1 X93.603 Y100.817 E154.514
G1 X93.237 Y100.88 E154.533
G1 X92.881 Y100.92 E154.551
G1 X92.492 Y100.937 E154.57
G1 X91.976 Y100.919 E154.596
G1 X91.624 Y101.624 E154.635
G1 X91.364 Y102.202 E154.667
G1 X91.254 Y102.464 E154.681
G1 X91.407 Y103.063 E154.712
G1 X91.637 Y103.332 E154.729
G1 X91.851 Y103.625 E154.747
G1 X92.052 Y103.937 E154.766
G1 X92.234 Y104.264 E154.785
G1 X92.395 Y104.602 E154.803
G1 X92.539 Y104.963 E154.823
G1 X92.65 Y105.304 E154.841
G1 X92.745 Y105.668 E154.859
G1 X92.815 Y106.033 E154.878
G1 X92.862 Y106.404 E154.897
G1 X92.885 Y106.774 E154.915
G1 Y107.148 E154.934
G1 X92.862 Y107.521 E154.952
G1 X92.813 Y107.908 E154.972
G1 X92.74 Y108.276 E154.991
G1 X92.645 Y108.637 E155.009
G1 X92.528 Y108.991 E155.028
G1 X92.395 Y109.323 E155.046
G1 X92.234 Y109.661 E155.064
G1 X92.052 Y109.987 E155.083
G1 X91.851 Y110.3 E155.101
G1 X91.63 Y110.601 E155.12
G1 X91.388 Y110.889 E155.139
G1 X91.13 Y111.158 E155.157
G1 X90.857 Y111.411 E155.176
G1 X90.567 Y111.647 E155.195
G1 X90.263 Y111.863 E155.213
G1 X89.799 Y112.139 E155.24
G1 X89.923 Y113.203 E155.294
G1 X90.03 Y113.839 E155.326
G1 X90.478 Y114.258 E155.356
G1 X90.822 Y114.362 E155.374
G1 X91.49 Y114.642 E155.411
G1 X91.825 Y114.821 E155.429
G1 X92.142 Y115.019 E155.448
G1 X92.446 Y115.235 E155.467
G1 X92.735 Y115.47 E155.485
G1 X93.01 Y115.724 E155.504
G1 X93.269 Y115.995 E155.523
G1 X93.507 Y116.28 E155.541
G1 X93.729 Y116.58 E155.56
G1 X93.932 Y116.895 E155.579
G1 X94.113 Y117.222 E155.597
G1 X94.274 Y117.559 E155.616
G1 X94.418 Y117.922 E155.635
G1 X94.529 Y118.262 E155.653
G1 X94.626 Y118.638 E155.672
G1 X94.693 Y118.99 E155.69
G1 X94.741 Y119.359 E155.709
G1 X94.764 Y119.733 E155.728
G1 Y120.106 E155.746
G1 X94.74 Y120.495 E155.766
G1 X94.69 Y120.867 E155.784
G1 X94.619 Y121.233 E155.803
G1 X94.523 Y121.594 E155.822
G1 X94.407 Y121.948 E155.84
G1 X94.267 Y122.295 E155.859
G1 X94.032 Y122.763 E155.885
G1 X94.482 Y123.324 E155.921
G1 X95.147 Y124.072 E155.971
G1 X95.746 Y124.181 E156.001
G1 X96.09 Y124.084 E156.019
G1 X96.444 Y124.011 E156.037
G1 X96.827 Y123.956 E156.056
G1 X97.203 Y123.927 E156.075
G1 X97.576 Y123.923 E156.094
G1 X97.949 Y123.941 E156.112
G1 X98.32 Y123.985 E156.131
G1 X98.686 Y124.05 E156.15
G1 X99.034 Y124.134 E156.167
G1 X99.39 Y124.245 E156.186
G1 X99.739 Y124.379 E156.205
G1 X100.078 Y124.533 E156.223
G1 X100.409 Y124.71 E156.242
G1 X100.74 Y124.916 E156.262
G1 X101.031 Y125.125 E156.279
G1 X101.319 Y125.359 E156.298
G1 X101.594 Y125.613 E156.317
G1 X101.852 Y125.883 E156.335
G1 X102.092 Y126.169 E156.354
G1 X102.313 Y126.47 E156.372
G1 X102.515 Y126.783 E156.391
G1 X102.698 Y127.111 E156.41
G1 X102.858 Y127.449 E156.428
G1 X102.997 Y127.795 E156.447
G1 X103.118 Y128.165 E156.466
G1 X103.207 Y128.513 E156.484
G1 X103.28 Y128.894 E156.504
G1 X103.335 Y129.418 E156.53
G1 X104.309 Y129.734 E156.581
G1 X104.969 Y129.913 E156.615
G1 X105.541 Y129.676 E156.646
G1 X105.767 Y129.419 E156.663
G1 X106.026 Y129.164 E156.681
G1 X106.308 Y128.921 E156.7
G1 X106.604 Y128.695 E156.718
G1 X106.915 Y128.488 E156.737
G1 X107.238 Y128.301 E156.756
G1 X107.559 Y128.141 E156.774
G1 X107.934 Y127.985 E156.794
G1 X108.273 Y127.868 E156.812
G1 X108.646 Y127.765 E156.831
G1 X108.997 Y127.692 E156.849
G1 X109.367 Y127.639 E156.868
G1 X109.757 Y127.608 E156.887
G1 X110.131 Y127.604 E156.906
G1 X110.504 Y127.622 E156.924
G1 X110.874 Y127.666 E156.943
G1 X111.226 Y127.728 E156.961
G1 X111.589 Y127.816 E156.979
G1 X111.944 Y127.927 E156.998
G1 X112.294 Y128.06 E157.017
G1 X112.634 Y128.216 E157.035
G1 X112.964 Y128.392 E157.054
G1 X113.293 Y128.597 E157.073
G1 X113.586 Y128.806 E157.091
G1 X113.886 Y129.051 E157.111
G1 X114.149 Y129.294 E157.128
G1 X114.408 Y129.566 E157.147
G1 X114.75 Y129.991 E157.174
G1 X115.409 Y129.825 E157.208
G1 X116.496 Y129.49 E157.265
G1 X116.845 Y128.984 E157.296
G1 X116.9 Y128.616 E157.314
G1 X116.981 Y128.263 E157.332
G1 X117.086 Y127.906 E157.351
G1 X117.213 Y127.555 E157.37
G1 X117.369 Y127.197 E157.389
G1 X117.535 Y126.878 E157.407
G1 X117.726 Y126.558 E157.426
G1 X117.938 Y126.25 E157.444
G1 X118.167 Y125.959 E157.463
G1 X118.418 Y125.679 E157.482
G1 X118.683 Y125.418 E157.5
G1 X118.967 Y125.171 E157.519
G1 X119.265 Y124.946 E157.537
G1 X119.575 Y124.739 E157.556
G1 X119.912 Y124.545 E157.575
G1 X120.234 Y124.386 E157.593
G1 X120.592 Y124.237 E157.613
G1 X120.931 Y124.12 E157.631
G1 X121.291 Y124.02 E157.649
G1 X121.656 Y123.944 E157.668
G1 X122.026 Y123.891 E157.687
G1 X122.415 Y123.86 E157.706
G1 X122.788 Y123.856 E157.725
G1 X123.145 Y123.873 E157.742
G1 X123.533 Y123.916 E157.762
G1 X123.886 Y123.98 E157.78
G1 X124.262 Y124.072 E157.799
G1 X124.74 Y124.23 E157.824
G1 X125.342 Y123.576 E157.869
G1 X125.868 Y122.944 E157.91
G1 X125.889 Y122.33 E157.94
G1 X125.737 Y121.992 E157.959
G1 X125.613 Y121.649 E157.977
G1 X125.504 Y121.277 E157.996
G1 X125.422 Y120.911 E158.015
G1 X125.365 Y120.542 E158.034
G1 X125.33 Y120.171 E158.052
G1 X125.32 Y119.813 E158.07
G1 X125.332 Y119.425 E158.089
G1 X125.368 Y119.068 E158.107
G1 X125.426 Y118.7 E158.126
G1 X125.513 Y118.321 E158.145
G1 X125.613 Y117.979 E158.163
G1 X125.741 Y117.626 E158.182
G1 X125.898 Y117.269 E158.201
G1 X126.062 Y116.952 E158.219
G1 X126.254 Y116.631 E158.238
G1 X126.467 Y116.322 E158.256
G1 X126.697 Y116.031 E158.275
G1 X126.946 Y115.752 E158.294
G1 X127.212 Y115.491 E158.312
G1 X127.494 Y115.245 E158.331
G1 X127.793 Y115.019 E158.35
G1 X128.103 Y114.812 E158.368
G1 X128.44 Y114.618 E158.388
G1 X128.762 Y114.459 E158.405
G1 X129.121 Y114.31 E158.425
G1 X129.459 Y114.194 E158.443
G1 X129.968 Y114.062 E158.469
G1 X130.065 Y113.534 E158.496
G1 X130.219 Y112.36 E158.555
G1 X129.899 Y111.828 E158.586
G1 X129.608 Y111.639 E158.603
G1 X129.307 Y111.41 E158.622
G1 X129.025 Y111.165 E158.641
G1 X128.759 Y110.904 E158.659
G1 X128.51 Y110.625 E158.678
G1 X128.279 Y110.331 E158.697
G1 X128.068 Y110.025 E158.715
G1 X127.875 Y109.704 E158.734
G1 X127.704 Y109.369 E158.753
G1 X127.555 Y109.029 E158.771
G1 X127.427 Y108.678 E158.79
G1 X127.317 Y108.303 E158.809
G1 X127.236 Y107.938 E158.828
G1 X127.178 Y107.569 E158.846
G1 X127.144 Y107.196 E158.865
G1 X127.134 Y106.824 E158.884
G1 X127.145 Y106.467 E158.901
G1 X127.18 Y106.096 E158.92
G1 X127.24 Y105.727 E158.939
G1 X127.321 Y105.363 E158.957
G1 X127.427 Y105.003 E158.976
G1 X127.555 Y104.653 E158.995
G1 X127.71 Y104.298 E159.014
G1 X127.876 Y103.976 E159.032
G1 X128.077 Y103.644 E159.051
G1 X128.279 Y103.351 E159.069
G1 X128.51 Y103.057 E159.088
G1 X128.866 Y102.674 E159.114
G1 X128.541 Y101.897 E159.156
G1 X128.164 Y101.112 E159.199
G1 X127.609 Y100.836 E159.23
G1 X127.265 Y100.835 E159.247
G1 X126.889 Y100.805 E159.266
G1 X126.517 Y100.753 E159.285
G1 X126.151 Y100.675 E159.304
G1 X125.792 Y100.576 E159.322
G1 X125.439 Y100.454 E159.341
G1 X125.095 Y100.31 E159.36
G1 X124.759 Y100.144 E159.378
G1 X124.435 Y99.957 E159.397
G1 X124.125 Y99.751 E159.415
G1 X123.826 Y99.524 E159.434
G1 X123.545 Y99.278 E159.453
G1 X123.28 Y99.018 E159.471
G1 X123.029 Y98.739 E159.49
G1 X122.799 Y98.445 E159.509
G1 X122.587 Y98.138 E159.527
G1 X122.395 Y97.817 E159.546
G1 X122.224 Y97.485 E159.565
G1 X122.074 Y97.141 E159.583
G1 X121.947 Y96.791 E159.602
G1 X121.837 Y96.418 E159.621
G1 X121.755 Y96.052 E159.64
G1 X121.698 Y95.684 E159.659
G1 X121.664 Y95.328 E159.676
G1 X121.653 Y94.938 E159.696
G1 X121.665 Y94.563 E159.715
G1 X121.703 Y94.192 E159.733
G1 X121.793 Y93.689 E159.759
G1 X120.837 Y93.046 E159.816
G1 X120.369 Y92.762 E159.843
G1 X119.759 Y92.828 E159.874
G1 X119.468 Y93.013 E159.891
G1 X119.134 Y93.191 E159.91
G1 X118.794 Y93.347 E159.929
G1 X118.428 Y93.486 E159.948
G1 X118.071 Y93.596 E159.967
G1 X117.709 Y93.682 E159.986
G1 X117.358 Y93.744 E160.003
G1 X117.003 Y93.784 E160.021
G1 X116.63 Y93.802 E160.04
G1 X116.241 Y93.797 E160.059
G1 X115.867 Y93.767 E160.078
G1 X115.498 Y93.714 E160.097
G1 X115.134 Y93.638 E160.115
