;headset-holder-base-plate-1
;Printer Name: Creality Ender 3
;Print time: 15839s
;Extruder 1 Material used: 11437mm
;Extruder 1 Material name: PLA 1.75mm
;Extruder 1 Filament diameter: 1.75mm
;Extruder 1 Nozzle diameter: 0.4mm
;Extruder 1 offset x: 0mm
;Extruder 1 offset y: 0mm
;Extruder 1 offset z: 0mm
;Max temp: 220
;Bed temp: 60
;Layer Count: 86
;width: 220mm
;depth: 220mm
;height: 250mm
;center x: 110mm
;center y: 110mm
;center z: 0mm
;Count of bodies: 1
;Version of Fusion: 2.0.8407
;--------------------------------
;Selected Profile: PLA 1.75mm, 0.4mm Nozzle
;Selected Printer: Creality, Ender 3
;--------------------------------
M140 S60
M190 S60
M104 S220
M105
M109 S220
G1 F15000
G21
G90
M82
;Reset multiplier
M220 S100
M221 S100
;Enable auto bed leveling
M420 S1 Z2
G28
G1 Z10 F6000
G92 E0
G0 X0 Y0
G92 E0
;--------------------------------
;Layer : 1 of 86
M107
;rapid-leaky
G0 X10 Y10.8 Z0.3
G1 F1800 E0.5
;bead-prime
G1 X210 F270 E40.412
G1 F1800 E39.912
;rapid-dry
G1 F15000
G0 X183.305 Y70.112
G1 F1800 E40.412
;bead-raft
G1 Y70.441 F288 E40.461
G1 X183.871 E40.546
G1 X188.138 Y74.441 E41.422
G1 X183.305 E42.145
G1 Y78.441 E42.744
G1 X185.828 E43.121
G1 X183.519 Y82.441 E43.813
G1 X183.305 E43.845
G1 Y82.812 E43.9
G1 X181.209 Y86.441 E44.527
G1 X166.405 E46.743
G1 Y82.441 E47.342
G1 X181.405 E49.587
G1 Y78.441 E50.186
G1 X166.405 E52.431
G1 Y74.441 E53.029
G1 X181.405 E55.274
G1 Y70.441 E55.873
G1 X169.43 E57.665
G1 X167.853 E57.901
G1 X166.405 E58.118
G1 Y66.441 E58.717
G1 X176.983 E60.3
G1 X170.094 Y62.441 E61.492
G1 X166.405 E62.044
G1 Y60.299 E62.365
G1 X163.205 Y58.441 E62.919
G1 X153.945 E64.305
G1 X151.52 Y62.441 E65.005
G1 X164.505 E66.948
G1 Y66.441 E67.547
G1 X149.505 E69.792
G1 Y70.441 E70.391
G1 X164.505 E72.636
G1 Y74.441 E73.234
G1 X149.505 E75.48
G1 Y78.441 E76.078
G1 X164.505 E78.323
G1 Y82.441 E78.922
G1 X149.505 E81.167
G1 Y86.441 E81.766
G1 X164.505 E84.011
G1 Y90.441 E84.609
G1 X149.505 E86.855
G1 Y94.441 E87.453
G1 X164.505 E89.698
G1 Y98.441 E90.297
G1 X149.505 E92.542
G1 Y102.441 E93.141
G1 X164.505 E95.386
G1 Y106.441 E95.984
G1 X149.505 E98.229
G1 Y110.441 E98.828
G1 X164.505 E101.073
G1 Y114.441 E101.672
G1 X149.505 E103.917
G1 Y118.441 E104.516
G1 X162.734 E106.496
G1 X167.352 Y110.441 E107.878
G1 X166.405 E108.02
G1 Y106.441 E108.619
G1 X169.662 E109.106
G1 X171.971 Y102.441 E109.798
G1 X166.405 E110.631
G1 Y98.441 E111.229
G1 X174.281 E112.408
G1 X176.59 Y94.441 E113.1
G1 X166.405 E114.624
G1 Y90.441 E115.223
G1 X178.9 E117.093
;bead-raft
G1 F1800 E116.593
;rapid-dry
G1 F15000
G0 X146.141 Y70.441
G1 F1800 E117.093
;bead-raft
G1 X147.605 F288 E117.312
G1 Y74.441 E117.911
G1 X143.134 E118.58
G1 X139.898 Y78.441 E119.35
G1 X147.605 E120.503
G1 Y82.441 E121.102
G1 X136.407 E122.778
G1 X96.651 Y94.441 E128.993
G1 X81.905 E131.201
G1 Y90.441 E131.799
G1 X91.465 E133.23
G1 X87.364 Y86.441 E134.088
G1 X81.905 E134.905
G1 Y82.441 E135.503
G1 X83.594 E135.756
;bead-raft
G1 F1800 E135.256
;rapid-dry
G1 F15000
G0 X46.205 Y64.59
G1 F1800 E135.756
;bead-raft
G1 Y66.441 F288 E136.033
G1 X43.017 E136.51
G1 X36.129 Y70.441 E137.703
G1 X46.205 E139.211
G1 Y74.441 E139.809
G1 X31.863 E141.956
G1 X34.173 Y78.441 E142.647
G1 X46.205 E144.448
G1 Y82.441 E145.047
G1 X36.482 E146.502
G1 X38.792 Y86.441 E147.193
G1 X46.205 E148.303
G1 Y90.441 E148.901
G1 X41.101 E149.665
G1 X43.411 Y94.441 E150.356
G1 X46.205 E150.774
G1 Y98.441 E151.373
G1 X45.72 E151.446
G1 X63.105 Y128.55 E156.649
G1 Y126.441 E156.965
G1 X61.887 E157.147
G1 X59.578 Y122.441 E157.838
G1 X63.105 E158.366
G1 Y118.441 E158.965
G1 X57.268 E159.839
G1 X54.959 Y114.441 E160.53
G1 X63.105 E161.749
G1 Y110.441 E162.348
G1 X52.649 E163.913
;bead-raft
;rapid-leaky
G1 F15000
G0 X50.34 Y106.441
;bead-raft
G1 X63.105 F288 E165.823
G1 Y102.441 E166.422
G1 X48.105 E168.667
G1 Y98.441 E169.266
G1 X63.105 E171.511
G1 Y94.441 E172.109
G1 X48.105 E174.354
G1 Y90.441 E174.953
G1 X63.105 E177.198
G1 Y86.441 E177.797
G1 X48.105 E180.042
G1 Y82.441 E180.641
G1 X63.105 E182.886
G1 Y78.441 E183.484
G1 X48.105 E185.729
G1 Y74.441 E186.328
G1 X63.105 E188.573
G1 Y70.441 E189.172
G1 X52.147 E190.812
G1 X50.57 E191.048
G1 X48.105 E191.417
G1 Y66.441 E192.016
G1 X63.105 E194.261
G1 Y62.441 E194.859
G1 X49.906 E196.835
G1 X56.795 Y58.441 E198.027
G1 X63.105 E198.971
G1 Y54.777 E199.52
G1 X66.055 Y58.441 E200.224
G1 X65.005 E200.381
G1 Y62.441 E200.98
G1 X68.48 E201.5
G1 X71.069 Y66.441 E202.213
G1 X65.005 E203.121
G1 Y70.441 E203.719
G1 X73.859 E205.045
G1 X76.865 Y74.441 E205.793
G1 X65.005 E207.569
G1 Y78.441 E208.167
G1 X80.005 E210.412
G1 Y82.441 E211.011
G1 X65.005 E213.256
G1 Y86.441 E213.855
G1 X80.005 E216.1
G1 Y90.441 E216.698
G1 X65.005 E218.943
G1 Y94.441 E219.542
G1 X80.005 E221.787
G1 Y98.441 E222.386
G1 X65.005 E224.631
G1 Y102.441 E225.23
G1 X80.005 E227.475
G1 Y106.441 E228.073
G1 X65.005 E230.318
G1 Y110.441 E230.917
G1 X80.005 E233.162
G1 Y114.441 E233.761
G1 X65.005 E236.006
G1 Y118.441 E236.605
G1 X80.005 E238.85
G1 Y122.441 E239.448
G1 X65.005 E241.693
G1 Y126.441 E242.292
G1 X80.005 E244.537
G1 Y130.441 E245.136
G1 X65.005 E247.381
G1 Y131.84 E247.59
G1 X66.506 Y134.441 E248.04
G1 X80.005 E250.06
G1 Y138.441 E250.659
G1 X68.816 E252.333
G1 X71.125 Y142.441 E253.025
G1 X80.005 E254.354
G1 Y146.441 E254.952
G1 X73.435 E255.936
G1 X75.744 Y150.441 E256.627
G1 X80.005 E257.265
G1 Y154.441 E257.863
G1 X78.054 E258.155
;bead-raft
G1 F1800 E257.655
;rapid-dry
G1 F15000
G0 X86.466 Y162.441
G1 F1800 E258.155
;bead-raft
G1 X96.905 F288 E259.718
G1 Y158.441 E260.316
G1 X81.905 E262.561
G1 Y154.441 E263.16
G1 X96.905 E265.405
G1 Y150.441 E266.004
G1 X81.905 E268.249
G1 Y146.441 E268.848
G1 X96.905 E271.093
G1 Y142.441 E271.691
G1 X81.905 E273.936
G1 Y138.441 E274.535
G1 X96.905 E276.78
G1 Y134.441 E277.379
G1 X81.905 E279.624
G1 Y130.441 E280.223
G1 X96.905 E282.468
G1 Y126.441 E283.066
G1 X81.905 E285.311
G1 Y122.441 E285.91
G1 X96.905 E288.155
G1 Y118.441 E288.754
G1 X81.905 E290.999
G1 Y114.441 E291.598
G1 X96.905 E293.843
G1 Y110.441 E294.441
G1 X81.905 E296.686
G1 Y106.441 E297.285
G1 X96.905 E299.53
G1 Y102.441 E300.129
G1 X81.905 E302.374
G1 Y98.441 E302.973
G1 X96.905 E305.218
G1 Y94.593 E305.793
G1 X113.805 Y97.801 E308.368
G1 Y98.441 E308.464
G1 X98.805 E310.709
G1 Y102.441 E311.308
G1 X113.805 E313.553
G1 Y106.441 E314.151
G1 X98.805 E316.396
G1 Y110.441 E316.995
G1 X113.805 E319.24
G1 Y114.441 E319.839
G1 X98.805 E322.084
G1 Y118.441 E322.683
G1 X113.805 E324.928
G1 Y122.441 E325.526
G1 X98.805 E327.771
G1 Y126.441 E328.37
G1 X113.805 E330.615
G1 Y130.441 E331.214
G1 X98.805 E333.459
G1 Y134.441 E334.058
G1 X113.805 E336.303
G1 Y138.441 E336.901
G1 X98.805 E339.146
G1 Y142.441 E339.745
G1 X113.805 E341.99
G1 Y146.441 E342.589
G1 X98.805 E344.834
G1 Y150.441 E345.433
G1 X113.805 E347.678
G1 Y154.441 E348.276
G1 X98.805 E350.521
G1 Y158.441 E351.12
G1 X113.805 E353.365
G1 Y162.441 E353.964
G1 X98.805 E356.209
G1 Y163.747 E356.404
G1 X115.705 Y163.746 E358.934
G1 Y162.441 E359.129
G1 X130.705 E361.374
G1 Y158.441 E361.973
G1 X115.705 E364.218
G1 Y154.441 E364.816
G1 X130.705 E367.061
G1 Y150.441 E367.66
G1 X115.705 E369.905
G1 Y146.441 E370.504
G1 X130.705 E372.749
G1 Y142.441 E373.348
G1 X115.705 E375.593
G1 Y138.441 E376.191
G1 X130.705 E378.436
G1 Y134.441 E379.035
G1 X115.705 E381.28
G1 Y130.441 E381.879
G1 X130.705 E384.124
G1 Y126.441 E384.723
G1 X115.705 E386.968
G1 Y122.441 E387.566
G1 X130.705 E389.811
G1 Y118.441 E390.41
G1 X115.705 E392.655
G1 Y114.441 E393.254
G1 X130.705 E395.499
G1 Y110.441 E396.098
G1 X115.705 E398.343
G1 Y106.441 E398.941
G1 X130.705 E401.186
G1 Y102.441 E401.785
G1 X115.705 E404.03
G1 Y98.441 E404.629
G1 X130.705 E406.874
G1 Y94.441 E407.473
G1 X123.348 E408.574
G1 X128.535 Y90.441 E409.554
G1 X130.705 E409.879
G1 Y88.347 E410.192
G1 X132.635 Y86.441 E410.598
G1 X147.605 E412.839
G1 Y90.441 E413.437
G1 X132.605 E415.682
G1 Y94.441 E416.281
G1 X147.605 E418.526
G1 Y98.441 E419.125
G1 X132.605 E421.37
G1 Y102.441 E421.969
G1 X147.605 E424.214
G1 Y106.441 E424.812
G1 X132.605 E427.057
G1 Y110.441 E427.656
G1 X147.605 E429.901
G1 Y114.441 E430.5
G1 X132.605 E432.745
G1 Y118.441 E433.343
G1 X147.605 E435.589
G1 Y122.441 E436.187
G1 X132.605 E438.432
G1 Y126.441 E439.031
G1 X147.605 E441.276
G1 Y130.441 E441.875
G1 X132.605 E444.12
G1 Y134.441 E444.718
G1 X147.605 E446.964
G1 Y138.441 E447.562
G1 X132.605 E449.807
G1 Y142.441 E450.406
G1 X147.605 E452.651
G1 Y144.644 E452.981
G1 X149.505 Y141.354 E453.55
G1 Y138.441 E453.985
G1 X151.186 E454.237
G1 X153.496 Y134.441 E454.928
G1 X149.505 E455.526
G1 Y130.441 E456.124
G1 X155.805 E457.067
G1 X158.115 Y126.441 E457.759
G1 X149.505 E459.047
G1 Y122.441 E459.646
G1 X160.424 E461.28
;bead-raft
G1 F1800 E460.78
;rapid-dry
G1 F15000
G0 X146.567 Y146.441
G1 F1800 E461.28
;bead-raft
G1 X132.605 F288 E463.37
G1 Y150.441 E463.969
G1 X144.258 E465.713
G1 X141.948 Y154.441 E466.404
G1 X132.605 E467.803
G1 Y158.441 E468.402
G1 X139.19 E469.387
G1 X133.535 Y162.441 E470.424
G1 X132.605 E470.563
G1 Y162.801 E470.617
;bead-raft
G1 F1800 E470.117
;Layer : 2 of 86
M106 S255
;rapid-leaky
G1 F15000
G0 X135.389 Y161.28 Z0.5
G1 F1800 E470.617
;bead-raft
G1 X141.02 Y155.65 F3600 E470.882
G1 X143.595 Y151.188 E471.053
G1 X131.975 Y162.809 E471.6
G1 X129.713 Y163.344 E471.677
G1 X128.629 Y163.483 E471.714
G1 X127.513 Y163.545 E471.751
G1 X120.16 E471.995
G1 X129.531 Y163.367 E472.307
G1 X146.171 Y146.727 E473.09
G1 X148.747 Y142.265 E473.261
G1 X127.468 Y163.545 E474.262
G1 X125.582 E474.325
G1 X151.323 Y137.804 E475.536
G1 X153.899 Y133.342 E475.707
G1 X123.696 Y163.545 E477.128
G1 X121.81 E477.19
G1 X156.475 Y128.881 E478.821
G1 X159.051 Y124.419 E478.992
G1 X119.925 Y163.545 E480.833
G1 X118.039 Y163.546 E480.895
G1 X161.627 Y119.957 E482.946
G1 X164.203 Y115.496 E483.117
G1 X116.153 Y163.546 E485.377
G1 X114.268 E485.44
G1 X166.779 Y111.034 E487.91
G1 X169.355 Y106.573 E488.081
G1 X112.382 Y163.546 E490.761
G1 X110.496 E490.824
G1 X171.931 Y102.111 E493.713
G1 X174.507 Y97.65 E493.885
G1 X108.61 Y163.546 E496.984
G1 X106.725 E497.047
G1 X177.083 Y93.188 E500.356
G1 X179.659 Y88.726 E500.528
G1 X104.839 Y163.546 E504.047
G1 X102.953 E504.11
G1 X182.235 Y84.265 E507.839
G1 X184.811 Y79.803 E508.01
G1 X101.067 Y163.547 E511.949
G1 X99.182 E512.012
G1 X187.387 Y75.342 E516.161
G1 X187.856 Y72.986 E516.241
G1 X97.296 Y163.547 E520.501
G1 X95.41 E520.563
G1 X186.663 Y72.294 E524.856
G1 X185.471 Y71.601 E524.901
G1 X93.525 Y163.547 E529.226
G1 X91.416 Y163.486 E529.296
G1 X91.395 Y163.484 E529.297
G1 X90.221 Y163.335 E529.336
G1 X89.399 Y163.168 E529.364
G1 X91.685 Y163.5 E529.441
G1 X184.278 Y70.908 E533.797
G1 X183.085 Y70.216 E533.842
G1 X90.008 Y163.292 E538.22
G1 X88.479 Y162.936 E538.273
G1 X181.892 Y69.523 E542.667
G1 X180.699 Y68.83 E542.712
G1 X87.06 Y162.469 E547.117
G1 X84.958 Y161.48 E547.194
G1 X84.779 Y161.386 E547.201
G1 X83.801 Y160.772 E547.239
G1 X83.727 Y160.718 E547.242
G1 X85.746 Y161.897 E547.32
G1 X179.506 Y68.137 E551.73
G1 X178.313 Y67.445 E551.776
G1 X84.529 Y161.229 E556.187
G1 X83.396 Y160.476 E556.233
G1 X177.12 Y66.752 E560.641
G1 X175.927 Y66.059 E560.687
G1 X82.342 Y159.645 E565.089
G1 X81.366 Y158.735 E565.133
G1 X168.735 Y71.366 E569.243
G1 X167.542 Y70.673 E569.289
G1 X80.466 Y157.749 E573.385
G1 X79.647 Y156.683 E573.429
G1 X172.348 Y63.981 E577.79
G1 X171.155 Y63.289 E577.836
G1 X78.914 Y155.53 E582.174
G1 X78.224 Y154.335 E582.22
G1 X169.963 Y62.596 E586.535
G1 X168.77 Y61.903 E586.581
G1 X77.533 Y153.14 E590.873
G1 X76.843 Y151.944 E590.919
G1 X167.577 Y61.211 E595.187
G1 X166.384 Y60.518 E595.232
G1 X76.153 Y150.749 E599.477
G1 X75.463 Y149.553 E599.523
G1 X165.191 Y59.825 E603.743
G1 X163.998 Y59.132 E603.789
G1 X74.772 Y148.358 E607.986
G1 X74.082 Y147.162 E608.032
G1 X162.805 Y58.44 E612.205
G1 X161.612 Y57.747 E612.251
G1 X132.981 Y86.378 E613.598
G1 X139.205 Y79.589 E613.904
G1 X142.096 Y76.105 E614.055
G1 X144.932 Y72.45 E614.208
G1 X147.634 Y68.721 E614.362
G1 X149.923 Y65.329 E614.498
G1 X144.616 Y72.858 E614.804
G1 X160.419 Y57.054 E615.547
G1 X159.226 Y56.362 E615.593
G1 X149.225 Y66.362 E616.064
G1 X152.59 Y61.112 E616.271
G1 X158.033 Y55.669 E616.527
G1 X156.84 Y54.976 E616.573
G1 X155.346 Y56.47 E616.643
;bead-raft
;rapid-leaky
G1 F15000
G0 X170.372 Y67.844
;bead-raft
G1 X173.541 Y64.674 F3600 E616.792
G1 X174.734 Y65.367 E616.838
G1 X169.634 Y70.467 E617.078
;bead-raft
;rapid-leaky
G1 F15000
G0 X132.774 Y86.585
;bead-raft
G1 X73.392 Y145.967 F3600 E619.871
G1 X72.702 Y144.772 E619.917
G1 X122.131 Y95.343 E622.242
G1 X125.172 Y93.498 E622.36
G1 X124.353 Y94.07 E622.394
G1 X122.856 Y94.97 E622.452
G1 X122.111 Y95.353 E622.48
G1 X118.809 Y96.779 E622.599
G1 X72.012 Y143.576 E624.8
G1 X71.321 Y142.381 E624.846
G1 X116.122 Y97.58 E626.954
G1 X119.582 Y96.509 E627.074
G1 X117.893 Y97.098 E627.134
G1 X117.295 Y97.261 E627.154
G1 X113.816 Y98.001 E627.273
G1 X70.631 Y141.185 E629.304
G1 X69.941 Y139.99 E629.35
G1 X111.722 Y98.209 E631.315
G1 X109.779 Y98.267 E631.38
G1 X69.251 Y138.795 E633.286
G1 X68.561 Y137.599 E633.332
G1 X107.968 Y98.192 E635.185
G1 X106.263 Y98.011 E635.242
G1 X67.87 Y136.404 E637.048
G1 X67.18 Y135.208 E637.094
G1 X104.653 Y97.735 E638.857
G1 X103.126 Y97.377 E638.909
G1 X66.49 Y134.013 E640.632
G1 X65.8 Y132.818 E640.678
G1 X101.671 Y96.946 E642.365
G1 X100.282 Y96.45 E642.415
G1 X65.11 Y131.622 E644.069
G1 X64.419 Y130.427 E644.115
G1 X98.96 Y95.886 E645.74
G1 X97.702 Y95.258 E645.786
G1 X63.729 Y129.231 E647.384
G1 X63.039 Y128.036 E647.43
G1 X96.495 Y94.58 E649.004
G1 X95.336 Y93.853 E649.049
G1 X62.349 Y126.84 E650.601
G1 X61.659 Y125.645 E650.647
G1 X94.226 Y93.078 E652.179
G1 X93.18 Y92.238 E652.223
G1 X60.968 Y124.45 E653.739
G1 X60.278 Y123.254 E653.784
G1 X92.163 Y91.369 E655.284
G1 X91.19 Y90.457 E655.329
G1 X59.588 Y122.059 E656.815
G1 X58.898 Y120.863 E656.861
G1 X90.22 Y89.541 E658.334
G1 X89.271 Y88.604 E658.379
G1 X58.207 Y119.668 E659.84
G1 X57.517 Y118.473 E659.886
G1 X88.322 Y87.668 E661.335
G1 X87.373 Y86.731 E661.379
G1 X56.827 Y117.277 E662.816
G1 X56.137 Y116.082 E662.862
G1 X86.446 Y85.773 E664.287
G1 X85.528 Y84.805 E664.332
G1 X55.447 Y114.886 E665.747
G1 X54.756 Y113.691 E665.792
G1 X84.61 Y83.838 E667.197
G1 X83.7 Y82.862 E667.241
G1 X54.066 Y112.496 E668.635
G1 X53.376 Y111.3 E668.681
G1 X82.813 Y81.863 E670.065
G1 X81.926 Y80.865 E670.11
G1 X52.686 Y110.105 E671.485
G1 X51.996 Y108.909 E671.531
G1 X81.039 Y79.866 E672.897
G1 X80.176 Y78.843 E672.942
G1 X51.305 Y107.714 E674.3
G1 X50.615 Y106.519 E674.346
G1 X79.321 Y77.813 E675.696
G1 X78.466 Y76.783 E675.74
G1 X49.925 Y105.323 E677.083
G1 X49.235 Y104.128 E677.129
G1 X77.621 Y75.742 E678.464
G1 X76.797 Y74.68 E678.509
G1 X48.545 Y102.932 E679.838
G1 X47.854 Y101.737 E679.883
G1 X75.973 Y73.618 E681.206
G1 X75.149 Y72.556 E681.251
G1 X47.164 Y100.541 E682.567
G1 X46.474 Y99.346 E682.613
G1 X74.354 Y71.466 E683.924
G1 X73.562 Y70.372 E683.969
G1 X45.784 Y98.151 E685.276
G1 X45.094 Y96.955 E685.322
G1 X72.77 Y69.279 E686.624
G1 X71.994 Y68.169 E686.669
G1 X44.403 Y95.76 E687.966
G1 X43.713 Y94.564 E688.012
G1 X71.234 Y67.043 E689.307
G1 X70.474 Y65.918 E689.352
G1 X43.023 Y93.369 E690.643
G1 X42.333 Y92.174 E690.689
G1 X69.718 Y64.788 E691.977
G1 X68.991 Y63.63 E692.023
G1 X41.643 Y90.978 E693.309
G1 X40.952 Y89.783 E693.355
G1 X68.263 Y62.472 E694.64
G1 X67.536 Y61.313 E694.685
G1 X40.262 Y88.587 E695.968
G1 X39.572 Y87.392 E696.014
G1 X66.827 Y60.137 E697.296
G1 X66.125 Y58.953 E697.342
G1 X38.882 Y86.197 E698.623
G1 X38.191 Y85.001 E698.669
G1 X65.424 Y57.769 E699.95
G1 X64.722 Y56.585 E699.996
G1 X51.703 Y69.604 E700.608
G1 X50.84 Y68.581 E700.653
G1 X64.02 Y55.401 E701.273
G1 X61.728 Y55.807 E701.35
G1 X49.78 Y67.755 E701.912
G1 X49.482 Y68.054 E701.926
G1 X36.121 Y81.415 E702.555
G1 X36.811 Y82.61 E702.601
G1 X49.987 Y69.434 E703.22
G1 X50.493 Y70.814 E703.269
G1 X37.501 Y83.806 E703.88
;bead-raft
;rapid-leaky
G1 F15000
G0 X35.431 Y80.219
;bead-raft
G1 X57.232 Y58.418 F3600 E704.906
G1 X52.735 Y61.03 E705.079
G1 X34.74 Y79.024 E705.925
G1 X34.05 Y77.829 E705.971
G1 X48.238 Y63.641 E706.638
G1 X43.741 Y66.252 E706.811
G1 X33.36 Y76.633 E707.3
G1 X32.67 Y75.438 E707.346
G1 X39.245 Y68.863 E707.655
G1 X34.748 Y71.474 E707.828
G1 X31.98 Y74.242 E707.958
;bead-raft
G1 F1800 E707.458
;Layer : 3 of 86
;rapid-leaky
G1 F15000
G0 X31.751 Y73.446 Z0.8
G1 F1800 E707.958
;bead-raft
G1 X63.541 Y54.986 F3600 E709.792
G1 X67.161 Y61.092 E710.146
G1 X69.623 Y65.013 E710.377
G1 X72.202 Y68.836 E710.607
G1 X74.907 Y72.57 E710.837
G1 X77.74 Y76.221 E711.068
G1 X80.679 Y79.763 E711.297
G1 X83.79 Y83.265 E711.531
G1 X86.947 Y86.592 E711.76
G1 X90.209 Y89.812 E711.989
G1 X92.019 Y91.509 E712.112
G1 X92.608 Y92.034 E712.152
G1 X94.083 Y93.222 E712.246
G1 X95.531 Y94.234 E712.334
G1 X97.061 Y95.155 E712.423
G1 X98.685 Y95.986 E712.515
G1 X100.369 Y96.704 E712.606
G1 X102.051 Y97.29 E712.695
G1 X103.793 Y97.767 E712.785
G1 X105.564 Y98.122 E712.875
G1 X107.354 Y98.355 E712.965
G1 X109.202 Y98.467 E713.057
G1 X110.795 E713.137
G1 X112.682 Y98.35 E713.231
G1 X114.436 Y98.122 E713.319
G1 X116.168 Y97.775 E713.408
G1 X117.952 Y97.289 E713.5
G1 X119.654 Y96.696 E713.59
G1 X121.311 Y95.988 E713.68
G1 X122.954 Y95.145 E713.772
G1 X124.462 Y94.238 E713.859
G1 X125.949 Y93.2 E713.95
G1 X127.393 Y92.033 E714.043
G1 X127.981 Y91.509 E714.082
G1 X129.79 Y89.812 E714.206
G1 X133.084 Y86.56 E714.437
G1 X136.219 Y83.255 E714.664
G1 X139.32 Y79.764 E714.897
G1 X142.252 Y76.23 E715.126
G1 X145.092 Y72.57 E715.357
G1 X147.798 Y68.835 E715.587
G1 X150.377 Y65.013 E715.817
G1 X152.838 Y61.093 E716.048
G1 X156.459 Y54.986 E716.402
G1 X188.25 Y73.446 E718.236
G1 X140.769 Y155.684 E722.974
G1 X140.159 Y156.615 E723.029
G1 X139.464 Y157.528 E723.087
G1 X138.712 Y158.378 E723.143
G1 X137.888 Y159.187 E723.201
G1 X137.011 Y159.932 E723.258
G1 X136.093 Y160.603 E723.315
G1 X135.114 Y161.217 E723.373
G1 X134.093 Y161.757 E723.43
G1 X133.049 Y162.219 E723.487
G1 X131.973 Y162.602 E723.544
G1 X130.872 Y162.909 E723.601
G1 X129.741 Y163.138 E723.659
G1 X128.611 Y163.284 E723.716
G1 X127.507 Y163.345 E723.771
G1 X92.831 Y163.347 E725.501
G1 X92.473 Y163.344 E725.519
G1 X91.413 Y163.285 E725.572
G1 X90.253 Y163.137 E725.63
G1 X89.139 Y162.912 E725.687
G1 X88.031 Y162.603 E725.744
G1 X86.947 Y162.216 E725.802
G1 X85.917 Y161.761 E725.858
G1 X84.879 Y161.212 E725.916
G1 X83.913 Y160.607 E725.973
G1 X82.988 Y159.93 E726.03
G1 X82.12 Y159.195 E726.087
G1 X81.294 Y158.384 E726.145
G1 X80.526 Y157.514 E726.203
G1 X79.841 Y156.613 E726.259
G1 X79.247 Y155.708 E726.313
G1 X31.751 Y73.446 E731.052
;bead-raft
;rapid-leaky
G1 F15000
G0 X31.478 Y73.373
;bead-raft
G1 X63.612 Y54.713 F3600 E732.906
G1 X67.332 Y60.988 E733.27
G1 X69.79 Y64.904 E733.501
G1 X72.366 Y68.721 E733.731
G1 X75.067 Y72.45 E733.96
G1 X77.896 Y76.096 E734.19
G1 X80.831 Y79.632 E734.42
G1 X83.938 Y83.13 E734.653
G1 X87.09 Y86.452 E734.882
G1 X90.348 Y89.668 E735.11
G1 X92.154 Y91.361 E735.234
G1 X92.738 Y91.882 E735.273
G1 X94.203 Y93.062 E735.366
G1 X95.64 Y94.066 E735.454
G1 X97.159 Y94.98 E735.542
G1 X98.77 Y95.805 E735.633
G1 X100.441 Y96.517 E735.723
G1 X102.111 Y97.099 E735.811
G1 X103.84 Y97.572 E735.901
G1 X105.596 Y97.924 E735.99
G1 X107.373 Y98.156 E736.08
G1 X109.208 Y98.267 E736.171
G1 X110.789 E736.25
G1 X112.663 Y98.151 E736.344
G1 X114.403 Y97.924 E736.431
G1 X116.122 Y97.58 E736.519
G1 X117.893 Y97.098 E736.61
G1 X119.582 Y96.509 E736.7
G1 X121.226 Y95.807 E736.789
G1 X122.856 Y94.97 E736.88
G1 X124.353 Y94.07 E736.967
G1 X125.828 Y93.04 E737.057
G1 X127.264 Y91.88 E737.149
G1 X127.846 Y91.361 E737.188
G1 X129.652 Y89.668 E737.312
G1 X132.942 Y86.42 E737.542
G1 X136.072 Y83.12 E737.769
G1 X139.168 Y79.634 E738.002
G1 X142.096 Y76.105 E738.231
G1 X144.932 Y72.45 E738.461
G1 X147.634 Y68.721 E738.691
G1 X150.21 Y64.904 E738.921
G1 X152.667 Y60.989 E739.152
G1 X156.388 Y54.714 E739.516
G1 X188.523 Y73.373 E741.369
G1 X140.939 Y155.789 E746.117
G1 X140.323 Y156.73 E746.173
G1 X139.618 Y157.655 E746.231
G1 X138.857 Y158.516 E746.289
G1 X138.023 Y159.335 E746.347
G1 X137.135 Y160.089 E746.405
G1 X136.205 Y160.769 E746.463
G1 X135.214 Y161.39 E746.521
G1 X134.18 Y161.937 E746.579
G1 X133.123 Y162.404 E746.637
G1 X132.034 Y162.793 E746.695
G1 X130.919 Y163.104 E746.753
G1 X129.774 Y163.336 E746.811
G1 X128.629 Y163.483 E746.868
G1 X127.513 Y163.545 E746.924
G1 X92.83 Y163.547 E748.654
G1 X92.466 Y163.544 E748.673
G1 X91.395 Y163.484 E748.726
G1 X90.221 Y163.335 E748.785
G1 X89.093 Y163.106 E748.843
G1 X87.97 Y162.794 E748.901
G1 X86.873 Y162.402 E748.959
G1 X85.829 Y161.941 E749.016
G1 X84.779 Y161.386 E749.075
G1 X83.801 Y160.772 E749.133
G1 X82.864 Y160.087 E749.191
G1 X81.985 Y159.343 E749.248
G1 X81.149 Y158.522 E749.307
G1 X80.371 Y157.641 E749.365
G1 X79.677 Y156.729 E749.422
G1 X79.077 Y155.813 E749.477
G1 X31.478 Y73.373 E754.226
;bead-raft
;rapid-leaky
G1 F15000
G0 X49.198 Y67.862
;bead-raft
G1 X50.69 Y71.931 F3600 E754.442
G1 X52.862 Y70.669 E754.568
G1 X50.069 Y67.357 E754.784
G1 X49.198 Y67.862 E754.834
;bead-raft
;rapid-leaky
G1 F15000
G0 X49.444 Y67.951
;bead-raft
G1 X50.796 Y71.638 F3600 E755.03
G1 X52.556 Y70.616 E755.132
G1 X50.024 Y67.614 E755.328
G1 X49.444 Y67.951 E755.361
;bead-raft
G1 F1800 E754.861
;rapid-dry
G1 F15000
G0 X167.138 Y70.669
G1 F1800 E755.361
;bead-raft
G1 X169.31 Y71.931 F3600 E755.486
G1 X170.802 Y67.862 E755.703
G1 X169.931 Y67.357 E755.753
G1 X167.138 Y70.669 E755.969
;bead-raft
;rapid-leaky
G1 F15000
G0 X167.444 Y70.616
;bead-raft
G1 X169.204 Y71.638 F3600 E756.071
G1 X170.556 Y67.951 E756.266
G1 X169.976 Y67.614 E756.3
G1 X167.444 Y70.616 E756.496
;bead-raft
;rapid-leaky
G1 F15000
G0 X168.977 Y72.2
;bead-raft
G1 X145.854 F3600 E757.649
G1 X146.144 Y71.8 E757.674
G1 X168.288 E758.779
G1 X167.6 Y71.4 E758.819
G1 X146.434 E759.875
G1 X146.724 Y71 E759.899
G1 X166.911 E760.906
G1 X166.524 Y70.776 E760.929
G1 X166.673 Y70.6 E760.94
G1 X147.013 E761.921
G1 X147.303 Y70.2 E761.946
G1 X167.01 E762.929
G1 X167.347 Y69.8 E762.955
G1 X147.593 E763.94
G1 X147.883 Y69.4 E763.965
G1 X167.685 E764.953
G1 X168.022 Y69 E764.979
G1 X148.169 E765.97
G1 X148.439 Y68.6 E765.994
G1 X168.359 E766.987
G1 X168.697 Y68.2 E767.014
G1 X148.709 E768.011
G1 X148.979 Y67.8 E768.035
G1 X169.034 E769.035
G1 X169.371 Y67.4 E769.061
G1 X149.249 E770.065
G1 X149.519 Y67 E770.089
G1 X169.709 E771.097
G1 X170.114 E771.117
G1 X176.352 E771.428
G1 X177.041 Y67.4 E771.468
G1 X170.802 E771.779
G1 X171.293 Y67.685 E771.807
G1 X171.251 Y67.8 E771.814
G1 X177.73 E772.137
G1 X178.419 Y68.2 E772.177
G1 X171.104 E772.541
G1 X170.957 Y68.6 E772.563
G1 X179.108 E772.969
G1 X179.796 Y69 E773.009
G1 X170.811 E773.457
G1 X170.664 Y69.4 E773.479
G1 X180.485 E773.969
G1 X181.174 Y69.8 E774.008
G1 X170.517 E774.54
G1 X170.371 Y70.2 E774.561
G1 X181.863 E775.135
G1 X182.552 Y70.6 E775.174
G1 X170.224 E775.789
G1 X170.077 Y71 E775.811
G1 X183.241 E776.467
G1 X183.93 Y71.4 E776.507
G1 X169.931 E777.206
G1 X169.784 Y71.8 E777.227
G1 X184.619 E777.967
G1 X185.307 Y72.2 E778.007
G1 X169.637 E778.788
;bead-raft
;rapid-leaky
G1 F15000
G0 X175.663 Y66.6
;bead-raft
G1 X149.789 F3600 E780.079
G1 X150.059 Y66.2 E780.103
G1 X174.974 E781.346
G1 X174.286 Y65.8 E781.386
G1 X150.329 E782.581
G1 X150.599 Y65.4 E782.605
G1 X173.597 E783.753
G1 X172.908 Y65 E783.793
G1 X150.858 E784.893
G1 X151.109 Y64.6 E784.916
G1 X172.219 E785.969
G1 X171.53 Y64.2 E786.009
G1 X151.36 E787.015
G1 X151.611 Y63.8 E787.039
G1 X170.841 E787.998
G1 X170.152 Y63.4 E788.038
G1 X151.862 E788.951
G1 X152.113 Y63 E788.974
G1 X169.464 E789.84
G1 X168.775 Y62.6 E789.88
G1 X152.364 E790.698
G1 X152.616 Y62.2 E790.722
G1 X168.086 E791.494
G1 X167.397 Y61.8 E791.533
G1 X152.867 E792.258
G1 X153.118 Y61.4 E792.282
G1 X166.708 E792.96
G1 X166.019 Y61 E793
G1 X153.358 E793.631
G1 X153.595 Y60.6 E793.654
G1 X165.33 E794.24
G1 X164.642 Y60.2 E794.28
G1 X153.833 E794.819
G1 X154.07 Y59.8 E794.842
G1 X163.953 E795.335
G1 X163.264 Y59.4 E795.375
G1 X154.307 E795.822
G1 X154.544 Y59 E795.845
G1 X162.575 E796.246
G1 X161.886 Y58.6 E796.285
G1 X154.781 E796.64
G1 X155.018 Y58.2 E796.663
G1 X161.197 E796.971
G1 X160.508 Y57.8 E797.011
G1 X155.255 E797.273
G1 X155.493 Y57.4 E797.296
G1 X159.819 E797.512
G1 X159.131 Y57 E797.552
G1 X155.73 E797.722
G1 X155.967 Y56.6 E797.745
G1 X158.442 E797.868
G1 X157.753 Y56.2 E797.908
G1 X156.204 E797.985
G1 X156.441 Y55.8 E798.008
G1 X157.064 E798.04
;bead-raft
;rapid-leaky
G1 F15000
G0 X145.564 Y72.6
;bead-raft
G1 X185.996 F3600 E800.057
G1 X186.685 Y73 E800.096
G1 X145.265 E802.163
G1 X144.954 Y73.4 E802.188
G1 X187.374 E804.305
G1 X187.584 Y73.8 E804.327
G1 X144.644 E806.469
G1 X144.334 Y74.2 E806.495
G1 X187.353 E808.641
G1 X187.122 Y74.6 E808.664
G1 X144.023 E810.814
G1 X143.713 Y75 E810.839
G1 X186.891 E812.993
G1 X186.66 Y75.4 E813.017
G1 X143.402 E815.175
G1 X143.092 Y75.8 E815.2
G1 X186.429 E817.362
G1 X186.198 Y76.2 E817.385
G1 X142.782 E819.551
G1 X142.465 Y76.6 E819.577
G1 X185.967 E821.747
G1 X185.736 Y77 E821.77
G1 X142.133 E823.945
G1 X141.801 Y77.4 E823.971
G1 X185.505 E826.152
G1 X185.274 Y77.8 E826.175
G1 X141.469 E828.36
G1 X141.137 Y78.2 E828.386
G1 X185.044 E830.577
G1 X184.813 Y78.6 E830.6
G1 X140.805 E832.795
G1 X140.473 Y79 E832.821
G1 X184.582 E835.022
G1 X184.351 Y79.4 E835.045
G1 X140.141 E837.25
G1 X139.809 Y79.8 E837.276
G1 X184.12 E839.487
G1 X183.889 Y80.2 E839.51
G1 X139.467 E841.726
G1 X139.112 Y80.6 E841.753
G1 X183.658 E843.975
G1 X183.427 Y81 E843.998
G1 X138.757 E846.227
G1 X138.402 Y81.4 E846.254
G1 X183.196 E848.488
G1 X182.965 Y81.8 E848.511
G1 X138.046 E850.752
G1 X137.691 Y82.2 E850.779
G1 X182.734 E853.026
G1 X182.503 Y82.6 E853.049
G1 X137.336 E855.303
G1 X136.98 Y83 E855.33
G1 X182.272 E857.589
G1 X182.041 Y83.4 E857.612
G1 X136.625 E859.878
G1 X136.253 Y83.8 E859.905
G1 X181.81 E862.178
G1 X181.579 Y84.2 E862.201
G1 X135.874 E864.481
G1 X135.495 Y84.6 E864.509
G1 X181.348 E866.797
G1 X181.117 Y85 E866.82
G1 X135.115 E869.115
G1 X134.736 Y85.4 E869.142
G1 X180.886 E871.445
G1 X180.656 Y85.8 E871.468
G1 X134.356 E873.778
G1 X133.977 Y86.2 E873.805
G1 X180.425 E876.122
G1 X180.194 Y86.6 E876.145
G1 X133.598 E878.47
G1 X133.208 Y87 E878.498
G1 X179.963 E880.831
G1 X179.732 Y87.4 E880.854
G1 X132.803 E883.195
G1 X132.397 Y87.8 E883.223
G1 X179.501 E885.573
G1 X179.27 Y88.2 E885.596
G1 X131.992 E887.955
G1 X131.587 Y88.6 E887.983
G1 X179.039 E890.351
G1 X178.808 Y89 E890.374
G1 X131.182 E892.75
G1 X130.777 Y89.4 E892.778
G1 X178.577 E895.163
G1 X178.346 Y89.8 E895.186
G1 X130.372 E897.58
G1 X129.961 Y90.2 E897.608
G1 X178.115 E900.011
G1 X177.884 Y90.6 E900.034
G1 X129.535 E902.446
G1 X129.108 Y91 E902.475
G1 X177.653 E904.897
G1 X177.422 Y91.4 E904.92
G1 X128.682 E907.352
G1 X128.255 Y91.8 E907.381
G1 X177.191 E909.822
G1 X176.96 Y92.2 E909.845
G1 X127.807 E912.298
G1 X127.327 Y92.6 E912.329
G1 X176.729 E914.793
G1 X176.499 Y93 E914.816
G1 X126.832 E917.294
G1 X126.337 Y93.4 E917.326
G1 X176.268 E919.817
G1 X176.037 Y93.8 E919.84
G1 X125.787 E922.347
G1 X125.215 Y94.2 E922.382
G1 X175.806 E924.906
G1 X175.575 Y94.6 E924.929
G1 X124.636 E927.47
G1 X123.971 Y95 E927.509
G1 X175.344 E930.072
G1 X175.113 Y95.4 E930.095
G1 X123.306 E932.68
G1 X122.554 Y95.8 E932.722
G1 X174.882 E935.333
G1 X174.651 Y96.2 E935.356
G1 X121.774 E937.994
G1 X120.897 Y96.6 E938.042
G1 X174.42 E940.712
G1 X174.189 Y97 E940.735
G1 X119.961 E943.441
G1 X118.849 Y97.4 E943.5
G1 X173.958 E946.249
G1 X173.727 Y97.8 E946.272
G1 X117.598 E949.073
G1 X116.082 Y98.2 E949.151
G1 X173.496 E952.015
G1 X173.265 Y98.6 E952.038
G1 X113.862 E955.002
G1 X106.138 E955.387
G1 X46.736 E958.351
G1 X46.505 Y98.2 E958.374
G1 X103.918 E961.238
G1 X102.399 Y97.8 E961.317
G1 X46.274 E964.117
G1 X46.043 Y97.4 E964.14
G1 X101.151 E966.889
G1 X100.043 Y97 E966.948
G1 X45.812 E969.653
G1 X45.581 Y96.6 E969.676
G1 X99.105 E972.347
G1 X98.225 Y96.2 E972.395
G1 X45.35 E975.033
G1 X45.119 Y95.8 E975.056
G1 X97.444 E977.666
G1 X96.693 Y95.4 E977.709
G1 X44.888 E980.293
G1 X44.657 Y95 E980.316
G1 X96.029 E982.879
G1 X95.364 Y94.6 E982.918
G1 X44.427 E985.459
G1 X44.196 Y94.2 E985.482
G1 X94.785 E988.006
G1 X94.212 Y93.8 E988.041
G1 X43.965 E990.548
G1 X43.734 Y93.4 E990.571
G1 X93.666 E993.062
G1 X93.17 Y93 E993.094
G1 X43.503 E995.572
G1 X43.272 Y92.6 E995.595
G1 X92.673 E998.06
G1 X92.193 Y92.2 E998.091
G1 X43.041 E1000.543
G1 X42.81 Y91.8 E1000.566
G1 X91.745 E1003.007
G1 X91.318 Y91.4 E1003.037
G1 X42.579 E1005.468
G1 X42.348 Y91 E1005.491
G1 X90.892 E1007.913
G1 X90.465 Y90.6 E1007.942
G1 X42.117 E1010.354
G1 X41.886 Y90.2 E1010.377
G1 X90.039 E1012.78
G1 X89.628 Y89.8 E1012.808
G1 X41.655 E1015.202
G1 X41.424 Y89.4 E1015.225
G1 X89.223 E1017.609
G1 X88.818 Y89 E1017.638
G1 X41.193 E1020.014
G1 X40.962 Y88.6 E1020.037
G1 X88.412 E1022.404
G1 X88.007 Y88.2 E1022.433
G1 X40.731 E1024.791
G1 X40.5 Y87.8 E1024.814
G1 X87.602 E1027.164
G1 X87.197 Y87.4 E1027.193
G1 X40.269 E1029.534
G1 X40.038 Y87 E1029.557
G1 X86.791 E1031.889
G1 X86.404 Y86.6 E1031.917
G1 X39.807 E1034.242
G1 X39.576 Y86.2 E1034.265
G1 X86.024 E1036.582
G1 X85.644 Y85.8 E1036.61
G1 X39.346 E1038.92
G1 X39.115 Y85.4 E1038.943
G1 X85.265 E1041.245
G1 X84.885 Y85 E1041.273
G1 X38.884 E1043.568
G1 X38.653 Y84.6 E1043.591
G1 X84.506 E1045.878
G1 X84.126 Y84.2 E1045.906
G1 X38.422 E1048.186
G1 X38.191 Y83.8 E1048.209
G1 X83.747 E1050.482
G1 X83.375 Y83.4 E1050.509
G1 X37.96 E1052.775
G1 X37.729 Y83 E1052.798
G1 X83.02 E1055.057
G1 X82.665 Y82.6 E1055.084
G1 X37.498 E1057.338
G1 X37.267 Y82.2 E1057.361
G1 X82.309 E1059.608
G1 X81.954 Y81.8 E1059.634
G1 X37.036 E1061.875
G1 X36.805 Y81.4 E1061.898
G1 X81.599 E1064.133
G1 X81.243 Y81 E1064.16
G1 X36.574 E1066.388
G1 X36.343 Y80.6 E1066.411
G1 X80.888 E1068.634
G1 X80.533 Y80.2 E1068.661
G1 X36.112 E1070.877
G1 X35.881 Y79.8 E1070.9
G1 X80.19 E1073.11
G1 X79.858 Y79.4 E1073.136
G1 X35.65 E1075.342
G1 X35.419 Y79 E1075.365
G1 X79.526 E1077.565
G1 X79.194 Y78.6 E1077.591
G1 X35.188 E1079.787
G1 X34.957 Y78.2 E1079.81
G1 X78.862 E1082
G1 X78.53 Y77.8 E1082.026
G1 X34.726 E1084.212
G1 X34.496 Y77.4 E1084.235
G1 X78.198 E1086.415
G1 X77.866 Y77 E1086.441
G1 X34.265 E1088.616
G1 X34.034 Y76.6 E1088.639
G1 X77.534 E1090.809
G1 X77.217 Y76.2 E1090.835
G1 X33.803 E1093.001
G1 X33.572 Y75.8 E1093.024
G1 X76.907 E1095.186
G1 X76.596 Y75.4 E1095.211
G1 X33.341 E1097.369
G1 X33.11 Y75 E1097.392
G1 X76.286 E1099.546
G1 X75.976 Y74.6 E1099.572
G1 X32.879 E1101.722
G1 X32.648 Y74.2 E1101.745
G1 X75.665 E1103.891
G1 X75.355 Y73.8 E1103.916
G1 X32.417 E1106.058
G1 X32.626 Y73.4 E1106.081
G1 X75.044 E1108.197
G1 X74.734 Y73 E1108.222
G1 X33.315 E1110.289
G1 X34.004 Y72.6 E1110.328
G1 X74.435 E1112.346
G1 X74.145 Y72.2 E1112.37
G1 X51.023 E1113.524
G1 X51.712 Y71.8 E1113.563
G1 X73.855 E1114.668
G1 X73.566 Y71.4 E1114.693
G1 X52.4 E1115.749
G1 X53.089 Y71 E1115.789
G1 X73.276 E1116.796
G1 X72.986 Y70.6 E1116.82
G1 X53.327 E1117.801
G1 X52.99 Y70.2 E1117.827
G1 X72.697 E1118.81
G1 X72.407 Y69.8 E1118.835
G1 X52.653 E1119.821
G1 X52.315 Y69.4 E1119.847
G1 X72.117 E1120.835
G1 X71.831 Y69 E1120.859
G1 X51.978 E1121.85
G1 X51.641 Y68.6 E1121.876
G1 X71.561 E1122.87
G1 X71.291 Y68.2 E1122.894
G1 X51.303 E1123.891
G1 X50.966 Y67.8 E1123.917
G1 X71.021 E1124.917
G1 X70.751 Y67.4 E1124.942
G1 X50.629 E1125.945
G1 X50.291 Y67 E1125.971
G1 X70.481 E1126.979
G1 X70.211 Y66.6 E1127.003
G1 X44.337 E1128.294
G1 X45.026 Y66.2 E1128.333
G1 X69.941 E1129.577
G1 X69.671 Y65.8 E1129.601
G1 X45.714 E1130.796
G1 X46.403 Y65.4 E1130.835
G1 X69.401 E1131.983
G1 X69.142 Y65 E1132.007
G1 X47.092 E1133.107
G1 X47.781 Y64.6 E1133.146
G1 X68.891 E1134.2
G1 X68.64 Y64.2 E1134.223
G1 X48.47 E1135.229
G1 X49.159 Y63.8 E1135.269
G1 X68.389 E1136.229
G1 X68.138 Y63.4 E1136.252
G1 X49.848 E1137.165
G1 X50.536 Y63 E1137.204
G1 X67.887 E1138.07
G1 X67.636 Y62.6 E1138.094
G1 X51.225 E1138.912
G1 X51.914 Y62.2 E1138.952
G1 X67.384 E1139.724
G1 X67.133 Y61.8 E1139.747
G1 X52.603 E1140.472
G1 X53.292 Y61.4 E1140.512
G1 X66.882 E1141.19
G1 X66.642 Y61 E1141.214
G1 X53.981 E1141.845
G1 X54.67 Y60.6 E1141.885
G1 X66.404 E1142.47
G1 X66.167 Y60.2 E1142.494
G1 X55.358 E1143.033
G1 X56.047 Y59.8 E1143.073
G1 X65.93 E1143.566
G1 X65.693 Y59.4 E1143.589
G1 X56.736 E1144.036
G1 X57.425 Y59 E1144.075
G1 X65.456 E1144.476
G1 X65.219 Y58.6 E1144.499
G1 X58.114 E1144.854
G1 X58.803 Y58.2 E1144.893
G1 X64.982 E1145.202
G1 X64.744 Y57.8 E1145.225
G1 X59.492 E1145.487
G1 X60.18 Y57.4 E1145.527
G1 X64.507 E1145.743
G1 X64.27 Y57 E1145.766
G1 X60.869 E1145.935
G1 X61.558 Y56.6 E1145.975
G1 X64.033 E1146.099
G1 X63.796 Y56.2 E1146.122
G1 X62.247 E1146.199
G1 X62.936 Y55.8 E1146.239
G1 X63.559 E1146.27
;bead-raft
;rapid-leaky
G1 F15000
G0 X49.886 Y67
;bead-raft
G1 X43.648 F3600 E1146.581
G1 X42.959 Y67.4 E1146.621
G1 X49.198 E1146.932
G1 X48.707 Y67.685 E1146.96
G1 X48.749 Y67.8 E1146.967
G1 X42.27 E1147.29
G1 X41.581 Y68.2 E1147.33
G1 X48.896 E1147.695
G1 X49.043 Y68.6 E1147.716
G1 X40.892 E1148.122
G1 X40.203 Y69 E1148.162
G1 X49.189 E1148.61
G1 X49.336 Y69.4 E1148.632
G1 X39.515 E1149.122
G1 X38.826 Y69.8 E1149.161
G1 X49.483 E1149.693
G1 X49.629 Y70.2 E1149.714
G1 X38.137 E1150.288
G1 X37.448 Y70.6 E1150.328
G1 X49.776 E1150.943
G1 X49.923 Y71 E1150.964
G1 X36.759 E1151.62
G1 X36.07 Y71.4 E1151.66
G1 X50.069 E1152.359
G1 X50.216 Y71.8 E1152.38
G1 X35.381 E1153.12
G1 X34.693 Y72.2 E1153.16
G1 X50.363 E1153.942
;bead-raft
;rapid-leaky
G1 F15000
G0 X46.967 Y99
;bead-raft
G1 X173.034 F3600 E1160.231
G1 X172.803 Y99.4 E1160.254
G1 X47.198 E1166.521
G1 X47.429 Y99.8 E1166.544
G1 X172.572 E1172.787
G1 X172.341 Y100.2 E1172.81
G1 X47.66 E1179.031
G1 X47.891 Y100.6 E1179.054
G1 X172.111 E1185.251
G1 X171.88 Y101 E1185.274
G1 X48.122 E1191.448
G1 X48.353 Y101.4 E1191.471
G1 X171.649 E1197.623
G1 X171.418 Y101.8 E1197.646
G1 X48.584 E1203.774
G1 X48.815 Y102.2 E1203.797
G1 X171.187 E1209.902
G1 X170.956 Y102.6 E1209.925
G1 X49.046 E1216.007
G1 X49.277 Y103 E1216.03
G1 X170.725 E1222.089
G1 X170.494 Y103.4 E1222.112
G1 X49.507 E1228.148
G1 X49.738 Y103.8 E1228.172
G1 X170.263 E1234.184
G1 X170.032 Y104.2 E1234.208
G1 X49.969 E1240.198
G1 X50.2 Y104.6 E1240.22
G1 X169.801 E1246.187
G1 X169.57 Y105 E1246.21
G1 X50.431 E1252.154
G1 X50.662 Y105.4 E1252.177
G1 X169.339 E1258.098
G1 X169.108 Y105.8 E1258.121
G1 X50.893 E1264.019
G1 X51.124 Y106.2 E1264.042
G1 X168.877 E1269.917
G1 X168.646 Y106.6 E1269.94
G1 X51.355 E1275.792
G1 X51.586 Y107 E1275.815
G1 X168.415 E1281.643
G1 X168.184 Y107.4 E1281.666
G1 X51.817 E1287.472
G1 X52.048 Y107.8 E1287.495
G1 X167.954 E1293.277
G1 X167.723 Y108.2 E1293.301
G1 X52.279 E1299.06
G1 X52.51 Y108.6 E1299.083
G1 X167.492 E1304.819
G1 X167.261 Y109 E1304.843
G1 X52.741 E1310.556
G1 X52.972 Y109.4 E1310.579
G1 X167.03 E1316.269
G1 X166.799 Y109.8 E1316.292
G1 X53.203 E1321.96
G1 X53.434 Y110.2 E1321.983
G1 X166.568 E1327.627
G1 X166.337 Y110.6 E1327.65
G1 X53.665 E1333.271
G1 X53.896 Y111 E1333.294
G1 X166.106 E1338.893
G1 X165.875 Y111.4 E1338.916
G1 X54.127 E1344.491
G1 X54.357 Y111.8 E1344.514
G1 X165.644 E1350.066
G1 X165.413 Y112.2 E1350.089
G1 X54.588 E1355.618
G1 X54.819 Y112.6 E1355.641
G1 X165.182 E1361.147
G1 X164.951 Y113 E1361.17
G1 X55.05 E1366.653
G1 X55.281 Y113.4 E1366.676
G1 X164.72 E1372.136
G1 X164.489 Y113.8 E1372.159
G1 X55.512 E1377.596
G1 X55.743 Y114.2 E1377.619
G1 X164.258 E1383.033
G1 X164.027 Y114.6 E1383.056
G1 X55.974 E1388.447
G1 X56.205 Y115 E1388.47
G1 X163.797 E1393.838
G1 X163.566 Y115.4 E1393.861
G1 X56.436 E1399.205
G1 X56.667 Y115.8 E1399.228
G1 X163.335 E1404.55
G1 X163.104 Y116.2 E1404.573
G1 X56.898 E1409.872
G1 X57.129 Y116.6 E1409.895
G1 X162.873 E1415.17
G1 X162.642 Y117 E1415.193
G1 X57.36 E1420.446
G1 X57.591 Y117.4 E1420.469
G1 X162.411 E1425.698
G1 X162.18 Y117.8 E1425.722
G1 X57.822 E1430.928
G1 X58.053 Y118.2 E1430.951
G1 X161.949 E1436.134
G1 X161.718 Y118.6 E1436.157
G1 X58.284 E1441.318
G1 X58.515 Y119 E1441.341
G1 X161.487 E1446.478
G1 X161.256 Y119.4 E1446.501
G1 X58.746 E1451.615
G1 X58.977 Y119.8 E1451.639
G1 X161.025 E1456.73
G1 X160.794 Y120.2 E1456.753
G1 X59.207 E1461.821
G1 X59.438 Y120.6 E1461.844
G1 X160.563 E1466.889
G1 X160.332 Y121 E1466.912
G1 X59.669 E1471.934
G1 X59.9 Y121.4 E1471.957
G1 X160.101 E1476.956
G1 X159.87 Y121.8 E1476.979
G1 X60.131 E1481.955
G1 X60.362 Y122.2 E1481.979
G1 X159.639 E1486.932
G1 X159.409 Y122.6 E1486.955
G1 X60.593 E1491.884
G1 X60.824 Y123 E1491.907
G1 X159.178 E1496.814
G1 X158.947 Y123.4 E1496.837
G1 X61.055 E1501.721
G1 X61.286 Y123.8 E1501.744
G1 X158.716 E1506.605
G1 X158.485 Y124.2 E1506.628
G1 X61.517 E1511.466
G1 X61.748 Y124.6 E1511.489
G1 X158.254 E1516.304
G1 X158.023 Y125 E1516.327
G1 X61.979 E1521.118
G1 X62.21 Y125.4 E1521.141
G1 X157.792 E1525.91
G1 X157.561 Y125.8 E1525.933
G1 X62.441 E1530.679
G1 X62.672 Y126.2 E1530.702
G1 X157.33 E1535.424
G1 X157.099 Y126.6 E1535.447
G1 X62.903 E1540.147
G1 X63.134 Y127 E1540.17
G1 X156.868 E1544.846
G1 X156.637 Y127.4 E1544.869
G1 X63.365 E1549.523
G1 X63.596 Y127.8 E1549.546
G1 X156.406 E1554.176
G1 X156.175 Y128.2 E1554.199
G1 X63.827 E1558.806
G1 X64.057 Y128.6 E1558.829
G1 X155.944 E1563.414
G1 X155.713 Y129 E1563.437
G1 X64.288 E1567.998
G1 X64.519 Y129.4 E1568.021
G1 X155.482 E1572.559
G1 X155.252 Y129.8 E1572.582
G1 X64.75 E1577.097
G1 X64.981 Y130.2 E1577.12
G1 X155.021 E1581.612
G1 X154.79 Y130.6 E1581.635
G1 X65.212 E1586.104
G1 X65.443 Y131 E1586.127
G1 X154.559 E1590.573
G1 X154.328 Y131.4 E1590.596
G1 X65.674 E1595.019
G1 X65.905 Y131.8 E1595.042
G1 X154.097 E1599.442
G1 X153.866 Y132.2 E1599.465
G1 X66.136 E1603.842
G1 X66.367 Y132.6 E1603.865
G1 X153.635 E1608.219
G1 X153.404 Y133 E1608.242
G1 X66.598 E1612.573
G1 X66.829 Y133.4 E1612.596
G1 X153.173 E1616.904
G1 X152.942 Y133.8 E1616.927
G1 X67.06 E1621.211
G1 X67.291 Y134.2 E1621.234
G1 X152.711 E1625.496
G1 X152.48 Y134.6 E1625.519
G1 X67.522 E1629.758
G1 X67.753 Y135 E1629.781
G1 X152.249 E1633.996
G1 X152.018 Y135.4 E1634.019
G1 X67.984 E1638.212
G1 X68.215 Y135.8 E1638.235
G1 X151.787 E1642.404
G1 X151.556 Y136.2 E1642.427
G1 X68.446 E1646.574
G1 X68.677 Y136.6 E1646.597
G1 X151.325 E1650.72
G1 X151.094 Y137 E1650.743
G1 X68.907 E1654.844
G1 X69.138 Y137.4 E1654.867
G1 X150.864 E1658.944
G1 X150.633 Y137.8 E1658.967
G1 X69.369 E1663.021
G1 X69.6 Y138.2 E1663.044
G1 X150.402 E1667.075
G1 X150.171 Y138.6 E1667.099
G1 X69.831 E1671.107
G1 X70.062 Y139 E1671.13
G1 X149.94 E1675.115
G1 X149.709 Y139.4 E1675.138
G1 X70.293 E1679.1
G1 X70.524 Y139.8 E1679.123
G1 X149.478 E1683.062
G1 X149.247 Y140.2 E1683.085
G1 X70.755 E1687.001
G1 X70.986 Y140.6 E1687.024
G1 X149.016 E1690.917
G1 X148.785 Y141 E1690.94
G1 X71.217 E1694.81
G1 X71.448 Y141.4 E1694.833
G1 X148.554 E1698.68
G1 X148.323 Y141.8 E1698.703
G1 X71.679 E1702.527
G1 X71.91 Y142.2 E1702.55
G1 X148.092 E1706.35
G1 X147.861 Y142.6 E1706.374
G1 X72.141 E1710.151
G1 X72.372 Y143 E1710.174
G1 X147.63 E1713.929
G1 X147.399 Y143.4 E1713.952
G1 X72.603 E1717.684
G1 X72.834 Y143.8 E1717.707
G1 X147.168 E1721.415
G1 X146.937 Y144.2 E1721.438
G1 X73.065 E1725.124
G1 X73.296 Y144.6 E1725.147
G1 X146.707 E1728.809
G1 X146.476 Y145 E1728.832
G1 X73.527 E1732.472
G1 X73.757 Y145.4 E1732.495
G1 X146.245 E1736.111
G1 X146.014 Y145.8 E1736.134
G1 X73.988 E1739.728
G1 X74.219 Y146.2 E1739.751
G1 X145.783 E1743.321
G1 X145.552 Y146.6 E1743.344
G1 X74.45 E1746.891
G1 X74.681 Y147 E1746.914
G1 X145.321 E1750.439
G1 X145.09 Y147.4 E1750.462
G1 X74.912 E1753.963
G1 X75.143 Y147.8 E1753.986
G1 X144.859 E1757.464
G1 X144.628 Y148.2 E1757.487
G1 X75.374 E1760.942
G1 X75.605 Y148.6 E1760.965
G1 X144.397 E1764.397
G1 X144.166 Y149 E1764.42
G1 X75.836 E1767.829
G1 X76.067 Y149.4 E1767.852
G1 X143.935 E1771.238
G1 X143.704 Y149.8 E1771.261
G1 X76.298 E1774.624
G1 X76.529 Y150.2 E1774.647
G1 X143.473 E1777.987
G1 X143.242 Y150.6 E1778.01
G1 X76.76 E1781.327
G1 X76.991 Y151 E1781.35
G1 X143.011 E1784.644
G1 X142.78 Y151.4 E1784.667
G1 X77.222 E1787.938
G1 X77.453 Y151.8 E1787.961
G1 X142.55 E1791.208
G1 X142.319 Y152.2 E1791.231
G1 X77.684 E1794.456
G1 X77.915 Y152.6 E1794.479
G1 X142.088 E1797.681
G1 X141.857 Y153 E1797.704
G1 X78.146 E1800.882
G1 X78.377 Y153.4 E1800.905
G1 X141.626 E1804.061
G1 X141.395 Y153.8 E1804.084
G1 X78.607 E1807.216
G1 X78.838 Y154.2 E1807.239
G1 X141.164 E1810.349
G1 X140.933 Y154.6 E1810.372
G1 X79.069 E1813.458
G1 X79.3 Y155 E1813.481
G1 X140.702 E1816.545
G1 X140.471 Y155.4 E1816.568
G1 X79.531 E1819.608
G1 X79.786 Y155.8 E1819.632
G1 X140.215 E1822.646
G1 X139.953 Y156.2 E1822.67
G1 X80.048 E1825.659
G1 X80.333 Y156.6 E1825.683
G1 X139.668 E1828.644
G1 X139.363 Y157 E1828.669
G1 X80.637 E1831.599
G1 X80.958 Y157.4 E1831.624
G1 X139.043 E1834.522
G1 X138.689 Y157.8 E1834.549
G1 X81.312 E1837.411
G1 X81.677 Y158.2 E1837.438
G1 X138.323 E1840.264
G1 X137.915 Y158.6 E1840.293
G1 X82.085 E1843.078
G1 X82.509 Y159 E1843.107
G1 X137.49 E1845.85
G1 X137.02 Y159.4 E1845.881
G1 X82.981 E1848.577
G1 X83.488 Y159.8 E1848.609
G1 X136.514 E1851.255
G1 X135.966 Y160.2 E1851.289
G1 X84.035 E1853.88
G1 X84.655 Y160.6 E1853.916
G1 X135.345 E1856.445
G1 X134.668 Y161 E1856.484
G1 X85.333 E1858.946
G1 X86.09 Y161.4 E1858.988
G1 X133.911 E1861.374
G1 X133.006 Y161.8 E1861.424
G1 X86.995 E1863.719
G1 X88.091 Y162.2 E1863.777
G1 X131.909 E1865.964
G1 X129.736 Y162.731 E1866.075
G1 X129.676 Y162.743 E1866.078
G1 X128.574 Y162.885 E1866.134
G1 X128.188 Y162.906 E1866.153
G1 X130.383 Y162.6 E1866.263
G1 X89.616 E1868.297
;bead-raft
G1 F1800 E1867.797
;Layer : 4 of 86
;rapid-leaky
G1 F15000
G0 X89.139 Y162.912 Z1.1
G1 F1800 E1868.297
;bead-raft
G1 X88.031 Y162.603 F3600 E1868.355
G1 X86.947 Y162.216 E1868.412
G1 X85.917 Y161.761 E1868.468
G1 X84.879 Y161.212 E1868.527
G1 X83.913 Y160.607 E1868.584
G1 X82.988 Y159.93 E1868.641
G1 X82.12 Y159.195 E1868.698
G1 X81.294 Y158.384 E1868.755
G1 X80.526 Y157.514 E1868.813
G1 X79.841 Y156.613 E1868.87
G1 X79.247 Y155.708 E1868.924
G1 X31.751 Y73.446 E1873.663
G1 X63.541 Y54.986 E1875.497
G1 X67.161 Y61.092 E1875.851
G1 X69.623 Y65.013 E1876.082
G1 X72.202 Y68.836 E1876.312
G1 X74.907 Y72.57 E1876.542
G1 X77.74 Y76.221 E1876.773
G1 X80.679 Y79.763 E1877.002
G1 X83.79 Y83.265 E1877.236
G1 X86.947 Y86.592 E1877.465
G1 X90.209 Y89.812 E1877.694
G1 X92.019 Y91.509 E1877.817
G1 X92.608 Y92.034 E1877.857
G1 X94.083 Y93.222 E1877.951
G1 X95.531 Y94.234 E1878.039
G1 X97.061 Y95.155 E1878.128
G1 X98.685 Y95.986 E1878.219
G1 X100.369 Y96.704 E1878.311
G1 X102.051 Y97.29 E1878.4
G1 X103.793 Y97.767 E1878.49
G1 X105.564 Y98.122 E1878.58
G1 X107.354 Y98.355 E1878.67
G1 X109.202 Y98.467 E1878.762
G1 X110.795 E1878.842
G1 X112.682 Y98.35 E1878.936
G1 X114.436 Y98.122 E1879.024
G1 X116.168 Y97.775 E1879.112
G1 X117.952 Y97.289 E1879.205
G1 X119.654 Y96.696 E1879.295
G1 X121.311 Y95.988 E1879.385
G1 X122.954 Y95.145 E1879.477
G1 X124.462 Y94.238 E1879.564
G1 X125.949 Y93.2 E1879.655
G1 X127.393 Y92.033 E1879.748
G1 X127.981 Y91.509 E1879.787
G1 X129.79 Y89.812 E1879.911
G1 X133.084 Y86.56 E1880.141
G1 X136.219 Y83.255 E1880.369
G1 X139.32 Y79.764 E1880.602
G1 X142.252 Y76.23 E1880.831
G1 X145.092 Y72.57 E1881.062
G1 X147.798 Y68.835 E1881.292
G1 X150.377 Y65.013 E1881.522
G1 X152.838 Y61.093 E1881.753
G1 X156.459 Y54.986 E1882.107
G1 X188.25 Y73.446 E1883.941
G1 X140.769 Y155.684 E1888.679
G1 X140.159 Y156.615 E1888.734
G1 X139.464 Y157.528 E1888.792
G1 X138.712 Y158.378 E1888.848
G1 X137.888 Y159.187 E1888.906
G1 X137.011 Y159.932 E1888.963
G1 X136.093 Y160.603 E1889.02
G1 X135.114 Y161.217 E1889.078
G1 X134.093 Y161.757 E1889.135
G1 X133.049 Y162.219 E1889.192
G1 X131.973 Y162.602 E1889.249
G1 X130.872 Y162.909 E1889.306
G1 X129.741 Y163.138 E1889.364
G1 X128.611 Y163.284 E1889.421
G1 X127.507 Y163.345 E1889.476
G1 X92.831 Y163.347 E1891.206
G1 X92.473 Y163.344 E1891.224
G1 X91.413 Y163.285 E1891.277
G1 X90.253 Y163.137 E1891.335
G1 X89.139 Y162.912 E1891.392
;bead-raft
;rapid-leaky
G1 F15000
G0 X89.093 Y163.106
;bead-raft
G1 X87.97 Y162.794 F3600 E1891.45
G1 X86.873 Y162.402 E1891.508
G1 X85.829 Y161.941 E1891.565
G1 X84.779 Y161.386 E1891.624
G1 X83.801 Y160.772 E1891.682
G1 X82.864 Y160.087 E1891.74
G1 X81.985 Y159.343 E1891.797
G1 X81.149 Y158.522 E1891.856
G1 X80.371 Y157.641 E1891.914
G1 X79.677 Y156.729 E1891.971
G1 X79.077 Y155.813 E1892.026
G1 X31.478 Y73.373 E1896.775
G1 X63.612 Y54.713 E1898.629
G1 X67.332 Y60.988 E1898.993
G1 X69.79 Y64.904 E1899.224
G1 X72.366 Y68.721 E1899.453
G1 X75.067 Y72.45 E1899.683
G1 X77.896 Y76.096 E1899.913
G1 X80.831 Y79.632 E1900.143
G1 X83.938 Y83.13 E1900.376
G1 X87.09 Y86.452 E1900.605
G1 X90.348 Y89.668 E1900.833
G1 X92.154 Y91.361 E1900.957
G1 X92.738 Y91.882 E1900.995
G1 X94.203 Y93.062 E1901.089
G1 X95.64 Y94.066 E1901.177
G1 X97.159 Y94.98 E1901.265
G1 X98.77 Y95.805 E1901.356
G1 X100.441 Y96.517 E1901.446
G1 X102.111 Y97.099 E1901.534
G1 X103.84 Y97.572 E1901.624
G1 X105.596 Y97.924 E1901.713
G1 X107.373 Y98.156 E1901.803
G1 X109.208 Y98.267 E1901.894
G1 X110.789 E1901.973
G1 X112.663 Y98.151 E1902.067
G1 X114.403 Y97.924 E1902.154
G1 X116.122 Y97.58 E1902.242
G1 X117.893 Y97.098 E1902.333
G1 X119.582 Y96.509 E1902.423
G1 X121.226 Y95.807 E1902.512
G1 X122.856 Y94.97 E1902.603
G1 X124.353 Y94.07 E1902.69
G1 X125.828 Y93.04 E1902.78
G1 X127.264 Y91.88 E1902.872
G1 X127.846 Y91.361 E1902.911
G1 X129.652 Y89.668 E1903.035
G1 X132.942 Y86.42 E1903.265
G1 X136.072 Y83.12 E1903.492
G1 X139.168 Y79.634 E1903.725
G1 X142.096 Y76.105 E1903.954
G1 X144.932 Y72.45 E1904.184
G1 X147.634 Y68.721 E1904.414
G1 X150.21 Y64.904 E1904.644
G1 X152.667 Y60.989 E1904.875
G1 X156.388 Y54.714 E1905.239
G1 X188.523 Y73.373 E1907.092
G1 X140.939 Y155.789 E1911.84
G1 X140.323 Y156.73 E1911.896
G1 X139.618 Y157.655 E1911.954
G1 X138.857 Y158.516 E1912.012
G1 X138.023 Y159.335 E1912.07
G1 X137.135 Y160.089 E1912.128
G1 X136.205 Y160.769 E1912.186
G1 X135.214 Y161.39 E1912.244
G1 X134.18 Y161.937 E1912.302
G1 X133.123 Y162.404 E1912.36
G1 X132.034 Y162.793 E1912.418
G1 X130.919 Y163.104 E1912.475
G1 X129.774 Y163.336 E1912.534
G1 X128.629 Y163.483 E1912.591
G1 X127.513 Y163.545 E1912.647
G1 X92.83 Y163.547 E1914.377
G1 X92.466 Y163.544 E1914.396
G1 X91.395 Y163.484 E1914.449
G1 X90.221 Y163.335 E1914.508
G1 X89.093 Y163.106 E1914.566
;bead-raft
;rapid-leaky
G1 F15000
G0 X50.69 Y71.931
;bead-raft
G1 X52.862 Y70.669 F3600 E1914.691
G1 X50.069 Y67.357 E1914.907
G1 X49.198 Y67.862 E1914.957
G1 X50.69 Y71.931 E1915.174
;bead-raft
;rapid-leaky
G1 F15000
G0 X50.796 Y71.638
;bead-raft
G1 X52.556 Y70.616 F3600 E1915.275
G1 X50.024 Y67.614 E1915.471
G1 X49.444 Y67.951 E1915.505
G1 X50.796 Y71.638 E1915.7
;bead-raft
G1 F1800 E1915.2
;rapid-dry
G1 F15000
G0 X167.138 Y70.669
G1 F1800 E1915.7
;bead-raft
G1 X169.31 Y71.931 F3600 E1915.826
G1 X170.802 Y67.862 E1916.042
G1 X169.931 Y67.357 E1916.092
G1 X167.138 Y70.669 E1916.308
;bead-raft
;rapid-leaky
G1 F15000
G0 X167.444 Y70.616
;bead-raft
G1 X169.204 Y71.638 F3600 E1916.41
G1 X170.556 Y67.951 E1916.606
G1 X169.976 Y67.614 E1916.639
G1 X167.444 Y70.616 E1916.835
;bead-raft
;rapid-leaky
G1 F15000
G0 X168.977 Y72.2
;bead-raft
G1 X145.854 F3600 E1917.989
G1 X146.144 Y71.8 E1918.014
G1 X168.288 E1919.118
G1 X167.6 Y71.4 E1919.158
G1 X146.434 E1920.214
G1 X146.724 Y71 E1920.239
G1 X166.911 E1921.246
G1 X166.524 Y70.776 E1921.268
G1 X166.673 Y70.6 E1921.28
G1 X147.013 E1922.26
G1 X147.303 Y70.2 E1922.285
G1 X167.01 E1923.268
G1 X167.347 Y69.8 E1923.294
G1 X147.593 E1924.28
G1 X147.883 Y69.4 E1924.304
G1 X167.685 E1925.292
G1 X168.022 Y69 E1925.318
G1 X148.169 E1926.309
G1 X148.439 Y68.6 E1926.333
G1 X168.359 E1927.327
G1 X168.697 Y68.2 E1927.353
G1 X148.709 E1928.35
G1 X148.979 Y67.8 E1928.374
G1 X169.034 E1929.375
G1 X169.371 Y67.4 E1929.401
G1 X149.249 E1930.405
G1 X149.519 Y67 E1930.429
G1 X169.709 E1931.436
G1 X170.114 E1931.456
G1 X176.352 E1931.767
G1 X177.041 Y67.4 E1931.807
G1 X170.802 E1932.119
G1 X171.293 Y67.685 E1932.147
G1 X171.251 Y67.8 E1932.153
G1 X177.73 E1932.476
G1 X178.419 Y68.2 E1932.516
G1 X171.104 E1932.881
G1 X170.957 Y68.6 E1932.902
G1 X179.108 E1933.309
G1 X179.796 Y69 E1933.348
G1 X170.811 E1933.797
G1 X170.664 Y69.4 E1933.818
G1 X180.485 E1934.308
G1 X181.174 Y69.8 E1934.348
G1 X170.517 E1934.879
G1 X170.371 Y70.2 E1934.901
G1 X181.863 E1935.474
G1 X182.552 Y70.6 E1935.514
G1 X170.224 E1936.129
G1 X170.077 Y71 E1936.15
G1 X183.241 E1936.807
G1 X183.93 Y71.4 E1936.847
G1 X169.931 E1937.545
G1 X169.784 Y71.8 E1937.566
G1 X184.619 E1938.306
G1 X185.307 Y72.2 E1938.346
G1 X169.637 E1939.128
;bead-raft
;rapid-leaky
G1 F15000
G0 X175.663 Y66.6
;bead-raft
G1 X149.789 F3600 E1940.419
G1 X150.059 Y66.2 E1940.443
G1 X174.974 E1941.686
G1 X174.286 Y65.8 E1941.726
G1 X150.329 E1942.921
G1 X150.599 Y65.4 E1942.945
G1 X173.597 E1944.092
G1 X172.908 Y65 E1944.132
G1 X150.858 E1945.232
G1 X151.109 Y64.6 E1945.256
G1 X172.219 E1946.309
G1 X171.53 Y64.2 E1946.349
G1 X151.36 E1947.355
G1 X151.611 Y63.8 E1947.378
G1 X170.841 E1948.338
G1 X170.152 Y63.4 E1948.378
G1 X151.862 E1949.29
G1 X152.113 Y63 E1949.314
G1 X169.464 E1950.179
G1 X168.775 Y62.6 E1950.219
G1 X152.364 E1951.038
G1 X152.616 Y62.2 E1951.061
G1 X168.086 E1951.833
G1 X167.397 Y61.8 E1951.873
G1 X152.867 E1952.598
G1 X153.118 Y61.4 E1952.621
G1 X166.708 E1953.299
G1 X166.019 Y61 E1953.339
G1 X153.358 E1953.971
G1 X153.595 Y60.6 E1953.994
G1 X165.33 E1954.579
G1 X164.642 Y60.2 E1954.619
G1 X153.833 E1955.158
G1 X154.07 Y59.8 E1955.182
G1 X163.953 E1955.675
G1 X163.264 Y59.4 E1955.714
G1 X154.307 E1956.161
G1 X154.544 Y59 E1956.184
G1 X162.575 E1956.585
G1 X161.886 Y58.6 E1956.625
G1 X154.781 E1956.979
G1 X155.018 Y58.2 E1957.002
G1 X161.197 E1957.311
G1 X160.508 Y57.8 E1957.35
G1 X155.255 E1957.613
G1 X155.493 Y57.4 E1957.636
G1 X159.819 E1957.852
G1 X159.131 Y57 E1957.891
G1 X155.73 E1958.061
G1 X155.967 Y56.6 E1958.084
G1 X158.442 E1958.208
G1 X157.753 Y56.2 E1958.247
G1 X156.204 E1958.325
G1 X156.441 Y55.8 E1958.348
G1 X157.064 E1958.379
;bead-raft
;rapid-leaky
G1 F15000
G0 X145.564 Y72.6
;bead-raft
G1 X185.996 F3600 E1960.396
G1 X186.685 Y73 E1960.436
G1 X145.265 E1962.502
G1 X144.954 Y73.4 E1962.528
G1 X187.374 E1964.644
G1 X187.584 Y73.8 E1964.666
G1 X144.644 E1966.809
G1 X144.334 Y74.2 E1966.834
G1 X187.353 E1968.98
G1 X187.122 Y74.6 E1969.003
G1 X144.023 E1971.153
G1 X143.713 Y75 E1971.179
G1 X186.891 E1973.333
G1 X186.66 Y75.4 E1973.356
G1 X143.402 E1975.514
G1 X143.092 Y75.8 E1975.539
G1 X186.429 E1977.701
G1 X186.198 Y76.2 E1977.724
G1 X142.782 E1979.891
G1 X142.465 Y76.6 E1979.916
G1 X185.967 E1982.086
G1 X185.736 Y77 E1982.109
G1 X142.133 E1984.285
G1 X141.801 Y77.4 E1984.311
G1 X185.505 E1986.491
G1 X185.274 Y77.8 E1986.514
G1 X141.469 E1988.7
G1 X141.137 Y78.2 E1988.725
G1 X185.044 E1990.916
G1 X184.813 Y78.6 E1990.939
G1 X140.805 E1993.135
G1 X140.473 Y79 E1993.161
G1 X184.582 E1995.361
G1 X184.351 Y79.4 E1995.384
G1 X140.141 E1997.59
G1 X139.809 Y79.8 E1997.616
G1 X184.12 E1999.826
G1 X183.889 Y80.2 E1999.849
G1 X139.467 E2002.066
G1 X139.112 Y80.6 E2002.092
G1 X183.658 E2004.315
G1 X183.427 Y81 E2004.338
G1 X138.757 E2006.566
G1 X138.402 Y81.4 E2006.593
G1 X183.196 E2008.828
G1 X182.965 Y81.8 E2008.851
G1 X138.046 E2011.092
G1 X137.691 Y82.2 E2011.119
G1 X182.734 E2013.366
G1 X182.503 Y82.6 E2013.389
G1 X137.336 E2015.642
G1 X136.98 Y83 E2015.669
G1 X182.272 E2017.928
G1 X182.041 Y83.4 E2017.952
G1 X136.625 E2020.217
G1 X136.253 Y83.8 E2020.245
G1 X181.81 E2022.517
G1 X181.579 Y84.2 E2022.541
G1 X135.874 E2024.821
G1 X135.495 Y84.6 E2024.848
G1 X181.348 E2027.136
G1 X181.117 Y85 E2027.159
G1 X135.115 E2029.454
G1 X134.736 Y85.4 E2029.482
G1 X180.886 E2031.784
G1 X180.656 Y85.8 E2031.807
G1 X134.356 E2034.117
G1 X133.977 Y86.2 E2034.144
G1 X180.425 E2036.462
G1 X180.194 Y86.6 E2036.485
G1 X133.598 E2038.809
G1 X133.208 Y87 E2038.837
G1 X179.963 E2041.17
G1 X179.732 Y87.4 E2041.193
G1 X132.803 E2043.534
G1 X132.397 Y87.8 E2043.563
G1 X179.501 E2045.913
G1 X179.27 Y88.2 E2045.936
G1 X131.992 E2048.294
G1 X131.587 Y88.6 E2048.323
G1 X179.039 E2050.69
G1 X178.808 Y89 E2050.713
G1 X131.182 E2053.089
G1 X130.777 Y89.4 E2053.118
G1 X178.577 E2055.502
G1 X178.346 Y89.8 E2055.525
G1 X130.372 E2057.919
G1 X129.961 Y90.2 E2057.948
G1 X178.115 E2060.35
G1 X177.884 Y90.6 E2060.373
G1 X129.535 E2062.785
G1 X129.108 Y91 E2062.814
G1 X177.653 E2065.236
G1 X177.422 Y91.4 E2065.259
G1 X128.682 E2067.691
G1 X128.255 Y91.8 E2067.72
G1 X177.191 E2070.162
G1 X176.96 Y92.2 E2070.185
G1 X127.807 E2072.637
G1 X127.327 Y92.6 E2072.668
G1 X176.729 E2075.133
G1 X176.499 Y93 E2075.156
G1 X126.832 E2077.634
G1 X126.337 Y93.4 E2077.665
G1 X176.268 E2080.156
G1 X176.037 Y93.8 E2080.179
G1 X125.787 E2082.687
G1 X125.215 Y94.2 E2082.721
G1 X175.806 E2085.245
G1 X175.575 Y94.6 E2085.268
G1 X124.636 E2087.81
G1 X123.971 Y95 E2087.848
G1 X175.344 E2090.411
G1 X175.113 Y95.4 E2090.435
G1 X123.306 E2093.019
G1 X122.554 Y95.8 E2093.062
G1 X174.882 E2095.672
G1 X174.651 Y96.2 E2095.695
G1 X121.774 E2098.333
G1 X120.897 Y96.6 E2098.381
G1 X174.42 E2101.052
G1 X174.189 Y97 E2101.075
G1 X119.961 E2103.78
G1 X118.849 Y97.4 E2103.839
G1 X173.958 E2106.589
G1 X173.727 Y97.8 E2106.612
G1 X117.598 E2109.412
G1 X116.082 Y98.2 E2109.49
G1 X173.496 E2112.354
G1 X173.265 Y98.6 E2112.378
G1 X113.862 E2115.341
G1 X106.138 E2115.727
G1 X46.736 E2118.69
G1 X46.505 Y98.2 E2118.713
G1 X103.918 E2121.578
G1 X102.399 Y97.8 E2121.656
G1 X46.274 E2124.456
G1 X46.043 Y97.4 E2124.479
G1 X101.151 E2127.228
G1 X100.043 Y97 E2127.287
G1 X45.812 E2129.993
G1 X45.581 Y96.6 E2130.016
G1 X99.105 E2132.686
G1 X98.225 Y96.2 E2132.734
G1 X45.35 E2135.372
G1 X45.119 Y95.8 E2135.395
G1 X97.444 E2138.006
G1 X96.693 Y95.4 E2138.048
G1 X44.888 E2140.633
G1 X44.657 Y95 E2140.656
G1 X96.029 E2143.219
G1 X95.364 Y94.6 E2143.257
G1 X44.427 E2145.799
G1 X44.196 Y94.2 E2145.822
G1 X94.785 E2148.346
G1 X94.212 Y93.8 E2148.38
G1 X43.965 E2150.887
G1 X43.734 Y93.4 E2150.91
G1 X93.666 E2153.402
G1 X93.17 Y93 E2153.433
G1 X43.503 E2155.911
G1 X43.272 Y92.6 E2155.934
G1 X92.673 E2158.399
G1 X92.193 Y92.2 E2158.43
G1 X43.041 E2160.882
G1 X42.81 Y91.8 E2160.905
G1 X91.745 E2163.347
G1 X91.318 Y91.4 E2163.376
G1 X42.579 E2165.808
G1 X42.348 Y91 E2165.831
G1 X90.892 E2168.252
G1 X90.465 Y90.6 E2168.282
G1 X42.117 E2170.694
G1 X41.886 Y90.2 E2170.717
G1 X90.039 E2173.119
G1 X89.628 Y89.8 E2173.148
G1 X41.655 E2175.541
G1 X41.424 Y89.4 E2175.564
G1 X89.223 E2177.949
G1 X88.818 Y89 E2177.977
G1 X41.193 E2180.353
G1 X40.962 Y88.6 E2180.376
G1 X88.412 E2182.744
G1 X88.007 Y88.2 E2182.772
G1 X40.731 E2185.131
G1 X40.5 Y87.8 E2185.154
G1 X87.602 E2187.504
G1 X87.197 Y87.4 E2187.532
G1 X40.269 E2189.873
G1 X40.038 Y87 E2189.896
G1 X86.791 E2192.229
G1 X86.404 Y86.6 E2192.257
G1 X39.807 E2194.581
G1 X39.576 Y86.2 E2194.604
G1 X86.024 E2196.922
G1 X85.644 Y85.8 E2196.949
G1 X39.346 E2199.259
G1 X39.115 Y85.4 E2199.282
G1 X85.265 E2201.584
G1 X84.885 Y85 E2201.612
G1 X38.884 E2203.907
G1 X38.653 Y84.6 E2203.93
G1 X84.506 E2206.218
G1 X84.126 Y84.2 E2206.245
G1 X38.422 E2208.525
G1 X38.191 Y83.8 E2208.548
G1 X83.747 E2210.821
G1 X83.375 Y83.4 E2210.848
G1 X37.96 E2213.114
G1 X37.729 Y83 E2213.137
G1 X83.02 E2215.397
G1 X82.665 Y82.6 E2215.424
G1 X37.498 E2217.677
G1 X37.267 Y82.2 E2217.7
G1 X82.309 E2219.947
G1 X81.954 Y81.8 E2219.974
G1 X37.036 E2222.215
G1 X36.805 Y81.4 E2222.238
G1 X81.599 E2224.473
G1 X81.243 Y81 E2224.499
G1 X36.574 E2226.728
G1 X36.343 Y80.6 E2226.751
G1 X80.888 E2228.973
G1 X80.533 Y80.2 E2229
G1 X36.112 E2231.216
G1 X35.881 Y79.8 E2231.239
G1 X80.19 E2233.45
G1 X79.858 Y79.4 E2233.476
G1 X35.65 E2235.681
G1 X35.419 Y79 E2235.704
G1 X79.526 E2237.905
G1 X79.194 Y78.6 E2237.931
G1 X35.188 E2240.126
G1 X34.957 Y78.2 E2240.149
G1 X78.862 E2242.34
G1 X78.53 Y77.8 E2242.365
G1 X34.726 E2244.551
G1 X34.496 Y77.4 E2244.574
G1 X78.198 E2246.754
G1 X77.866 Y77 E2246.78
G1 X34.265 E2248.956
G1 X34.034 Y76.6 E2248.979
G1 X77.534 E2251.149
G1 X77.217 Y76.2 E2251.174
G1 X33.803 E2253.34
G1 X33.572 Y75.8 E2253.363
G1 X76.907 E2255.525
G1 X76.596 Y75.4 E2255.551
G1 X33.341 E2257.708
G1 X33.11 Y75 E2257.732
G1 X76.286 E2259.886
G1 X75.976 Y74.6 E2259.911
G1 X32.879 E2262.061
G1 X32.648 Y74.2 E2262.084
G1 X75.665 E2264.23
G1 X75.355 Y73.8 E2264.255
G1 X32.417 E2266.398
G1 X32.626 Y73.4 E2266.42
G1 X75.044 E2268.536
G1 X74.734 Y73 E2268.562
G1 X33.315 E2270.628
G1 X34.004 Y72.6 E2270.668
G1 X74.435 E2272.685
G1 X74.145 Y72.2 E2272.71
G1 X51.023 E2273.863
G1 X51.712 Y71.8 E2273.903
G1 X73.855 E2275.008
G1 X73.566 Y71.4 E2275.032
G1 X52.4 E2276.088
G1 X53.089 Y71 E2276.128
G1 X73.276 E2277.135
G1 X72.986 Y70.6 E2277.16
G1 X53.327 E2278.14
G1 X52.99 Y70.2 E2278.167
G1 X72.697 E2279.15
G1 X72.407 Y69.8 E2279.174
G1 X52.653 E2280.16
G1 X52.315 Y69.4 E2280.186
G1 X72.117 E2281.174
G1 X71.831 Y69 E2281.198
G1 X51.978 E2282.189
G1 X51.641 Y68.6 E2282.215
G1 X71.561 E2283.209
G1 X71.291 Y68.2 E2283.233
G1 X51.303 E2284.23
G1 X50.966 Y67.8 E2284.256
G1 X71.021 E2285.257
G1 X70.751 Y67.4 E2285.281
G1 X50.629 E2286.285
G1 X50.291 Y67 E2286.311
G1 X70.481 E2287.318
G1 X70.211 Y66.6 E2287.342
G1 X44.337 E2288.633
G1 X45.026 Y66.2 E2288.673
G1 X69.941 E2289.916
G1 X69.671 Y65.8 E2289.94
G1 X45.714 E2291.135
G1 X46.403 Y65.4 E2291.175
G1 X69.401 E2292.322
G1 X69.142 Y65 E2292.346
G1 X47.092 E2293.446
G1 X47.781 Y64.6 E2293.486
G1 X68.891 E2294.539
G1 X68.64 Y64.2 E2294.563
G1 X48.47 E2295.569
G1 X49.159 Y63.8 E2295.609
G1 X68.389 E2296.568
G1 X68.138 Y63.4 E2296.592
G1 X49.848 E2297.504
G1 X50.536 Y63 E2297.544
G1 X67.887 E2298.409
G1 X67.636 Y62.6 E2298.433
G1 X51.225 E2299.252
G1 X51.914 Y62.2 E2299.292
G1 X67.384 E2300.063
G1 X67.133 Y61.8 E2300.087
G1 X52.603 E2300.812
G1 X53.292 Y61.4 E2300.852
G1 X66.882 E2301.53
G1 X66.642 Y61 E2301.553
G1 X53.981 E2302.185
G1 X54.67 Y60.6 E2302.224
G1 X66.404 E2302.81
G1 X66.167 Y60.2 E2302.833
G1 X55.358 E2303.372
G1 X56.047 Y59.8 E2303.412
G1 X65.93 E2303.905
G1 X65.693 Y59.4 E2303.928
G1 X56.736 E2304.375
G1 X57.425 Y59 E2304.415
G1 X65.456 E2304.815
G1 X65.219 Y58.6 E2304.839
G1 X58.114 E2305.193
G1 X58.803 Y58.2 E2305.233
G1 X64.982 E2305.541
G1 X64.744 Y57.8 E2305.564
G1 X59.492 E2305.826
G1 X60.18 Y57.4 E2305.866
G1 X64.507 E2306.082
G1 X64.27 Y57 E2306.105
G1 X60.869 E2306.275
G1 X61.558 Y56.6 E2306.315
G1 X64.033 E2306.438
G1 X63.796 Y56.2 E2306.461
G1 X62.247 E2306.539
G1 X62.936 Y55.8 E2306.578
G1 X63.559 E2306.609
;bead-raft
;rapid-leaky
G1 F15000
G0 X49.886 Y67
;bead-raft
G1 X43.648 F3600 E2306.921
G1 X42.959 Y67.4 E2306.96
G1 X49.198 E2307.271
G1 X48.707 Y67.685 E2307.3
G1 X48.749 Y67.8 E2307.306
G1 X42.27 E2307.629
G1 X41.581 Y68.2 E2307.669
G1 X48.896 E2308.034
G1 X49.043 Y68.6 E2308.055
G1 X40.892 E2308.462
G1 X40.203 Y69 E2308.501
G1 X49.189 E2308.95
G1 X49.336 Y69.4 E2308.971
G1 X39.515 E2309.461
G1 X38.826 Y69.8 E2309.501
G1 X49.483 E2310.032
G1 X49.629 Y70.2 E2310.054
G1 X38.137 E2310.627
G1 X37.448 Y70.6 E2310.667
G1 X49.776 E2311.282
G1 X49.923 Y71 E2311.303
G1 X36.759 E2311.96
G1 X36.07 Y71.4 E2312
G1 X50.069 E2312.698
G1 X50.216 Y71.8 E2312.719
G1 X35.381 E2313.459
G1 X34.693 Y72.2 E2313.499
G1 X50.363 E2314.281
;bead-raft
;rapid-leaky
G1 F15000
G0 X46.967 Y99
;bead-raft
G1 X173.034 F3600 E2320.571
G1 X172.803 Y99.4 E2320.594
G1 X47.198 E2326.86
G1 X47.429 Y99.8 E2326.883
G1 X172.572 E2333.126
G1 X172.341 Y100.2 E2333.149
G1 X47.66 E2339.37
G1 X47.891 Y100.6 E2339.393
G1 X172.111 E2345.59
G1 X171.88 Y101 E2345.613
G1 X48.122 E2351.788
G1 X48.353 Y101.4 E2351.811
G1 X171.649 E2357.962
G1 X171.418 Y101.8 E2357.985
G1 X48.584 E2364.113
G1 X48.815 Y102.2 E2364.136
G1 X171.187 E2370.241
G1 X170.956 Y102.6 E2370.264
G1 X49.046 E2376.347
G1 X49.277 Y103 E2376.37
G1 X170.725 E2382.429
G1 X170.494 Y103.4 E2382.452
G1 X49.507 E2388.488
G1 X49.738 Y103.8 E2388.511
G1 X170.263 E2394.524
G1 X170.032 Y104.2 E2394.547
G1 X49.969 E2400.537
G1 X50.2 Y104.6 E2400.56
G1 X169.801 E2406.527
G1 X169.57 Y105 E2406.55
G1 X50.431 E2412.494
G1 X50.662 Y105.4 E2412.517
G1 X169.339 E2418.438
G1 X169.108 Y105.8 E2418.461
G1 X50.893 E2424.358
G1 X51.124 Y106.2 E2424.381
G1 X168.877 E2430.256
G1 X168.646 Y106.6 E2430.279
G1 X51.355 E2436.131
G1 X51.586 Y107 E2436.154
G1 X168.415 E2441.983
G1 X168.184 Y107.4 E2442.006
G1 X51.817 E2447.811
G1 X52.048 Y107.8 E2447.834
G1 X167.954 E2453.617
G1 X167.723 Y108.2 E2453.64
G1 X52.279 E2459.399
G1 X52.51 Y108.6 E2459.422
G1 X167.492 E2465.159
G1 X167.261 Y109 E2465.182
G1 X52.741 E2470.895
G1 X52.972 Y109.4 E2470.918
G1 X167.03 E2476.609
G1 X166.799 Y109.8 E2476.632
G1 X53.203 E2482.299
G1 X53.434 Y110.2 E2482.322
G1 X166.568 E2487.967
G1 X166.337 Y110.6 E2487.99
G1 X53.665 E2493.611
G1 X53.896 Y111 E2493.634
G1 X166.106 E2499.232
G1 X165.875 Y111.4 E2499.255
G1 X54.127 E2504.83
G1 X54.357 Y111.8 E2504.853
G1 X165.644 E2510.405
G1 X165.413 Y112.2 E2510.428
G1 X54.588 E2515.958
G1 X54.819 Y112.6 E2515.98
G1 X165.182 E2521.487
G1 X164.951 Y113 E2521.51
G1 X55.05 E2526.993
G1 X55.281 Y113.4 E2527.016
G1 X164.72 E2532.476
G1 X164.489 Y113.8 E2532.499
G1 X55.512 E2537.936
G1 X55.743 Y114.2 E2537.958
G1 X164.258 E2543.372
G1 X164.027 Y114.6 E2543.396
G1 X55.974 E2548.786
G1 X56.205 Y115 E2548.809
G1 X163.797 E2554.177
G1 X163.566 Y115.4 E2554.2
G1 X56.436 E2559.545
G1 X56.667 Y115.8 E2559.568
G1 X163.335 E2564.889
G1 X163.104 Y116.2 E2564.913
G1 X56.898 E2570.211
G1 X57.129 Y116.6 E2570.234
G1 X162.873 E2575.51
G1 X162.642 Y117 E2575.533
G1 X57.36 E2580.785
G1 X57.591 Y117.4 E2580.808
G1 X162.411 E2586.038
G1 X162.18 Y117.8 E2586.061
G1 X57.822 E2591.267
G1 X58.053 Y118.2 E2591.291
G1 X161.949 E2596.474
G1 X161.718 Y118.6 E2596.497
G1 X58.284 E2601.657
G1 X58.515 Y119 E2601.68
G1 X161.487 E2606.818
G1 X161.256 Y119.4 E2606.841
G1 X58.746 E2611.955
G1 X58.977 Y119.8 E2611.978
G1 X161.025 E2617.069
G1 X160.794 Y120.2 E2617.092
G1 X59.207 E2622.16
G1 X59.438 Y120.6 E2622.183
G1 X160.563 E2627.229
G1 X160.332 Y121 E2627.252
G1 X59.669 E2632.274
G1 X59.9 Y121.4 E2632.297
G1 X160.101 E2637.296
G1 X159.87 Y121.8 E2637.319
G1 X60.131 E2642.295
G1 X60.362 Y122.2 E2642.318
G1 X159.639 E2647.271
G1 X159.409 Y122.6 E2647.294
G1 X60.593 E2652.224
G1 X60.824 Y123 E2652.247
G1 X159.178 E2657.154
G1 X158.947 Y123.4 E2657.177
G1 X61.055 E2662.061
G1 X61.286 Y123.8 E2662.084
G1 X158.716 E2666.944
G1 X158.485 Y124.2 E2666.968
G1 X61.517 E2671.805
G1 X61.748 Y124.6 E2671.828
G1 X158.254 E2676.643
G1 X158.023 Y125 E2676.666
G1 X61.979 E2681.458
G1 X62.21 Y125.4 E2681.481
G1 X157.792 E2686.249
G1 X157.561 Y125.8 E2686.272
G1 X62.441 E2691.018
G1 X62.672 Y126.2 E2691.041
G1 X157.33 E2695.763
G1 X157.099 Y126.6 E2695.787
G1 X62.903 E2700.486
G1 X63.134 Y127 E2700.509
G1 X156.868 E2705.186
G1 X156.637 Y127.4 E2705.208
G1 X63.365 E2709.862
G1 X63.596 Y127.8 E2709.885
G1 X156.406 E2714.515
G1 X156.175 Y128.2 E2714.538
G1 X63.827 E2719.146
G1 X64.057 Y128.6 E2719.169
G1 X155.944 E2723.753
G1 X155.713 Y129 E2723.776
G1 X64.288 E2728.337
G1 X64.519 Y129.4 E2728.36
G1 X155.482 E2732.898
G1 X155.252 Y129.8 E2732.921
G1 X64.75 E2737.437
G1 X64.981 Y130.2 E2737.46
G1 X155.021 E2741.952
G1 X154.79 Y130.6 E2741.975
G1 X65.212 E2746.444
G1 X65.443 Y131 E2746.467
G1 X154.559 E2750.913
G1 X154.328 Y131.4 E2750.936
G1 X65.674 E2755.359
G1 X65.905 Y131.8 E2755.382
G1 X154.097 E2759.782
G1 X153.866 Y132.2 E2759.805
G1 X66.136 E2764.182
G1 X66.367 Y132.6 E2764.205
G1 X153.635 E2768.559
G1 X153.404 Y133 E2768.582
G1 X66.598 E2772.912
G1 X66.829 Y133.4 E2772.935
G1 X153.173 E2777.243
G1 X152.942 Y133.8 E2777.266
G1 X67.06 E2781.551
G1 X67.291 Y134.2 E2781.574
G1 X152.711 E2785.835
G1 X152.48 Y134.6 E2785.859
G1 X67.522 E2790.097
G1 X67.753 Y135 E2790.12
G1 X152.249 E2794.336
G1 X152.018 Y135.4 E2794.359
G1 X67.984 E2798.551
G1 X68.215 Y135.8 E2798.574
G1 X151.787 E2802.744
G1 X151.556 Y136.2 E2802.767
G1 X68.446 E2806.913
G1 X68.677 Y136.6 E2806.936
G1 X151.325 E2811.06
G1 X151.094 Y137 E2811.083
G1 X68.907 E2815.183
G1 X69.138 Y137.4 E2815.206
G1 X150.864 E2819.283
G1 X150.633 Y137.8 E2819.306
G1 X69.369 E2823.361
G1 X69.6 Y138.2 E2823.384
G1 X150.402 E2827.415
G1 X150.171 Y138.6 E2827.438
G1 X69.831 E2831.446
G1 X70.062 Y139 E2831.469
G1 X149.94 E2835.454
G1 X149.709 Y139.4 E2835.477
G1 X70.293 E2839.439
G1 X70.524 Y139.8 E2839.462
G1 X149.478 E2843.401
G1 X149.247 Y140.2 E2843.424
G1 X70.755 E2847.34
G1 X70.986 Y140.6 E2847.364
G1 X149.016 E2851.256
G1 X148.785 Y141 E2851.28
G1 X71.217 E2855.149
G1 X71.448 Y141.4 E2855.172
G1 X148.554 E2859.019
G1 X148.323 Y141.8 E2859.042
G1 X71.679 E2862.866
G1 X71.91 Y142.2 E2862.889
G1 X148.092 E2866.69
G1 X147.861 Y142.6 E2866.713
G1 X72.141 E2870.49
G1 X72.372 Y143 E2870.514
G1 X147.63 E2874.268
G1 X147.399 Y143.4 E2874.291
G1 X72.603 E2878.023
G1 X72.834 Y143.8 E2878.046
G1 X147.168 E2881.755
G1 X146.937 Y144.2 E2881.778
G1 X73.065 E2885.463
G1 X73.296 Y144.6 E2885.486
G1 X146.707 E2889.149
G1 X146.476 Y145 E2889.172
G1 X73.527 E2892.811
G1 X73.757 Y145.4 E2892.834
G1 X146.245 E2896.451
G1 X146.014 Y145.8 E2896.474
G1 X73.988 E2900.067
G1 X74.219 Y146.2 E2900.09
G1 X145.783 E2903.66
G1 X145.552 Y146.6 E2903.683
G1 X74.45 E2907.231
G1 X74.681 Y147 E2907.254
G1 X145.321 E2910.778
G1 X145.09 Y147.4 E2910.801
G1 X74.912 E2914.302
G1 X75.143 Y147.8 E2914.325
G1 X144.859 E2917.803
G1 X144.628 Y148.2 E2917.826
G1 X75.374 E2921.281
G1 X75.605 Y148.6 E2921.304
G1 X144.397 E2924.737
G1 X144.166 Y149 E2924.76
G1 X75.836 E2928.169
G1 X76.067 Y149.4 E2928.192
G1 X143.935 E2931.578
G1 X143.704 Y149.8 E2931.601
G1 X76.298 E2934.964
G1 X76.529 Y150.2 E2934.987
G1 X143.473 E2938.326
G1 X143.242 Y150.6 E2938.35
G1 X76.76 E2941.666
G1 X76.991 Y151 E2941.689
G1 X143.011 E2944.983
G1 X142.78 Y151.4 E2945.006
G1 X77.222 E2948.277
G1 X77.453 Y151.8 E2948.3
G1 X142.55 E2951.548
G1 X142.319 Y152.2 E2951.571
G1 X77.684 E2954.795
G1 X77.915 Y152.6 E2954.818
G1 X142.088 E2958.02
G1 X141.857 Y153 E2958.043
G1 X78.146 E2961.222
G1 X78.377 Y153.4 E2961.245
G1 X141.626 E2964.4
G1 X141.395 Y153.8 E2964.423
G1 X78.607 E2967.556
G1 X78.838 Y154.2 E2967.579
G1 X141.164 E2970.688
G1 X140.933 Y154.6 E2970.711
G1 X79.069 E2973.798
G1 X79.3 Y155 E2973.821
G1 X140.702 E2976.884
G1 X140.471 Y155.4 E2976.907
G1 X79.531 E2979.947
G1 X79.786 Y155.8 E2979.971
G1 X140.215 E2982.986
G1 X139.953 Y156.2 E2983.01
G1 X80.048 E2985.998
G1 X80.333 Y156.6 E2986.023
G1 X139.668 E2988.983
G1 X139.363 Y157 E2989.008
G1 X80.637 E2991.938
G1 X80.958 Y157.4 E2991.964
G1 X139.043 E2994.861
G1 X138.689 Y157.8 E2994.888
G1 X81.312 E2997.75
G1 X81.677 Y158.2 E2997.778
G1 X138.323 E3000.604
G1 X137.915 Y158.6 E3000.632
G1 X82.085 E3003.417
G1 X82.509 Y159 E3003.447
G1 X137.49 E3006.19
G1 X137.02 Y159.4 E3006.22
G1 X82.981 E3008.917
G1 X83.488 Y159.8 E3008.949
G1 X136.514 E3011.594
G1 X135.966 Y160.2 E3011.628
G1 X84.035 E3014.219
G1 X84.655 Y160.6 E3014.256
G1 X135.345 E3016.785
G1 X134.668 Y161 E3016.824
G1 X85.333 E3019.285
G1 X86.09 Y161.4 E3019.328
G1 X133.911 E3021.714
G1 X133.006 Y161.8 E3021.763
G1 X86.995 E3024.059
G1 X88.091 Y162.2 E3024.117
G1 X131.909 E3026.303
G1 X129.736 Y162.731 E3026.415
G1 X129.676 Y162.743 E3026.417
G1 X128.574 Y162.885 E3026.473
G1 X128.188 Y162.906 E3026.492
G1 X130.383 Y162.6 E3026.603
G1 X89.616 E3028.637
;bead-raft
G1 F1800 E3028.137
;Layer : 5 of 86
;rapid-dry
G1 F15000
G0 X90.513 Y157.175 Z1.7
G1 F1800 E3028.637
;bead-perimeter_inner
G1 X89.815 Y156.981 F780 E3028.673
G1 X89.133 Y156.737 E3028.709
G1 X88.472 Y156.445 E3028.745
G1 X87.828 Y156.103 E3028.781
G1 X87.222 Y155.723 E3028.817
G1 X86.639 Y155.297 E3028.853
G1 X86.09 Y154.831 E3028.889
G1 X85.573 Y154.324 E3028.925
G1 X85.089 Y153.776 E3028.962
G1 X84.657 Y153.208 E3028.997
G1 X84.26 Y152.602 E3029.033
G1 X39.795 Y75.591 E3033.47
G1 X44.708 Y72.739 E3033.753
G1 X47.575 Y80.557 E3034.169
G1 X61.898 Y72.239 E3034.995
G1 X56.53 Y65.874 E3035.411
G1 X61.449 Y63.017 E3035.694
G1 X62.128 Y64.163 E3035.761
G1 X64.682 Y68.23 E3036
G1 X67.371 Y72.214 E3036.24
G1 X70.185 Y76.101 E3036.479
G1 X73.136 Y79.905 E3036.72
G1 X76.206 Y83.604 E3036.96
G1 X79.457 Y87.263 E3037.204
G1 X82.718 Y90.701 E3037.44
G1 X86.122 Y94.06 E3037.679
G1 X88.041 Y95.86 E3037.81
G1 X88.797 Y96.534 E3037.861
G1 X90.54 Y97.938 E3037.972
G1 X92.32 Y99.181 E3038.081
G1 X94.194 Y100.309 E3038.19
G1 X96.182 Y101.327 E3038.301
G1 X98.215 Y102.196 E3038.411
G1 X100.303 Y102.923 E3038.522
G1 X102.434 Y103.507 E3038.632
G1 X104.603 Y103.941 E3038.742
G1 X106.794 Y104.227 E3038.853
G1 X108.988 Y104.36 E3038.962
G1 X109.983 Y104.371 E3039.012
G1 X111.01 Y104.36 E3039.063
G1 X113.207 Y104.227 E3039.173
G1 X115.397 Y103.941 E3039.283
G1 X117.562 Y103.508 E3039.393
G1 X119.697 Y102.923 E3039.504
G1 X121.785 Y102.196 E3039.614
G1 X123.817 Y101.328 E3039.724
G1 X125.822 Y100.299 E3039.837
G1 X127.68 Y99.181 E3039.945
G1 X129.492 Y97.916 E3040.055
G1 X131.203 Y96.534 E3040.165
G1 X131.959 Y95.86 E3040.215
G1 X133.878 Y94.06 E3040.347
G1 X137.295 Y90.687 E3040.586
G1 X140.556 Y87.249 E3040.823
G1 X143.789 Y83.61 E3041.065
G1 X146.842 Y79.931 E3041.304
G1 X149.809 Y76.107 E3041.545
G1 X152.63 Y72.213 E3041.785
G1 X155.318 Y68.23 E3042.025
G1 X157.869 Y64.168 E3042.264
G1 X158.55 Y63.017 E3042.331
G1 X163.47 Y65.874 E3042.615
G1 X158.102 Y72.239 E3043.03
G1 X172.425 Y80.557 E3043.857
G1 X175.292 Y72.739 E3044.272
G1 X180.205 Y75.591 E3044.555
G1 X135.748 Y152.591 E3048.991
G1 X135.339 Y153.213 E3049.029
G1 X134.906 Y153.783 E3049.064
G1 X134.427 Y154.324 E3049.1
G1 X133.911 Y154.83 E3049.136
G1 X133.356 Y155.301 E3049.173
G1 X132.783 Y155.72 E3049.208
G1 X132.165 Y156.108 E3049.244
G1 X131.527 Y156.445 E3049.281
G1 X130.863 Y156.739 E3049.317
G1 X130.188 Y156.98 E3049.352
G1 X129.504 Y157.171 E3049.388
G1 X128.782 Y157.318 E3049.425
G1 X128.069 Y157.41 E3049.46
G1 X127.343 Y157.45 E3049.497
G1 X92.857 Y157.452 E3051.217
G1 X91.934 Y157.41 E3051.263
G1 X91.215 Y157.318 E3051.3
G1 X90.513 Y157.175 E3051.335
;rapid-leaky
G1 F15000
G0 X90.427 Y157.53
;bead-perimeter_inner
G1 X89.704 Y157.329 F780 E3051.373
G1 X88.998 Y157.077 E3051.41
G1 X88.312 Y156.774 E3051.448
G1 X87.645 Y156.419 E3051.485
G1 X87.017 Y156.026 E3051.522
G1 X86.413 Y155.584 E3051.56
G1 X85.843 Y155.101 E3051.597
G1 X85.308 Y154.575 E3051.634
G1 X84.807 Y154.008 E3051.672
G1 X84.359 Y153.419 E3051.709
G1 X83.95 Y152.795 E3051.746
G1 X39.297 Y75.458 E3056.201
G1 X44.9 Y72.205 E3056.525
G1 X47.767 Y80.023 E3056.94
G1 X61.338 Y72.142 E3057.723
G1 X55.97 Y65.777 E3058.138
G1 X61.579 Y62.52 E3058.462
G1 X62.44 Y63.972 E3058.546
G1 X64.988 Y68.03 E3058.785
G1 X67.67 Y72.005 E3059.024
G1 X70.477 Y75.882 E3059.263
G1 X73.421 Y79.676 E3059.503
G1 X76.483 Y83.366 E3059.742
G1 X79.726 Y87.016 E3059.986
G1 X82.979 Y90.445 E3060.221
G1 X86.375 Y93.797 E3060.46
G1 X88.287 Y95.59 E3060.59
G1 X89.033 Y96.256 E3060.64
G1 X90.759 Y97.646 E3060.751
G1 X92.518 Y98.875 E3060.858
G1 X94.372 Y99.99 E3060.966
G1 X96.337 Y100.996 E3061.076
G1 X98.347 Y101.856 E3061.185
G1 X100.411 Y102.575 E3061.294
G1 X102.519 Y103.152 E3061.403
G1 X104.662 Y103.581 E3061.512
G1 X106.829 Y103.863 E3061.621
G1 X109.002 Y103.995 E3061.73
G1 X109.983 Y104.006 E3061.779
G1 X110.997 Y103.995 E3061.829
G1 X113.172 Y103.863 E3061.938
G1 X115.338 Y103.581 E3062.047
G1 X117.478 Y103.153 E3062.156
G1 X119.589 Y102.575 E3062.265
G1 X121.653 Y101.856 E3062.374
G1 X123.661 Y100.997 E3062.483
G1 X125.645 Y99.98 E3062.594
G1 X127.482 Y98.875 E3062.701
G1 X129.272 Y97.624 E3062.81
G1 X130.967 Y96.255 E3062.919
G1 X131.713 Y95.59 E3062.969
G1 X133.625 Y93.797 E3063.1
G1 X137.034 Y90.431 E3063.339
G1 X140.287 Y87.002 E3063.574
G1 X143.512 Y83.372 E3063.817
G1 X146.557 Y79.702 E3064.054
G1 X149.517 Y75.888 E3064.295
G1 X152.331 Y72.004 E3064.535
G1 X155.012 Y68.03 E3064.774
G1 X157.557 Y63.977 E3065.013
G1 X158.421 Y62.52 E3065.097
G1 X164.03 Y65.777 E3065.421
G1 X158.662 Y72.142 E3065.836
G1 X172.233 Y80.023 E3066.619
G1 X175.1 Y72.205 E3067.034
G1 X180.703 Y75.458 E3067.358
G1 X136.059 Y152.782 E3071.812
G1 X135.637 Y153.424 E3071.851
G1 X135.188 Y154.014 E3071.887
G1 X134.692 Y154.575 E3071.925
G1 X134.158 Y155.1 E3071.962
G1 X133.582 Y155.588 E3072
G1 X132.988 Y156.023 E3072.037
G1 X132.348 Y156.424 E3072.074
G1 X131.687 Y156.774 E3072.112
G1 X130.998 Y157.079 E3072.149
G1 X130.298 Y157.328 E3072.186
G1 X129.589 Y157.526 E3072.223
G1 X128.842 Y157.678 E3072.261
G1 X128.103 Y157.773 E3072.298
G1 X127.353 Y157.815 E3072.336
G1 X92.855 Y157.817 E3074.057
G1 X91.9 Y157.773 E3074.104
G1 X91.156 Y157.678 E3074.142
G1 X90.427 Y157.53 E3074.179
;rapid-leaky
G1 F15000
G0 X90.342 Y157.885
;bead-perimeter_inner
G1 X89.594 Y157.677 F780 E3074.218
G1 X88.862 Y157.416 E3074.257
G1 X88.153 Y157.102 E3074.295
G1 X87.462 Y156.736 E3074.334
G1 X86.812 Y156.328 E3074.373
G1 X86.187 Y155.871 E3074.411
G1 X85.597 Y155.37 E3074.45
G1 X85.043 Y154.827 E3074.489
G1 X84.524 Y154.24 E3074.528
G1 X84.061 Y153.63 E3074.566
G1 X83.64 Y152.988 E3074.604
G1 X38.799 Y75.326 E3079.078
G1 X45.093 Y71.671 E3079.441
G1 X47.96 Y79.489 E3079.857
G1 X60.779 Y72.044 E3080.596
G1 X55.411 Y65.679 E3081.012
G1 X61.709 Y62.023 E3081.375
G1 X62.752 Y63.782 E3081.477
G1 X65.293 Y67.831 E3081.716
G1 X67.969 Y71.796 E3081.954
G1 X70.769 Y75.663 E3082.192
G1 X73.705 Y79.448 E3082.431
G1 X76.76 Y83.128 E3082.67
G1 X79.995 Y86.769 E3082.913
G1 X83.24 Y90.19 E3083.148
G1 X86.628 Y93.534 E3083.386
G1 X88.534 Y95.321 E3083.516
G1 X89.27 Y95.977 E3083.565
G1 X90.979 Y97.354 E3083.675
G1 X92.717 Y98.568 E3083.781
G1 X94.549 Y99.671 E3083.887
G1 X96.492 Y100.666 E3083.996
G1 X98.479 Y101.515 E3084.104
G1 X100.519 Y102.226 E3084.212
G1 X102.603 Y102.796 E3084.319
G1 X104.722 Y103.221 E3084.427
G1 X106.863 Y103.5 E3084.535
G1 X109.015 Y103.63 E3084.643
G1 X109.983 Y103.641 E3084.691
G1 X110.984 Y103.63 E3084.741
G1 X113.138 Y103.5 E3084.848
G1 X115.278 Y103.221 E3084.956
G1 X117.394 Y102.797 E3085.064
G1 X119.481 Y102.226 E3085.172
G1 X121.521 Y101.515 E3085.28
G1 X123.506 Y100.667 E3085.387
G1 X125.467 Y99.661 E3085.497
G1 X127.283 Y98.568 E3085.603
G1 X129.053 Y97.332 E3085.711
G1 X130.731 Y95.977 E3085.818
G1 X131.466 Y95.321 E3085.867
G1 X133.372 Y93.534 E3085.998
G1 X136.774 Y90.176 E3086.236
G1 X140.018 Y86.755 E3086.471
G1 X143.235 Y83.134 E3086.713
G1 X146.273 Y79.474 E3086.95
G1 X149.225 Y75.669 E3087.191
G1 X152.032 Y71.795 E3087.429
G1 X154.707 Y67.831 E3087.668
G1 X157.245 Y63.787 E3087.906
G1 X158.291 Y62.023 E3088.008
G1 X164.589 Y65.679 E3088.372
G1 X159.221 Y72.044 E3088.787
G1 X172.04 Y79.489 E3089.527
G1 X174.907 Y71.671 E3089.942
G1 X181.201 Y75.326 E3090.305
G1 X136.37 Y152.974 E3094.778
G1 X135.936 Y153.635 E3094.818
G1 X135.47 Y154.246 E3094.856
G1 X134.957 Y154.827 E3094.895
G1 X134.404 Y155.369 E3094.934
G1 X133.808 Y155.875 E3094.972
G1 X133.193 Y156.325 E3095.01
G1 X132.53 Y156.74 E3095.05
G1 X131.846 Y157.102 E3095.088
G1 X131.133 Y157.418 E3095.127
G1 X130.409 Y157.676 E3095.166
G1 X129.675 Y157.881 E3095.203
G1 X128.902 Y158.038 E3095.243
G1 X128.136 Y158.137 E3095.281
G1 X127.363 Y158.18 E3095.32
G1 X92.853 Y158.182 E3097.042
G1 X91.867 Y158.137 E3097.091
G1 X91.096 Y158.038 E3097.13
G1 X90.342 Y157.885 E3097.168
;rapid-leaky
G1 F15000
G0 X90.257 Y158.24
;bead-perimeter_outer
G1 X89.484 Y158.025 F540 E3097.208
G1 X88.727 Y157.755 E3097.248
G1 X87.993 Y157.431 E3097.288
G1 X87.279 Y157.052 E3097.329
G1 X86.607 Y156.63 E3097.368
G1 X85.961 Y156.158 E3097.408
G1 X85.351 Y155.64 E3097.448
G1 X84.778 Y155.078 E3097.488
G1 X84.242 Y154.471 E3097.528
G1 X83.762 Y153.84 E3097.568
G1 X83.212 Y152.981 E3097.619
G1 X38.301 Y75.193 E3102.1
G1 X45.286 Y71.137 E3102.503
G1 X48.153 Y78.955 E3102.918
G1 X60.22 Y71.947 E3103.615
G1 X54.852 Y65.582 E3104.03
G1 X61.838 Y61.525 E3104.433
G1 X63.063 Y63.592 E3104.553
G1 X65.599 Y67.632 E3104.791
G1 X68.268 Y71.587 E3105.029
G1 X71.061 Y75.444 E3105.267
G1 X73.99 Y79.219 E3105.505
G1 X77.037 Y82.89 E3105.743
G1 X80.264 Y86.522 E3105.985
G1 X83.5 Y89.934 E3106.22
G1 X86.881 Y93.271 E3106.457
G1 X88.78 Y95.052 E3106.587
G1 X89.506 Y95.699 E3106.635
G1 X91.198 Y97.062 E3106.744
G1 X92.916 Y98.262 E3106.848
G1 X94.727 Y99.352 E3106.954
G1 X96.647 Y100.335 E3107.062
G1 X98.611 Y101.175 E3107.168
G1 X100.628 Y101.877 E3107.274
G1 X102.687 Y102.441 E3107.381
G1 X104.781 Y102.86 E3107.488
G1 X106.898 Y103.136 E3107.594
G1 X109.028 Y103.265 E3107.7
G1 X109.983 Y103.276 E3107.748
G1 X110.971 Y103.265 E3107.798
G1 X113.103 Y103.136 E3107.904
G1 X115.219 Y102.86 E3108.01
G1 X117.31 Y102.442 E3108.117
G1 X119.372 Y101.877 E3108.224
G1 X121.389 Y101.175 E3108.33
G1 X123.351 Y100.336 E3108.437
G1 X125.289 Y99.342 E3108.545
G1 X127.084 Y98.262 E3108.65
G1 X128.833 Y97.04 E3108.756
G1 X130.494 Y95.699 E3108.863
G1 X131.22 Y95.052 E3108.911
G1 X133.119 Y93.271 E3109.041
G1 X136.513 Y89.92 E3109.279
G1 X139.749 Y86.508 E3109.514
G1 X142.958 Y82.896 E3109.755
G1 X145.988 Y79.245 E3109.991
G1 X148.933 Y75.45 E3110.231
G1 X151.733 Y71.586 E3110.469
G1 X154.401 Y67.632 E3110.707
G1 X156.934 Y63.597 E3110.945
G1 X158.162 Y61.525 E3111.065
G1 X165.148 Y65.582 E3111.468
G1 X159.78 Y71.947 E3111.883
G1 X171.847 Y78.955 E3112.58
G1 X174.714 Y71.137 E3112.995
G1 X181.699 Y75.193 E3113.398
G1 X136.681 Y153.165 E3117.89
G1 X136.234 Y153.846 E3117.93
G1 X135.752 Y154.478 E3117.97
G1 X135.222 Y155.078 E3118.01
G1 X134.65 Y155.639 E3118.05
G1 X134.034 Y156.162 E3118.09
G1 X133.398 Y156.627 E3118.13
G1 X132.713 Y157.057 E3118.17
G1 X132.006 Y157.431 E3118.21
G1 X131.269 Y157.757 E3118.25
G1 X130.519 Y158.024 E3118.29
G1 X129.76 Y158.236 E3118.329
G1 X128.961 Y158.399 E3118.37
G1 X128.17 Y158.501 E3118.41
G1 X127.373 Y158.545 E3118.449
G1 X92.852 Y158.547 E3120.172
G1 X91.833 Y158.501 E3120.223
G1 X91.037 Y158.399 E3120.263
G1 X90.257 Y158.24 E3120.302
G1 F1800 E3119.802
;rapid-dry
G1 F15000
G0 X107.892 Y149.659
G1 F1800 E3120.302
;bead-perimeter_inner
G1 X108.03 Y149.934 F780 E3120.318
G1 X108.211 Y150.188 E3120.333
G1 X108.367 Y150.363 E3120.345
G1 X108.691 Y150.639 E3120.366
G1 X109.017 Y150.827 E3120.385
G1 X109.421 Y150.972 E3120.406
G1 X109.654 Y151.018 E3120.418
G1 X109.934 Y151.043 E3120.432
G1 X110.145 Y151.04 E3120.443
G1 X110.455 Y151.001 E3120.458
G1 X110.775 Y150.911 E3120.475
G1 X111.059 Y150.786 E3120.49
G1 X111.375 Y150.587 E3120.509
G1 X111.629 Y150.373 E3120.526
G1 X111.914 Y150.022 E3120.548
G1 X112.086 Y149.713 E3120.566
G1 X112.196 Y149.423 E3120.581
G1 X112.243 Y149.24 E3120.591
G1 X112.277 Y149.053 E3120.6
G1 X112.298 Y148.746 E3120.615
G1 X112.277 Y148.44 E3120.631
G1 X112.196 Y148.07 E3120.65
G1 X112.085 Y147.778 E3120.665
G1 X111.912 Y147.468 E3120.683
G1 X111.628 Y147.122 E3120.705
G1 X111.373 Y146.905 E3120.722
G1 X111.196 Y146.787 E3120.733
G1 X110.95 Y146.656 E3120.747
G1 X110.73 Y146.568 E3120.759
G1 X110.313 Y146.468 E3120.78
G1 X109.958 Y146.449 E3120.798
G1 X109.644 Y146.477 E3120.813
G1 X109.438 Y146.521 E3120.824
G1 X109.173 Y146.604 E3120.838
G1 X108.976 Y146.691 E3120.848
G1 X108.689 Y146.857 E3120.865
G1 X108.361 Y147.136 E3120.886
G1 X108.204 Y147.315 E3120.898
G1 X108.03 Y147.564 E3120.914
G1 X107.893 Y147.834 E3120.928
G1 X107.816 Y148.034 E3120.939
G1 X107.736 Y148.348 E3120.955
G1 X107.7 Y148.746 E3120.975
G1 X107.735 Y149.149 E3120.996
G1 X107.817 Y149.462 E3121.012
G1 X107.892 Y149.659 E3121.022
;rapid-leaky
G1 F15000
G0 X108.226 Y149.511
;bead-perimeter_inner
G1 X108.344 Y149.745 F780 E3121.035
G1 X108.497 Y149.961 E3121.048
G1 X108.622 Y150.102 E3121.058
G1 X108.902 Y150.339 E3121.076
G1 X109.172 Y150.494 E3121.092
G1 X109.518 Y150.619 E3121.11
G1 X109.706 Y150.656 E3121.12
G1 X109.948 Y150.678 E3121.132
G1 X110.12 Y150.675 E3121.14
G1 X110.383 Y150.642 E3121.154
G1 X110.651 Y150.567 E3121.167
G1 X110.893 Y150.461 E3121.181
G1 X111.154 Y150.296 E3121.196
G1 X111.367 Y150.116 E3121.21
G1 X111.611 Y149.817 E3121.229
G1 X111.754 Y149.559 E3121.244
G1 X111.847 Y149.313 E3121.257
G1 X111.886 Y149.162 E3121.265
G1 X111.914 Y149.007 E3121.273
G1 X111.932 Y148.746 E3121.286
G1 X111.914 Y148.486 E3121.299
G1 X111.847 Y148.18 E3121.314
G1 X111.753 Y147.932 E3121.328
G1 X111.609 Y147.675 E3121.342
G1 X111.366 Y147.379 E3121.361
G1 X111.153 Y147.197 E3121.375
G1 X111.008 Y147.1 E3121.384
G1 X110.796 Y146.988 E3121.396
G1 X110.619 Y146.916 E3121.406
G1 X110.26 Y146.831 E3121.424
G1 X109.965 Y146.815 E3121.439
G1 X109.699 Y146.839 E3121.452
G1 X109.53 Y146.874 E3121.461
G1 X109.302 Y146.946 E3121.473
G1 X109.141 Y147.017 E3121.481
G1 X108.9 Y147.156 E3121.495
G1 X108.618 Y147.396 E3121.514
G1 X108.492 Y147.541 E3121.523
G1 X108.344 Y147.752 E3121.536
G1 X108.227 Y147.982 E3121.549
G1 X108.164 Y148.145 E3121.558
G1 X108.096 Y148.41 E3121.571
G1 X108.066 Y148.747 E3121.588
G1 X108.096 Y149.087 E3121.605
G1 X108.165 Y149.35 E3121.619
G1 X108.226 Y149.511 E3121.627
;rapid-leaky
G1 F15000
G0 X108.513 Y149.239
;bead-perimeter_inner
G1 X108.658 Y149.556 F780 E3121.645
G1 X108.878 Y149.84 E3121.663
G1 X109.113 Y150.039 E3121.678
G1 X109.326 Y150.162 E3121.69
G1 X109.616 Y150.266 E3121.706
G1 X109.758 Y150.294 E3121.713
G1 X110.094 Y150.311 E3121.73
G1 X110.31 Y150.283 E3121.741
G1 X110.528 Y150.222 E3121.752
G1 X110.727 Y150.135 E3121.763
G1 X110.933 Y150.005 E3121.775
G1 X111.106 Y149.859 E3121.786
G1 X111.308 Y149.611 E3121.802
G1 X111.422 Y149.405 E3121.814
G1 X111.498 Y149.203 E3121.825
G1 X111.551 Y148.962 E3121.837
G1 X111.566 Y148.746 E3121.848
G1 X111.551 Y148.531 E3121.859
G1 X111.499 Y148.29 E3121.871
G1 X111.422 Y148.087 E3121.882
G1 X111.306 Y147.881 E3121.894
G1 X111.105 Y147.636 E3121.909
G1 X110.932 Y147.488 E3121.921
G1 X110.642 Y147.319 E3121.938
G1 X110.508 Y147.265 E3121.945
G1 X110.208 Y147.194 E3121.96
G1 X109.971 Y147.181 E3121.972
G1 X109.623 Y147.228 E3121.989
G1 X109.307 Y147.342 E3122.006
G1 X109.112 Y147.456 E3122.017
G1 X108.875 Y147.657 E3122.033
G1 X108.78 Y147.766 E3122.04
G1 X108.657 Y147.94 E3122.051
G1 X108.513 Y148.256 E3122.068
G1 X108.457 Y148.472 E3122.079
G1 X108.433 Y148.747 E3122.093
G1 X108.457 Y149.024 E3122.107
G1 X108.513 Y149.239 E3122.118
;rapid-leaky
G1 F15000
G0 X108.861 Y149.128
;bead-perimeter_outer
G1 X108.971 Y149.367 F540 E3122.131
G1 X109.134 Y149.578 E3122.144
G1 X109.323 Y149.739 E3122.157
G1 X109.48 Y149.829 E3122.166
G1 X109.714 Y149.913 E3122.178
G1 X109.81 Y149.932 E3122.183
G1 X110.069 Y149.946 E3122.196
G1 X110.238 Y149.925 E3122.205
G1 X110.405 Y149.878 E3122.213
G1 X110.56 Y149.809 E3122.222
G1 X110.712 Y149.714 E3122.23
G1 X110.844 Y149.602 E3122.239
G1 X111.004 Y149.406 E3122.252
G1 X111.09 Y149.251 E3122.261
G1 X111.15 Y149.092 E3122.269
G1 X111.189 Y148.916 E3122.278
G1 X111.2 Y148.746 E3122.287
G1 X111.189 Y148.577 E3122.295
G1 X111.15 Y148.401 E3122.304
G1 X111.09 Y148.241 E3122.313
G1 X111.004 Y148.088 E3122.321
G1 X110.843 Y147.892 E3122.334
G1 X110.712 Y147.78 E3122.343
G1 X110.488 Y147.65 E3122.355
G1 X110.397 Y147.614 E3122.36
G1 X110.155 Y147.556 E3122.373
G1 X109.978 Y147.547 E3122.382
G1 X109.807 Y147.562 E3122.39
G1 X109.559 Y147.63 E3122.403
G1 X109.323 Y147.755 E3122.416
G1 X109.132 Y147.917 E3122.429
G1 X108.971 Y148.129 E3122.442
G1 X108.861 Y148.367 E3122.455
G1 X108.818 Y148.534 E3122.464
G1 X108.799 Y148.747 E3122.475
G1 X108.818 Y148.962 E3122.485
G1 X108.861 Y149.128 E3122.494
G1 F1800 E3121.994
;rapid-dry
G1 F15000
G0 X109.934 Y121.043
G1 F1800 E3122.494
;bead-perimeter_inner
G1 X110.145 Y121.04 F780 E3122.504
G1 X110.455 Y121.001 E3122.52
G1 X110.775 Y120.911 E3122.536
G1 X111.059 Y120.786 E3122.552
G1 X111.375 Y120.587 E3122.571
G1 X111.629 Y120.372 E3122.587
G1 X111.914 Y120.022 E3122.61
G1 X112.086 Y119.713 E3122.627
G1 X112.196 Y119.423 E3122.643
G1 X112.243 Y119.24 E3122.652
G1 X112.277 Y119.053 E3122.662
G1 X112.298 Y118.746 E3122.677
G1 X112.277 Y118.44 E3122.692
G1 X112.196 Y118.07 E3122.711
G1 X112.085 Y117.778 E3122.727
G1 X111.912 Y117.468 E3122.745
G1 X111.628 Y117.122 E3122.767
G1 X111.373 Y116.905 E3122.784
G1 X111.196 Y116.787 E3122.794
G1 X110.95 Y116.656 E3122.808
G1 X110.73 Y116.568 E3122.82
G1 X110.313 Y116.468 E3122.841
G1 X109.958 Y116.449 E3122.859
G1 X109.644 Y116.477 E3122.875
G1 X109.437 Y116.521 E3122.885
G1 X109.173 Y116.604 E3122.899
G1 X108.976 Y116.691 E3122.91
G1 X108.689 Y116.857 E3122.927
G1 X108.361 Y117.136 E3122.948
G1 X108.204 Y117.315 E3122.96
G1 X108.03 Y117.564 E3122.975
G1 X107.893 Y117.834 E3122.99
G1 X107.816 Y118.034 E3123.001
G1 X107.736 Y118.348 E3123.017
G1 X107.7 Y118.746 E3123.037
G1 X107.735 Y119.149 E3123.057
G1 X107.817 Y119.462 E3123.073
G1 X107.892 Y119.659 E3123.084
G1 X108.03 Y119.934 E3123.099
G1 X108.211 Y120.188 E3123.115
G1 X108.367 Y120.363 E3123.126
G1 X108.691 Y120.639 E3123.147
G1 X109.017 Y120.827 E3123.167
G1 X109.421 Y120.972 E3123.188
G1 X109.654 Y121.018 E3123.2
G1 X109.934 Y121.043 E3123.214
;rapid-leaky
G1 F15000
G0 X109.948 Y120.678
;bead-perimeter_inner
G1 X110.12 Y120.675 F780 E3123.222
G1 X110.383 Y120.642 E3123.235
G1 X110.651 Y120.567 E3123.249
G1 X110.893 Y120.461 E3123.262
G1 X111.154 Y120.296 E3123.278
G1 X111.367 Y120.116 E3123.292
G1 X111.611 Y119.817 E3123.311
G1 X111.754 Y119.559 E3123.326
G1 X111.847 Y119.313 E3123.339
G1 X111.886 Y119.162 E3123.347
G1 X111.914 Y119.007 E3123.354
G1 X111.932 Y118.746 E3123.368
G1 X111.914 Y118.486 E3123.381
G1 X111.847 Y118.18 E3123.396
G1 X111.753 Y117.932 E3123.409
G1 X111.609 Y117.675 E3123.424
G1 X111.366 Y117.379 E3123.443
G1 X111.153 Y117.197 E3123.457
G1 X111.008 Y117.1 E3123.466
G1 X110.796 Y116.988 E3123.478
G1 X110.619 Y116.916 E3123.488
G1 X110.26 Y116.831 E3123.506
G1 X109.965 Y116.815 E3123.521
G1 X109.699 Y116.839 E3123.534
G1 X109.53 Y116.874 E3123.542
G1 X109.302 Y116.946 E3123.554
G1 X109.141 Y117.017 E3123.563
G1 X108.9 Y117.156 E3123.577
G1 X108.618 Y117.396 E3123.596
G1 X108.492 Y117.541 E3123.605
G1 X108.344 Y117.752 E3123.618
G1 X108.227 Y117.982 E3123.631
G1 X108.164 Y118.145 E3123.64
G1 X108.096 Y118.41 E3123.653
G1 X108.066 Y118.747 E3123.67
G1 X108.096 Y119.087 E3123.687
G1 X108.165 Y119.351 E3123.701
G1 X108.226 Y119.511 E3123.709
G1 X108.344 Y119.745 E3123.722
G1 X108.497 Y119.961 E3123.736
G1 X108.622 Y120.102 E3123.745
G1 X108.902 Y120.339 E3123.763
G1 X109.171 Y120.494 E3123.779
G1 X109.518 Y120.619 E3123.797
G1 X109.706 Y120.656 E3123.807
G1 X109.948 Y120.678 E3123.819
;rapid-leaky
G1 F15000
G0 X110.094 Y120.311
;bead-perimeter_inner
G1 X110.31 Y120.283 F780 E3123.83
G1 X110.528 Y120.222 E3123.841
G1 X110.727 Y120.135 E3123.852
G1 X110.933 Y120.005 E3123.864
G1 X111.106 Y119.859 E3123.875
G1 X111.308 Y119.611 E3123.891
G1 X111.422 Y119.405 E3123.903
G1 X111.529 Y119.083 E3123.92
G1 X111.566 Y118.746 E3123.937
G1 X111.551 Y118.531 E3123.948
G1 X111.499 Y118.29 E3123.96
G1 X111.422 Y118.087 E3123.971
G1 X111.306 Y117.881 E3123.982
G1 X111.105 Y117.636 E3123.998
G1 X110.932 Y117.488 E3124.01
G1 X110.642 Y117.319 E3124.026
G1 X110.508 Y117.265 E3124.034
G1 X110.208 Y117.194 E3124.049
G1 X109.971 Y117.181 E3124.061
G1 X109.623 Y117.228 E3124.078
G1 X109.307 Y117.342 E3124.095
G1 X109.112 Y117.456 E3124.106
G1 X108.875 Y117.657 E3124.122
G1 X108.78 Y117.766 E3124.129
G1 X108.657 Y117.94 E3124.14
G1 X108.513 Y118.256 E3124.157
G1 X108.457 Y118.472 E3124.168
G1 X108.433 Y118.747 E3124.182
G1 X108.457 Y119.024 E3124.196
G1 X108.513 Y119.239 E3124.207
G1 X108.658 Y119.556 E3124.224
G1 X108.878 Y119.84 E3124.242
G1 X109.113 Y120.039 E3124.258
G1 X109.326 Y120.162 E3124.27
G1 X109.616 Y120.266 E3124.285
G1 X109.758 Y120.294 E3124.292
G1 X110.094 Y120.311 E3124.309
;rapid-leaky
G1 F15000
G0 X110.069 Y119.946
;bead-perimeter_outer
G1 X110.238 Y119.925 F540 E3124.318
G1 X110.405 Y119.878 E3124.326
G1 X110.56 Y119.809 E3124.335
G1 X110.712 Y119.714 E3124.344
G1 X110.844 Y119.602 E3124.353
G1 X111.004 Y119.406 E3124.365
G1 X111.09 Y119.251 E3124.374
G1 X111.15 Y119.092 E3124.383
G1 X111.189 Y118.916 E3124.391
G1 X111.2 Y118.746 E3124.4
G1 X111.189 Y118.577 E3124.408
G1 X111.15 Y118.401 E3124.417
G1 X111.09 Y118.241 E3124.426
G1 X111.004 Y118.088 E3124.435
G1 X110.843 Y117.892 E3124.447
G1 X110.712 Y117.78 E3124.456
G1 X110.488 Y117.65 E3124.469
G1 X110.397 Y117.614 E3124.474
G1 X110.155 Y117.556 E3124.486
G1 X109.978 Y117.547 E3124.495
G1 X109.807 Y117.562 E3124.504
G1 X109.559 Y117.63 E3124.516
G1 X109.323 Y117.755 E3124.53
G1 X109.132 Y117.917 E3124.542
G1 X108.971 Y118.129 E3124.555
G1 X108.861 Y118.367 E3124.569
G1 X108.818 Y118.534 E3124.577
G1 X108.799 Y118.747 E3124.588
G1 X108.818 Y118.962 E3124.599
G1 X108.861 Y119.128 E3124.607
G1 X108.971 Y119.367 E3124.62
G1 X109.134 Y119.578 E3124.634
G1 X109.323 Y119.739 E3124.646
G1 X109.48 Y119.829 E3124.655
G1 X109.714 Y119.913 E3124.667
G1 X109.81 Y119.932 E3124.672
G1 X110.069 Y119.946 E3124.685
G1 F1800 E3124.185
;rapid-dry
G1 F15000
G0 X123.369 Y101.867
G1 F1800 E3124.685
;bead-solid_infill
G1 X108.832 Y116.404 F1200 E3125.711
G1 X108.91 Y116.37 E3125.715
G1 X109.061 Y116.304 E3125.723
G1 X109.356 Y116.211 E3125.739
G1 X109.597 Y116.16 E3125.751
G1 X109.646 Y116.156 E3125.753
G1 X124.428 Y101.374 E3126.796
G1 X125.59 Y100.778 E3126.862
G1 X110.225 Y116.143 E3127.946
G1 X110.359 Y116.15 E3127.952
G1 X110.702 Y116.232 E3127.97
G1 X126.924 Y100.01 E3129.115
G1 X127.855 Y99.449 E3129.169
G1 X128.501 Y98.998 E3129.208
G1 X111.117 Y116.382 E3130.435
G1 X111.36 Y116.512 E3130.448
G1 X111.476 Y116.589 E3130.455
G1 X130.77 Y97.295 E3131.817
G1 F1800 E3131.317
;rapid-dry
G1 F15000
G0 X158.575 Y72.884
G1 F1800 E3131.817
;bead-solid_infill
G1 X112.612 Y118.847 F1200 E3135.06
G1 X112.619 Y118.746 E3135.065
G1 X112.594 Y118.394 E3135.082
G1 X112.577 Y118.316 E3135.086
G1 X158.217 Y72.676 E3138.306
G1 X157.86 Y72.468 E3138.327
G1 X112.461 Y117.867 E3141.53
G1 X112.424 Y117.768 E3141.535
G1 X112.376 Y117.642 E3141.542
G1 X112.303 Y117.512 E3141.55
G1 X112.284 Y117.478 E3141.552
G1 X158.547 Y71.215 E3144.816
G1 X160.065 Y69.415 E3144.933
G1 X161.593 Y67.603 E3145.051
G1 X112.056 Y117.14 E3148.546
G1 X112.002 Y117.074 E3148.551
G1 X111.857 Y116.897 E3148.562
G1 X111.79 Y116.84 E3148.566
G1 X162.785 Y65.846 E3152.164
G1 X162.427 Y65.638 E3152.185
G1 X142.321 Y85.744 E3153.604
G1 X144.031 Y83.818 E3153.732
G1 X145.742 Y81.757 E3153.866
G1 X162.069 Y65.43 E3155.018
G1 X161.711 Y65.223 E3155.038
G1 X148.094 Y78.84 E3155.999
G1 X150.053 Y76.315 E3156.158
G1 X161.353 Y65.015 E3156.956
G1 X160.995 Y64.807 E3156.977
G1 X151.544 Y74.258 E3157.643
G1 X151.95 Y73.698 E3157.678
G1 X152.893 Y72.397 E3157.758
G1 X153.003 Y72.234 E3157.768
G1 X160.637 Y64.599 E3158.306
G1 X160.279 Y64.391 E3158.327
G1 X154.176 Y70.495 E3158.758
G1 X155.35 Y68.755 E3158.862
G1 X159.922 Y64.183 E3159.185
G1 X159.564 Y63.976 E3159.206
G1 X156.348 Y67.191 E3159.432
G1 X157.302 Y65.671 E3159.522
G1 X159.206 Y63.768 E3159.656
G1 X158.848 Y63.56 E3159.677
G1 X158.241 Y64.167 E3159.72
G1 F1800 E3159.22
;rapid-dry
G1 F15000
G0 X175.272 Y73.723
G1 F1800 E3159.72
;bead-solid_infill
G1 X175.668 Y73.327 F1200 E3159.748
G1 X176.026 Y73.535 E3159.768
G1 X174.945 Y74.616 E3159.845
G1 X174.617 Y75.509 E3159.892
G1 X176.384 Y73.743 E3160.017
G1 X176.742 Y73.951 E3160.037
G1 X174.29 Y76.403 E3160.21
G1 X173.962 Y77.296 E3160.258
G1 X177.1 Y74.158 E3160.479
G1 X177.458 Y74.366 E3160.5
G1 X173.635 Y78.189 E3160.77
G1 X173.307 Y79.082 E3160.817
G1 X177.815 Y74.574 E3161.135
G1 X178.173 Y74.782 E3161.156
G1 X172.979 Y79.976 E3161.522
G1 F1800 E3161.022
;rapid-dry
G1 F15000
G0 X132.52 Y155.508
G1 F1800 E3161.522
;bead-solid_infill
G1 X135.228 Y152.799 F1200 E3161.713
G1 X135.475 Y152.423 E3161.736
G1 X136.071 Y151.39 E3161.795
G1 X131.239 Y156.223 E3162.136
G1 X131.19 Y156.244 E3162.139
G1 X130.744 Y156.442 E3162.163
G1 X130.293 Y156.603 E3162.187
G1 X136.844 Y150.052 E3162.649
G1 X137.617 Y148.713 E3162.726
G1 X129.487 Y156.844 E3163.3
G1 X129.429 Y156.86 E3163.303
G1 X128.771 Y156.993 E3163.336
G1 X138.39 Y147.375 E3164.015
G1 X139.162 Y146.037 E3164.092
G1 X128.118 Y157.081 E3164.871
G1 X128.04 Y157.091 E3164.875
G1 X127.513 Y157.12 E3164.902
G1 X139.935 Y144.698 E3165.778
G1 X140.708 Y143.36 E3165.855
G1 X126.938 Y157.13 E3166.827
G1 X126.372 E3166.855
G1 X141.481 Y142.021 E3167.921
G1 X142.254 Y140.683 E3167.998
G1 X125.806 Y157.13 E3169.159
G1 X125.24 E3169.187
G1 X143.026 Y139.344 E3170.442
G1 X143.799 Y138.006 E3170.519
G1 X124.675 Y157.13 E3171.868
G1 X124.109 E3171.896
G1 X144.572 Y136.667 E3173.34
G1 X145.345 Y135.329 E3173.417
G1 X123.543 Y157.13 E3174.956
G1 X122.978 E3174.984
G1 X146.118 Y133.99 E3176.616
G1 X146.89 Y132.652 E3176.693
G1 X122.412 Y157.13 E3178.421
G1 X121.846 E3178.449
G1 X147.663 Y131.313 E3180.27
G1 X148.436 Y129.975 E3180.347
G1 X121.28 Y157.13 E3182.263
G1 X120.715 E3182.292
G1 X149.209 Y128.636 E3184.302
G1 X149.981 Y127.298 E3184.379
G1 X120.149 Y157.13 E3186.484
G1 X119.583 E3186.512
G1 X150.754 Y125.96 E3188.711
G1 X151.527 Y124.621 E3188.789
G1 X119.018 Y157.13 E3191.082
G1 X118.452 Y157.131 E3191.111
G1 X152.3 Y123.283 E3193.499
G1 X153.073 Y121.944 E3193.576
G1 X117.886 Y157.131 E3196.058
G1 X117.32 E3196.087
G1 X153.845 Y120.606 E3198.664
G1 X154.618 Y119.267 E3198.741
G1 X116.755 Y157.131 E3201.412
G1 X116.189 E3201.44
G1 X155.391 Y117.929 E3204.206
G1 X156.164 Y116.59 E3204.283
G1 X115.623 Y157.131 E3207.144
G1 X115.058 E3207.172
G1 X156.937 Y115.252 E3210.127
G1 X157.709 Y113.913 E3210.204
G1 X114.492 Y157.131 E3213.253
G1 X113.926 E3213.281
G1 X158.482 Y112.575 E3216.425
G1 X159.255 Y111.236 E3216.502
G1 X113.36 Y157.131 E3219.74
G1 X112.795 E3219.769
G1 X160.028 Y109.898 E3223.101
G1 X160.8 Y108.559 E3223.178
G1 X112.229 Y157.131 E3226.605
G1 X111.663 E3226.633
G1 X161.573 Y107.221 E3230.155
G1 X162.346 Y105.882 E3230.232
G1 X111.097 Y157.131 E3233.848
G1 X110.532 E3233.876
G1 X163.119 Y104.544 E3237.586
G1 X163.892 Y103.206 E3237.663
G1 X109.966 Y157.131 E3241.468
G1 X109.4 E3241.496
G1 X164.664 Y101.867 E3245.396
G1 X165.437 Y100.529 E3245.473
G1 X108.835 Y157.131 E3249.466
G1 X108.269 E3249.494
G1 X166.21 Y99.19 E3253.583
G1 X166.983 Y97.852 E3253.66
G1 X107.703 Y157.131 E3257.842
G1 X107.137 E3257.87
G1 X167.756 Y96.513 E3262.147
G1 X168.528 Y95.175 E3262.224
G1 X106.572 Y157.131 E3266.596
G1 X106.006 E3266.624
G1 X169.301 Y93.836 E3271.09
G1 X170.074 Y92.498 E3271.167
G1 X105.44 Y157.131 E3275.727
G1 F1800 E3275.227
;rapid-dry
G1 F15000
G0 X98.086 Y157.132
G1 F1800 E3275.727
;bead-solid_infill
G1 X107.689 Y147.529 F1200 E3276.405
G1 X107.6 Y147.704 E3276.414
G1 X107.511 Y147.937 E3276.427
G1 X107.419 Y148.293 E3276.445
G1 X107.412 Y148.371 E3276.449
G1 X98.652 Y157.132 E3277.067
G1 X99.217 E3277.095
G1 X107.397 Y148.952 E3277.673
G1 X107.419 Y149.203 E3277.685
G1 X107.479 Y149.436 E3277.697
G1 X99.783 Y157.132 E3278.24
G1 X100.349 E3278.268
G1 X107.63 Y149.85 E3278.782
G1 X107.755 Y150.099 E3278.796
G1 X107.835 Y150.211 E3278.803
G1 X100.915 Y157.132 E3279.291
G1 X101.48 E3279.319
G1 X108.084 Y150.527 E3279.785
G1 X108.142 Y150.593 E3279.79
G1 X108.382 Y150.796 E3279.805
G1 X102.046 Y157.131 E3280.252
G1 X102.612 E3280.281
G1 X108.719 Y151.024 E3280.711
G1 X108.882 Y151.118 E3280.721
G1 X109.109 Y151.2 E3280.733
G1 X103.177 Y157.131 E3281.151
G1 X103.743 E3281.179
G1 X109.551 Y151.324 E3281.589
G1 X109.609 Y151.335 E3281.592
G1 X109.643 Y151.338 E3281.594
G1 X109.922 Y151.363 E3281.608
G1 X110.079 Y151.361 E3281.616
G1 X104.309 Y157.131 E3282.023
G1 X104.875 E3282.051
G1 X110.757 Y151.248 E3282.466
G1 X110.883 Y151.213 E3282.473
G1 X111.21 Y151.069 E3282.49
G1 X111.564 Y150.846 E3282.511
G1 X111.858 Y150.598 E3282.531
G1 X112.013 Y150.408 E3282.543
G1 X112.18 Y150.203 E3282.556
G1 X112.305 Y149.977 E3282.569
G1 X112.377 Y149.848 E3282.576
G1 X112.501 Y149.52 E3282.594
G1 X112.506 Y149.5 E3282.595
G1 X170.847 Y91.159 E3286.711
G1 X171.619 Y89.821 E3286.788
G1 X112.613 Y148.827 E3290.951
G1 X112.619 Y148.746 E3290.956
G1 X112.607 Y148.57 E3290.964
G1 X112.594 Y148.394 E3290.973
G1 X112.574 Y148.301 E3290.978
G1 X172.392 Y88.482 E3295.198
G1 X173.165 Y87.144 E3295.275
G1 X112.456 Y147.853 E3299.559
G1 X112.424 Y147.768 E3299.563
G1 X112.376 Y147.642 E3299.57
G1 X112.303 Y147.512 E3299.577
G1 X112.277 Y147.466 E3299.58
G1 X173.938 Y85.805 E3303.931
G1 X174.711 Y84.467 E3304.008
G1 X112.048 Y147.13 E3308.429
G1 X111.857 Y146.897 E3308.444
G1 X111.78 Y146.832 E3308.449
G1 X175.483 Y83.128 E3312.944
G1 X176.256 Y81.79 E3313.021
G1 X111.465 Y146.581 E3317.592
G1 X111.411 Y146.546 E3317.595
G1 X111.36 Y146.512 E3317.598
G1 X111.104 Y146.376 E3317.613
G1 X177.029 Y80.452 E3322.264
G1 X177.802 Y79.113 E3322.341
G1 X110.686 Y146.228 E3327.077
G1 X110.359 Y146.15 E3327.093
G1 X110.207 Y146.142 E3327.101
G1 X178.575 Y77.775 E3331.925
G1 X179.347 Y76.436 E3332.002
G1 X109.626 Y146.157 E3336.921
G1 X109.597 Y146.16 E3336.922
G1 X109.356 Y146.211 E3336.935
G1 X109.061 Y146.304 E3336.95
G1 X108.83 Y146.405 E3336.963
G1 X108.788 Y146.429 E3336.965
G1 X179.605 Y75.613 E3341.962
G1 X179.247 Y75.405 E3341.982
G1 X97.52 Y157.132 E3347.749
G1 X96.955 E3347.777
G1 X178.889 Y75.197 E3353.558
G1 X178.531 Y74.99 E3353.578
G1 X172.652 Y80.869 E3353.993
G1 X172.595 Y81.025 E3354.001
G1 X172.532 Y80.989 E3354.005
G1 X96.389 Y157.132 E3359.377
G1 X95.823 E3359.406
G1 X172.174 Y80.781 E3364.792
G1 X171.816 Y80.573 E3364.813
G1 X95.257 Y157.132 E3370.215
G1 X94.692 E3370.243
G1 X171.458 Y80.365 E3375.659
G1 X171.1 Y80.158 E3375.68
G1 X94.126 Y157.132 E3381.111
G1 X93.56 E3381.139
G1 X170.743 Y79.95 E3386.585
G1 X170.385 Y79.742 E3386.605
G1 X92.994 Y157.132 E3392.066
G1 X92.864 E3392.072
G1 X92.448 Y157.113 E3392.093
G1 X170.027 Y79.534 E3397.567
G1 X169.669 Y79.326 E3397.587
G1 X91.911 Y157.084 E3403.073
G1 X91.41 Y157.02 E3403.099
G1 X169.311 Y79.118 E3408.595
G1 X168.953 Y78.911 E3408.616
G1 X90.93 Y156.933 E3414.121
G1 X90.909 Y156.929 E3414.122
G1 X90.587 Y156.864 E3414.138
G1 X90.468 Y156.83 E3414.144
G1 X168.595 Y78.703 E3419.656
G1 X168.238 Y78.495 E3419.677
G1 X90.025 Y156.707 E3425.196
G1 X89.912 Y156.676 E3425.201
G1 X89.678 Y156.592 E3425.214
G1 X89.602 Y156.565 E3425.218
G1 X167.88 Y78.287 E3430.741
G1 X167.522 Y78.079 E3430.761
G1 X89.189 Y156.412 E3436.288
G1 X88.796 Y156.239 E3436.31
G1 X167.164 Y77.871 E3441.839
G1 X166.806 Y77.664 E3441.86
G1 X88.416 Y156.053 E3447.39
G1 X88.047 Y155.857 E3447.411
G1 X166.448 Y77.456 E3452.943
G1 X166.09 Y77.248 E3452.964
G1 X87.696 Y155.643 E3458.495
G1 X87.402 Y155.458 E3458.512
G1 X87.351 Y155.421 E3458.515
G1 X165.732 Y77.04 E3464.045
G1 X165.375 Y76.832 E3464.066
G1 X87.024 Y155.182 E3469.594
G1 X86.837 Y155.046 E3469.605
G1 X86.706 Y154.935 E3469.614
G1 X165.017 Y76.625 E3475.139
G1 X164.659 Y76.417 E3475.16
G1 X86.4 Y154.675 E3480.682
G1 X86.305 Y154.594 E3480.688
G1 X86.109 Y154.401 E3480.701
G1 X164.301 Y76.209 E3486.219
G1 X163.943 Y76.001 E3486.239
G1 X85.823 Y154.121 E3491.751
G1 X85.805 Y154.104 E3491.752
G1 X85.556 Y153.822 E3491.771
G1 X163.585 Y75.793 E3497.276
G1 X163.227 Y75.585 E3497.297
G1 X85.295 Y153.518 E3502.795
G1 X85.05 Y153.197 E3502.816
G1 X162.87 Y75.378 E3508.306
G1 X162.512 Y75.17 E3508.327
G1 X84.815 Y152.866 E3513.809
G1 X84.591 Y152.524 E3513.829
G1 X162.154 Y74.962 E3519.302
G1 X161.796 Y74.754 E3519.322
G1 X84.38 Y152.17 E3524.784
G1 X84.173 Y151.812 E3524.805
G1 X161.438 Y74.546 E3530.256
G1 X161.08 Y74.338 E3530.277
G1 X83.966 Y151.453 E3535.718
G1 X83.759 Y151.094 E3535.739
G1 X160.722 Y74.131 E3541.169
G1 X160.365 Y73.923 E3541.189
G1 X83.551 Y150.736 E3546.609
G1 X83.344 Y150.377 E3546.63
G1 X160.007 Y73.715 E3552.039
G1 X159.649 Y73.507 E3552.059
G1 X83.137 Y150.019 E3557.458
G1 X82.93 Y149.66 E3557.478
G1 X159.291 Y73.299 E3562.866
G1 X158.933 Y73.091 E3562.886
G1 X112.499 Y119.526 E3566.163
G1 X112.377 Y119.848 E3566.18
G1 X112.18 Y120.203 E3566.2
G1 X111.858 Y120.598 E3566.226
G1 X111.564 Y120.846 E3566.245
G1 X111.21 Y121.069 E3566.266
G1 X110.883 Y121.213 E3566.283
G1 X110.783 Y121.241 E3566.289
G1 X82.723 Y149.301 E3568.269
G1 X82.516 Y148.943 E3568.289
G1 X110.098 Y121.361 E3570.235
G1 X109.922 Y121.363 E3570.244
G1 X109.609 Y121.335 E3570.26
G1 X109.567 Y121.327 E3570.262
G1 X82.309 Y148.584 E3572.185
G1 X82.102 Y148.225 E3572.206
G1 X109.123 Y121.205 E3574.112
G1 X108.882 Y121.118 E3574.125
G1 X108.731 Y121.031 E3574.134
G1 X81.895 Y147.867 E3576.027
G1 X81.688 Y147.508 E3576.048
G1 X108.392 Y120.804 E3577.932
G1 X108.142 Y120.593 E3577.948
G1 X108.093 Y120.537 E3577.952
G1 X81.481 Y147.15 E3579.829
G1 X81.274 Y146.791 E3579.85
G1 X107.843 Y120.222 E3581.725
G1 X107.755 Y120.099 E3581.732
G1 X107.636 Y119.863 E3581.745
G1 X81.067 Y146.432 E3583.62
G1 X80.86 Y146.074 E3583.641
G1 X107.483 Y119.45 E3585.519
