;headset-holder-base-plate-3
;Printer Name: Creality Ender 3
;Print time: 18340s
;Extruder 1 Material used: 11825mm
;Extruder 1 Material name: PLA 1.75mm
;Extruder 1 Filament diameter: 1.75mm
;Extruder 1 Nozzle diameter: 0.4mm
;Extruder 1 offset x: 0mm
;Extruder 1 offset y: 0mm
;Extruder 1 offset z: 0mm
;Max temp: 220
;Bed temp: 60
;Layer Count: 151
;width: 220mm
;depth: 220mm
;height: 250mm
;center x: 110mm
;center y: 110mm
;center z: 0mm
;Count of bodies: 1
;Version of Fusion: 2.0.8407
;--------------------------------
;Selected Profile: PLA 1.75mm, 0.4mm Nozzle
;Selected Printer: Creality, Ender 3
;--------------------------------
M140 S60
M190 S60
M104 S220
M105
M109 S220
G1 F15000
G21
G90
M82
;Reset multiplier
M220 S100
M221 S100
;Enable auto bed leveling
M420 S1 Z2
G28
G1 Z10 F6000
G92 E0
G0 X0 Y0
G92 E0
;--------------------------------
;Layer : 1 of 151
M107
;rapid-leaky
G0 X10 Y10.8 Z0.3
G1 F1800 E0.5
;bead-prime
G1 X210 F270 E40.412
G1 F1800 E39.912
;rapid-dry
G1 F15000
G0 X159.512 Y56.644
G1 F1800 E40.412
;bead-raft
G1 X146.969 F288 E42.289
G1 Y52.644 E42.888
G1 X157.202 E44.42
G1 X154.892 Y48.644 E45.111
G1 X146.969 E46.297
G1 Y44.644 E46.896
G1 X151.545 E47.58
G1 X145.069 Y41.206 E48.678
G1 Y44.644 E49.192
G1 X130.069 E51.437
G1 Y48.644 E52.036
G1 X145.069 E54.281
G1 Y52.644 E54.88
G1 X130.069 E57.125
G1 Y56.644 E57.724
G1 X145.069 E59.969
G1 Y60.644 E60.567
G1 X130.069 E62.812
G1 Y64.644 E63.411
G1 X145.069 E65.656
G1 Y68.644 E66.255
G1 X140.201 E66.983
G1 X140.657 Y72.644 E67.586
G1 X145.069 E68.246
G1 Y76.644 E68.845
G1 X141.112 E69.437
G1 X141.567 Y80.644 E70.04
G1 X145.069 E70.564
G1 Y84.644 E71.163
G1 X142.023 E71.619
G1 X142.39 Y88.644 E72.22
G1 X145.069 E72.621
G1 Y92.644 E73.219
G1 X142.661 E73.58
G1 X142.908 Y96.644 E74.18
G1 X145.069 E74.503
G1 Y100.644 E75.102
G1 X143.106 E75.396
G1 X143.269 Y104.644 E75.995
G1 X145.069 E76.264
G1 Y108.644 E76.863
G1 X130.069 E79.108
G1 Y112.644 E79.707
G1 X145.069 E81.952
G1 Y116.644 E82.55
G1 X130.069 E84.795
G1 Y120.644 E85.394
G1 X145.069 E87.639
G1 Y124.644 E88.238
G1 X130.069 E90.483
G1 Y128.644 E91.082
G1 X145.069 E93.327
G1 Y132.644 E93.925
G1 X130.069 E96.17
G1 Y136.644 E96.769
G1 X145.069 E99.014
G1 Y140.644 E99.613
G1 X130.069 E101.858
G1 Y144.644 E102.456
G1 X143.593 E104.481
G1 X148.212 Y136.644 E105.863
G1 X146.969 E106.049
G1 Y132.644 E106.648
G1 X150.522 E107.18
G1 X152.831 Y128.644 E107.871
G1 X146.969 E108.748
G1 Y124.644 E109.347
G1 X155.141 E110.57
G1 X157.45 Y120.644 E111.261
G1 X146.969 E112.83
G1 Y116.644 E113.429
G1 X159.759 E115.343
G1 X161.969 Y112.817 E116.005
G1 Y112.644 E116.03
G1 X146.969 E118.276
G1 Y108.644 E118.874
G1 X161.969 E121.119
G1 Y104.644 E121.718
G1 X146.969 E123.963
G1 Y100.644 E124.562
G1 X161.969 E126.807
G1 Y96.644 E127.405
G1 X146.969 E129.651
G1 Y92.644 E130.249
G1 X161.969 E132.494
G1 Y88.644 E133.093
G1 X146.969 E135.338
G1 Y84.644 E135.937
G1 X161.969 E138.182
G1 Y80.644 E138.78
G1 X146.969 E141.025
G1 Y76.644 E141.624
G1 X161.969 E143.869
G1 Y72.644 E144.468
G1 X146.969 E146.713
G1 Y68.644 E147.312
G1 X161.969 E149.557
G1 Y64.644 E150.155
G1 X146.969 E152.4
G1 Y60.644 E152.999
G1 X161.821 E155.222
G1 X163.869 Y64.19 E155.835
G1 Y64.644 E155.903
G1 X164.131 E155.942
G1 X166.441 Y68.644 E156.633
G1 X163.869 E157.018
G1 Y72.644 E157.617
G1 X168.751 E158.348
G1 X171.06 Y76.644 E159.039
G1 X163.869 E160.115
G1 Y80.644 E160.714
G1 X173.195 E162.11
G1 X174.278 Y84.644 E162.73
G1 X163.869 E164.288
G1 Y88.644 E164.887
G1 X174.325 E166.452
G1 X173.372 Y92.644 E167.067
G1 X163.869 E168.489
G1 Y96.644 E169.088
G1 X171.307 E170.201
G1 X168.997 Y100.644 E170.893
G1 X163.869 E171.66
G1 Y104.644 E172.259
G1 X166.688 E172.681
G1 X164.378 Y108.644 E173.372
G1 X163.869 E173.448
G1 Y109.526 E173.58
;bead-raft
G1 F1800 E173.08
;rapid-dry
G1 F15000
G0 X109.671 Y104.644
G1 F1800 E173.58
;bead-raft
G1 X111.269 F288 E173.82
G1 Y108.644 E174.418
G1 X110.232 E174.573
G1 X110.158 Y112.644 E175.172
G1 X111.269 E175.339
G1 Y116.644 E175.937
G1 X109.471 E176.206
G1 X108.453 Y120.644 E176.824
G1 X111.269 E177.246
G1 Y124.644 E177.844
G1 X107.324 E178.435
G1 X106.067 Y128.644 E179.062
G1 X111.269 E179.841
G1 Y132.644 E180.44
G1 X104.674 E181.427
G1 X103.143 Y136.644 E182.068
G1 X111.269 E183.284
G1 Y140.644 E183.883
G1 X101.47 E185.349
G1 X99.646 Y144.644 E186.007
G1 X111.269 E187.747
G1 Y148.644 E188.345
G1 X97.664 E190.382
G1 X96.269 Y151.256 E190.825
G1 Y152.644 E191.033
G1 X111.269 E193.278
G1 Y156.644 E193.876
G1 X96.269 E196.121
G1 Y160.644 E196.72
G1 X111.269 E198.965
G1 Y164.644 E199.564
G1 X97.108 E201.683
G1 X94.369 Y154.672 E203.231
G1 Y156.644 E203.526
G1 X93.249 E203.694
G1 X96.269 Y165.638 E205.114
G1 Y168.644 E205.564
G1 X111.269 E207.809
G1 Y172.644 E208.408
G1 X99.299 E210.199
G1 X94.369 Y169.781 E211.052
G1 Y168.644 E211.222
G1 X93.735 E211.317
;bead-raft
G1 F1800 E210.817
;rapid-dry
G1 F15000
G0 X106.187 Y176.644
G1 F1800 E211.317
;bead-raft
G1 X111.269 F288 E212.078
G1 Y179.595 E212.52
G1 X113.169 Y180.698 E212.849
G1 Y180.644 E212.857
G1 X115.223 E213.164
G1 X116.691 Y176.644 E213.802
G1 X113.169 E214.329
G1 Y172.644 E214.928
G1 X127.427 E217.062
G1 X125.118 Y176.644 E217.753
G1 X122.531 E218.14
;bead-raft
G1 F1800 E217.64
;rapid-dry
G1 F15000
G0 X141.284 Y148.644
G1 F1800 E218.14
;bead-raft
G1 X130.069 F288 E219.819
G1 Y152.644 E220.417
G1 X138.974 E221.75
G1 X136.665 Y156.644 E222.441
G1 X130.069 E223.429
G1 Y160.644 E224.027
G1 X134.355 E224.669
G1 X132.046 Y164.644 E225.36
G1 X130.069 E225.656
G1 Y168.068 E226.168
G1 X128.169 Y171.359 E226.737
G1 Y168.644 E227.143
G1 X113.169 E229.389
G1 Y164.644 E229.987
G1 X128.169 E232.232
G1 Y160.644 E232.831
G1 X113.169 E235.076
G1 Y156.644 E235.675
G1 X128.169 E237.92
G1 Y152.644 E238.518
G1 X113.169 E240.764
G1 Y148.644 E241.362
G1 X128.169 E243.607
G1 Y144.644 E244.206
G1 X113.169 E246.451
G1 Y140.644 E247.05
G1 X128.169 E249.295
G1 Y136.644 E249.893
G1 X113.169 E252.138
G1 Y132.644 E252.737
G1 X128.169 E254.982
G1 Y128.644 E255.581
G1 X113.169 E257.826
G1 Y124.644 E258.425
G1 X128.169 E260.67
G1 Y120.644 E261.268
G1 X113.169 E263.513
G1 Y116.644 E264.112
G1 X128.169 E266.357
G1 Y112.644 E266.956
G1 X113.169 E269.201
G1 Y108.644 E269.8
G1 X128.169 E272.045
G1 Y104.644 E272.643
G1 X113.169 E274.888
G1 Y100.644 E275.487
G1 X127.818 E277.68
G1 Y96.644 E278.278
G1 X113.169 E280.471
G1 Y92.644 E281.07
G1 X127.819 E283.262
G1 Y88.644 E283.861
G1 X113.169 E286.053
G1 Y84.644 E286.652
G1 X127.819 E288.845
G1 Y80.644 E289.444
G1 X113.169 E291.636
G1 Y76.644 E292.235
G1 X127.819 E294.428
G1 X127.82 Y72.644 E295.026
G1 X113.169 E297.219
G1 Y68.644 E297.818
G1 X127.82 E300.011
G1 X128.169 Y65.393 E300.5
G1 Y64.644 E300.612
G1 X113.169 E302.857
G1 Y60.644 E303.456
G1 X128.169 E305.701
G1 Y56.644 E306.299
G1 X113.169 E308.545
G1 Y52.644 E309.143
G1 X128.169 E311.388
G1 Y48.644 E311.987
G1 X113.169 E314.232
G1 Y44.644 E314.831
G1 X128.169 E317.076
G1 Y40.644 E317.674
G1 X111.269 E320.204
G1 Y44.644 E320.803
G1 X96.269 E323.048
G1 Y48.644 E323.646
G1 X111.269 E325.891
G1 Y52.644 E326.49
G1 X96.269 E328.735
G1 Y56.644 E329.334
G1 X111.269 E331.579
G1 Y60.644 E332.178
G1 X96.269 E334.423
G1 Y64.644 E335.021
G1 X111.269 E337.266
G1 Y68.644 E337.865
G1 X96.269 E340.11
G1 Y72.644 E340.709
G1 X111.269 E342.954
G1 Y76.644 E343.552
G1 X96.269 E345.798
G1 Y80.644 E346.396
G1 X111.269 E348.641
G1 Y84.644 E349.24
G1 X96.269 E351.485
G1 Y87.199 E351.867
G1 X108.442 Y100.644 E354.582
G1 X111.269 E355.005
G1 Y96.644 E355.604
G1 X106.453 E356.325
G1 X103.414 Y92.644 E357.076
G1 X111.269 E358.252
G1 Y88.644 E358.851
G1 X98.751 E360.724
;bead-raft
;rapid-leaky
G1 F15000
G0 X89.358 Y84.644
;bead-raft
G1 X94.369 F288 E361.474
G1 Y80.644 E362.073
G1 X79.369 E364.318
G1 Y76.644 E364.917
G1 X94.369 E367.162
G1 Y72.644 E367.76
G1 X79.369 E370.006
G1 Y68.644 E370.604
G1 X94.369 E372.849
G1 Y64.644 E373.448
G1 X79.369 E375.693
G1 Y60.644 E376.292
G1 X94.369 E378.537
G1 Y56.644 E379.135
G1 X79.369 E381.381
G1 Y52.644 E381.979
G1 X94.369 E384.224
G1 Y48.644 E384.823
G1 X79.369 E387.068
G1 Y44.644 E387.667
G1 X94.369 E389.912
G1 Y40.644 E390.51
G1 X79.369 E392.755
G1 X77.469 E393.04
G1 Y44.644 E393.639
G1 X62.469 E395.884
G1 Y48.644 E396.482
G1 X77.469 E398.727
G1 Y52.644 E399.326
G1 X62.469 E401.571
G1 Y56.644 E402.17
G1 X77.469 E404.415
G1 Y60.644 E405.014
G1 X62.469 E407.259
G1 Y64.644 E407.857
G1 X77.469 E410.102
G1 Y68.644 E410.701
G1 X62.469 E412.946
G1 Y72.644 E413.545
G1 X77.469 E415.79
G1 Y76.644 E416.388
G1 X62.469 E418.634
G1 Y79.636 E419.081
G1 X71.027 Y80.644 E420.371
G1 X77.469 E421.335
G1 Y81.765 E421.503
G1 X45.569 Y79.077 E426.294
G1 Y76.644 E426.659
G1 X60.569 E428.904
G1 Y72.644 E429.502
G1 X45.569 E431.747
G1 Y68.644 E432.346
G1 X60.569 E434.591
G1 Y64.644 E435.19
G1 X45.569 E437.435
G1 Y60.644 E438.034
G1 X60.569 E440.279
G1 Y56.644 E440.877
G1 X45.569 E443.122
G1 Y52.644 E443.721
G1 X60.569 E445.966
G1 Y48.644 E446.565
G1 X45.569 E448.81
G1 Y44.644 E449.409
G1 X60.569 E451.654
G1 Y40.644 E452.252
;bead-raft
G1 F1800 E451.752
;Layer : 2 of 151
M106 S255
;rapid-leaky
G1 F15000
G0 X67.263 Y40.844 Z0.5
G1 F1800 E452.252
;bead-raft
G1 X45.769 Y62.339 F3600 E453.263
G1 Y60.453 E453.326
G1 X65.378 Y40.844 E454.248
G1 X63.492 E454.311
G1 X45.769 Y58.567 E455.145
G1 Y56.682 E455.208
G1 X61.607 Y40.844 E455.952
G1 X59.721 E456.015
G1 X45.769 Y54.796 E456.671
G1 Y52.911 E456.734
G1 X57.835 Y40.844 E457.302
G1 X55.95 E457.364
G1 X45.769 Y51.025 E457.843
G1 Y49.139 E457.906
G1 X54.064 Y40.844 E458.296
G1 X52.179 E458.359
G1 X45.769 Y47.254 E458.66
G1 Y45.368 E458.723
G1 X50.293 Y40.844 E458.936
G1 X48.407 E458.999
G1 X45.769 Y43.482 E459.123
G1 Y41.597 E459.185
G1 X46.522 Y40.844 E459.221
;bead-raft
;rapid-leaky
G1 F15000
G0 X50.81 Y59.184
;bead-raft
G1 X69.149 Y40.844 F3600 E460.083
G1 X71.034 E460.146
G1 X53.099 Y58.78 E460.99
G1 X53.969 Y58.627 E461.019
G1 Y59.796 E461.058
G1 X72.92 Y40.845 E461.949
G1 X74.806 E462.012
G1 X45.769 Y69.881 E463.378
G1 Y71.767 E463.441
G1 X76.691 Y40.845 E464.895
G1 X78.577 E464.958
G1 X45.769 Y73.652 E466.501
G1 Y75.538 E466.564
G1 X80.462 Y40.845 E468.196
G1 X82.348 E468.258
G1 X45.769 Y77.424 E469.979
G1 X49.422 Y40.844 E471.202
G1 X45.769 E471.323
G1 Y43.058 E471.397
G1 X46.195 Y78.883 E472.588
G1 X84.233 Y40.845 E474.378
G1 X86.119 E474.44
G1 X48.064 Y78.9 E476.23
G1 X49.932 Y78.917 E476.292
G1 X88.005 Y40.845 E478.083
G1 X89.89 E478.146
G1 X51.801 Y78.934 E479.938
G1 X45.769 Y72.197 E480.238
G1 Y78.879 E480.461
G1 X46.667 Y78.888 E480.491
G1 X53.655 Y78.966 E480.723
G1 X91.776 Y40.845 E482.516
G1 X93.661 E482.579
G1 X55.476 Y79.03 E484.375
G1 X57.298 Y79.094 E484.436
G1 X95.547 Y40.845 E486.235
G1 X97.432 E486.297
G1 X59.077 Y79.201 E488.101
G1 X60.842 Y79.321 E488.16
G1 X99.318 Y40.845 E489.97
G1 X101.204 E490.033
G1 X62.6 Y79.448 E491.849
G1 X64.312 Y79.623 E491.906
G1 X103.089 Y40.845 E493.73
G1 X104.975 E493.793
G1 X66.023 Y79.797 E495.625
G1 X61.389 Y79.359 E495.779
G1 X62.385 Y79.426 E495.813
G1 X63.091 Y79.498 E495.836
G1 X67.713 Y79.993 E495.991
G1 X106.86 Y40.845 E497.832
G1 X108.746 E497.895
G1 X69.373 Y80.218 E499.747
G1 X71.034 Y80.443 E499.803
G1 X110.632 Y40.845 E501.665
G1 X112.517 E501.728
G1 X72.663 Y80.7 E503.603
G1 X74.274 Y80.974 E503.657
G1 X114.403 Y40.845 E505.544
G1 X116.288 E505.607
G1 X75.886 Y81.247 E507.508
G1 X71.305 Y80.48 E507.662
G1 X71.614 Y80.522 E507.672
G1 X72.883 Y80.737 E507.715
G1 X77.46 Y81.559 E507.87
G1 X118.174 Y40.845 E509.785
G1 X120.059 Y40.846 E509.848
G1 X79.026 Y81.879 E511.778
G1 X80.591 Y82.199 E511.831
G1 X121.945 Y40.846 E513.776
G1 X123.831 E513.839
G1 X82.118 Y82.559 E515.801
G1 X83.639 Y82.923 E515.853
G1 X125.716 Y40.846 E517.832
G1 X127.602 E517.895
G1 X85.161 Y83.287 E519.891
G1 X80.658 Y82.213 E520.045
G1 X80.767 Y82.235 E520.049
G1 X82.145 Y82.565 E520.096
G1 X86.643 Y83.69 E520.25
G1 X129.487 Y40.846 E522.265
G1 X131.373 E522.328
G1 X88.122 Y84.097 E524.362
G1 X89.601 Y84.503 E524.413
G1 X133.258 Y40.846 E526.467
G1 X135.144 E526.53
G1 X91.052 Y84.938 E528.604
G1 X87.727 Y83.988 E528.719
G1 X89.758 Y84.547 E528.789
G1 X90.258 Y84.698 E528.806
G1 X92.486 Y85.39 E528.884
G1 X137.03 Y40.846 E530.979
G1 X138.915 E531.042
G1 X93.881 Y85.88 E533.16
G1 X95.198 Y86.449 E533.208
G1 X140.801 Y40.846 E535.352
G1 X142.322 Y40.909 E535.403
G1 X142.327
G1 X143.475 Y41.056 E535.442
G1 X143.735 Y41.108 E535.451
G1 X142.59 Y40.943 E535.489
G1 X96.46 Y87.072 E537.659
G1 X94.775 Y86.266 E537.721
G1 X95.537 Y86.595 E537.749
G1 X96.017 Y86.843 E537.767
G1 X97.674 Y87.744 E537.829
G1 X144.213 Y41.205 E540.018
G1 X145.339 Y41.488 E540.057
G1 X145.732 Y41.598 E540.071
G1 X146.803 Y41.981 E540.108
G1 X145.711 Y41.592 E540.147
G1 X98.841 Y88.462 E542.352
G1 X99.941 Y89.249 E542.397
G1 X147.085 Y42.104 E544.614
G1 X148.157 Y42.601 E544.653
G1 X148.92 Y43.005 E544.682
G1 X149.356 Y43.279 E544.699
G1 X148.364 Y42.71 E544.737
G1 X100.995 Y90.08 E546.965
;bead-raft
;rapid-leaky
G1 F15000
G0 X102.007 Y90.953
;bead-raft
G1 X127.62 Y65.341 F3600 E548.17
G1 Y67.226 E548.233
G1 X102.968 Y91.878 E549.392
G1 X101.576 Y90.562 E549.456
G1 X101.755 Y90.71 E549.464
G1 X102.595 Y91.518 E549.503
G1 X103.876 Y92.856 E549.564
G1 X127.62 Y69.112 E550.681
G1 Y70.998 E550.744
G1 X104.739 Y93.878 E551.82
G1 X103.561 Y92.508 E551.88
G1 X104.354 Y93.385 E551.919
G1 X104.446 Y93.503 E551.924
G1 X105.559 Y94.944 E551.985
G1 X127.62 Y72.883 E553.023
G1 X127.619 Y74.769 E553.085
G1 X106.319 Y96.069 E554.087
G1 X105.233 Y94.509 E554.15
G1 X105.469 Y94.812 E554.163
G1 X106.026 Y95.634 E554.196
G1 X107.028 Y97.246 E554.259
G1 X127.619 Y76.655 E555.228
G1 Y78.541 E555.291
G1 X107.69 Y98.47 E556.228
G1 X106.795 Y96.839 E556.29
G1 X107.479 Y98.034 E556.336
G1 X107.509 Y98.095 E556.338
G1 X108.3 Y99.746 E556.399
G1 X127.619 Y80.426 E557.308
G1 Y82.312 E557.37
G1 X108.837 Y101.094 E558.254
G1 X108.127 Y99.376 E558.316
G1 X108.274 Y99.681 E558.327
G1 X108.696 Y100.742 E558.365
G1 X109.31 Y102.506 E558.427
G1 X127.619 Y84.198 E559.288
G1 Y86.083 E559.351
G1 X109.718 Y103.984 E560.193
G1 X109.21 Y102.189 E560.255
G1 X109.53 Y103.199 E560.29
G1 X109.654 Y103.718 E560.308
G1 X110.051 Y105.537 E560.37
G1 X127.619 Y87.969 E561.196
G1 Y89.855 E561.259
G1 X110.298 Y107.175 E562.074
G1 X110.016 Y105.324 E562.136
G1 X110.269 Y106.848 E562.187
G1 X110.283 Y107.011 E562.193
G1 X110.446 Y108.913 E562.256
G1 X127.619 Y91.741 E563.064
G1 X127.618 Y93.626 E563.127
G1 X110.47 Y110.774 E563.933
G1 X110.447 Y108.957 E563.994
G1 X110.48 Y110.573 E564.047
G1 X110.457 Y111.032 E564.063
G1 X110.342 Y112.789 E564.121
G1 X127.618 Y95.512 E564.934
G1 Y97.398 E564.997
G1 X110.022 Y114.994 E565.824
G1 X110.185 Y114.073 E565.855
G1 X110.158 Y114.294 E565.863
G1 X109.955 Y115.337 E565.898
G1 X109.495 Y117.407 E565.969
G1 X127.618 Y99.283 E566.821
G1 Y101.169 E566.884
G1 X108.847 Y119.94 E567.767
G1 X108.165 Y122.508 E567.855
G1 X127.618 Y103.055 E568.77
G1 Y103.424 E568.782
G1 X127.785 Y103.759 E568.795
G1 X128.089 Y104.224 E568.813
G1 X128.197 Y104.361 E568.819
G1 X107.368 Y125.191 E569.799
G1 X108.65 Y120.68 E569.955
G1 X108.06 Y122.902 E570.031
G1 X107.887 Y123.474 E570.051
G1 X106.522 Y127.922 E570.206
G1 X129.119 Y105.325 E571.269
G1 X129.323 Y105.498 E571.278
G1 X129.655 Y105.741 E571.292
G1 X129.893 Y105.893 E571.301
G1 X130.251 Y106.078 E571.314
G1 X105.558 Y130.772 E572.476
G1 X106.986 Y126.453 E572.627
G1 X106.707 Y127.375 E572.659
G1 X106.002 Y129.457 E572.732
G1 X104.477 Y133.738 E572.883
G1 X132.121 Y106.094 E574.184
G1 X134.007 E574.246
G1 X103.291 Y136.81 E575.691
G1 X101.964 Y140.022 E575.807
G1 X135.893 Y106.094 E577.403
G1 X137.778 E577.465
G1 X100.417 Y143.455 E579.223
G1 X102.285 Y139.246 E579.376
G1 X101.892 Y140.198 E579.41
G1 X100.639 Y142.966 E579.511
G1 X98.659 Y147.099 E579.664
G1 X139.664 Y106.094 E581.592
G1 X141.549 E581.655
G1 X96.62 Y151.024 E583.768
G1 X98.734 Y146.945 E583.921
G1 X97.971 Y148.493 E583.979
G1 X97.043 Y150.231 E584.044
G1 X94.26 Y155.269 E584.236
G1 X143.435 Y106.094 E586.549
G1 X143.497 Y106.032 E586.552
G1 X171.582 Y77.947 E587.873
G1 X170.892 Y76.752 E587.919
G1 X143.46 Y104.184 E589.209
G1 X143.452 Y103.817 E589.221
G1 X143.386 Y102.372 E589.269
G1 X170.201 Y75.556 E590.53
G1 X169.511 Y74.361 E590.576
G1 X143.303 Y100.569 E591.809
G1 X143.22 Y98.767 E591.869
G1 X168.821 Y73.166 E593.073
G1 X168.131 Y71.97 E593.119
G1 X143.129 Y96.972 E594.295
G1 X143.019 Y95.196 E594.354
G1 X167.44 Y70.775 E595.503
G1 X166.75 Y69.579 E595.549
G1 X142.909 Y93.42 E596.67
G1 X142.8 Y91.644 E596.73
G1 X166.06 Y68.384 E597.824
G1 X165.37 Y67.189 E597.87
G1 X142.69 Y89.868 E598.936
G1 X142.684 Y89.772 E598.94
G1 X142.548 Y88.125 E598.995
G1 X164.679 Y65.993 E600.036
G1 X163.989 Y64.798 E600.082
G1 X142.404 Y86.383 E601.097
G1 X142.358 Y85.826 E601.115
G1 X142.227 Y84.674 E601.154
G1 X163.299 Y63.603 E602.145
G1 X162.609 Y62.407 E602.191
G1 X142.035 Y82.981 E603.159
G1 X141.842 Y81.288 E603.215
G1 X161.918 Y61.212 E604.16
G1 X161.228 Y60.017 E604.206
G1 X141.649 Y79.596 E605.127
G1 X141.456 Y77.903 E605.183
G1 X160.538 Y58.821 E606.081
G1 X159.848 Y57.626 E606.127
G1 X141.264 Y76.21 E607.001
G1 X141.071 Y74.517 E607.057
G1 X159.157 Y56.43 E607.908
G1 X158.467 Y55.235 E607.954
G1 X140.878 Y72.824 E608.781
G1 X140.686 Y71.131 E608.838
G1 X157.777 Y54.04 E609.642
G1 X157.087 Y52.844 E609.688
G1 X140.493 Y69.438 E610.469
G1 X140.3 Y67.745 E610.525
G1 X156.396 Y51.649 E611.282
G1 X155.706 Y50.454 E611.328
G1 X140.107 Y66.052 E612.062
G1 X140.01 Y65.194 E612.091
G1 X139.08 E612.122
G1 X155.016 Y49.258 E612.871
G1 X172.084 Y78.817 E614.006
G1 X172.081 Y78.81 E614.007
G1 X162.515 Y62.245 E614.643
G1 X154.301 Y48.088 E615.187
G1 X137.195 Y65.194 E615.992
G1 X135.309 E616.055
G1 X153.512 Y46.991 E616.911
G1 X154.187 Y47.915 E616.949
G1 X154.024 Y47.665 E616.959
G1 X153.408 Y46.854 E616.993
G1 X152.643 Y45.974 E617.031
G1 X133.424 Y65.193 E617.935
G1 X131.538 E617.998
G1 X151.697 Y45.035 E618.946
G1 X152.52 Y45.84 E618.985
G1 X151.732 Y45.065 E619.021
G1 X151.572 Y44.929 E619.028
G1 X150.666 Y44.18 E619.067
G1 X129.653 Y65.193 E620.056
G1 X127.767 E620.119
G1 X149.556 Y43.404 E621.143
;bead-raft
;rapid-leaky
G1 F15000
G0 X172.269 Y79.146
;bead-raft
G1 X92.397 Y159.017 F3600 E624.9
G1 X93.593 Y159.707 E624.946
G1 X172.883 Y80.417 E628.676
G1 X173.096 Y80.911 E628.694
G1 X173.141 Y80.999 E628.697
G1 X173.586 Y82.324 E628.743
G1 X173.746 Y82.956 E628.765
G1 X173.404 Y81.782 E628.806
G1 X94.789 Y160.397 E632.504
G1 X95.984 Y161.087 E632.55
G1 X173.821 Y83.251 E636.211
G1 X174.035 Y84.365 E636.249
G1 X174.062 Y84.515 E636.254
G1 X174.19 Y85.678 E636.292
G1 X174.203 Y86.013 E636.304
G1 X174.1 Y84.857 E636.342
G1 X97.18 Y161.777 E639.96
G1 X98.375 Y162.467 E640.006
G1 X174.226 Y86.617 E643.574
G1 X174.199 Y87.811 E643.614
G1 X174.191 Y88.023 E643.621
G1 X174.064 Y89.187 E643.66
G1 X173.962 Y89.747 E643.679
G1 X174.128 Y88.6 E643.717
G1 X93.616 Y169.112 E647.504
G1 X94.809 Y169.805 E647.55
G1 X173.706 Y90.908 E651.261
G1 X173.375 Y92.019 E651.3
G1 X173.199 Y92.541 E651.318
G1 X172.757 Y93.599 E651.356
G1 X172.259 Y94.587 E651.393
G1 X172.208 Y94.677 E651.397
G1 X172.611 Y93.888 E651.426
G1 X96.002 Y170.498 E655.029
G1 X97.195 Y171.19 E655.075
G1 X170.167 Y98.218 E658.508
G1 X167.591 Y102.68 E658.679
G1 X98.388 Y171.883 E661.934
G1 X99.581 Y172.576 E661.98
G1 X165.015 Y107.142 E665.058
G1 X162.439 Y111.603 E665.229
G1 X100.773 Y173.269 E668.13
G1 X101.966 Y173.961 E668.176
G1 X159.863 Y116.065 E670.899
G1 X157.287 Y120.526 E671.07
G1 X103.159 Y174.654 E673.616
G1 X104.352 Y175.347 E673.662
G1 X154.711 Y124.988 E676.031
G1 X152.135 Y129.449 E676.202
G1 X105.545 Y176.04 E678.394
G1 X106.738 Y176.732 E678.44
G1 X149.559 Y133.911 E680.454
G1 X146.983 Y138.373 E680.625
G1 X107.931 Y177.425 E682.462
G1 X109.124 Y178.118 E682.508
G1 X144.407 Y142.834 E684.168
G1 X141.831 Y147.296 E684.339
G1 X110.316 Y178.811 E685.821
G1 X111.509 Y179.503 E685.867
G1 X139.255 Y151.757 E687.172
G1 X136.679 Y156.219 E687.344
G1 X118.698 Y174.2 E688.189
G1 X119.894 Y174.89 E688.235
G1 X134.103 Y160.681 E688.904
G1 X131.527 Y165.142 E689.075
G1 X121.089 Y175.58 E689.566
G1 X122.285 Y176.271 E689.612
G1 X128.951 Y169.604 E689.926
G1 X126.375 Y174.065 E690.097
G1 X123.48 Y176.961 E690.233
G1 X115.514 Y179.27 E690.509
G1 X113.895 Y180.889 E690.585
G1 X112.702 Y180.196 E690.631
G1 X116.607 Y176.291 E690.815
;bead-raft
;rapid-leaky
G1 F15000
G0 X45.769 Y67.995
;bead-raft
G1 X53.232 Y60.532 F3600 E691.166
G1 X51.629 Y60.25 E691.22
G1 X45.769 Y66.11 E691.495
G1 Y64.224 E691.558
G1 X50.099 Y59.894 E691.762
;bead-raft
G1 F1800 E691.262
;Layer : 3 of 151
;rapid-dry
G1 F15000
G0 X49.899 Y60.148 Z0.8
G1 F1800 E691.762
;bead-raft
G1 X54.169 Y60.901 F3600 E691.978
G1 Y58.388 E692.103
G1 X49.899 Y59.141 E692.32
G1 Y60.148 E692.37
;bead-raft
;rapid-leaky
G1 F15000
G0 X50.099 Y59.98
;bead-raft
G1 X53.969 Y60.662 F3600 E692.566
G1 Y58.627 E692.668
G1 X50.099 Y59.309 E692.864
G1 Y59.98 E692.897
;bead-raft
;rapid-leaky
G1 F15000
G0 X53.091 Y78.746
;bead-raft
G1 X45.969 Y78.681 F3600 E693.253
G1 Y41.044 E695.13
G1 X141.207 Y41.046 E699.882
G1 X142.308 Y41.109 E699.937
G1 X143.443 Y41.253 E699.994
G1 X144.565 Y41.48 E700.051
G1 X145.671 Y41.789 E700.108
G1 X146.749 Y42.174 E700.165
G1 X147.83 Y42.653 E700.224
G1 X148.82 Y43.179 E700.28
G1 X149.787 Y43.785 E700.337
G1 X150.708 Y44.458 E700.394
G1 X151.597 Y45.213 E700.452
G1 X152.407 Y46.009 E700.509
G1 X153.171 Y46.873 E700.566
G1 X153.86 Y47.78 E700.623
G1 X154.466 Y48.706 E700.678
G1 X171.907 Y78.91 E702.418
G1 X172.082 Y79.22 E702.436
G1 X172.571 Y80.188 E702.49
G1 X172.881 Y80.932 E702.531
G1 X172.957 Y81.078 E702.539
G1 X173.394 Y82.38 E702.607
G1 X173.661 Y83.437 E702.662
G1 X173.864 Y84.544 E702.718
G1 X173.991 Y85.693 E702.776
G1 X174.034 Y86.818 E702.832
G1 X173.992 Y88.009 E702.891
G1 X173.866 Y89.158 E702.949
G1 X173.662 Y90.275 E703.005
G1 X173.377 Y91.384 E703.063
G1 X173.012 Y92.47 E703.12
G1 X172.575 Y93.515 E703.176
G1 X172.082 Y94.493 E703.231
G1 X171.912 Y94.796 E703.248
G1 X124.325 Y177.217 E707.996
G1 X117.499 Y173.277 E708.39
G1 X114.635 Y181.087 E708.805
G1 X93.913 Y169.053 E710
G1 X99.24 Y162.735 E710.412
G1 X92.469 Y158.827 E710.802
G1 X95.976 Y152.654 E711.157
G1 X98.149 Y148.585 E711.387
G1 X100.174 Y144.477 E711.615
G1 X102.075 Y140.278 E711.845
G1 X103.838 Y136.011 E712.076
G1 X105.447 Y131.722 E712.304
G1 X106.897 Y127.436 E712.53
G1 X108.252 Y122.957 E712.763
G1 X109.463 Y118.402 E712.998
G1 X110.006 Y116.126 E713.115
G1 X110.355 Y114.325 E713.207
G1 X110.401 Y113.956 E713.225
G1 X110.588 Y112.424 E713.302
G1 X110.681 Y110.576 E713.395
G1 X110.643 Y108.747 E713.486
G1 X110.467 Y106.822 E713.582
G1 X110.16 Y104.97 E713.676
G1 X109.723 Y103.146 E713.77
G1 X109.153 Y101.348 E713.864
G1 X108.457 Y99.601 E713.958
G1 X107.656 Y97.941 E714.049
G1 X106.718 Y96.302 E714.144
G1 X105.631 Y94.694 E714.24
G1 X104.507 Y93.256 E714.332
G1 X103.286 Y91.906 E714.422
G1 X101.889 Y90.561 E714.519
G1 X100.448 Y89.365 E714.613
G1 X98.92 Y88.273 E714.706
G1 X97.32 Y87.292 E714.8
G1 X95.623 Y86.414 E714.895
G1 X93.924 Y85.681 E714.987
G1 X92.182 Y85.071 E715.08
G1 X89.814 Y84.354 E715.203
G1 X85.318 Y83.119 E715.436
G1 X80.811 Y82.04 E715.667
G1 X76.231 Y81.103 E715.9
G1 X71.645 Y80.324 E716.132
G1 X67.033 Y79.699 E716.364
G1 X62.402 Y79.227 E716.597
G1 X57.727 Y78.908 E716.83
G1 X53.091 Y78.746 E717.062
;bead-raft
;rapid-leaky
G1 F15000
G0 X53.086 Y78.946
;bead-raft
G1 X45.769 Y78.879 F3600 E717.427
G1 Y40.844 E719.324
G1 X141.212 Y40.846 E724.086
G1 X142.327 Y40.909 E724.142
G1 X143.475 Y41.056 E724.2
G1 X144.612 Y41.286 E724.257
G1 X145.732 Y41.598 E724.315
G1 X146.823 Y41.988 E724.373
G1 X147.918 Y42.473 E724.433
G1 X148.92 Y43.005 E724.49
G1 X149.899 Y43.619 E724.547
G1 X150.832 Y44.301 E724.605
G1 X151.732 Y45.065 E724.664
G1 X152.552 Y45.871 E724.721
G1 X153.325 Y46.746 E724.779
G1 X154.024 Y47.665 E724.837
G1 X154.637 Y48.602 E724.893
G1 X172.081 Y78.81 E726.633
G1 X172.259 Y79.126 E726.651
G1 X172.753 Y80.105 E726.706
G1 X173.063 Y80.847 E726.746
G1 X173.141 Y80.999 E726.755
G1 X173.586 Y82.324 E726.824
G1 X173.857 Y83.394 E726.879
G1 X174.062 Y84.515 E726.936
G1 X174.19 Y85.678 E726.995
G1 X174.234 Y86.817 E727.052
G1 X174.191 Y88.023 E727.112
G1 X174.064 Y89.187 E727.17
G1 X173.858 Y90.318 E727.228
G1 X173.569 Y91.441 E727.285
G1 X173.199 Y92.541 E727.343
G1 X172.757 Y93.599 E727.401
G1 X172.259 Y94.587 E727.456
G1 X172.086 Y94.895 E727.473
G1 X124.398 Y177.49 E732.232
G1 X117.605 Y173.569 E732.623
G1 X114.74 Y181.38 E733.038
G1 X93.606 Y169.106 E734.257
G1 X98.933 Y162.789 E734.669
G1 X92.197 Y158.901 E735.057
G1 X95.801 Y152.557 E735.421
G1 X97.971 Y148.493 E735.651
G1 X99.993 Y144.392 E735.879
G1 X101.892 Y140.198 E736.109
G1 X103.652 Y135.938 E736.339
G1 X105.259 Y131.655 E736.567
G1 X106.707 Y127.375 E736.793
G1 X108.06 Y122.902 E737.026
G1 X109.269 Y118.353 E737.261
G1 X109.811 Y116.084 E737.377
G1 X110.158 Y114.294 E737.468
G1 X110.202 Y113.932 E737.486
G1 X110.388 Y112.407 E737.563
G1 X110.48 Y110.573 E737.655
G1 X110.443 Y108.758 E737.745
G1 X110.269 Y106.848 E737.841
G1 X109.964 Y105.009 E737.934
G1 X109.53 Y103.199 E738.027
G1 X108.965 Y101.415 E738.12
G1 X108.274 Y99.681 E738.213
G1 X107.479 Y98.034 E738.304
G1 X106.548 Y96.408 E738.398
G1 X105.469 Y94.812 E738.494
G1 X104.354 Y93.385 E738.584
G1 X103.142 Y92.045 E738.674
G1 X101.755 Y90.71 E738.771
G1 X100.325 Y89.524 E738.863
G1 X98.81 Y88.44 E738.956
G1 X97.222 Y87.466 E739.049
G1 X95.537 Y86.595 E739.144
G1 X93.851 Y85.867 E739.235
G1 X92.12 Y85.261 E739.327
G1 X89.758 Y84.547 E739.45
G1 X85.268 Y83.313 E739.682
G1 X80.767 Y82.235 E739.913
G1 X76.194 Y81.3 E740.146
G1 X71.614 Y80.522 E740.378
G1 X67.009 Y79.897 E740.61
G1 X62.385 Y79.426 E740.842
G1 X57.717 Y79.108 E741.075
G1 X53.086 Y78.946 E741.306
;bead-raft
;rapid-leaky
G1 F15000
G0 X127.42 Y64.993
;bead-raft
G1 X127.418 Y103.471 F3600 E743.226
G1 X127.611 Y103.859 E743.247
G1 X127.926 Y104.341 E743.276
G1 X128.197 Y104.684 E743.298
G1 X128.496 Y105.014 E743.32
G1 X128.884 Y105.389 E743.347
G1 X129.199 Y105.655 E743.368
G1 X129.542 Y105.907 E743.389
G1 X129.793 Y106.066 E743.404
G1 X130.233 Y106.294 E743.428
G1 X143.703 E744.1
G1 X143.652 Y103.811 E744.224
G1 X143.363 Y97.513 E744.539
G1 X142.884 Y89.758 E744.927
G1 X142.558 Y85.806 E745.124
G1 X140.188 Y64.994 E746.169
G1 X127.42 Y64.993 E746.806
;bead-raft
;rapid-leaky
G1 F15000
G0 X127.02 Y64.6
;bead-raft
G1 X46.369 F3600 E750.83
G1 Y65 E750.85
G1 X127.02 E754.874
G1 Y65.4 E754.894
G1 X46.369 E758.917
G1 Y65.8 E758.937
G1 X127.02 E762.961
G1 Y66.2 E762.981
G1 X46.369 E767.005
G1 Y66.6 E767.025
G1 X127.02 E771.048
G1 Y67 E771.068
G1 X46.369 E775.092
G1 Y67.4 E775.112
G1 X127.02 E779.136
G1 Y67.8 E779.156
G1 X46.369 E783.179
G1 Y68.2 E783.199
G1 X127.02 E787.223
G1 Y68.6 E787.243
G1 X46.369 E791.266
G1 Y69 E791.286
G1 X127.02 E795.31
G1 Y69.4 E795.33
G1 X46.369 E799.354
G1 Y69.8 E799.374
G1 X127.02 E803.397
G1 Y70.2 E803.417
G1 X46.369 E807.441
G1 Y70.6 E807.461
G1 X127.02 E811.485
G1 Y71 E811.505
G1 X46.369 E815.528
G1 Y71.4 E815.548
G1 X127.02 E819.572
G1 Y71.8 E819.592
G1 X46.369 E823.616
G1 Y72.2 E823.635
G1 X127.02 E827.659
G1 Y72.6 E827.679
G1 X46.369 E831.703
G1 Y73 E831.723
G1 X127.02 E835.746
G1 X127.019 Y73.4 E835.766
G1 X46.369 E839.79
G1 Y73.8 E839.81
G1 X127.019 E843.834
G1 Y74.2 E843.854
G1 X46.369 E847.877
G1 Y74.6 E847.897
G1 X127.019 E851.921
G1 Y75 E851.941
G1 X46.369 E855.965
G1 Y75.4 E855.984
G1 X127.019 E860.008
G1 Y75.8 E860.028
G1 X46.369 E864.052
G1 Y76.2 E864.072
G1 X127.019 E868.095
G1 Y76.6 E868.115
G1 X46.369 E872.139
G1 Y77 E872.159
G1 X127.019 E876.183
G1 Y77.4 E876.203
G1 X46.369 E880.226
G1 Y77.8 E880.246
G1 X127.019 E884.27
G1 Y78.2 E884.29
G1 X46.369 E888.313
G1 X46.587 Y41.444 E890.147
G1 X46.369 E890.158
G1 Y78.285 E891.996
G1 X53.099 Y78.346 E892.332
G1 X54.424 Y78.393 E892.398
G1 X59.084 Y78.6 E892.631
G1 X127.019 E896.02
G1 Y79 E896.04
G1 X64.12 E899.178
G1 X59.448 Y78.625 E899.412
G1 X62.435 Y78.829 E899.561
G1 X63.166 Y78.903 E899.598
G1 X67.808 Y79.4 E899.831
G1 X127.019 E902.785
G1 Y79.8 E902.805
G1 X70.758 E905.612
G1 X66.129 Y79.204 E905.845
G1 X67.08 Y79.301 E905.892
G1 X68.687 Y79.519 E905.973
G1 X73.303 Y80.2 E906.206
G1 X127.019 E908.886
G1 Y80.6 E908.906
G1 X75.657 E911.468
G1 X71.054 Y79.84 E911.701
G1 X71.705 Y79.928 E911.734
G1 X73.125 Y80.17 E911.806
G1 X77.722 Y81 E912.039
G1 X127.019 E914.498
G1 Y81.4 E914.518
G1 X79.678 E916.88
G1 X75.083 Y80.502 E917.114
G1 X76.304 Y80.71 E917.175
G1 X76.943 Y80.841 E917.208
G1 X81.526 Y81.8 E917.442
G1 X127.019 E919.711
G1 Y82.2 E919.731
G1 X83.197 E921.917
G1 X84.869 Y82.6 E922.003
G1 X127.019 E924.106
G1 Y83 E924.126
G1 X86.395 E926.153
G1 X87.851 Y83.4 E926.228
G1 X127.019 E928.182
G1 Y83.8 E928.202
G1 X89.306 E930.084
G1 X84.797 Y82.583 E930.317
G1 X85.417 Y82.731 E930.349
G1 X86.855 Y83.127 E930.423
G1 X90.685 Y84.2 E930.621
G1 X127.019 E932.434
G1 Y84.6 E932.454
G1 X92.006 E934.201
G1 X89.357 Y83.814 E934.339
G1 X89.925 Y83.97 E934.368
G1 X91.117 Y84.331 E934.43
G1 X93.189 Y85 E934.539
G1 X127.019 E936.227
G1 Y85.4 E936.247
G1 X94.282 E937.88
G1 X95.209 Y85.8 E937.93
G1 X127.019 E939.517
G1 Y86.2 E939.537
G1 X96.08 E941.081
G1 X96.853 Y86.6 E941.124
G1 X127.019 E942.629
G1 Y87 E942.649
G1 X97.609 E944.116
G1 X98.262 Y87.4 E944.154
G1 X127.019 E945.589
G1 Y87.8 E945.609
G1 X98.914 E947.011
G1 X97.276 Y86.819 E947.107
G1 X97.517 Y86.943 E947.12
G1 X97.899 Y87.177 E947.142
G1 X99.506 Y88.2 E947.237
G1 X127.019 E948.61
G1 Y88.6 E948.63
G1 X100.065 E949.975
G1 X100.624 Y89 E950.009
G1 X127.019 E951.326
G1 Y89.4 E951.346
G1 X101.116 E952.638
G1 X101.598 Y89.8 E952.669
G1 X127.019 E953.938
G1 Y90.2 E953.958
G1 X102.08 E955.202
G1 X100.612 Y88.991 E955.297
G1 X100.692 Y89.048 E955.302
G1 X101.054 Y89.348 E955.325
G1 X102.506 Y90.6 E955.421
G1 X127.019 E956.644
G1 Y91 E956.664
G1 X102.922 E957.866
G1 X103.337 Y91.4 E957.895
G1 X127.019 E959.076
G1 Y91.8 E959.096
G1 X103.73 E960.258
G1 X104.091 Y92.2 E960.285
G1 X127.019 E961.429
G1 Y92.6 E961.449
G1 X104.453 E962.574
G1 X103.161 Y91.231 E962.668
G1 X103.574 Y91.627 E962.697
G1 X103.575 Y91.629
G1 X104.814 Y93 E962.789
G1 X127.019 E963.897
G1 Y93.4 E963.917
G1 X105.127 E965.009
G1 X105.44 Y93.8 E965.034
G1 X127.018 E966.111
G1 Y94.2 E966.131
G1 X105.753 E967.192
G1 X104.594 Y92.756 E967.284
G1 X104.813 Y92.998 E967.301
G1 X104.912 Y93.125 E967.309
G1 X106.051 Y94.6 E967.402
G1 X127.018 E968.448
G1 Y95 E968.468
G1 X106.321 E969.5
G1 X106.591 Y95.4 E969.524
G1 X127.018 E970.543
G1 Y95.8 E970.563
G1 X106.862 E971.569
G1 X105.752 Y94.199 E971.666
G1 X105.955 Y94.458 E971.683
G1 X106.027 Y94.566 E971.689
G1 X107.121 Y96.2 E971.787
G1 X127.018 E972.78
G1 Y96.6 E972.8
G1 X107.35 E973.781
G1 X107.579 Y97 E973.804
G1 X127.018 E974.774
G1 Y97.4 E974.794
G1 X107.808 E975.752
G1 X106.823 Y95.743 E975.849
G1 X107.058 Y96.09 E975.869
G1 X107.084 Y96.136 E975.872
G1 X108.033 Y97.8 E975.968
G1 X127.018 E976.915
G1 Y98.2 E976.935
G1 X108.226 E977.872
G1 X108.419 Y98.6 E977.895
G1 X127.018 E978.822
G1 Y99 E978.842
G1 X108.612 E979.761
G1 X108.805 Y99.4 E979.783
G1 X127.018 E980.692
G1 Y99.8 E980.712
G1 X108.967 E981.612
G1 X109.127 Y100.2 E981.634
G1 X127.018 E982.526
G1 Y100.6 E982.546
G1 X109.286 E983.431
G1 X109.445 Y101 E983.452
G1 X127.018 E984.329
G1 Y101.4 E984.349
G1 X109.589 E985.219
G1 X109.716 Y101.8 E985.239
G1 X127.018 E986.103
G1 Y102.2 E986.123
G1 X109.843 E986.979
G1 X109.969 Y102.6 E987
G1 X127.018 E987.851
G1 Y103 E987.871
G1 X110.096 E988.715
G1 X109.515 Y101.176 E988.811
G1 X109.53 Y101.213 E988.813
G1 X109.643 Y101.57 E988.831
G1 X110.195 Y103.4 E988.927
G1 X127.018 E989.766
G1 Y103.565 E989.774
G1 X127.135 Y103.8 E989.787
G1 X110.291 E990.628
G1 X110.387 Y104.2 E990.648
G1 X127.356 E991.495
G1 X127.601 Y104.575 E991.517
G1 X127.621 Y104.6 E991.519
G1 X110.483 E992.374
G1 X110.018 Y102.752 E992.469
G1 X110.108 Y103.038 E992.484
G1 X110.134 Y103.146 E992.489
G1 X110.571 Y105 E992.584
G1 X127.944 E993.451
G1 X128.208 Y105.292 E993.471
G1 X128.32 Y105.4 E993.479
G1 X110.637 E994.361
G1 X110.703 Y105.8 E994.381
G1 X128.751 E995.281
G1 X128.952 Y105.97 E995.294
G1 X129.266 Y106.2 E995.314
G1 X110.769 E996.237
G1 X110.836 Y106.6 E996.257
G1 X129.954 E997.211
G1 X144.109 E997.917
G1 X164.635 E998.941
G1 X164.866 Y106.2 E998.964
G1 X144.101 E1000
G1 X144.093 Y105.8 E1000.02
G1 X165.097 E1001.068
G1 X165.328 Y105.4 E1001.091
G1 X144.085 E1002.151
G1 X144.077 Y105 E1002.171
G1 X165.559 E1003.242
G1 X165.789 Y104.6 E1003.265
G1 X144.068 E1004.349
G1 X144.06 Y104.2 E1004.369
G1 X166.02 E1005.465
G1 X166.251 Y103.8 E1005.488
G1 X144.052 E1006.595
G1 Y103.798
G1 X144.034 Y103.4 E1006.615
G1 X166.482 E1007.735
G1 X166.713 Y103 E1007.758
G1 X144.015 E1008.891
G1 X143.997 Y102.6 E1008.911
G1 X166.944 E1010.055
G1 X167.175 Y102.2 E1010.078
G1 X143.978 E1011.236
G1 X143.96 Y101.8 E1011.256
G1 X167.406 E1012.425
G1 X167.637 Y101.4 E1012.449
G1 X143.942 E1013.631
G1 X143.923 Y101 E1013.651
G1 X167.868 E1014.845
G1 X168.099 Y100.6 E1014.868
G1 X143.905 E1016.075
G1 X143.887 Y100.2 E1016.095
G1 X168.33 E1017.315
G1 X168.561 Y99.8 E1017.338
G1 X143.868 E1018.57
G1 X143.85 Y99.4 E1018.59
G1 X168.792 E1019.834
G1 X169.023 Y99 E1019.857
G1 X143.831 E1021.114
G1 X143.813 Y98.6 E1021.134
G1 X169.254 E1022.403
G1 X169.485 Y98.2 E1022.426
G1 X143.795 E1023.708
G1 X143.776 Y97.8 E1023.728
G1 X169.716 E1025.022
G1 X169.947 Y97.4 E1025.045
G1 X143.756 E1026.352
G1 X143.732 Y97 E1026.372
G1 X170.177 E1027.691
G1 X170.408 Y96.6 E1027.714
G1 X143.707 E1029.046
G1 X143.682 Y96.2 E1029.066
G1 X170.639 E1030.411
G1 X170.87 Y95.8 E1030.434
G1 X143.658 E1031.792
G1 X143.633 Y95.4 E1031.812
G1 X171.101 E1033.182
G1 X171.332 Y95 E1033.205
G1 X143.608 E1034.589
G1 X143.583 Y94.6 E1034.609
G1 X171.563 E1036.004
G1 X124.178 Y176.671 E1040.732
G1 X171.565 Y94.598 E1045.461
G1 X171.583 Y94.565 E1045.462
G1 X171.782 Y94.2 E1045.483
G1 X143.559 E1046.891
G1 X143.534 Y93.8 E1046.911
G1 X171.984 E1048.331
G1 X172.185 Y93.4 E1048.353
G1 X143.509 E1049.784
G1 X143.485 Y93 E1049.804
G1 X172.357 E1051.244
G1 X172.524 Y92.6 E1051.266
G1 X143.46 E1052.716
G1 X143.435 Y92.2 E1052.736
G1 X172.68 E1054.195
G1 X172.815 Y91.8 E1054.216
G1 X143.411 E1055.683
G1 X143.386 Y91.4 E1055.703
G1 X172.95 E1057.178
G1 X172.585 Y92.454 E1057.233
G1 X172.637 Y92.329 E1057.24
G1 X172.726 Y92.064 E1057.254
G1 X173.063 Y91 E1057.31
G1 X143.361 E1058.792
G1 X143.336 Y90.6 E1058.812
G1 X173.166 E1060.3
G1 X173.269 Y90.2 E1060.32
G1 X143.312 E1061.815
G1 X143.287 Y89.8 E1061.835
G1 X173.342 E1063.334
G1 X173.415 Y89.4 E1063.355
G1 X143.255 E1064.859
G1 X143.222 Y89 E1064.879
G1 X173.481 E1066.389
G1 X173.525 Y88.6 E1066.409
G1 X143.189 E1067.922
G1 X143.156 Y88.2 E1067.943
G1 X173.569 E1069.46
G1 X173.431 Y89.314 E1069.516
G1 X173.47 Y89.101 E1069.527
G1 X173.489 Y88.927 E1069.535
G1 X173.599 Y87.8 E1069.592
G1 X143.123 E1071.112
G1 X143.09 Y87.4 E1071.132
G1 X173.613 E1072.655
G1 X173.627 Y87 E1072.675
G1 X143.057 E1074.2
G1 X143.024 Y86.6 E1074.22
G1 X173.625 E1075.747
G1 X173.61 Y86.2 E1075.767
G1 X142.991 E1077.294
G1 X142.958 Y85.8 E1077.314
G1 X173.594 E1078.843
G1 X173.631 Y86.9 E1078.898
G1 X173.634 Y86.818 E1078.902
G1 X173.621 Y86.503 E1078.918
G1 X173.556 Y85.4 E1078.973
G1 X142.914 E1080.501
G1 X142.868 Y85 E1080.522
G1 X173.512 E1082.05
G1 X173.606 Y86.112 E1082.106
G1 X173.591 Y85.722 E1082.125
G1 Y85.72 E1082.126
G1 X173.468 Y84.6 E1082.182
G1 X142.823 E1083.711
G1 X142.777 Y84.2 E1083.731
G1 X173.394 E1085.258
G1 X173.321 Y83.8 E1085.279
G1 X142.732 E1086.805
G1 X142.686 Y83.4 E1086.825
G1 X173.24 E1088.349
G1 X173.138 Y83 E1088.37
G1 X142.641 E1089.891
G1 X142.595 Y82.6 E1089.911
G1 X173.037 E1091.43
G1 X173.291 Y83.634 E1091.483
G1 X173.27 Y83.522 E1091.489
G1 X173.21 Y83.283 E1091.501
G1 X172.911 Y82.2 E1091.557
G1 X142.55 E1093.072
G1 X142.504 Y81.8 E1093.092
G1 X172.777 E1094.602
G1 X172.643 Y81.4 E1094.623
G1 X142.459 E1096.129
G1 X142.413 Y81 E1096.149
G1 X172.477 E1097.649
G1 X172.31 Y80.6 E1097.671
G1 X142.367 E1099.165
G1 X142.322 Y80.2 E1099.185
G1 X172.129 E1100.672
G1 X171.927 Y79.8 E1100.694
G1 X142.276 E1102.173
G1 X142.231 Y79.4 E1102.194
G1 X171.725 E1103.665
G1 X172.194 Y80.328 E1103.717
G1 X171.73 Y79.409 E1103.768
G1 X171.729 Y79.408
G1 X171.497 Y79 E1103.792
G1 X142.185 E1105.254
G1 X142.14 Y78.6 E1105.274
G1 X171.266 E1106.727
G1 X171.035 Y78.2 E1106.75
G1 X142.094 E1108.194
G1 X142.049 Y77.8 E1108.214
G1 X170.804 E1109.649
G1 X170.573 Y77.4 E1109.672
G1 X142.003 E1111.097
G1 X141.958 Y77 E1111.118
G1 X170.342 E1112.534
G1 X170.111 Y76.6 E1112.557
G1 X141.912 E1113.964
G1 X141.867 Y76.2 E1113.984
G1 X169.88 E1115.381
G1 X169.649 Y75.8 E1115.404
G1 X141.821 E1116.793
G1 X141.775 Y75.4 E1116.813
G1 X169.418 E1118.192
G1 X169.187 Y75 E1118.215
G1 X141.73 E1119.585
G1 X141.684 Y74.6 E1119.605
G1 X168.956 E1120.965
G1 X168.725 Y74.2 E1120.989
G1 X141.639 E1122.34
G1 X141.593 Y73.8 E1122.36
G1 X168.494 E1123.702
G1 X168.264 Y73.4 E1123.725
G1 X141.548 E1125.058
G1 X141.502 Y73 E1125.078
G1 X168.033 E1126.402
G1 X167.802 Y72.6 E1126.425
G1 X141.457 E1127.739
G1 X141.411 Y72.2 E1127.759
G1 X167.571 E1129.064
G1 X167.34 Y71.8 E1129.087
G1 X141.366 E1130.383
G1 X141.32 Y71.4 E1130.403
G1 X167.109 E1131.69
G1 X166.878 Y71 E1131.713
G1 X141.275 E1132.99
G1 X141.229 Y70.6 E1133.01
G1 X166.647 E1134.278
G1 X166.416 Y70.2 E1134.301
G1 X141.183 E1135.56
G1 X141.138 Y69.8 E1135.58
G1 X166.185 E1136.83
G1 X165.954 Y69.4 E1136.853
G1 X141.092 E1138.093
G1 X141.047 Y69 E1138.113
G1 X165.723 E1139.344
G1 X165.492 Y68.6 E1139.367
G1 X141.001 E1140.589
G1 X140.956 Y68.2 E1140.609
G1 X165.261 E1141.822
G1 X165.03 Y67.8 E1141.845
G1 X140.91 E1143.048
G1 X140.865 Y67.4 E1143.068
G1 X164.799 E1144.263
G1 X164.568 Y67 E1144.286
G1 X140.819 E1145.47
G1 X140.774 Y66.6 E1145.49
G1 X164.337 E1146.666
G1 X164.106 Y66.2 E1146.689
G1 X140.728 E1147.855
G1 X140.683 Y65.8 E1147.875
G1 X163.875 E1149.033
G1 X163.644 Y65.4 E1149.056
G1 X140.637 E1150.203
G1 X140.592 Y65 E1150.224
G1 X163.413 E1151.362
G1 X163.182 Y64.6 E1151.385
G1 X140.546 E1152.515
;bead-raft
;rapid-leaky
G1 F15000
G0 X159.255 Y57.8
;bead-raft
G1 X46.369 F3600 E1158.146
G1 Y57.4 E1158.166
G1 X159.024 E1163.787
G1 X158.793 Y57 E1163.81
G1 X46.369 E1169.419
G1 Y56.6 E1169.439
G1 X158.562 E1175.036
G1 X158.331 Y56.2 E1175.059
G1 X46.369 E1180.645
G1 Y55.8 E1180.665
G1 X158.101 E1186.239
G1 X157.87 Y55.4 E1186.262
G1 X46.369 E1191.825
G1 Y55 E1191.845
G1 X157.639 E1197.396
G1 X157.408 Y54.6 E1197.419
G1 X46.369 E1202.959
G1 Y54.2 E1202.979
G1 X157.177 E1208.507
G1 X156.946 Y53.8 E1208.53
G1 X46.369 E1214.047
G1 Y53.4 E1214.067
G1 X156.715 E1219.572
G1 X156.484 Y53 E1219.595
G1 X46.369 E1225.089
G1 Y52.6 E1225.109
G1 X156.253 E1230.591
G1 X156.022 Y52.2 E1230.614
G1 X46.369 E1236.084
G1 Y51.8 E1236.104
G1 X155.791 E1241.563
G1 X155.56 Y51.4 E1241.586
G1 X46.369 E1247.034
G1 Y51 E1247.054
G1 X155.329 E1252.49
G1 X155.098 Y50.6 E1252.513
G1 X46.369 E1257.938
G1 Y50.2 E1257.958
G1 X154.867 E1263.37
G1 X154.636 Y49.8 E1263.394
G1 X46.369 E1268.795
G1 Y49.4 E1268.815
G1 X154.405 E1274.205
G1 X154.174 Y49 E1274.228
G1 X46.369 E1279.606
G1 Y48.6 E1279.626
G1 X153.919 E1284.992
G1 X153.657 Y48.2 E1285.016
G1 X46.369 E1290.368
G1 Y47.8 E1290.388
G1 X153.373 E1295.727
G1 X153.069 Y47.4 E1295.752
G1 X46.369 E1301.075
G1 Y47 E1301.095
G1 X152.749 E1306.402
G1 X152.395 Y46.6 E1306.429
G1 X46.369 E1311.719
G1 Y46.2 E1311.739
G1 X152.031 E1317.01
G1 X151.624 Y45.8 E1317.039
G1 X46.369 E1322.29
G1 Y45.4 E1322.31
G1 X151.199 E1327.54
G1 X150.728 Y45 E1327.571
G1 X46.369 E1332.777
G1 Y44.6 E1332.797
G1 X150.224 E1337.978
G1 X149.677 Y44.2 E1338.012
G1 X46.369 E1343.166
G1 Y43.8 E1343.186
G1 X149.058 E1348.309
G1 X149.98 Y44.421 E1348.365
G1 X149.562 Y44.116 E1348.391
G1 X149.332 Y43.972 E1348.404
G1 X148.384 Y43.4 E1348.459
G1 X46.369 E1353.549
G1 Y43 E1353.569
G1 X147.625 E1358.621
G1 X146.723 Y42.6 E1358.67
G1 X46.369 E1363.677
G1 Y42.2 E1363.697
G1 X145.634 E1368.649
G1 X146.684 Y42.583 E1368.705
G1 X146.6 Y42.546 E1368.709
G1 X145.55 Y42.17 E1368.765
G1 X145.212 Y42.076 E1368.782
G1 X144.128 Y41.8 E1368.838
G1 X46.369 E1373.715
;bead-raft
;rapid-leaky
G1 F15000
G0 Y58.2
;bead-raft
G1 X52.933 F3600 E1374.043
G1 X50.664 Y58.6 E1374.158
G1 X46.369 E1374.372
G1 Y59 E1374.392
G1 X49.499 E1374.548
G1 Y59.4 E1374.568
G1 X46.369 E1374.724
G1 Y59.8 E1374.744
G1 X49.499 E1374.9
G1 Y60.2 E1374.92
G1 X46.369 E1375.077
G1 Y60.6 E1375.096
G1 X50.159 E1375.286
G1 X52.429 Y61 E1375.401
G1 X46.369 E1375.703
G1 Y61.4 E1375.723
G1 X161.334 E1381.458
G1 X161.565 Y61.8 E1381.481
G1 X46.369 E1387.229
G1 Y62.2 E1387.249
G1 X161.796 E1393.007
G1 X162.027 Y62.6 E1393.03
G1 X46.369 E1398.801
G1 Y63 E1398.821
G1 X162.258 E1404.602
G1 X162.489 Y63.4 E1404.625
G1 X46.369 E1410.419
G1 Y63.8 E1410.438
G1 X162.72 E1416.243
G1 X162.951 Y64.2 E1416.266
G1 X46.369 E1422.083
;bead-raft
;rapid-leaky
G1 F15000
G0 X54.569 Y61
;bead-raft
G1 X161.103 F3600 E1427.398
G1 X160.872 Y60.6 E1427.421
G1 X54.569 E1432.724
G1 Y60.2 E1432.744
G1 X160.641 E1438.036
G1 X160.41 Y59.8 E1438.059
G1 X54.569 E1443.34
G1 Y59.4 E1443.359
G1 X160.179 E1448.628
G1 X159.948 Y59 E1448.651
G1 X54.569 E1453.909
G1 Y58.6 E1453.929
G1 X159.717 E1459.175
G1 X159.486 Y58.2 E1459.198
G1 X54.569 E1464.432
;bead-raft
;rapid-leaky
G1 F15000
G0 X127.62 Y65.193
;bead-raft
G1 X127.618 Y103.424 F3600 E1466.339
G1 X127.785 Y103.759 E1466.358
G1 X128.089 Y104.224 E1466.386
G1 X128.35 Y104.555 E1466.407
G1 X128.64 Y104.875 E1466.428
G1 X129.018 Y105.24 E1466.455
G1 X129.323 Y105.498 E1466.475
G1 X129.655 Y105.741 E1466.495
G1 X129.893 Y105.893 E1466.509
G1 X130.281 Y106.094 E1466.531
G1 X143.499 E1467.19
G1 X143.452 Y103.817 E1467.304
G1 X143.163 Y97.524 E1467.618
G1 X142.684 Y89.772 E1468.006
G1 X142.358 Y85.826 E1468.203
G1 X140.01 Y65.194 E1469.239
G1 X127.62 Y65.193 E1469.857
;bead-raft
;rapid-leaky
G1 F15000
G0 X110.885 Y107
;bead-raft
G1 X164.404 F3600 E1472.528
G1 X164.173 Y107.4 E1472.551
G1 X110.922 E1475.207
G1 X110.958 Y107.8 E1475.227
G1 X163.942 E1477.871
G1 X163.711 Y108.2 E1477.894
G1 X110.995 E1480.524
G1 X111.031 Y108.6 E1480.544
G1 X163.48 E1483.161
G1 X163.249 Y109 E1483.184
G1 X111.048 E1485.788
G1 X111.056 Y109.4 E1485.808
G1 X163.018 E1488.4
G1 X162.787 Y109.8 E1488.423
G1 X111.065 E1491.004
G1 X111.073 Y110.2 E1491.024
G1 X162.556 E1493.592
G1 X162.325 Y110.6 E1493.615
G1 X111.08 E1496.172
G1 X111.06 Y111 E1496.192
G1 X162.094 E1498.738
G1 X161.863 Y111.4 E1498.761
G1 X111.04 E1501.297
G1 X111.019 Y111.8 E1501.317
G1 X161.632 E1503.842
G1 X161.401 Y112.2 E1503.865
G1 X110.999 E1506.379
G1 X111.076 Y110.326 E1506.473
G1 X111.081 Y110.582 E1506.486
G1 X111.072 Y110.754 E1506.494
G1 X110.969 Y112.6 E1506.586
G1 X161.171 E1509.091
G1 X160.94 Y113 E1509.114
G1 X110.92 E1511.609
G1 X110.871 Y113.4 E1511.63
G1 X160.709 E1514.116
G1 X160.478 Y113.8 E1514.139
G1 X110.823 E1516.616
G1 X110.999 Y112.21 E1516.696
G1 X110.986 Y112.458 E1516.709
G1 X110.89 Y113.247 E1516.748
G1 X110.774 Y114.2 E1516.796
G1 X160.247 E1519.264
G1 X160.016 Y114.6 E1519.287
G1 X110.71 E1521.747
G1 X110.632 Y115 E1521.768
G1 X159.785 E1524.22
G1 X159.554 Y115.4 E1524.243
G1 X110.554 E1526.688
G1 X110.477 Y115.8 E1526.708
G1 X159.323 E1529.145
G1 X159.092 Y116.2 E1529.168
G1 X110.399 E1531.597
G1 X110.751 Y114.385 E1531.689
G1 Y114.388
G1 X110.691 Y114.698 E1531.705
G1 X110.304 Y116.6 E1531.802
G1 X158.861 E1534.224
G1 X158.63 Y117 E1534.248
G1 X110.209 E1536.663
G1 X110.113 Y117.4 E1536.684
G1 X158.399 E1539.093
G1 X158.168 Y117.8 E1539.116
G1 X110.018 E1541.518
G1 X109.922 Y118.2 E1541.539
G1 X157.937 E1543.934
G1 X157.706 Y118.6 E1543.957
G1 X109.824 E1546.346
G1 X109.718 Y119 E1546.367
G1 X157.475 E1548.749
G1 X157.244 Y119.4 E1548.772
G1 X109.611 E1551.149
G1 X109.505 Y119.8 E1551.169
G1 X157.014 E1553.54
G1 X156.783 Y120.2 E1553.563
G1 X109.399 E1555.927
G1 X109.293 Y120.6 E1555.947
G1 X156.552 E1558.305
G1 X156.321 Y121 E1558.328
G1 X109.186 E1560.68
G1 X109.08 Y121.4 E1560.7
G1 X156.09 E1563.046
G1 X155.859 Y121.8 E1563.069
G1 X108.974 E1565.408
G1 X108.867 Y122.2 E1565.428
G1 X155.628 E1567.761
G1 X155.397 Y122.6 E1567.784
G1 X108.761 E1570.111
G1 X108.655 Y123 E1570.132
G1 X155.166 E1572.452
G1 X154.935 Y123.4 E1572.475
G1 X108.536 E1574.79
G1 X108.415 Y123.8 E1574.811
G1 X154.704 E1577.12
G1 X154.473 Y124.2 E1577.143
G1 X108.294 E1579.447
G1 X108.173 Y124.6 E1579.468
G1 X154.242 E1581.766
G1 X154.011 Y125 E1581.789
G1 X108.052 E1584.082
G1 X107.931 Y125.4 E1584.103
G1 X153.78 E1586.391
G1 X153.549 Y125.8 E1586.414
G1 X107.81 E1588.696
G1 X107.689 Y126.2 E1588.716
G1 X153.318 E1590.993
G1 X153.087 Y126.6 E1591.016
G1 X107.568 E1593.287
G1 X107.447 Y127 E1593.308
G1 X152.856 E1595.573
G1 X152.626 Y127.4 E1595.596
G1 X107.326 E1597.856
G1 X108.68 Y122.905 E1598.09
G1 X108.637 Y123.066 E1598.099
G1 X108.561 Y123.319 E1598.112
G1 X107.197 Y127.8 E1598.346
G1 X152.395 E1600.6
G1 X152.164 Y128.2 E1600.624
G1 X107.061 E1602.874
G1 X106.926 Y128.6 E1602.895
G1 X151.933 E1605.14
G1 X151.702 Y129 E1605.163
G1 X106.791 E1607.404
G1 X106.655 Y129.4 E1607.425
G1 X151.471 E1609.661
G1 X151.24 Y129.8 E1609.684
G1 X106.52 E1611.915
G1 X106.385 Y130.2 E1611.936
G1 X151.009 E1614.162
G1 X150.778 Y130.6 E1614.185
G1 X106.249 E1616.407
G1 X106.114 Y131 E1616.428
G1 X150.547 E1618.645
G1 X150.316 Y131.4 E1618.668
G1 X105.979 E1620.88
G1 X105.843 Y131.8 E1620.901
G1 X150.085 E1623.108
G1 X149.854 Y132.2 E1623.131
G1 X105.695 E1625.334
G1 X105.545 Y132.6 E1625.355
G1 X149.623 E1627.555
G1 X149.392 Y133 E1627.578
G1 X105.395 E1629.773
G1 X105.245 Y133.4 E1629.794
G1 X149.161 E1631.985
G1 X148.93 Y133.8 E1632.008
G1 X105.095 E1634.195
G1 X104.945 Y134.2 E1634.216
G1 X148.699 E1636.399
G1 X148.468 Y134.6 E1636.422
G1 X104.794 E1638.601
G1 X104.644 Y135 E1638.623
G1 X148.238 E1640.797
G1 X148.007 Y135.4 E1640.82
G1 X104.494 E1642.991
G1 X104.344 Y135.8 E1643.013
G1 X147.776 E1645.179
G1 X147.545 Y136.2 E1645.203
G1 X104.192 E1647.365
G1 X104.027 Y136.6 E1647.387
G1 X147.314 E1649.547
G1 X147.083 Y137 E1649.57
G1 X103.862 E1651.726
G1 X103.697 Y137.4 E1651.747
G1 X146.852 E1653.9
G1 X146.621 Y137.8 E1653.923
G1 X103.531 E1656.073
G1 X103.366 Y138.2 E1656.095
G1 X146.39 E1658.241
G1 X146.159 Y138.6 E1658.264
G1 X103.201 E1660.407
G1 X103.036 Y139 E1660.429
G1 X145.928 E1662.569
G1 X145.697 Y139.4 E1662.592
G1 X102.871 E1664.729
G1 X102.705 Y139.8 E1664.75
G1 X145.466 E1666.884
G1 X145.235 Y140.2 E1666.907
G1 X102.54 E1669.037
G1 X104.299 Y135.92 E1669.268
G1 X104.21 Y136.158 E1669.28
G1 X104.141 Y136.324 E1669.289
G1 X102.368 Y140.6 E1669.52
G1 X145.004 E1671.647
G1 X144.773 Y141 E1671.67
G1 X102.187 E1673.795
G1 X102.006 Y141.4 E1673.817
G1 X144.542 E1675.939
G1 X144.311 Y141.8 E1675.962
G1 X101.825 E1678.082
G1 X101.644 Y142.2 E1678.104
G1 X144.08 E1680.221
G1 X143.85 Y142.6 E1680.244
G1 X101.463 E1682.359
G1 X101.282 Y143 E1682.38
G1 X143.619 E1684.493
G1 X143.388 Y143.4 E1684.516
G1 X101.101 E1686.625
G1 X100.92 Y143.8 E1686.647
G1 X143.157 E1688.754
G1 X142.926 Y144.2 E1688.777
G1 X100.739 E1690.882
G1 X100.558 Y144.6 E1690.904
G1 X142.695 E1693.006
G1 X142.464 Y145 E1693.029
G1 X100.362 E1695.13
G1 X100.165 Y145.4 E1695.152
G1 X142.233 E1697.251
G1 X142.002 Y145.8 E1697.274
G1 X99.968 E1699.371
G1 X99.771 Y146.2 E1699.393
G1 X141.771 E1701.489
G1 X141.54 Y146.6 E1701.512
G1 X99.574 E1703.605
G1 X99.376 Y147 E1703.628
G1 X141.309 E1705.72
G1 X141.078 Y147.4 E1705.743
G1 X99.179 E1707.833
G1 X98.982 Y147.8 E1707.855
G1 X140.847 E1709.944
G1 X140.616 Y148.2 E1709.967
G1 X98.785 E1712.054
G1 X98.588 Y148.6 E1712.076
G1 X140.385 E1714.161
G1 X140.154 Y149 E1714.185
G1 X98.381 E1716.269
G1 X98.167 Y149.4 E1716.291
G1 X139.923 E1718.375
G1 X139.693 Y149.8 E1718.398
G1 X97.954 E1720.48
G1 X97.74 Y150.2 E1720.503
G1 X139.462 E1722.584
G1 X139.231 Y150.6 E1722.607
G1 X97.526 E1724.688
G1 X97.313 Y151 E1724.71
G1 X139 E1726.79
G1 X138.769 Y151.4 E1726.813
G1 X97.099 E1728.892
G1 X96.885 Y151.8 E1728.915
G1 X138.538 E1730.993
G1 X138.307 Y152.2 E1731.016
G1 X96.672 E1733.093
G1 X96.458 Y152.6 E1733.116
G1 X138.076 E1735.192
G1 X137.845 Y153 E1735.215
G1 X96.239 E1737.291
G1 X96.012 Y153.4 E1737.314
G1 X137.614 E1739.389
G1 X137.383 Y153.8 E1739.412
G1 X95.785 E1741.488
G1 X95.557 Y154.2 E1741.51
G1 X137.152 E1743.586
G1 X136.921 Y154.6 E1743.609
G1 X95.33 E1745.684
G1 X95.103 Y155 E1745.707
G1 X136.69 E1747.781
G1 X136.459 Y155.4 E1747.804
G1 X94.876 E1749.879
G1 X94.648 Y155.8 E1749.902
G1 X136.228 E1751.976
G1 X135.997 Y156.2 E1752
G1 X94.421 E1754.074
G1 X94.194 Y156.6 E1754.097
G1 X135.766 E1756.171
G1 X135.535 Y157 E1756.194
G1 X93.967 E1758.268
G1 X93.739 Y157.4 E1758.291
G1 X135.305 E1760.364
G1 X135.074 Y157.8 E1760.387
G1 X93.512 E1762.461
G1 X93.285 Y158.2 E1762.484
G1 X134.843 E1764.557
G1 X134.612 Y158.6 E1764.58
G1 X93.058 E1766.653
G1 X96.356 Y152.791 E1766.987
G1 X96.326 Y152.847 E1766.99
G1 X96.057 Y153.321 E1767.017
G1 X93.568 Y159 E1767.326
G1 X134.381 E1769.362
G1 X134.15 Y159.4 E1769.385
G1 X94.261 E1771.375
G1 X94.954 Y159.8 E1771.415
G1 X133.919 E1773.359
G1 X133.688 Y160.2 E1773.382
G1 X95.647 E1775.28
G1 X96.34 Y160.6 E1775.32
G1 X133.457 E1777.172
G1 X133.226 Y161 E1777.195
G1 X97.033 E1779.001
G1 X97.726 Y161.4 E1779.041
G1 X132.995 E1780.8
G1 X132.764 Y161.8 E1780.823
G1 X98.419 E1782.537
G1 X99.112 Y162.2 E1782.577
G1 X132.533 E1784.244
G1 X132.302 Y162.6 E1784.267
G1 X99.806 E1785.888
G1 X93.036 Y158.638 E1786.28
G1 X93.013 Y158.679 E1786.282
G1 X93.415 Y158.912 E1786.305
G1 X99.54 Y163 E1786.672
G1 X132.071 E1788.296
G1 X131.84 Y163.4 E1788.319
G1 X99.203 E1789.947
G1 X98.866 Y163.8 E1789.973
G1 X131.609 E1791.607
G1 X131.378 Y164.2 E1791.63
G1 X98.528 E1793.268
G1 X98.191 Y164.6 E1793.295
G1 X131.147 E1794.939
G1 X130.917 Y165 E1794.962
G1 X97.854 E1796.611
G1 X97.516 Y165.4 E1796.637
G1 X130.686 E1798.292
G1 X130.455 Y165.8 E1798.315
G1 X97.179 E1799.975
G1 X96.842 Y166.2 E1800.001
G1 X130.224 E1801.667
G1 X129.993 Y166.6 E1801.69
G1 X96.505 E1803.361
G1 X96.167 Y167 E1803.387
G1 X129.762 E1805.063
G1 X129.531 Y167.4 E1805.086
G1 X95.83 E1806.767
G1 X95.493 Y167.8 E1806.793
G1 X129.3 E1808.48
G1 X129.069 Y168.2 E1808.503
G1 X95.155 E1810.195
G1 X94.818 Y168.6 E1810.221
G1 X128.838 E1811.918
G1 X128.607 Y169 E1811.941
G1 X94.618 E1813.637
G1 X95.307 Y169.4 E1813.677
G1 X128.376 E1815.327
G1 X128.145 Y169.8 E1815.35
G1 X95.995 E1816.954
G1 X96.684 Y170.2 E1816.994
G1 X127.914 E1818.552
G1 X127.683 Y170.6 E1818.575
G1 X97.373 E1820.087
G1 X98.062 Y171 E1820.127
G1 X127.452 E1821.593
G1 X127.221 Y171.4 E1821.616
G1 X98.751 E1823.036
G1 X99.439 Y171.8 E1823.076
G1 X126.99 E1824.451
G1 X126.759 Y172.2 E1824.474
G1 X100.128 E1825.802
G1 X100.817 Y172.6 E1825.842
G1 X126.529 E1827.125
G1 X126.298 Y173 E1827.148
G1 X117.819 E1827.571
G1 X118.512 Y173.4 E1827.611
G1 X126.067 E1827.988
G1 X125.836 Y173.8 E1828.011
G1 X119.205 E1828.341
G1 X119.898 Y174.2 E1828.381
G1 X125.605 E1828.666
G1 X125.374 Y174.6 E1828.689
G1 X120.591 E1828.928
G1 X121.284 Y175 E1828.968
G1 X125.143 E1829.16
G1 X124.912 Y175.4 E1829.183
G1 X121.977 E1829.33
G1 X122.669 Y175.8 E1829.37
G1 X124.681 E1829.47
G1 X124.45 Y176.2 E1829.493
G1 X123.362 E1829.547
G1 X124.055 Y176.6 E1829.587
G1 X124.219 E1829.595
;bead-raft
;rapid-leaky
G1 F15000
G0 X117.175 Y173
;bead-raft
G1 X101.506 F3600 E1830.377
G1 X102.194 Y173.4 E1830.417
G1 X117.028 E1831.157
G1 X116.882 Y173.8 E1831.178
G1 X102.883 E1831.877
G1 X103.572 Y174.2 E1831.916
G1 X116.735 E1832.573
G1 X116.588 Y174.6 E1832.594
G1 X104.261 E1833.209
G1 X104.95 Y175 E1833.249
G1 X116.441 E1833.822
G1 X116.295 Y175.4 E1833.844
G1 X105.638 E1834.375
G1 X106.327 Y175.8 E1834.415
G1 X116.148 E1834.905
G1 X116.001 Y176.2 E1834.926
G1 X107.016 E1835.375
G1 X107.705 Y176.6 E1835.414
G1 X115.854 E1835.821
G1 X115.708 Y177 E1835.842
G1 X108.394 E1836.207
G1 X109.082 Y177.4 E1836.247
G1 X115.561 E1836.57
G1 X115.414 Y177.8 E1836.591
G1 X109.771 E1836.873
G1 X110.46 Y178.2 E1836.912
G1 X115.268 E1837.152
G1 X115.121 Y178.6 E1837.174
G1 X111.149 E1837.372
G1 X111.838 Y179 E1837.411
G1 X114.974 E1837.568
G1 X114.827 Y179.4 E1837.589
G1 X112.526 E1837.704
G1 X113.215 Y179.8 E1837.744
G1 X114.681 E1837.817
G1 X114.534 Y180.2 E1837.838
G1 X113.904 E1837.87
;bead-raft
G1 F1800 E1837.37
;Layer : 4 of 151
;rapid-leaky
G1 F15000
G0 X114.635 Y181.087 Z1.1
G1 F1800 E1837.87
;bead-raft
G1 X93.913 Y169.053 F3600 E1839.065
G1 X99.24 Y162.735 E1839.477
G1 X92.469 Y158.827 E1839.867
G1 X95.976 Y152.654 E1840.222
G1 X98.149 Y148.585 E1840.452
G1 X100.174 Y144.477 E1840.68
G1 X102.075 Y140.278 E1840.91
G1 X103.838 Y136.011 E1841.141
G1 X105.447 Y131.722 E1841.369
G1 X106.897 Y127.436 E1841.595
G1 X108.252 Y122.957 E1841.828
G1 X109.463 Y118.402 E1842.063
G1 X110.006 Y116.126 E1842.18
G1 X110.355 Y114.325 E1842.272
G1 X110.401 Y113.956 E1842.29
G1 X110.588 Y112.424 E1842.367
G1 X110.681 Y110.576 E1842.46
G1 X110.643 Y108.747 E1842.551
G1 X110.467 Y106.822 E1842.647
G1 X110.16 Y104.97 E1842.741
G1 X109.723 Y103.146 E1842.834
G1 X109.153 Y101.348 E1842.929
G1 X108.457 Y99.601 E1843.022
G1 X107.656 Y97.941 E1843.114
G1 X106.718 Y96.302 E1843.209
G1 X105.631 Y94.694 E1843.305
G1 X104.507 Y93.256 E1843.396
G1 X103.286 Y91.906 E1843.487
G1 X101.889 Y90.561 E1843.584
G1 X100.448 Y89.365 E1843.677
G1 X98.92 Y88.273 E1843.771
G1 X97.32 Y87.292 E1843.865
G1 X95.623 Y86.414 E1843.96
G1 X93.924 Y85.681 E1844.052
G1 X92.182 Y85.071 E1844.145
G1 X89.814 Y84.354 E1844.268
G1 X85.318 Y83.119 E1844.501
G1 X80.811 Y82.04 E1844.732
G1 X76.231 Y81.103 E1844.965
G1 X71.645 Y80.324 E1845.197
G1 X67.033 Y79.699 E1845.429
G1 X62.402 Y79.227 E1845.661
G1 X57.727 Y78.908 E1845.895
G1 X53.091 Y78.746 E1846.127
G1 X45.969 Y78.681 E1846.482
G1 Y41.044 E1848.36
G1 X141.207 Y41.046 E1853.111
G1 X142.308 Y41.109 E1853.166
G1 X143.443 Y41.253 E1853.223
G1 X144.565 Y41.48 E1853.281
G1 X145.671 Y41.789 E1853.338
G1 X146.749 Y42.174 E1853.395
G1 X147.83 Y42.653 E1853.454
G1 X148.82 Y43.179 E1853.51
G1 X149.787 Y43.785 E1853.567
G1 X150.708 Y44.458 E1853.624
G1 X151.597 Y45.213 E1853.682
G1 X152.407 Y46.009 E1853.738
G1 X153.171 Y46.873 E1853.796
G1 X153.86 Y47.78 E1853.853
G1 X154.466 Y48.706 E1853.908
G1 X171.907 Y78.91 E1855.648
G1 X172.082 Y79.22 E1855.666
G1 X172.571 Y80.188 E1855.72
G1 X172.881 Y80.932 E1855.76
G1 X172.957 Y81.078 E1855.768
G1 X173.394 Y82.38 E1855.837
G1 X173.661 Y83.437 E1855.891
G1 X173.864 Y84.544 E1855.948
G1 X173.991 Y85.693 E1856.005
G1 X174.034 Y86.818 E1856.061
G1 X173.992 Y88.009 E1856.121
G1 X173.866 Y89.158 E1856.178
G1 X173.662 Y90.275 E1856.235
G1 X173.377 Y91.384 E1856.292
G1 X173.012 Y92.47 E1856.349
G1 X172.575 Y93.515 E1856.406
G1 X172.082 Y94.493 E1856.461
G1 X171.912 Y94.796 E1856.478
G1 X124.325 Y177.217 E1861.226
G1 X117.499 Y173.277 E1861.619
G1 X114.635 Y181.087 E1862.034
;bead-raft
;rapid-leaky
G1 F15000
G0 X114.74 Y181.38
;bead-raft
G1 X93.606 Y169.106 F3600 E1863.254
G1 X98.933 Y162.789 E1863.666
G1 X92.197 Y158.901 E1864.054
G1 X95.801 Y152.557 E1864.418
G1 X97.971 Y148.493 E1864.648
G1 X99.993 Y144.392 E1864.876
G1 X101.892 Y140.198 E1865.105
G1 X103.652 Y135.938 E1865.335
G1 X105.259 Y131.655 E1865.564
G1 X106.707 Y127.375 E1865.789
G1 X108.06 Y122.902 E1866.022
G1 X109.269 Y118.353 E1866.257
G1 X109.811 Y116.084 E1866.373
G1 X110.158 Y114.294 E1866.464
G1 X110.202 Y113.932 E1866.483
G1 X110.388 Y112.407 E1866.559
G1 X110.48 Y110.573 E1866.651
G1 X110.443 Y108.758 E1866.741
G1 X110.269 Y106.848 E1866.837
G1 X109.964 Y105.009 E1866.93
G1 X109.53 Y103.199 E1867.023
G1 X108.965 Y101.415 E1867.116
G1 X108.274 Y99.681 E1867.209
G1 X107.479 Y98.034 E1867.301
G1 X106.548 Y96.408 E1867.394
G1 X105.469 Y94.812 E1867.49
G1 X104.354 Y93.385 E1867.581
G1 X103.142 Y92.045 E1867.671
G1 X101.755 Y90.71 E1867.767
G1 X100.325 Y89.524 E1867.859
G1 X98.81 Y88.44 E1867.953
G1 X97.222 Y87.466 E1868.045
G1 X95.537 Y86.595 E1868.14
G1 X93.851 Y85.867 E1868.232
G1 X92.12 Y85.261 E1868.323
G1 X89.758 Y84.547 E1868.446
G1 X85.268 Y83.313 E1868.679
G1 X80.767 Y82.235 E1868.909
G1 X76.194 Y81.3 E1869.142
G1 X71.614 Y80.522 E1869.374
G1 X67.009 Y79.897 E1869.606
G1 X62.385 Y79.426 E1869.838
G1 X57.717 Y79.108 E1870.071
G1 X53.086 Y78.946 E1870.302
G1 X45.769 Y78.879 E1870.667
G1 Y40.844 E1872.565
G1 X141.212 Y40.846 E1877.327
G1 X142.327 Y40.909 E1877.382
G1 X143.475 Y41.056 E1877.44
G1 X144.612 Y41.286 E1877.498
G1 X145.732 Y41.598 E1877.556
G1 X146.823 Y41.988 E1877.614
G1 X147.918 Y42.473 E1877.674
G1 X148.92 Y43.005 E1877.73
G1 X149.899 Y43.619 E1877.788
G1 X150.832 Y44.301 E1877.846
G1 X151.732 Y45.065 E1877.904
G1 X152.552 Y45.871 E1877.962
G1 X153.325 Y46.746 E1878.02
G1 X154.024 Y47.665 E1878.078
G1 X154.637 Y48.602 E1878.134
G1 X172.081 Y78.81 E1879.874
G1 X172.259 Y79.126 E1879.892
G1 X172.753 Y80.105 E1879.947
G1 X173.063 Y80.847 E1879.987
G1 X173.141 Y80.999 E1879.995
G1 X173.586 Y82.324 E1880.065
G1 X173.857 Y83.394 E1880.12
G1 X174.062 Y84.515 E1880.177
G1 X174.19 Y85.678 E1880.235
G1 X174.234 Y86.817 E1880.292
G1 X174.191 Y88.023 E1880.352
G1 X174.064 Y89.187 E1880.411
G1 X173.858 Y90.318 E1880.468
G1 X173.569 Y91.441 E1880.526
G1 X173.199 Y92.541 E1880.584
G1 X172.757 Y93.599 E1880.641
G1 X172.259 Y94.587 E1880.696
G1 X172.086 Y94.895 E1880.714
G1 X124.398 Y177.49 E1885.472
G1 X117.605 Y173.569 E1885.864
G1 X114.74 Y181.38 E1886.279
;bead-raft
;rapid-leaky
G1 F15000
G0 X130.233 Y106.294
;bead-raft
G1 X143.703 F3600 E1886.951
G1 X143.652 Y103.811 E1887.074
G1 X143.363 Y97.513 E1887.389
G1 X142.884 Y89.758 E1887.777
G1 X142.558 Y85.806 E1887.974
G1 X140.188 Y64.994 E1889.02
G1 X127.42 Y64.993 E1889.656
G1 X127.418 Y103.471 E1891.576
G1 X127.611 Y103.859 E1891.598
G1 X127.926 Y104.341 E1891.627
G1 X128.197 Y104.684 E1891.648
G1 X128.496 Y105.014 E1891.671
G1 X128.884 Y105.389 E1891.698
G1 X129.199 Y105.655 E1891.718
G1 X129.542 Y105.907 E1891.739
G1 X129.793 Y106.066 E1891.754
G1 X130.233 Y106.294 E1891.779
;bead-raft
;rapid-leaky
G1 F15000
G0 X130.281 Y106.094
;bead-raft
G1 X143.499 F3600 E1892.438
G1 X143.452 Y103.817 E1892.552
G1 X143.163 Y97.524 E1892.866
G1 X142.684 Y89.772 E1893.254
G1 X142.358 Y85.826 E1893.451
G1 X140.01 Y65.194 E1894.487
G1 X127.62 Y65.193 E1895.105
G1 X127.618 Y103.424 E1897.013
G1 X127.785 Y103.759 E1897.031
G1 X128.089 Y104.224 E1897.059
G1 X128.35 Y104.555 E1897.08
G1 X128.64 Y104.875 E1897.102
G1 X129.018 Y105.24 E1897.128
G1 X129.323 Y105.498 E1897.148
G1 X129.655 Y105.741 E1897.168
G1 X129.893 Y105.893 E1897.182
G1 X130.281 Y106.094 E1897.204
;bead-raft
G1 F1800 E1896.704
;rapid-dry
G1 F15000
G0 X54.169 Y60.901
G1 F1800 E1897.204
;bead-raft
G1 Y58.388 F3600 E1897.329
G1 X49.899 Y59.141 E1897.546
G1 Y60.148 E1897.596
G1 X54.169 Y60.901 E1897.812
;bead-raft
;rapid-leaky
G1 F15000
G0 X53.969 Y60.662
;bead-raft
G1 Y58.627 F3600 E1897.914
G1 X50.099 Y59.309 E1898.11
G1 Y59.98 E1898.143
G1 X53.969 Y60.662 E1898.339
;bead-raft
;rapid-leaky
G1 F15000
G0 X54.569 Y61
;bead-raft
G1 X161.103 F3600 E1903.655
G1 X160.872 Y60.6 E1903.678
G1 X54.569 E1908.981
G1 Y60.2 E1909.001
G1 X160.641 E1914.293
G1 X160.41 Y59.8 E1914.316
G1 X54.569 E1919.596
G1 Y59.4 E1919.616
G1 X160.179 E1924.885
G1 X159.948 Y59 E1924.908
G1 X54.569 E1930.166
G1 Y58.6 E1930.186
G1 X159.717 E1935.432
G1 X159.486 Y58.2 E1935.455
G1 X54.569 E1940.689
G1 X52.933 E1940.771
G1 X46.369 E1941.098
G1 Y58.6 E1941.118
G1 X50.664 E1941.332
G1 X49.499 Y58.805 E1941.391
G1 Y59 E1941.401
G1 X46.369 E1941.557
G1 Y59.4 E1941.577
G1 X49.499 E1941.733
G1 Y59.8 E1941.753
G1 X46.369 E1941.91
G1 Y60.2 E1941.929
G1 X49.499 E1942.086
G1 Y60.484 E1942.1
G1 X50.159 Y60.6 E1942.133
G1 X46.369 E1942.322
G1 Y61 E1942.342
G1 X52.429 E1942.645
;bead-raft
;rapid-leaky
G1 F15000
G0 X46.369 Y61.4
;bead-raft
G1 X161.334 F3600 E1948.38
G1 X161.565 Y61.8 E1948.403
G1 X46.369 E1954.15
G1 Y62.2 E1954.17
G1 X161.796 E1959.929
G1 X162.027 Y62.6 E1959.952
G1 X46.369 E1965.722
G1 Y63 E1965.742
G1 X162.258 E1971.524
G1 X162.489 Y63.4 E1971.547
G1 X46.369 E1977.34
G1 Y63.8 E1977.36
G1 X162.72 E1983.165
G1 X162.951 Y64.2 E1983.188
G1 X46.369 E1989.004
G1 Y64.6 E1989.024
G1 X127.02 E1993.048
G1 Y65 E1993.068
G1 X46.369 E1997.092
G1 Y65.4 E1997.112
G1 X127.02 E2001.135
G1 Y65.8 E2001.155
G1 X46.369 E2005.179
G1 Y66.2 E2005.199
G1 X127.02 E2009.223
G1 Y66.6 E2009.242
G1 X46.369 E2013.266
G1 Y67 E2013.286
G1 X127.02 E2017.31
G1 Y67.4 E2017.33
G1 X46.369 E2021.353
G1 Y67.8 E2021.373
G1 X127.02 E2025.397
G1 Y68.2 E2025.417
G1 X46.369 E2029.441
G1 Y68.6 E2029.461
G1 X127.02 E2033.484
G1 Y69 E2033.504
G1 X46.369 E2037.528
G1 Y69.4 E2037.548
G1 X127.02 E2041.572
G1 Y69.8 E2041.592
G1 X46.369 E2045.615
G1 Y70.2 E2045.635
G1 X127.02 E2049.659
G1 Y70.6 E2049.679
G1 X46.369 E2053.703
G1 Y71 E2053.722
G1 X127.02 E2057.746
G1 Y71.4 E2057.766
G1 X46.369 E2061.79
G1 Y71.8 E2061.81
G1 X127.02 E2065.833
G1 Y72.2 E2065.853
G1 X46.369 E2069.877
G1 Y72.6 E2069.897
G1 X127.02 E2073.921
G1 Y73 E2073.941
G1 X46.369 E2077.964
G1 Y73.4 E2077.984
G1 X127.019 E2082.008
G1 Y73.8 E2082.028
G1 X46.369 E2086.052
G1 Y74.2 E2086.072
G1 X127.019 E2090.095
G1 Y74.6 E2090.115
G1 X46.369 E2094.139
G1 Y75 E2094.159
G1 X127.019 E2098.182
G1 Y75.4 E2098.202
G1 X46.369 E2102.226
G1 Y75.8 E2102.246
G1 X127.019 E2106.27
G1 Y76.2 E2106.29
G1 X46.369 E2110.313
G1 Y76.6 E2110.333
G1 X127.019 E2114.357
G1 Y77 E2114.377
G1 X46.369 E2118.4
G1 Y77.4 E2118.42
G1 X127.019 E2122.444
G1 Y77.8 E2122.464
G1 X46.369 E2126.488
G1 Y78.2 E2126.508
G1 X127.019 E2130.531
G1 Y78.6 E2130.551
G1 X59.084 E2133.941
G1 X54.424 Y78.393 E2134.173
G1 X57.748 Y78.509 E2134.339
G1 X59.448 Y78.625 E2134.424
G1 X64.12 Y79 E2134.658
G1 X127.019 E2137.796
G1 Y79.4 E2137.816
G1 X67.808 E2140.77
G1 X70.758 Y79.8 E2140.919
G1 X127.019 E2143.726
G1 Y80.2 E2143.746
G1 X73.303 E2146.426
G1 X75.657 Y80.6 E2146.545
G1 X127.019 E2149.107
G1 Y81 E2149.127
G1 X77.722 E2151.586
G1 X79.678 Y81.4 E2151.686
G1 X127.019 E2154.048
G1 Y81.8 E2154.068
G1 X81.526 E2156.337
G1 X83.197 Y82.2 E2156.423
G1 X127.019 E2158.609
G1 Y82.6 E2158.629
G1 X84.869 E2160.732
G1 X80.34 Y81.535 E2160.964
G1 X80.897 Y81.649 E2160.993
G1 X81.878 Y81.884 E2161.043
G1 X86.395 Y83 E2161.275
G1 X127.019 E2163.302
G1 Y83.4 E2163.322
G1 X87.851 E2165.276
G1 X89.306 Y83.8 E2165.351
G1 X127.019 E2167.233
G1 Y84.2 E2167.253
G1 X90.685 E2169.065
G1 X92.006 Y84.6 E2169.135
G1 X127.019 E2170.881
G1 Y85 E2170.901
G1 X93.189 E2172.589
G1 X91.117 Y84.331 E2172.698
G1 X92.306 Y84.691 E2172.76
G1 X92.524 Y84.767 E2172.771
G1 X94.282 Y85.4 E2172.864
G1 X127.019 E2174.498
G1 Y85.8 E2174.518
G1 X95.209 E2176.104
G1 X93.472 Y85.099 E2176.198
G1 X94.069 Y85.308 E2176.229
G1 X94.355 Y85.432 E2176.245
G1 X96.08 Y86.2 E2176.339
G1 X127.019 E2177.883
G1 Y86.6 E2177.903
G1 X96.853 E2179.408
G1 X95.129 Y85.765 E2179.503
G1 X95.794 Y86.052 E2179.539
G1 X95.892 Y86.103 E2179.545
G1 X97.609 Y87 E2179.642
G1 X127.019 E2181.109
G1 Y87.4 E2181.129
G1 X98.262 E2182.563
G1 X98.914 Y87.8 E2182.602
G1 X127.019 E2184.004
G1 Y88.2 E2184.024
G1 X99.506 E2185.396
G1 X100.065 Y88.6 E2185.431
G1 X127.019 E2186.775
G1 Y89 E2186.795
G1 X100.624 E2188.112
G1 X99.071 Y87.896 E2188.207
G1 X99.142 Y87.939 E2188.211
G1 X99.591 Y88.261 E2188.239
G1 X101.116 Y89.4 E2188.334
G1 X127.019 E2189.626
G1 Y89.8 E2189.646
G1 X101.598 E2190.915
G1 X102.08 Y90.2 E2190.946
G1 X127.019 E2192.19
G1 Y90.6 E2192.21
G1 X102.506 E2193.433
G1 X102.922 Y91 E2193.462
G1 X127.019 E2194.664
G1 Y91.4 E2194.684
G1 X103.337 E2195.865
G1 X101.912 Y90.06 E2195.963
G1 X102.155 Y90.263 E2195.979
G1 X102.334 Y90.435 E2195.991
G1 X103.73 Y91.8 E2196.088
G1 X127.019 E2197.25
G1 Y92.2 E2197.27
G1 X104.091 E2198.414
G1 X104.453 Y92.6 E2198.441
G1 X127.019 E2199.567
G1 Y93 E2199.587
G1 X104.814 E2200.695
G1 X105.127 Y93.4 E2200.72
G1 X127.019 E2201.812
G1 X127.018 Y93.8 E2201.832
G1 X105.44 E2202.908
G1 X105.753 Y94.2 E2202.934
G1 X127.018 E2203.995
G1 Y94.6 E2204.015
G1 X106.051 E2205.061
G1 X106.321 Y95 E2205.085
G1 X127.018 E2206.118
G1 Y95.4 E2206.137
G1 X106.591 E2207.157
G1 X106.862 Y95.8 E2207.181
G1 X127.018 E2208.186
G1 Y96.2 E2208.206
G1 X107.121 E2209.199
G1 X107.35 Y96.6 E2209.222
G1 X127.018 E2210.203
G1 Y97 E2210.223
G1 X107.579 E2211.193
G1 X107.808 Y97.4 E2211.216
G1 X127.018 E2212.175
G1 Y97.8 E2212.195
G1 X108.033 E2213.142
G1 X108.226 Y98.2 E2213.164
G1 X127.018 E2214.101
G1 Y98.6 E2214.121
G1 X108.419 E2215.049
G1 X108.612 Y99 E2215.072
G1 X127.018 E2215.99
G1 Y99.4 E2216.01
G1 X108.805 E2216.918
G1 X107.988 Y97.715 E2217.012
G1 X108.011 Y97.754 E2217.014
G1 X108.176 Y98.097 E2217.033
G1 X108.967 Y99.8 E2217.127
G1 X127.018 E2218.027
G1 Y100.2 E2218.047
G1 X109.127 E2218.94
G1 X109.286 Y100.6 E2218.961
G1 X127.018 E2219.846
G1 Y101 E2219.866
G1 X109.445 E2220.743
G1 X108.726 Y99.237 E2220.838
G1 X108.824 Y99.439 E2220.849
G1 X108.896 Y99.621 E2220.859
G1 X109.589 Y101.4 E2220.954
G1 X127.018 E2221.823
G1 Y101.8 E2221.844
G1 X109.716 E2222.707
G1 X109.843 Y102.2 E2222.728
G1 X127.018 E2223.584
G1 Y102.6 E2223.604
G1 X109.969 E2224.455
G1 X110.096 Y103 E2224.476
G1 X127.018 E2225.32
G1 Y103.4 E2225.34
G1 X110.195 E2226.179
G1 X110.291 Y103.8 E2226.2
G1 X127.135 E2227.04
G1 X127.264 Y104.058 E2227.055
G1 X127.356 Y104.2 E2227.063
G1 X110.387 E2227.91
G1 X110.483 Y104.6 E2227.93
G1 X127.621 E2228.785
G1 X127.892 Y104.942 E2228.807
G1 X127.944 Y105 E2228.811
G1 X110.571 E2229.678
G1 X110.637 Y105.4 E2229.698
G1 X128.32 E2230.58
G1 X128.616 Y105.686 E2230.601
G1 X128.751 Y105.8 E2230.609
G1 X110.703 E2231.51
G1 X110.769 Y106.2 E2231.53
G1 X129.266 E2232.453
G1 X129.316 Y106.237 E2232.456
G1 X129.594 Y106.413 E2232.472
G1 X129.954 Y106.6 E2232.493
G1 X110.836 E2233.447
;bead-raft
;rapid-leaky
G1 F15000
G0 X110.885 Y107
;bead-raft
G1 X164.404 F3600 E2236.116
G1 X164.173 Y107.4 E2236.14
G1 X110.922 E2238.796
G1 X110.958 Y107.8 E2238.816
G1 X163.942 E2241.46
G1 X163.711 Y108.2 E2241.483
G1 X110.995 E2244.113
G1 X111.031 Y108.6 E2244.133
G1 X163.48 E2246.75
G1 X163.249 Y109 E2246.772
G1 X111.048 E2249.377
G1 X111.056 Y109.4 E2249.397
G1 X163.018 E2251.989
G1 X162.787 Y109.8 E2252.012
G1 X111.065 E2254.593
G1 X111.073 Y110.2 E2254.613
G1 X162.556 E2257.181
G1 X162.325 Y110.6 E2257.204
G1 X111.08 E2259.761
G1 X111.06 Y111 E2259.781
G1 X162.094 E2262.327
G1 X161.863 Y111.4 E2262.35
G1 X111.04 E2264.885
G1 X111.019 Y111.8 E2264.906
G1 X161.632 E2267.431
G1 X161.401 Y112.2 E2267.454
G1 X110.999 E2269.968
G1 X111.076 Y110.326 E2270.062
G1 X111.081 Y110.582 E2270.074
G1 X111.072 Y110.754 E2270.083
G1 X110.969 Y112.6 E2270.176
G1 X161.171 E2272.68
G1 X160.94 Y113 E2272.703
G1 X110.92 E2275.198
G1 X110.871 Y113.4 E2275.219
G1 X160.709 E2277.705
G1 X160.478 Y113.8 E2277.728
G1 X110.823 E2280.205
G1 X110.999 Y112.21 E2280.285
G1 X110.986 Y112.458 E2280.298
G1 X110.89 Y113.247 E2280.337
G1 X110.774 Y114.2 E2280.385
G1 X160.247 E2282.853
G1 X160.016 Y114.6 E2282.876
G1 X110.71 E2285.336
G1 X110.632 Y115 E2285.357
G1 X159.785 E2287.809
G1 X159.554 Y115.4 E2287.832
G1 X110.554 E2290.276
G1 X110.477 Y115.8 E2290.297
G1 X159.323 E2292.734
G1 X159.092 Y116.2 E2292.757
G1 X110.399 E2295.186
G1 X110.751 Y114.385 E2295.278
G1 Y114.388
G1 X110.691 Y114.698 E2295.294
G1 X110.304 Y116.6 E2295.391
G1 X158.861 E2297.813
G1 X158.63 Y117 E2297.837
G1 X110.209 E2300.252
G1 X110.113 Y117.4 E2300.273
G1 X158.399 E2302.682
G1 X158.168 Y117.8 E2302.705
G1 X110.018 E2305.107
G1 X109.922 Y118.2 E2305.128
G1 X157.937 E2307.523
G1 X157.706 Y118.6 E2307.546
G1 X109.824 E2309.935
G1 X109.718 Y119 E2309.956
G1 X157.475 E2312.338
G1 X157.244 Y119.4 E2312.361
G1 X109.611 E2314.738
G1 X109.505 Y119.8 E2314.758
G1 X157.014 E2317.129
G1 X156.783 Y120.2 E2317.152
G1 X109.399 E2319.516
G1 X109.293 Y120.6 E2319.536
G1 X156.552 E2321.894
G1 X156.321 Y121 E2321.917
G1 X109.186 E2324.269
G1 X109.08 Y121.4 E2324.289
G1 X156.09 E2326.635
G1 X155.859 Y121.8 E2326.658
G1 X108.974 E2328.997
G1 X108.867 Y122.2 E2329.017
G1 X155.628 E2331.35
G1 X155.397 Y122.6 E2331.373
G1 X108.761 E2333.7
G1 X108.655 Y123 E2333.721
G1 X155.166 E2336.041
G1 X154.935 Y123.4 E2336.064
G1 X108.536 E2338.379
G1 X108.415 Y123.8 E2338.4
G1 X154.704 E2340.709
G1 X154.473 Y124.2 E2340.732
G1 X108.294 E2343.036
G1 X108.173 Y124.6 E2343.057
G1 X154.242 E2345.355
G1 X154.011 Y125 E2345.378
G1 X108.052 E2347.671
G1 X107.931 Y125.4 E2347.692
G1 X153.78 E2349.979
G1 X153.549 Y125.8 E2350.003
G1 X107.81 E2352.284
G1 X107.689 Y126.2 E2352.305
G1 X153.318 E2354.582
G1 X153.087 Y126.6 E2354.605
G1 X107.568 E2356.876
G1 X107.447 Y127 E2356.897
G1 X152.856 E2359.162
G1 X152.626 Y127.4 E2359.185
G1 X107.326 E2361.445
G1 X108.68 Y122.905 E2361.679
G1 X108.637 Y123.066 E2361.688
G1 X108.561 Y123.319 E2361.701
G1 X107.197 Y127.8 E2361.935
G1 X152.395 E2364.189
G1 X152.164 Y128.2 E2364.212
G1 X107.061 E2366.463
G1 X106.926 Y128.6 E2366.484
G1 X151.933 E2368.729
G1 X151.702 Y129 E2368.752
G1 X106.791 E2370.993
G1 X106.655 Y129.4 E2371.014
G1 X151.471 E2373.25
G1 X151.24 Y129.8 E2373.273
G1 X106.52 E2375.504
G1 X106.385 Y130.2 E2375.525
G1 X151.009 E2377.751
G1 X150.778 Y130.6 E2377.774
G1 X106.249 E2379.996
G1 X106.114 Y131 E2380.017
G1 X150.547 E2382.234
G1 X150.316 Y131.4 E2382.257
G1 X105.979 E2384.469
G1 X105.843 Y131.8 E2384.49
G1 X150.085 E2386.697
G1 X149.854 Y132.2 E2386.72
G1 X105.695 E2388.923
G1 X105.545 Y132.6 E2388.945
G1 X149.623 E2391.144
G1 X149.392 Y133 E2391.167
G1 X105.395 E2393.362
G1 X105.245 Y133.4 E2393.383
G1 X149.161 E2395.574
G1 X148.93 Y133.8 E2395.597
G1 X105.095 E2397.784
G1 X104.945 Y134.2 E2397.805
G1 X148.699 E2399.988
G1 X148.468 Y134.6 E2400.011
G1 X104.794 E2402.19
G1 X104.644 Y135 E2402.211
G1 X148.238 E2404.386
G1 X148.007 Y135.4 E2404.409
G1 X104.494 E2406.58
G1 X104.344 Y135.8 E2406.602
G1 X147.776 E2408.768
G1 X147.545 Y136.2 E2408.792
G1 X104.192 E2410.954
G1 X104.027 Y136.6 E2410.976
G1 X147.314 E2413.135
G1 X147.083 Y137 E2413.158
G1 X103.862 E2415.315
G1 X103.697 Y137.4 E2415.336
G1 X146.852 E2417.49
G1 X146.621 Y137.8 E2417.512
G1 X103.531 E2419.662
G1 X103.366 Y138.2 E2419.684
G1 X146.39 E2421.83
G1 X146.159 Y138.6 E2421.853
G1 X103.201 E2423.997
G1 X103.036 Y139 E2424.018
G1 X145.928 E2426.158
G1 X145.697 Y139.4 E2426.181
G1 X102.871 E2428.318
G1 X102.705 Y139.8 E2428.339
G1 X145.466 E2430.473
G1 X145.235 Y140.2 E2430.496
G1 X102.54 E2432.626
G1 X104.299 Y135.92 E2432.857
G1 X104.21 Y136.158 E2432.869
G1 X104.141 Y136.324 E2432.878
G1 X102.368 Y140.6 E2433.109
G1 X145.004 E2435.236
G1 X144.773 Y141 E2435.259
G1 X102.187 E2437.384
G1 X102.006 Y141.4 E2437.406
G1 X144.542 E2439.528
G1 X144.311 Y141.8 E2439.551
G1 X101.825 E2441.671
G1 X101.644 Y142.2 E2441.693
G1 X144.08 E2443.81
G1 X143.85 Y142.6 E2443.833
G1 X101.463 E2445.948
G1 X101.282 Y143 E2445.969
G1 X143.619 E2448.082
G1 X143.388 Y143.4 E2448.104
G1 X101.101 E2450.214
G1 X100.92 Y143.8 E2450.236
G1 X143.157 E2452.344
G1 X142.926 Y144.2 E2452.366
G1 X100.739 E2454.471
G1 X100.558 Y144.6 E2454.493
G1 X142.695 E2456.595
G1 X142.464 Y145 E2456.618
G1 X100.362 E2458.719
G1 X100.165 Y145.4 E2458.741
G1 X142.233 E2460.84
G1 X142.002 Y145.8 E2460.863
G1 X99.968 E2462.96
G1 X99.771 Y146.2 E2462.982
G1 X141.771 E2465.078
G1 X141.54 Y146.6 E2465.101
G1 X99.574 E2467.194
G1 X99.376 Y147 E2467.217
G1 X141.309 E2469.309
G1 X141.078 Y147.4 E2469.332
G1 X99.179 E2471.422
G1 X98.982 Y147.8 E2471.444
G1 X140.847 E2473.533
G1 X140.616 Y148.2 E2473.556
G1 X98.785 E2475.643
G1 X98.588 Y148.6 E2475.665
G1 X140.385 E2477.75
G1 X140.154 Y149 E2477.773
G1 X98.381 E2479.858
G1 X98.167 Y149.4 E2479.88
G1 X139.923 E2481.963
G1 X139.693 Y149.8 E2481.987
G1 X97.954 E2484.069
G1 X97.74 Y150.2 E2484.092
G1 X139.462 E2486.173
G1 X139.231 Y150.6 E2486.196
G1 X97.526 E2488.277
G1 X97.313 Y151 E2488.299
G1 X139 E2490.379
G1 X138.769 Y151.4 E2490.402
G1 X97.099 E2492.481
G1 X96.885 Y151.8 E2492.504
G1 X138.538 E2494.582
G1 X138.307 Y152.2 E2494.605
G1 X96.672 E2496.682
G1 X96.458 Y152.6 E2496.705
G1 X138.076 E2498.781
G1 X137.845 Y153 E2498.804
G1 X96.239 E2500.88
G1 X96.012 Y153.4 E2500.903
G1 X137.614 E2502.978
G1 X137.383 Y153.8 E2503.001
G1 X95.785 E2505.077
G1 X95.557 Y154.2 E2505.1
G1 X137.152 E2507.175
G1 X136.921 Y154.6 E2507.198
G1 X95.33 E2509.273
G1 X95.103 Y155 E2509.296
G1 X136.69 E2511.37
G1 X136.459 Y155.4 E2511.394
G1 X94.876 E2513.468
G1 X94.648 Y155.8 E2513.491
G1 X136.228 E2515.565
G1 X135.997 Y156.2 E2515.589
G1 X94.421 E2517.663
G1 X94.194 Y156.6 E2517.686
G1 X135.766 E2519.76
G1 X135.535 Y157 E2519.783
G1 X93.967 E2521.857
G1 X93.739 Y157.4 E2521.88
G1 X135.305 E2523.953
G1 X135.074 Y157.8 E2523.976
G1 X93.512 E2526.05
G1 X93.285 Y158.2 E2526.073
G1 X134.843 E2528.146
G1 X134.612 Y158.6 E2528.169
G1 X93.058 E2530.242
G1 X96.356 Y152.791 E2530.576
G1 X96.326 Y152.847 E2530.579
G1 X96.057 Y153.321 E2530.606
G1 X93.568 Y159 E2530.915
G1 X134.381 E2532.951
G1 X134.15 Y159.4 E2532.974
G1 X94.261 E2534.965
G1 X94.954 Y159.8 E2535.004
G1 X133.919 E2536.948
G1 X133.688 Y160.2 E2536.971
G1 X95.647 E2538.869
G1 X96.34 Y160.6 E2538.909
G1 X133.457 E2540.761
G1 X133.226 Y161 E2540.784
G1 X97.033 E2542.59
G1 X97.726 Y161.4 E2542.63
G1 X132.995 E2544.389
G1 X132.764 Y161.8 E2544.412
G1 X98.419 E2546.126
G1 X99.112 Y162.2 E2546.166
G1 X132.533 E2547.833
G1 X132.302 Y162.6 E2547.856
G1 X99.806 E2549.477
G1 X93.036 Y158.638 E2549.869
G1 X93.013 Y158.679 E2549.871
G1 X93.415 Y158.912 E2549.894
G1 X99.54 Y163 E2550.261
G1 X132.071 E2551.885
G1 X131.84 Y163.4 E2551.907
G1 X99.203 E2553.536
G1 X98.866 Y163.8 E2553.562
G1 X131.609 E2555.196
G1 X131.378 Y164.2 E2555.219
G1 X98.528 E2556.857
G1 X98.191 Y164.6 E2556.884
G1 X131.147 E2558.528
G1 X130.917 Y165 E2558.551
G1 X97.854 E2560.2
G1 X97.516 Y165.4 E2560.226
G1 X130.686 E2561.881
G1 X130.455 Y165.8 E2561.904
G1 X97.179 E2563.564
G1 X96.842 Y166.2 E2563.591
G1 X130.224 E2565.256
G1 X129.993 Y166.6 E2565.279
G1 X96.505 E2566.95
G1 X96.167 Y167 E2566.976
G1 X129.762 E2568.652
G1 X129.531 Y167.4 E2568.675
G1 X95.83 E2570.356
G1 X95.493 Y167.8 E2570.382
G1 X129.3 E2572.069
G1 X129.069 Y168.2 E2572.092
G1 X95.155 E2573.784
G1 X94.818 Y168.6 E2573.81
G1 X128.838 E2575.507
G1 X128.607 Y169 E2575.531
G1 X94.618 E2577.226
G1 X95.307 Y169.4 E2577.266
G1 X128.376 E2578.916
G1 X128.145 Y169.8 E2578.939
G1 X95.995 E2580.543
G1 X96.684 Y170.2 E2580.583
G1 X127.914 E2582.141
G1 X127.683 Y170.6 E2582.164
G1 X97.373 E2583.676
G1 X98.062 Y171 E2583.716
G1 X127.452 E2585.182
G1 X127.221 Y171.4 E2585.205
G1 X98.751 E2586.625
G1 X99.439 Y171.8 E2586.665
G1 X126.99 E2588.04
G1 X126.759 Y172.2 E2588.063
G1 X100.128 E2589.391
G1 X100.817 Y172.6 E2589.431
G1 X126.529 E2590.714
G1 X126.298 Y173 E2590.737
G1 X117.819 E2591.16
G1 X118.512 Y173.4 E2591.2
G1 X126.067 E2591.577
G1 X125.836 Y173.8 E2591.6
G1 X119.205 E2591.93
G1 X119.898 Y174.2 E2591.97
G1 X125.605 E2592.255
G1 X125.374 Y174.6 E2592.278
G1 X120.591 E2592.517
G1 X121.284 Y175 E2592.557
G1 X125.143 E2592.749
G1 X124.912 Y175.4 E2592.772
G1 X121.977 E2592.919
G1 X122.669 Y175.8 E2592.959
G1 X124.681 E2593.059
G1 X124.45 Y176.2 E2593.082
G1 X123.362 E2593.136
G1 X124.055 Y176.6 E2593.176
G1 X124.219 E2593.184
;bead-raft
;rapid-leaky
G1 F15000
G0 X117.175 Y173
;bead-raft
G1 X101.506 F3600 E2593.966
G1 X102.194 Y173.4 E2594.006
G1 X117.028 E2594.746
G1 X116.882 Y173.8 E2594.767
G1 X102.883 E2595.466
G1 X103.572 Y174.2 E2595.505
G1 X116.735 E2596.162
G1 X116.588 Y174.6 E2596.183
G1 X104.261 E2596.798
G1 X104.95 Y175 E2596.838
G1 X116.441 E2597.411
G1 X116.295 Y175.4 E2597.433
G1 X105.638 E2597.964
G1 X106.327 Y175.8 E2598.004
G1 X116.148 E2598.494
G1 X116.001 Y176.2 E2598.515
G1 X107.016 E2598.963
G1 X107.705 Y176.6 E2599.003
G1 X115.854 E2599.41
G1 X115.708 Y177 E2599.431
G1 X108.394 E2599.796
G1 X109.082 Y177.4 E2599.836
G1 X115.561 E2600.159
G1 X115.414 Y177.8 E2600.18
G1 X109.771 E2600.462
G1 X110.46 Y178.2 E2600.501
G1 X115.268 E2600.741
G1 X115.121 Y178.6 E2600.762
G1 X111.149 E2600.961
G1 X111.838 Y179 E2601
G1 X114.974 E2601.157
G1 X114.827 Y179.4 E2601.178
G1 X112.526 E2601.293
G1 X113.215 Y179.8 E2601.333
G1 X114.681 E2601.406
G1 X114.534 Y180.2 E2601.427
G1 X113.904 E2601.458
;bead-raft
;rapid-leaky
G1 F15000
G0 X144.109 Y106.6
;bead-raft
G1 X164.635 F3600 E2602.483
G1 X164.866 Y106.2 E2602.506
G1 X144.101 E2603.542
G1 X144.093 Y105.8 E2603.562
G1 X165.097 E2604.609
G1 X165.328 Y105.4 E2604.632
G1 X144.085 E2605.692
G1 X144.077 Y105 E2605.712
G1 X165.559 E2606.784
G1 X165.789 Y104.6 E2606.807
G1 X144.068 E2607.891
G1 X144.06 Y104.2 E2607.911
G1 X166.02 E2609.006
G1 X166.251 Y103.8 E2609.029
G1 X144.052 E2610.137
G1 Y103.798
G1 X144.034 Y103.4 E2610.157
G1 X166.482 E2611.277
G1 X166.713 Y103 E2611.3
G1 X144.015 E2612.432
G1 X143.997 Y102.6 E2612.452
G1 X166.944 E2613.597
G1 X167.175 Y102.2 E2613.62
G1 X143.978 E2614.777
G1 X143.96 Y101.8 E2614.797
G1 X167.406 E2615.967
G1 X167.637 Y101.4 E2615.99
G1 X143.942 E2617.172
G1 X143.923 Y101 E2617.192
G1 X167.868 E2618.387
G1 X168.099 Y100.6 E2618.41
G1 X143.905 E2619.617
G1 X143.887 Y100.2 E2619.637
G1 X168.33 E2620.856
G1 X168.561 Y99.8 E2620.879
G1 X143.868 E2622.111
G1 X143.85 Y99.4 E2622.131
G1 X168.792 E2623.376
G1 X169.023 Y99 E2623.399
G1 X143.831 E2624.656
G1 X143.813 Y98.6 E2624.676
G1 X169.254 E2625.945
G1 X169.485 Y98.2 E2625.968
G1 X143.795 E2627.25
G1 X143.776 Y97.8 E2627.27
G1 X169.716 E2628.563
G1 X169.947 Y97.4 E2628.587
G1 X143.756 E2629.893
G1 X143.732 Y97 E2629.913
G1 X170.177 E2631.233
G1 X170.408 Y96.6 E2631.256
G1 X143.707 E2632.588
G1 X143.682 Y96.2 E2632.608
G1 X170.639 E2633.953
G1 X170.87 Y95.8 E2633.976
G1 X143.658 E2635.333
G1 X143.633 Y95.4 E2635.354
G1 X171.101 E2636.724
G1 X171.332 Y95 E2636.747
G1 X143.608 E2638.13
G1 X143.583 Y94.6 E2638.15
G1 X171.563 E2639.546
G1 X124.178 Y176.671 E2644.274
G1 X171.565 Y94.598 E2649.002
G1 X171.583 Y94.565 E2649.004
G1 X171.782 Y94.2 E2649.025
G1 X143.559 E2650.433
G1 X143.534 Y93.8 E2650.453
G1 X171.984 E2651.872
G1 X172.185 Y93.4 E2651.895
G1 X143.509 E2653.325
G1 X143.485 Y93 E2653.345
G1 X172.357 E2654.786
G1 X172.524 Y92.6 E2654.807
G1 X143.46 E2656.257
G1 X143.435 Y92.2 E2656.277
G1 X172.68 E2657.736
G1 X172.815 Y91.8 E2657.757
G1 X143.411 E2659.224
G1 X143.386 Y91.4 E2659.244
G1 X172.95 E2660.719
G1 X172.585 Y92.454 E2660.775
G1 X172.637 Y92.329 E2660.782
G1 X172.726 Y92.064 E2660.796
G1 X173.063 Y91 E2660.851
G1 X143.361 E2662.333
G1 X143.336 Y90.6 E2662.353
G1 X173.166 E2663.841
G1 X173.269 Y90.2 E2663.862
G1 X143.312 E2665.356
G1 X143.287 Y89.8 E2665.376
G1 X173.342 E2666.876
G1 X173.415 Y89.4 E2666.896
G1 X143.255 E2668.401
G1 X143.222 Y89 E2668.421
G1 X173.481 E2669.93
G1 X173.525 Y88.6 E2669.951
G1 X143.189 E2671.464
G1 X143.156 Y88.2 E2671.484
G1 X173.569 E2673.001
G1 X173.431 Y89.314 E2673.057
G1 X173.47 Y89.101 E2673.068
G1 X173.489 Y88.927 E2673.077
G1 X173.599 Y87.8 E2673.133
G1 X143.123 E2674.654
G1 X143.09 Y87.4 E2674.674
G1 X173.613 E2676.197
G1 X173.627 Y87 E2676.217
G1 X143.057 E2677.742
G1 X143.024 Y86.6 E2677.762
G1 X173.625 E2679.288
G1 X173.61 Y86.2 E2679.308
G1 X142.991 E2680.836
G1 X142.958 Y85.8 E2680.856
G1 X173.594 E2682.385
G1 X173.631 Y86.9 E2682.439
G1 X173.634 Y86.818 E2682.443
G1 X173.621 Y86.503 E2682.459
G1 X173.556 Y85.4 E2682.514
G1 X142.914 E2684.043
G1 X142.868 Y85 E2684.063
G1 X173.512 E2685.592
G1 X173.606 Y86.112 E2685.648
G1 X173.591 Y85.722 E2685.667
G1 Y85.72
G1 X173.468 Y84.6 E2685.723
G1 X142.823 E2687.252
G1 X142.777 Y84.2 E2687.272
G1 X173.394 E2688.8
G1 X173.321 Y83.8 E2688.82
G1 X142.732 E2690.346
G1 X142.686 Y83.4 E2690.366
G1 X173.24 E2691.891
G1 X173.138 Y83 E2691.911
G1 X142.641 E2693.433
G1 X142.595 Y82.6 E2693.453
G1 X173.037 E2694.972
G1 X173.291 Y83.634 E2695.025
G1 X173.27 Y83.522 E2695.03
G1 X173.21 Y83.283 E2695.043
G1 X172.911 Y82.2 E2695.099
G1 X142.55 E2696.614
G1 X142.504 Y81.8 E2696.634
G1 X172.777 E2698.144
G1 X172.643 Y81.4 E2698.165
G1 X142.459 E2699.671
G1 X142.413 Y81 E2699.691
G1 X172.477 E2701.191
G1 X172.31 Y80.6 E2701.212
G1 X142.367 E2702.706
G1 X142.322 Y80.2 E2702.726
G1 X172.129 E2704.213
G1 X171.927 Y79.8 E2704.236
G1 X142.276 E2705.715
G1 X142.231 Y79.4 E2705.735
G1 X171.725 E2707.207
G1 X172.194 Y80.328 E2707.259
G1 X171.73 Y79.409 E2707.31
G1 X171.729 Y79.408
G1 X171.497 Y79 E2707.333
G1 X142.185 E2708.796
G1 X142.14 Y78.6 E2708.816
G1 X171.266 E2710.269
G1 X171.035 Y78.2 E2710.292
G1 X142.094 E2711.736
G1 X142.049 Y77.8 E2711.756
G1 X170.804 E2713.191
G1 X170.573 Y77.4 E2713.214
G1 X142.003 E2714.639
G1 X141.958 Y77 E2714.659
G1 X170.342 E2716.075
G1 X170.111 Y76.6 E2716.098
G1 X141.912 E2717.505
G1 X141.867 Y76.2 E2717.525
G1 X169.88 E2718.923
G1 X169.649 Y75.8 E2718.946
G1 X141.821 E2720.334
G1 X141.775 Y75.4 E2720.354
G1 X169.418 E2721.733
G1 X169.187 Y75 E2721.756
G1 X141.73 E2723.126
G1 X141.684 Y74.6 E2723.146
G1 X168.956 E2724.507
G1 X168.725 Y74.2 E2724.53
G1 X141.639 E2725.881
G1 X141.593 Y73.8 E2725.902
G1 X168.494 E2727.244
G1 X168.264 Y73.4 E2727.267
G1 X141.548 E2728.6
G1 X141.502 Y73 E2728.62
G1 X168.033 E2729.943
G1 X167.802 Y72.6 E2729.966
G1 X141.457 E2731.281
G1 X141.411 Y72.2 E2731.301
G1 X167.571 E2732.606
G1 X167.34 Y71.8 E2732.629
G1 X141.366 E2733.925
G1 X141.32 Y71.4 E2733.945
G1 X167.109 E2735.231
G1 X166.878 Y71 E2735.254
G1 X141.275 E2736.532
G1 X141.229 Y70.6 E2736.552
G1 X166.647 E2737.82
G1 X166.416 Y70.2 E2737.843
G1 X141.183 E2739.102
G1 X141.138 Y69.8 E2739.122
G1 X166.185 E2740.371
G1 X165.954 Y69.4 E2740.395
G1 X141.092 E2741.635
G1 X141.047 Y69 E2741.655
G1 X165.723 E2742.886
G1 X165.492 Y68.6 E2742.909
G1 X141.001 E2744.131
G1 X140.956 Y68.2 E2744.151
G1 X165.261 E2745.364
G1 X165.03 Y67.8 E2745.386
G1 X140.91 E2746.59
G1 X140.865 Y67.4 E2746.61
G1 X164.799 E2747.804
G1 X164.568 Y67 E2747.827
G1 X140.819 E2749.012
G1 X140.774 Y66.6 E2749.032
G1 X164.337 E2750.208
G1 X164.106 Y66.2 E2750.231
G1 X140.728 E2751.397
G1 X140.683 Y65.8 E2751.417
G1 X163.875 E2752.574
G1 X163.644 Y65.4 E2752.597
G1 X140.637 E2753.745
G1 X140.592 Y65 E2753.765
G1 X163.413 E2754.904
G1 X163.182 Y64.6 E2754.927
G1 X140.546 E2756.056
;bead-raft
;rapid-leaky
G1 F15000
G0 X159.255 Y57.8
;bead-raft
G1 X46.369 F3600 E2761.688
G1 Y57.4 E2761.708
G1 X159.024 E2767.328
G1 X158.793 Y57 E2767.351
G1 X46.369 E2772.96
G1 Y56.6 E2772.98
G1 X158.562 E2778.578
G1 X158.331 Y56.2 E2778.601
G1 X46.369 E2784.187
G1 Y55.8 E2784.206
G1 X158.101 E2789.781
G1 X157.87 Y55.4 E2789.804
G1 X46.369 E2795.366
G1 Y55 E2795.386
G1 X157.639 E2800.938
G1 X157.408 Y54.6 E2800.961
G1 X46.369 E2806.5
G1 Y54.2 E2806.521
G1 X157.177 E2812.049
G1 X156.946 Y53.8 E2812.072
G1 X46.369 E2817.588
G1 Y53.4 E2817.608
G1 X156.715 E2823.114
G1 X156.484 Y53 E2823.136
G1 X46.369 E2828.63
G1 Y52.6 E2828.65
G1 X156.253 E2834.132
G1 X156.022 Y52.2 E2834.155
G1 X46.369 E2839.626
G1 Y51.8 E2839.646
G1 X155.791 E2845.105
G1 X155.56 Y51.4 E2845.128
G1 X46.369 E2850.575
G1 Y51 E2850.595
G1 X155.329 E2856.031
G1 X155.098 Y50.6 E2856.055
G1 X46.369 E2861.479
G1 Y50.2 E2861.499
G1 X154.867 E2866.912
G1 X154.636 Y49.8 E2866.935
G1 X46.369 E2872.336
G1 Y49.4 E2872.356
G1 X154.405 E2877.746
G1 X154.174 Y49 E2877.77
G1 X46.369 E2883.148
G1 Y48.6 E2883.168
G1 X153.919 E2888.533
G1 X153.657 Y48.2 E2888.557
G1 X46.369 E2893.91
G1 Y47.8 E2893.93
G1 X153.373 E2899.268
G1 X153.069 Y47.4 E2899.293
G1 X46.369 E2904.617
G1 Y47 E2904.637
G1 X152.749 E2909.944
G1 X152.395 Y46.6 E2909.97
G1 X46.369 E2915.26
G1 Y46.2 E2915.28
G1 X152.031 E2920.552
G1 X151.624 Y45.8 E2920.58
G1 X46.369 E2925.831
G1 Y45.4 E2925.851
G1 X151.199 E2931.081
G1 X150.728 Y45 E2931.112
G1 X46.369 E2936.319
G1 Y44.6 E2936.339
G1 X150.224 E2941.52
G1 X149.677 Y44.2 E2941.554
G1 X46.369 E2946.708
G1 Y43.8 E2946.728
G1 X149.058 E2951.851
G1 X149.98 Y44.421 E2951.906
G1 X149.562 Y44.116 E2951.932
G1 X149.332 Y43.972 E2951.946
G1 X148.384 Y43.4 E2952.001
G1 X46.369 E2957.091
G1 Y43 E2957.111
G1 X147.625 E2962.162
G1 X146.723 Y42.6 E2962.211
G1 X46.369 E2967.218
G1 Y42.2 E2967.238
G1 X145.634 E2972.19
G1 X146.684 Y42.583 E2972.246
G1 X146.6 Y42.546 E2972.251
G1 X145.55 Y42.17 E2972.306
G1 X145.212 Y42.076 E2972.324
G1 X144.128 Y41.8 E2972.38
G1 X46.369 E2977.257
;bead-raft
G1 F1800 E2976.757
;Layer : 5 of 151
;rapid-dry
G1 F15000
G0 X51.864 Y46.939 Z1.7
G1 F1800 E2977.257
;bead-perimeter_inner
G1 X141.039 Y46.941 F780 E2981.706
G1 X141.766 Y46.982 E2981.742
G1 X142.485 Y47.074 E2981.778
G1 X143.187 Y47.216 E2981.814
G1 X143.883 Y47.41 E2981.85
G1 X144.566 Y47.655 E2981.886
G1 X145.228 Y47.946 E2981.922
G1 X145.871 Y48.288 E2981.959
G1 X146.477 Y48.668 E2981.994
G1 X147.06 Y49.094 E2982.031
G1 X147.609 Y49.56 E2982.066
G1 X148.118 Y50.059 E2982.102
G1 X148.61 Y50.615 E2982.139
G1 X149.041 Y51.182 E2982.175
G1 X149.444 Y51.797 E2982.211
G1 X166.883 Y82.001 E2983.951
G1 X167.213 Y82.655 E2983.988
G1 X167.492 Y83.324 E2984.024
G1 X167.722 Y84.01 E2984.06
G1 X167.901 Y84.707 E2984.096
G1 X168.03 Y85.41 E2984.132
G1 X168.108 Y86.124 E2984.167
G1 X168.135 Y86.854 E2984.204
G1 X168.109 Y87.581 E2984.24
G1 X168.031 Y88.296 E2984.276
G1 X167.9 Y89.013 E2984.313
G1 X167.722 Y89.708 E2984.348
G1 X167.491 Y90.391 E2984.384
G1 X167.213 Y91.058 E2984.42
G1 X166.88 Y91.717 E2984.457
G1 X122.167 Y169.165 E2988.919
G1 X114.378 Y164.669 E2989.367
G1 X111.52 Y172.461 E2989.781
G1 X102.948 Y167.483 E2990.276
G1 X108.288 Y161.151 E2990.689
G1 X100.486 Y156.648 E2991.139
G1 X101.139 Y155.499 E2991.205
G1 X103.393 Y151.281 E2991.443
G1 X105.501 Y147.004 E2991.681
G1 X107.49 Y142.611 E2991.922
G1 X109.319 Y138.183 E2992.161
G1 X110.997 Y133.713 E2992.399
G1 X112.511 Y129.237 E2992.635
G1 X113.924 Y124.568 E2992.878
G1 X115.155 Y119.947 E2993.116
G1 X115.772 Y117.361 E2993.249
G1 X116.181 Y115.251 E2993.356
G1 X116.464 Y112.948 E2993.472
G1 X116.579 Y110.665 E2993.586
G1 X116.532 Y108.383 E2993.7
G1 X116.318 Y106.07 E2993.816
G1 X115.943 Y103.806 E2993.93
G1 X115.412 Y101.583 E2994.044
G1 X114.708 Y99.364 E2994.161
G1 X113.856 Y97.224 E2994.276
G1 X112.863 Y95.167 E2994.389
G1 X111.73 Y93.192 E2994.503
G1 X110.446 Y91.281 E2994.618
G1 X109.021 Y89.459 E2994.733
G1 X107.482 Y87.756 E2994.848
G1 X105.819 Y86.162 E2994.963
G1 X104.049 Y84.694 E2995.078
G1 X102.187 Y83.361 E2995.192
G1 X100.219 Y82.155 E2995.307
G1 X98.178 Y81.096 E2995.422
G1 X96.064 Y80.184 E2995.537
G1 X94.011 Y79.466 E2995.645
G1 X91.434 Y78.686 E2995.779
G1 X86.786 Y77.409 E2996.02
G1 X82.095 Y76.286 E2996.26
G1 X77.315 Y75.308 E2996.504
G1 X72.535 Y74.496 E2996.746
G1 X67.728 Y73.844 E2996.988
G1 X62.903 Y73.352 E2997.23
G1 X58.048 Y73.021 E2997.473
G1 X53.232 Y72.852 E2997.713
G1 X51.864 Y72.84 E2997.781
G1 Y66.48 E2998.098
G1 X60.064 Y67.925 E2998.514
G1 Y51.363 E2999.34
G1 X51.864 Y52.809 E2999.756
G1 Y46.939 E3000.048
;rapid-leaky
G1 F15000
G0 X51.499 Y46.574
;bead-perimeter_inner
G1 X141.05 Y46.576 F780 E3004.516
G1 X141.8 Y46.619 E3004.554
G1 X142.544 Y46.713 E3004.591
G1 X143.273 Y46.861 E3004.628
G1 X143.994 Y47.062 E3004.666
G1 X144.701 Y47.315 E3004.703
G1 X145.387 Y47.617 E3004.74
G1 X146.054 Y47.972 E3004.778
G1 X146.682 Y48.365 E3004.815
G1 X147.286 Y48.807 E3004.852
G1 X147.856 Y49.29 E3004.89
G1 X148.382 Y49.807 E3004.927
G1 X148.893 Y50.383 E3004.965
G1 X149.34 Y50.972 E3005.002
G1 X149.755 Y51.606 E3005.04
G1 X167.205 Y81.829 E3006.781
G1 X167.545 Y82.502 E3006.818
G1 X167.834 Y83.196 E3006.856
G1 X168.073 Y83.906 E3006.893
G1 X168.258 Y84.628 E3006.93
G1 X168.391 Y85.357 E3006.967
G1 X168.472 Y86.097 E3007.004
G1 X168.5 Y86.854 E3007.042
G1 X168.473 Y87.608 E3007.08
G1 X168.392 Y88.348 E3007.117
G1 X168.257 Y89.091 E3007.155
G1 X168.072 Y89.811 E3007.192
G1 X167.833 Y90.52 E3007.229
G1 X167.545 Y91.211 E3007.266
G1 X167.202 Y91.889 E3007.304
G1 X122.301 Y169.664 E3011.785
G1 X114.572 Y165.202 E3012.23
G1 X111.713 Y172.995 E3012.644
G1 X102.388 Y167.58 E3013.182
G1 X107.727 Y161.249 E3013.595
G1 X99.99 Y156.783 E3014.041
G1 X100.82 Y155.323 E3014.125
G1 X103.068 Y151.114 E3014.363
G1 X105.171 Y146.848 E3014.6
G1 X107.155 Y142.466 E3014.84
G1 X108.979 Y138.049 E3015.079
G1 X110.653 Y133.591 E3015.316
G1 X112.164 Y129.126 E3015.551
G1 X113.573 Y124.468 E3015.794
G1 X114.801 Y119.858 E3016.032
G1 X115.415 Y117.284 E3016.164
G1 X115.82 Y115.194 E3016.27
G1 X116.1 Y112.916 E3016.385
G1 X116.213 Y110.66 E3016.498
G1 X116.167 Y108.404 E3016.61
G1 X115.956 Y106.117 E3016.725
G1 X115.585 Y103.879 E3016.838
G1 X115.06 Y101.681 E3016.951
G1 X114.364 Y99.487 E3017.065
G1 X113.522 Y97.371 E3017.179
G1 X112.54 Y95.337 E3017.292
G1 X111.42 Y93.385 E3017.404
G1 X110.15 Y91.495 E3017.518
G1 X108.741 Y89.694 E3017.632
G1 X107.22 Y88.011 E3017.745
G1 X105.576 Y86.435 E3017.859
G1 X103.826 Y84.983 E3017.972
G1 X101.985 Y83.665 E3018.085
G1 X100.04 Y82.473 E3018.199
G1 X98.022 Y81.426 E3018.312
G1 X95.931 Y80.524 E3018.426
G1 X93.897 Y79.813 E3018.533
G1 X91.333 Y79.036 E3018.667
G1 X86.696 Y77.762 E3018.907
G1 X82.015 Y76.642 E3019.147
G1 X77.248 Y75.667 E3019.39
G1 X72.479 Y74.857 E3019.631
G1 X67.685 Y74.206 E3019.872
G1 X62.872 Y73.716 E3020.114
G1 X58.029 Y73.385 E3020.356
G1 X53.223 Y73.217 E3020.596
G1 X51.499 Y73.201 E3020.682
G1 Y66.045 E3021.039
G1 X59.699 Y67.49 E3021.454
G1 Y51.798 E3022.237
G1 X51.499 Y53.244 E3022.653
G1 Y46.574 E3022.985
;rapid-leaky
G1 F15000
G0 X51.134 Y46.209
;bead-perimeter_inner
G1 X141.06 Y46.211 F780 E3027.472
G1 X141.833 Y46.255 E3027.51
G1 X142.603 Y46.353 E3027.549
G1 X143.358 Y46.506 E3027.588
G1 X144.105 Y46.714 E3027.626
G1 X144.837 Y46.976 E3027.665
G1 X145.546 Y47.289 E3027.704
G1 X146.237 Y47.655 E3027.743
G1 X146.887 Y48.063 E3027.781
G1 X147.512 Y48.52 E3027.82
G1 X148.102 Y49.021 E3027.858
G1 X148.647 Y49.555 E3027.896
G1 X149.175 Y50.152 E3027.936
G1 X149.638 Y50.761 E3027.974
G1 X150.066 Y51.414 E3028.013
G1 X167.527 Y81.657 E3029.755
G1 X167.876 Y82.349 E3029.794
G1 X168.176 Y83.067 E3029.833
G1 X168.423 Y83.802 E3029.872
G1 X168.615 Y84.55 E3029.91
G1 X168.753 Y85.305 E3029.948
G1 X168.836 Y86.07 E3029.987
G1 X168.866 Y86.853 E3030.026
G1 X168.837 Y87.634 E3030.065
G1 X168.754 Y88.401 E3030.104
G1 X168.614 Y89.169 E3030.142
G1 X168.422 Y89.915 E3030.181
G1 X168.175 Y90.649 E3030.219
G1 X167.876 Y91.364 E3030.258
G1 X167.524 Y92.061 E3030.297
G1 X122.434 Y170.162 E3034.796
G1 X114.765 Y165.735 E3035.238
G1 X111.905 Y173.529 E3035.652
G1 X101.829 Y167.678 E3036.234
G1 X107.167 Y161.347 E3036.647
G1 X99.493 Y156.918 E3037.089
G1 X100.5 Y155.147 E3037.19
G1 X102.744 Y150.947 E3037.428
G1 X104.841 Y146.692 E3037.665
G1 X106.82 Y142.321 E3037.904
G1 X108.64 Y137.915 E3038.142
G1 X110.309 Y133.468 E3038.379
G1 X111.816 Y129.014 E3038.614
G1 X113.222 Y124.369 E3038.855
G1 X114.447 Y119.768 E3039.093
G1 X115.058 Y117.206 E3039.224
G1 X115.459 Y115.137 E3039.33
G1 X115.736 Y112.885 E3039.443
G1 X115.848 Y110.654 E3039.554
G1 X115.802 Y108.424 E3039.666
G1 X115.594 Y106.164 E3039.779
G1 X115.227 Y103.951 E3039.891
G1 X114.708 Y101.779 E3040.002
G1 X114.02 Y99.61 E3040.116
G1 X113.188 Y97.518 E3040.228
G1 X112.217 Y95.507 E3040.339
G1 X111.11 Y93.577 E3040.45
G1 X109.855 Y91.71 E3040.563
G1 X108.462 Y89.929 E3040.676
G1 X106.958 Y88.265 E3040.787
G1 X105.332 Y86.707 E3040.9
G1 X103.603 Y85.272 E3041.012
G1 X101.783 Y83.97 E3041.123
G1 X99.86 Y82.791 E3041.236
G1 X97.865 Y81.756 E3041.348
G1 X95.798 Y80.864 E3041.46
G1 X93.784 Y80.16 E3041.567
G1 X91.232 Y79.387 E3041.7
G1 X86.605 Y78.116 E3041.939
G1 X81.936 Y76.998 E3042.179
G1 X77.181 Y76.026 E3042.421
G1 X72.424 Y75.217 E3042.662
G1 X67.642 Y74.569 E3042.902
G1 X62.841 Y74.08 E3043.143
G1 X58.01 Y73.75 E3043.385
G1 X53.215 Y73.582 E3043.624
G1 X51.134 Y73.563 E3043.728
G1 Y65.61 E3044.125
G1 X59.334 Y67.055 E3044.54
G1 Y52.233 E3045.28
G1 X51.134 Y53.679 E3045.695
G1 Y46.209 E3046.068
;rapid-leaky
G1 F15000
G0 X50.769 Y45.844
;bead-perimeter_outer
G1 X141.07 Y45.846 F540 E3050.573
G1 X141.867 Y45.891 E3050.613
G1 X142.663 Y45.992 E3050.653
G1 X143.443 Y46.151 E3050.692
G1 X144.215 Y46.366 E3050.732
G1 X144.972 Y46.637 E3050.772
G1 X145.706 Y46.96 E3050.813
G1 X146.42 Y47.339 E3050.853
G1 X147.092 Y47.761 E3050.892
G1 X147.738 Y48.233 E3050.932
G1 X148.348 Y48.751 E3050.972
G1 X148.912 Y49.304 E3051.012
G1 X149.457 Y49.92 E3051.053
G1 X149.937 Y50.55 E3051.092
G1 X150.377 Y51.223 E3051.132
G1 X167.739 Y81.291 E3052.865
G1 X168.208 Y82.197 E3052.916
G1 X168.518 Y82.938 E3052.956
G1 X168.773 Y83.699 E3052.996
G1 X168.972 Y84.472 E3053.035
G1 X169.114 Y85.252 E3053.075
G1 X169.2 Y86.044 E3053.115
G1 X169.231 Y86.853 E3053.155
G1 X169.201 Y87.66 E3053.195
G1 X169.115 Y88.453 E3053.235
G1 X168.971 Y89.247 E3053.275
G1 X168.772 Y90.019 E3053.315
G1 X168.517 Y90.777 E3053.355
G1 X168.208 Y91.516 E3053.395
G1 X167.847 Y92.233 E3053.435
G1 X122.568 Y170.661 E3057.953
G1 X114.958 Y166.268 E3058.392
G1 X112.098 Y174.063 E3058.806
G1 X101.27 Y167.775 E3059.43
G1 X106.607 Y161.445 E3059.844
G1 X98.997 Y157.053 E3060.282
G1 X100.18 Y154.971 E3060.401
G1 X102.419 Y150.78 E3060.638
G1 X104.511 Y146.536 E3060.875
G1 X106.485 Y142.176 E3061.113
G1 X108.3 Y137.781 E3061.351
G1 X109.965 Y133.345 E3061.587
G1 X111.468 Y128.903 E3061.821
G1 X112.87 Y124.269 E3062.063
G1 X114.093 Y119.679 E3062.299
G1 X114.702 Y117.129 E3062.43
G1 X115.099 Y115.08 E3062.534
G1 X115.372 Y112.853 E3062.646
G1 X115.483 Y110.649 E3062.756
G1 X115.438 Y108.445 E3062.866
G1 X115.231 Y106.21 E3062.978
G1 X114.869 Y104.023 E3063.089
G1 X114.356 Y101.876 E3063.199
G1 X113.676 Y99.733 E3063.311
G1 X112.853 Y97.665 E3063.422
G1 X111.894 Y95.678 E3063.532
G1 X110.8 Y93.77 E3063.642
G1 X109.559 Y91.924 E3063.753
G1 X108.182 Y90.164 E3063.865
G1 X106.696 Y88.52 E3063.975
G1 X105.089 Y86.98 E3064.086
G1 X103.38 Y85.562 E3064.197
G1 X101.582 Y84.274 E3064.307
G1 X99.68 Y83.109 E3064.418
G1 X97.709 Y82.086 E3064.529
G1 X95.666 Y81.205 E3064.64
G1 X93.671 Y80.507 E3064.746
G1 X91.13 Y79.738 E3064.878
G1 X86.514 Y78.469 E3065.117
G1 X81.857 Y77.355 E3065.356
G1 X77.114 Y76.384 E3065.597
G1 X72.369 Y75.578 E3065.838
G1 X67.599 Y74.931 E3066.078
G1 X62.81 Y74.444 E3066.318
G1 X57.991 Y74.114 E3066.559
G1 X53.207 Y73.947 E3066.798
G1 X50.769 Y73.925 E3066.919
G1 Y65.175 E3067.356
G1 X58.969 Y66.62 E3067.771
G1 Y52.668 E3068.467
G1 X50.769 Y54.114 E3068.883
G1 Y45.844 E3069.295
G1 F1800 E3068.795
;rapid-dry
G1 F15000
G0 X121.595 Y62.052
G1 F1800 E3069.295
;bead-perimeter_inner
G1 X121.54 Y62.355 F780 E3069.311
G1 X121.525 Y62.546 E3069.32
G1 X121.523 Y103.668 E3071.372
G1 X121.56 Y104.206 E3071.399
G1 X121.608 Y104.514 E3071.414
G1 X121.686 Y104.861 E3071.432
G1 X121.798 Y105.247 E3071.452
G1 X121.964 Y105.707 E3071.477
G1 X122.202 Y106.239 E3071.506
G1 X122.476 Y106.759 E3071.535
G1 X122.796 Y107.287 E3071.566
G1 X123.19 Y107.855 E3071.6
G1 X123.697 Y108.497 E3071.641
G1 X124.259 Y109.118 E3071.683
G1 X124.931 Y109.766 E3071.729
G1 X125.548 Y110.288 E3071.77
G1 X126.216 Y110.778 E3071.811
G1 X126.788 Y111.14 E3071.845
G1 X127.348 Y111.449 E3071.877
G1 X127.847 Y111.683 E3071.904
G1 X128.281 Y111.852 E3071.927
G1 X128.7 Y111.987 E3071.949
G1 X129.062 Y112.078 E3071.968
G1 X129.426 Y112.143 E3071.987
G1 X130.002 Y112.189 E3072.015
G1 X146.248 Y112.185 E3072.826
G1 X146.557 Y112.142 E3072.841
G1 X146.934 Y112.036 E3072.861
G1 X147.15 Y111.952 E3072.873
G1 X147.613 Y111.711 E3072.898
G1 X148.042 Y111.412 E3072.925
G1 X148.299 Y111.193 E3072.941
G1 X148.537 Y110.961 E3072.958
G1 X148.938 Y110.485 E3072.989
G1 X149.224 Y110.033 E3073.016
G1 X149.349 Y109.791 E3073.029
G1 X149.489 Y109.429 E3073.049
G1 X149.583 Y109.056 E3073.068
G1 X149.615 Y108.69 E3073.086
G1 X149.614 Y107.022 E3073.169
G1 X149.544 Y103.615 E3073.34
G1 X149.249 Y97.196 E3073.66
G1 X148.764 Y89.334 E3074.053
G1 X148.427 Y85.259 E3074.257
G1 X148.312 Y84.157 E3074.312
G1 X145.801 Y62.195 E3075.415
G1 X145.72 Y61.756 E3075.438
G1 X145.57 Y61.309 E3075.461
G1 X145.459 Y61.065 E3075.474
G1 X145.214 Y60.647 E3075.499
G1 X144.904 Y60.254 E3075.523
G1 X144.549 Y59.915 E3075.548
G1 X144.357 Y59.768 E3075.56
G1 X143.944 Y59.509 E3075.584
G1 X143.719 Y59.4 E3075.597
G1 X143.254 Y59.233 E3075.622
G1 X143.016 Y59.175 E3075.634
G1 X142.775 Y59.133 E3075.646
G1 X142.31 Y59.099 E3075.669
G1 X125 Y59.098 E3076.533
G1 X124.598 Y59.141 E3076.553
G1 X124.207 Y59.252 E3076.573
G1 X123.995 Y59.333 E3076.584
G1 X123.525 Y59.578 E3076.611
G1 X123.308 Y59.719 E3076.624
G1 X122.838 Y60.097 E3076.654
G1 X122.602 Y60.327 E3076.67
G1 X122.385 Y60.568 E3076.687
G1 X122.201 Y60.804 E3076.702
G1 X122.045 Y61.03 E3076.715
G1 X121.809 Y61.458 E3076.74
G1 X121.715 Y61.676 E3076.751
G1 X121.595 Y62.052 E3076.771
;rapid-leaky
G1 F15000
G0 X121.95 Y62.14
;bead-perimeter_inner
G1 X121.89 Y62.56 F780 E3076.792
G1 X121.888 Y103.661 E3078.843
G1 X121.922 Y104.161 E3078.868
G1 X121.967 Y104.446 E3078.882
G1 X122.04 Y104.77 E3078.899
G1 X122.145 Y105.134 E3078.918
G1 X122.303 Y105.57 E3078.941
G1 X122.53 Y106.079 E3078.969
G1 X122.794 Y106.579 E3078.997
G1 X123.102 Y107.088 E3079.027
G1 X123.483 Y107.638 E3079.06
G1 X123.976 Y108.261 E3079.1
G1 X124.522 Y108.864 E3079.14
G1 X125.176 Y109.495 E3079.186
G1 X125.774 Y110.001 E3079.225
G1 X126.422 Y110.477 E3079.265
G1 X126.973 Y110.826 E3079.297
G1 X127.514 Y111.123 E3079.328
G1 X127.991 Y111.347 E3079.354
G1 X128.404 Y111.508 E3079.376
G1 X128.801 Y111.636 E3079.397
G1 X129.139 Y111.721 E3079.415
G1 X129.478 Y111.782 E3079.432
G1 X130.01 Y111.824 E3079.458
G1 X146.218 Y111.82 E3080.267
G1 X146.483 Y111.784 E3080.28
G1 X146.818 Y111.69 E3080.298
G1 X147.188 Y111.529 E3080.318
G1 X147.624 Y111.269 E3080.343
G1 X148.053 Y110.922 E3080.371
G1 X148.274 Y110.708 E3080.386
G1 X148.473 Y110.485 E3080.401
G1 X148.775 Y110.076 E3080.426
G1 X149.015 Y109.641 E3080.451
G1 X149.141 Y109.318 E3080.469
G1 X149.222 Y108.995 E3080.485
G1 X149.25 Y108.674 E3080.501
G1 X149.249 Y107.026 E3080.583
G1 X149.18 Y103.627 E3080.753
G1 X148.885 Y97.216 E3081.073
G1 X148.4 Y89.36 E3081.466
G1 X148.064 Y85.293 E3081.669
G1 X147.95 Y84.197 E3081.724
G1 X145.44 Y62.249 E3082.826
G1 X145.365 Y61.847 E3082.847
G1 X145.23 Y61.443 E3082.868
G1 X145.132 Y61.228 E3082.88
G1 X144.912 Y60.852 E3082.902
G1 X144.635 Y60.501 E3082.924
G1 X144.316 Y60.196 E3082.946
G1 X144.143 Y60.064 E3082.957
G1 X143.772 Y59.832 E3082.979
G1 X143.571 Y59.734 E3082.99
G1 X143.155 Y59.585 E3083.012
G1 X142.941 Y59.532 E3083.023
G1 X142.724 Y59.494 E3083.034
G1 X142.303 Y59.464 E3083.055
G1 X125.019 Y59.463 E3083.917
G1 X124.668 Y59.501 E3083.935
G1 X124.323 Y59.599 E3083.953
G1 X124.139 Y59.669 E3083.963
G1 X123.713 Y59.891 E3083.987
G1 X123.516 Y60.018 E3083.998
G1 X123.084 Y60.367 E3084.026
G1 X122.865 Y60.58 E3084.041
G1 X122.495 Y61.02 E3084.07
G1 X122.356 Y61.223 E3084.082
G1 X122.137 Y61.619 E3084.105
G1 X122.057 Y61.804 E3084.115
G1 X121.95 Y62.14 E3084.132
;rapid-leaky
G1 F15000
G0 X122.305 Y62.228
;bead-perimeter_inner
G1 X122.255 Y62.575 F780 E3084.15
G1 X122.253 Y103.655 E3086.199
G1 X122.284 Y104.115 E3086.222
G1 X122.326 Y104.377 E3086.236
G1 X122.393 Y104.68 E3086.251
G1 X122.492 Y105.021 E3086.269
G1 X122.642 Y105.434 E3086.291
G1 X122.859 Y105.919 E3086.317
G1 X123.112 Y106.399 E3086.344
G1 X123.409 Y106.89 E3086.373
G1 X123.777 Y107.42 E3086.405
G1 X124.255 Y108.025 E3086.444
G1 X124.784 Y108.609 E3086.483
G1 X125.421 Y109.224 E3086.527
G1 X126 Y109.714 E3086.565
G1 X126.628 Y110.175 E3086.604
G1 X127.159 Y110.512 E3086.635
G1 X127.68 Y110.798 E3086.665
G1 X128.135 Y111.012 E3086.69
G1 X128.526 Y111.164 E3086.711
G1 X128.901 Y111.284 E3086.73
G1 X129.216 Y111.364 E3086.747
G1 X129.531 Y111.42 E3086.763
G1 X130.018 Y111.459 E3086.787
G1 X146.188 Y111.456 E3087.594
G1 X146.408 Y111.425 E3087.605
G1 X146.702 Y111.343 E3087.62
G1 X147.021 Y111.205 E3087.637
G1 X147.415 Y110.969 E3087.66
G1 X147.807 Y110.652 E3087.686
G1 X148.193 Y110.25 E3087.713
G1 X148.467 Y109.88 E3087.736
G1 X148.682 Y109.491 E3087.758
G1 X148.792 Y109.207 E3087.774
G1 X148.861 Y108.934 E3087.788
G1 X148.885 Y108.658 E3087.802
G1 X148.884 Y107.03 E3087.883
G1 X148.815 Y103.639 E3088.052
G1 X148.52 Y97.236 E3088.372
G1 X148.036 Y89.386 E3088.764
G1 X147.701 Y85.327 E3088.967
G1 X147.587 Y84.237 E3089.022
G1 X145.079 Y62.303 E3090.123
G1 X145.011 Y61.939 E3090.142
G1 X144.89 Y61.577 E3090.161
G1 X144.805 Y61.391 E3090.171
G1 X144.61 Y61.057 E3090.19
G1 X144.366 Y60.748 E3090.21
G1 X144.083 Y60.478 E3090.229
G1 X143.93 Y60.361 E3090.239
G1 X143.601 Y60.155 E3090.259
G1 X143.424 Y60.069 E3090.268
G1 X143.055 Y59.936 E3090.288
G1 X142.866 Y59.89 E3090.298
G1 X142.674 Y59.856 E3090.307
G1 X142.296 Y59.829 E3090.326
G1 X125.039 Y59.828 E3091.187
