;headset-holder-base-plate-key
;Printer Name: Creality Ender 3
;Print time: 2660s
;Extruder 1 Material used: 1829mm
;Extruder 1 Material name: PLA 1.75mm
;Extruder 1 Filament diameter: 1.75mm
;Extruder 1 Nozzle diameter: 0.4mm
;Extruder 1 offset x: 0mm
;Extruder 1 offset y: 0mm
;Extruder 1 offset z: 0mm
;Max temp: 220
;Bed temp: 60
;Layer Count: 69
;width: 220mm
;depth: 220mm
;height: 250mm
;center x: 110mm
;center y: 110mm
;center z: 0mm
;Count of bodies: 1
;Version of Fusion: 2.0.8407
;--------------------------------
;Selected Profile: PLA 1.75mm, 0.4mm Nozzle
;Selected Printer: Creality, Ender 3
;--------------------------------
M140 S60
M190 S60
M104 S220
M105
M109 S220
G1 F15000
G21
G90
M82
;Reset multiplier
M220 S100
M221 S100
;Enable auto bed leveling
M420 S1 Z2
G28
G1 Z10 F6000
G92 E0
G0 X0 Y0
G92 E0
;--------------------------------
;Layer : 1 of 69
M107
;rapid-leaky
G0 X10 Y10.8 Z0.3
G1 F1800 E0.5
;bead-prime
G1 X210 F270 E40.412
G1 F1800 E39.912
;rapid-dry
G1 F15000
G0 X143.999 Y97.5
G1 F1800 E40.412
;bead-raft
G1 X143.6 F288 E40.472
G1 X143.999 Y101.5 E41.073
G1 X143.6 E41.133
G1 Y105.5 E41.732
G1 X143.999 E41.792
G1 Y109.5 E42.39
G1 X143.6 E42.45
G1 Y113.5 E43.049
G1 X144 E43.109
G1 Y117.5 E43.707
G1 X143.6 E43.767
G1 Y121.5 E44.366
G1 X144 E44.426
G1 X141.7 Y122.5 E44.801
G1 Y121.5 E44.951
G1 X126.7 E47.196
G1 Y117.5 E47.794
G1 X141.7 E50.04
G1 Y113.5 E50.638
G1 X126.7 E52.883
G1 Y109.5 E53.482
G1 X141.7 E55.727
G1 Y105.5 E56.326
G1 X126.7 E58.571
G1 Y101.5 E59.169
G1 X141.7 E61.415
G1 Y97.5 E62.013
G1 X126.7 E64.258
;bead-raft
;rapid-leaky
G1 F15000
G0 X124.8 Y122.5
;bead-raft
G1 Y121.5 F288 E64.408
G1 X109.8 E66.653
G1 Y117.5 E67.252
G1 X124.8 E69.497
G1 Y113.5 E70.095
G1 X109.8 E72.34
G1 Y109.5 E72.939
G1 X124.8 E75.184
G1 Y105.5 E75.783
G1 X109.8 E78.028
G1 Y101.5 E78.627
G1 X124.8 E80.872
G1 Y97.5 E81.47
G1 X109.8 E83.715
;bead-raft
;rapid-leaky
G1 F15000
G0 X107.9 Y122.5
;bead-raft
G1 Y121.5 F288 E83.865
G1 X92.9 E86.11
G1 Y117.5 E86.709
G1 X107.9 E88.954
G1 Y113.5 E89.553
G1 X92.9 E91.798
G1 Y109.5 E92.396
G1 X107.9 E94.641
G1 Y105.5 E95.24
G1 X92.9 E97.485
G1 Y101.5 E98.084
G1 X107.9 E100.329
G1 Y97.5 E100.928
G1 X92.9 E103.173
;bead-raft
;rapid-leaky
G1 F15000
G0 X91 Y122.5
;bead-raft
G1 Y121.5 F288 E103.322
G1 X76 E105.567
G1 Y117.5 E106.166
G1 X91 E108.411
G1 Y113.5 E109.01
G1 X76 E111.255
G1 Y109.5 E111.854
G1 X91 E114.099
G1 Y105.5 E114.697
G1 X76 E116.942
G1 Y101.5 E117.541
G1 X91 E119.786
G1 Y97.5 E120.385
G1 X76 E122.63
;bead-raft
G1 F1800 E122.13
;Layer : 2 of 69
M106 S255
;rapid-leaky
G1 F15000
G0 X76.2 Y97.904 Z0.5
G1 F1800 E122.63
;bead-raft
G1 X76.404 Y97.7 F3600 E122.639
G1 X78.29 E122.702
G1 X76.2 Y99.79 E122.8
G1 Y101.676 E122.863
G1 X80.176 Y97.7 E123.05
G1 X82.061 E123.113
G1 X76.2 Y103.561 E123.389
G1 Y105.447 E123.451
G1 X83.947 Y97.7 E123.816
G1 X85.832 E123.878
G1 X76.2 Y107.332 E124.331
G1 Y109.218 E124.394
G1 X87.718 Y97.7 E124.936
G1 X89.604 E124.999
G1 X76.2 Y111.104 E125.629
G1 Y112.989 E125.692
G1 X91.489 Y97.7 E126.411
G1 X93.375 E126.474
G1 X76.2 Y114.875 E127.282
G1 Y116.76 E127.344
G1 X95.26 Y97.7 E128.241
G1 X97.146 E128.303
G1 X76.2 Y118.646 E129.289
G1 Y120.532 E129.351
G1 X99.032 Y97.7 E130.425
G1 X100.917 E130.488
G1 X76.317 Y122.3 E131.645
G1 X78.203 E131.708
G1 X102.803 Y97.7 E132.865
G1 X104.689 E132.928
G1 X80.089 Y122.3 E134.085
G1 X81.974 E134.148
G1 X106.574 Y97.7 E135.305
G1 X108.46 E135.367
G1 X83.86 Y122.3 E136.525
G1 X85.745 E136.587
G1 X110.345 Y97.7 E137.744
G1 X112.231 E137.807
G1 X87.631 Y122.3 E138.964
G1 X89.517 E139.027
G1 X114.117 Y97.7 E140.184
G1 X116.002 E140.247
G1 X91.402 Y122.3 E141.404
G1 X93.288 E141.467
G1 X117.888 Y97.7 E142.624
G1 X119.773 E142.686
G1 X95.173 Y122.3 E143.843
G1 X97.059 E143.906
G1 X121.659 Y97.7 E145.063
G1 X123.545 E145.126
G1 X98.945 Y122.3 E146.283
G1 X100.83 E146.346
G1 X125.43 Y97.7 E147.503
G1 X127.316 E147.566
G1 X102.716 Y122.3 E148.723
G1 X104.602 E148.785
G1 X129.202 Y97.7 E149.943
G1 X131.087 E150.005
G1 X106.487 Y122.3 E151.162
G1 X108.373 E151.225
G1 X132.973 Y97.7 E152.382
G1 X134.858 E152.445
G1 X110.258 Y122.3 E153.602
G1 X112.144 E153.665
G1 X136.744 Y97.7 E154.822
G1 X138.63 E154.885
G1 X114.03 Y122.3 E156.042
G1 X115.915 E156.104
G1 X140.515 Y97.7 E157.262
G1 X142.401 E157.324
G1 X117.801 Y122.3 E158.481
G1 X119.687 E158.544
G1 X143.799 Y98.188 E159.678
G1 Y100.073 E159.741
G1 X121.572 Y122.3 E160.786
G1 X123.458 E160.849
G1 X143.799 Y101.959 E161.806
G1 Y103.844 E161.869
G1 X125.343 Y122.3 E162.737
G1 X127.229 E162.799
G1 X143.799 Y105.73 E163.579
G1 Y107.615 E163.642
G1 X129.115 Y122.3 E164.332
G1 X131 E164.395
G1 X143.799 Y109.501 E164.997
G1 X143.8 Y111.386 E165.06
G1 X132.886 Y122.3 E165.573
G1 X134.771 E165.636
G1 X143.8 Y113.272 E166.06
G1 Y115.157 E166.123
G1 X136.657 Y122.3 E166.459
G1 X138.543 E166.522
G1 X143.8 Y117.043 E166.769
G1 Y118.928 E166.832
G1 X140.428 Y122.3 E166.99
G1 X142.314 E167.053
G1 X143.8 Y120.814 E167.123
;bead-raft
G1 F1800 E166.623
;Layer : 3 of 69
;rapid-leaky
G1 F15000
G0 X143.6 Y122.1 Z0.8
G1 F1800 E167.123
;bead-raft
G1 X76.4 F3600 E170.476
G1 Y97.9 E171.683
G1 X143.599 E175.036
G1 X143.6 Y116.81 E175.979
G1 Y122.1 E176.243
;bead-raft
;rapid-leaky
G1 F15000
G0 X143.8 Y122.3
;bead-raft
G1 X76.2 F3600 E179.616
G1 Y97.7 E180.843
G1 X143.799 E184.215
G1 X143.8 Y116.81 E185.169
G1 Y122.3 E185.443
;bead-raft
;rapid-leaky
G1 F15000
G0 X143.2 Y121.4
;bead-raft
G1 X76.8 F3600 E188.755
G1 Y121 E188.775
G1 X143.2 E192.088
G1 Y120.6 E192.108
G1 X76.8 E195.421
G1 Y120.2 E195.441
G1 X143.2 E198.753
G1 Y119.8 E198.773
G1 X76.8 E202.086
G1 Y119.4 E202.106
G1 X143.2 E205.419
G1 Y119 E205.439
G1 X76.8 E208.751
G1 Y118.6 E208.771
G1 X143.2 E212.084
G1 Y118.2 E212.104
G1 X76.8 E215.417
G1 Y117.8 E215.437
G1 X143.2 E218.749
G1 Y117.4 E218.769
G1 X76.8 E222.082
G1 Y117 E222.102
G1 X143.2 E225.415
G1 Y116.6 E225.435
G1 X76.8 E228.747
G1 Y116.2 E228.767
G1 X143.2 E232.08
G1 Y115.8 E232.1
G1 X76.8 E235.413
G1 Y115.4 E235.433
G1 X143.2 E238.745
G1 Y115 E238.765
G1 X76.8 E242.078
G1 Y114.6 E242.098
G1 X143.2 E245.411
G1 Y114.2 E245.431
G1 X76.8 E248.743
G1 Y113.8 E248.763
G1 X143.2 E252.076
G1 Y113.4 E252.096
G1 X76.8 E255.409
G1 Y113 E255.429
G1 X143.2 E258.741
G1 Y112.6 E258.761
G1 X76.8 E262.074
G1 Y112.2 E262.094
G1 X143.2 E265.407
G1 Y111.8 E265.427
G1 X76.8 E268.739
G1 Y111.4 E268.759
G1 X143.2 E272.072
G1 Y111 E272.092
G1 X76.8 E275.404
G1 Y110.6 E275.424
G1 X143.2 E278.737
G1 Y110.2 E278.757
G1 X76.8 E282.07
G1 Y109.8 E282.09
G1 X143.2 E285.402
G1 X143.199 Y109.4 E285.422
G1 X76.8 E288.735
G1 Y109 E288.755
G1 X143.199 E292.068
G1 Y108.6 E292.088
G1 X76.8 E295.4
G1 Y108.2 E295.42
G1 X143.199 E298.733
G1 Y107.8 E298.753
G1 X76.8 E302.066
G1 Y107.4 E302.086
G1 X143.199 E305.398
G1 Y107 E305.418
G1 X76.8 E308.731
G1 Y106.6 E308.751
G1 X143.199 E312.063
G1 Y106.2 E312.083
G1 X76.8 E315.396
G1 Y105.8 E315.416
G1 X143.199 E318.729
G1 Y105.4 E318.749
G1 X76.8 E322.061
G1 Y105 E322.081
G1 X143.199 E325.394
G1 Y104.6 E325.414
G1 X76.8 E328.727
G1 Y104.2 E328.747
G1 X143.199 E332.059
G1 Y103.8 E332.079
G1 X76.8 E335.392
G1 Y103.4 E335.412
G1 X143.199 E338.724
G1 Y103 E338.744
G1 X76.8 E342.057
G1 Y102.6 E342.077
G1 X143.199 E345.39
G1 Y102.2 E345.41
G1 X76.8 E348.722
G1 Y101.8 E348.742
G1 X143.199 E352.055
G1 Y101.4 E352.075
G1 X76.8 E355.388
G1 Y101 E355.407
G1 X143.199 E358.72
G1 Y100.6 E358.74
G1 X76.8 E362.053
G1 Y100.2 E362.073
G1 X143.199 E365.385
G1 Y99.8 E365.405
G1 X76.8 E368.718
G1 Y99.4 E368.738
G1 X143.199 E372.051
G1 Y99 E372.071
G1 X76.8 E375.383
G1 Y98.6 E375.403
G1 X143.199 E378.716
;bead-raft
G1 F1800 E378.216
;Layer : 4 of 69
;rapid-leaky
G1 F15000
G0 X143.599 Y97.9 Z1.1
G1 F1800 E378.716
;bead-raft
G1 X143.6 Y116.81 F3600 E379.659
G1 Y122.1 E379.923
G1 X76.4 E383.276
G1 Y97.9 E384.483
G1 X143.599 E387.836
;bead-raft
;rapid-leaky
G1 F15000
G0 X143.799 Y97.7
;bead-raft
G1 X143.8 Y116.81 F3600 E388.789
G1 Y122.3 E389.063
G1 X76.2 E392.435
G1 Y97.7 E393.663
G1 X143.799 E397.035
;bead-raft
;rapid-leaky
G1 F15000
G0 X143.199 Y98.6
;bead-raft
G1 X76.8 F3600 E400.348
G1 Y99 E400.368
G1 X143.199 E403.681
G1 Y99.4 E403.701
G1 X76.8 E407.013
G1 Y99.8 E407.033
G1 X143.199 E410.346
G1 Y100.2 E410.366
G1 X76.8 E413.678
G1 Y100.6 E413.698
G1 X143.199 E417.011
G1 Y101 E417.031
G1 X76.8 E420.344
G1 Y101.4 E420.364
G1 X143.199 E423.676
G1 Y101.8 E423.696
G1 X76.8 E427.009
G1 Y102.2 E427.029
G1 X143.199 E430.341
G1 Y102.6 E430.361
G1 X76.8 E433.674
G1 Y103 E433.694
G1 X143.199 E437.007
G1 Y103.4 E437.027
G1 X76.8 E440.339
G1 Y103.8 E440.359
G1 X143.199 E443.672
G1 Y104.2 E443.692
G1 X76.8 E447.005
G1 Y104.6 E447.024
G1 X143.199 E450.337
G1 Y105 E450.357
G1 X76.8 E453.67
G1 Y105.4 E453.69
G1 X143.199 E457.002
G1 Y105.8 E457.022
G1 X76.8 E460.335
G1 Y106.2 E460.355
G1 X143.199 E463.668
G1 Y106.6 E463.688
G1 X76.8 E467
G1 Y107 E467.02
G1 X143.199 E470.333
G1 Y107.4 E470.353
G1 X76.8 E473.666
G1 Y107.8 E473.685
G1 X143.199 E476.998
G1 Y108.2 E477.018
G1 X76.8 E480.331
G1 Y108.6 E480.351
G1 X143.199 E483.663
G1 Y109 E483.683
G1 X76.8 E486.996
G1 Y109.4 E487.016
G1 X143.199 E490.329
G1 X143.2 Y109.8 E490.349
G1 X76.8 E493.661
G1 Y110.2 E493.681
G1 X143.2 E496.994
G1 Y110.6 E497.014
G1 X76.8 E500.327
G1 Y111 E500.347
G1 X143.2 E503.659
G1 Y111.4 E503.679
G1 X76.8 E506.992
G1 Y111.8 E507.012
G1 X143.2 E510.325
G1 Y112.2 E510.345
G1 X76.8 E513.657
G1 Y112.6 E513.677
G1 X143.2 E516.99
G1 Y113 E517.01
G1 X76.8 E520.323
G1 Y113.4 E520.342
G1 X143.2 E523.655
G1 Y113.8 E523.675
G1 X76.8 E526.988
G1 Y114.2 E527.008
G1 X143.2 E530.32
G1 Y114.6 E530.34
G1 X76.8 E533.653
G1 Y115 E533.673
G1 X143.2 E536.986
G1 Y115.4 E537.006
G1 X76.8 E540.318
G1 Y115.8 E540.338
G1 X143.2 E543.651
G1 Y116.2 E543.671
G1 X76.8 E546.984
G1 Y116.6 E547.004
G1 X143.2 E550.316
G1 Y117 E550.336
G1 X76.8 E553.649
G1 Y117.4 E553.669
G1 X143.2 E556.982
G1 Y117.8 E557.002
G1 X76.8 E560.314
G1 Y118.2 E560.334
G1 X143.2 E563.647
G1 Y118.6 E563.667
G1 X76.8 E566.98
G1 Y119 E567
G1 X143.2 E570.312
G1 Y119.4 E570.332
G1 X76.8 E573.645
G1 Y119.8 E573.665
G1 X143.2 E576.978
G1 Y120.2 E576.998
G1 X76.8 E580.31
G1 Y120.6 E580.33
G1 X143.2 E583.643
G1 Y121 E583.663
G1 X76.8 E586.976
G1 Y121.4 E586.996
G1 X143.2 E590.308
;bead-raft
G1 F1800 E589.808
;Layer : 5 of 69
;rapid-dry
G1 F15000
G0 X137.705 Y116.205 Z1.7
G1 F1800 E590.308
;bead-perimeter_inner
G1 X82.295 F780 E593.073
G1 Y103.795 E593.692
G1 X137.704 E596.456
G1 X137.705 Y116.205 E597.076
;rapid-leaky
G1 F15000
G0 X138.07 Y116.57
;bead-perimeter_inner
G1 X81.93 F780 E599.876
G1 Y103.43 E600.532
G1 X138.069 E603.333
G1 X138.07 Y116.57 E603.988
;rapid-leaky
G1 F15000
G0 X138.435 Y116.935
;bead-perimeter_inner
G1 X81.565 F780 E606.826
G1 Y103.065 E607.517
G1 X138.434 E610.355
G1 X138.435 Y116.935 E611.047
;rapid-leaky
G1 F15000
G0 X138.8 Y117.272
;bead-perimeter_outer
G1 Y117.3 F540 E611.048
G1 X81.2 E613.922
G1 Y102.7 E614.65
G1 X138.799 E617.524
G1 X138.8 Y117.272 E618.251
G1 F1800 E617.751
;rapid-dry
G1 F15000
G0 X136.938 Y115.885
G1 F1800 E618.251
;bead-solid_infill
G1 X137.385 Y115.439 F1200 E618.282
G1 Y114.873 E618.31
G1 X136.373 Y115.885 E618.382
G1 X135.807 E618.41
G1 X137.385 Y114.307 E618.521
G1 Y113.742 E618.55
G1 X135.241 Y115.885 E618.701
G1 X134.676 E618.729
G1 X137.385 Y113.176 E618.92
G1 Y112.61 E618.948
G1 X134.11 Y115.885 E619.179
G1 X133.544 E619.208
G1 X137.385 Y112.045 E619.479
G1 Y111.479 E619.507
G1 X132.979 Y115.885 E619.818
G1 X132.413 E619.846
G1 X137.385 Y110.913 E620.197
G1 Y110.358 E620.224
G1 Y110.348 E620.225
G1 X131.847 Y115.885 E620.616
G1 X131.282 E620.644
G1 X137.385 Y109.782 E621.074
G1 X137.384 Y109.216 E621.103
G1 X130.716 Y115.885 E621.573
G1 X130.15 E621.601
G1 X137.384 Y108.651 E622.112
G1 Y108.085 E622.14
G1 X129.585 Y115.885 E622.69
G1 X129.019 E622.719
G1 X137.384 Y107.52 E623.309
G1 Y106.954 E623.337
G1 X128.453 Y115.885 E623.967
G1 X127.887 E623.995
G1 X137.384 Y106.388 E624.665
G1 Y105.823 E624.694
G1 X127.322 Y115.885 E625.404
G1 X126.756 E625.432
G1 X137.384 Y105.257 E626.182
G1 Y104.691 E626.21
G1 X126.19 Y115.885 E627
G1 X125.625 E627.028
G1 X137.384 Y104.126 E627.858
G1 Y104.115
G1 X136.829 E627.886
G1 X125.059 Y115.885 E628.716
G1 X124.493 E628.744
G1 X136.263 Y104.115 E629.575
G1 X135.698 E629.603
G1 X123.928 Y115.885 E630.434
G1 X123.362 E630.462
G1 X135.132 Y104.115 E631.292
G1 X134.566 E631.32
G1 X122.796 Y115.885 E632.151
G1 X122.231 E632.179
G1 X134.001 Y104.115 E633.01
G1 X133.435 E633.038
G1 X121.665 Y115.885 E633.868
G1 X121.099 E633.896
G1 X132.869 Y104.115 E634.727
G1 X132.304 E634.755
G1 X120.534 Y115.885 E635.586
G1 X119.968 E635.614
G1 X131.738 Y104.115 E636.444
G1 X131.172 E636.472
G1 X119.402 Y115.885 E637.303
G1 X118.837 E637.331
G1 X130.607 Y104.115 E638.161
G1 X130.041 E638.19
G1 X118.271 Y115.885 E639.02
G1 X117.705 E639.048
G1 X129.475 Y104.115 E639.879
G1 X128.909 E639.907
G1 X117.139 Y115.885 E640.737
G1 X116.574 E640.766
G1 X128.344 Y104.115 E641.596
G1 X127.778 E641.624
G1 X116.008 Y115.885 E642.455
G1 X115.442 E642.483
G1 X127.212 Y104.115 E643.313
G1 X126.647 E643.342
G1 X114.877 Y115.885 E644.172
G1 X114.311 E644.2
G1 X126.081 Y104.115 E645.031
G1 X125.515 E645.059
G1 X113.745 Y115.885 E645.889
G1 X113.18 E645.918
G1 X124.95 Y104.115 E646.748
G1 X124.384 E646.776
G1 X112.614 Y115.885 E647.607
G1 X112.048 E647.635
G1 X123.818 Y104.115 E648.465
G1 X123.253 E648.494
G1 X111.483 Y115.885 E649.324
G1 X110.917 E649.352
G1 X122.687 Y104.115 E650.183
G1 X122.121 E650.211
G1 X110.351 Y115.885 E651.041
G1 X109.786 E651.07
G1 X121.556 Y104.115 E651.9
G1 X120.99 E651.928
G1 X109.22 Y115.885 E652.759
G1 X108.654 E652.787
G1 X120.424 Y104.115 E653.617
G1 X119.858 E653.646
G1 X108.088 Y115.885 E654.476
G1 X107.523 E654.504
G1 X119.293 Y104.115 E655.335
G1 X118.727 E655.363
G1 X106.957 Y115.885 E656.193
G1 X106.391 E656.222
G1 X118.161 Y104.115 E657.052
G1 X117.596 E657.08
G1 X105.826 Y115.885 E657.911
G1 X105.26 E657.939
G1 X117.03 Y104.115 E658.769
G1 X116.464 E658.798
G1 X104.694 Y115.885 E659.628
G1 X104.129 E659.656
G1 X115.899 Y104.115 E660.487
G1 X115.333 E660.515
G1 X103.563 Y115.885 E661.345
G1 X102.997 E661.374
G1 X114.767 Y104.115 E662.204
G1 X114.202 E662.232
G1 X102.432 Y115.885 E663.063
G1 X101.866 E663.091
G1 X113.636 Y104.115 E663.921
G1 X113.07 E663.95
G1 X101.3 Y115.885 E664.78
G1 X100.735 E664.808
G1 X112.505 Y104.115 E665.639
G1 X111.939 E665.667
G1 X100.169 Y115.885 E666.497
G1 X99.603 E666.526
G1 X111.373 Y104.115 E667.356
G1 X110.808 E667.384
G1 X99.038 Y115.885 E668.215
G1 X98.472 E668.243
G1 X110.242 Y104.115 E669.073
G1 X109.676 E669.102
G1 X97.906 Y115.885 E669.932
G1 X97.34 E669.96
G1 X109.11 Y104.115 E670.791
G1 X108.545 E670.819
G1 X96.775 Y115.885 E671.649
G1 X96.209 E671.677
G1 X107.979 Y104.115 E672.508
G1 X107.413 E672.536
G1 X95.643 Y115.885 E673.367
G1 X95.078 E673.395
G1 X106.848 Y104.115 E674.225
G1 X106.282 E674.253
G1 X94.512 Y115.885 E675.084
G1 X93.946 E675.112
G1 X105.716 Y104.115 E675.943
G1 X105.151 E675.971
G1 X93.381 Y115.885 E676.801
G1 X92.815 E676.829
G1 X104.585 Y104.115 E677.66
G1 X104.019 E677.688
G1 X92.249 Y115.885 E678.518
G1 X91.684 E678.547
G1 X103.454 Y104.115 E679.377
G1 X102.888 E679.405
G1 X91.118 Y115.885 E680.236
G1 X90.552 E680.264
G1 X102.322 Y104.115 E681.094
G1 X101.757 E681.123
G1 X89.987 Y115.885 E681.953
G1 X89.421 E681.981
G1 X101.191 Y104.115 E682.812
G1 X100.625 E682.84
G1 X88.855 Y115.885 E683.67
G1 X88.289 E683.699
G1 X100.059 Y104.115 E684.529
G1 X99.494 E684.557
G1 X87.724 Y115.885 E685.388
G1 X87.158 E685.416
G1 X98.928 Y104.115 E686.246
G1 X98.362 E686.275
G1 X86.592 Y115.885 E687.105
G1 X86.027 E687.133
G1 X97.797 Y104.115 E687.964
G1 X97.231 E687.992
G1 X85.461 Y115.885 E688.822
G1 X84.895 E688.851
G1 X96.665 Y104.115 E689.681
G1 X96.1 E689.709
G1 X84.33 Y115.885 E690.54
G1 X83.764 E690.568
G1 X95.534 Y104.115 E691.398
G1 X94.968 E691.427
G1 X83.198 Y115.885 E692.257
G1 X82.633 E692.285
G1 X94.403 Y104.115 E693.116
G1 X93.837 E693.144
G1 X82.615 Y115.337 E693.936
G1 Y114.771 E693.964
G1 X93.271 Y104.115 E694.716
G1 X92.706 E694.744
G1 X82.615 Y114.206 E695.456
G1 Y113.64 E695.484
G1 X92.14 Y104.115 E696.156
G1 X91.574 E696.184
G1 X82.615 Y113.074 E696.817
G1 Y112.509 E696.845
G1 X91.009 Y104.115 E697.437
G1 X90.443 E697.465
G1 X82.615 Y111.943 E698.018
G1 Y111.377 E698.046
G1 X89.877 Y104.115 E698.558
G1 X89.311 E698.586
G1 X82.615 Y110.811 E699.059
G1 Y110.246 E699.087
G1 X88.746 Y104.115 E699.52
G1 X88.18 E699.548
G1 X82.615 Y109.68 E699.94
G1 Y109.114 E699.969
G1 X87.614 Y104.115 E700.321
G1 X87.049 E700.35
G1 X82.615 Y108.549 E700.662
G1 Y107.983 E700.691
G1 X86.483 Y104.115 E700.964
G1 X85.917 E700.992
G1 X82.615 Y107.417 E701.225
G1 Y106.852 E701.253
G1 X85.352 Y104.115 E701.446
G1 X84.786 E701.474
G1 X82.615 Y106.286 E701.628
G1 Y105.72 E701.656
G1 X84.22 Y104.115 E701.769
G1 X83.655 E701.797
G1 X82.615 Y105.155 E701.871
G1 Y104.589 E701.899
G1 X83.089 Y104.115 E701.932
G1 F1800 E701.432
;Layer : 6 of 69
;rapid-leaky
G1 F15000
G0 X82.295 Y103.795 Z1.5
G1 F1800 E701.932
;bead-perimeter_inner
G1 X137.704 F1560 E702.854
G1 X137.705 Y116.205 E703.06
G1 X82.295 E703.982
G1 Y103.795 E704.188
;rapid-leaky
G1 F15000
G0 X81.93 Y103.43
;bead-perimeter_inner
G1 X138.069 F1560 E705.122
G1 X138.07 Y116.57 E705.34
G1 X81.93 E706.274
G1 Y103.43 E706.492
;rapid-leaky
G1 F15000
G0 X81.565 Y103.065
;bead-perimeter_inner
G1 X138.434 F1560 E707.438
G1 X138.435 Y116.935 E707.669
G1 X81.565 E708.614
G1 Y103.065 E708.845
;rapid-leaky
G1 F15000
G0 X81.2 Y102.7
;bead-perimeter_outer
G1 X138.799 F1080 E709.803
G1 X138.8 Y117.041 E710.041
G1 Y117.3 E710.046
G1 X81.2 E711.004
G1 Y102.7 E711.246
G1 F1800 E710.746
;rapid-dry
G1 F15000
G0 X82.615 Y115.411
G1 F1800 E711.246
;bead-solid_infill
G1 X83.089 Y115.885 F2400 E711.257
G1 X83.655 E711.267
G1 X82.615 Y114.845 E711.291
G1 Y114.28 E711.301
G1 X84.22 Y115.885 E711.339
G1 X84.786 E711.348
G1 X82.615 Y113.714 E711.399
G1 Y113.148 E711.408
G1 X85.352 Y115.885 E711.473
G1 X85.917 E711.482
G1 X82.615 Y112.583 E711.56
G1 Y112.017 E711.569
G1 X86.483 Y115.885 E711.66
G1 X87.049 E711.67
G1 X82.615 Y111.451 E711.774
G1 Y110.886 E711.783
G1 X87.614 Y115.885 E711.901
G1 X88.18 E711.91
G1 X82.615 Y110.32 E712.041
G1 Y109.754 E712.051
G1 X88.746 Y115.885 E712.195
G1 X89.311 E712.204
G1 X82.615 Y109.189 E712.362
G1 Y108.623 E712.371
G1 X89.877 Y115.885 E712.542
G1 X90.443 E712.551
G1 X82.615 Y108.057 E712.735
G1 Y107.492 E712.745
G1 X91.009 Y115.885 E712.942
G1 X91.574 E712.952
G1 X82.615 Y106.926 E713.162
G1 Y106.36 E713.172
G1 X92.14 Y115.885 E713.396
G1 X92.706 E713.405
G1 X82.615 Y105.794 E713.642
G1 Y105.229 E713.652
G1 X93.271 Y115.885 E713.902
G1 X93.837 E713.912
G1 X82.615 Y104.663 E714.176
G1 Y104.115 E714.185
G1 X82.633
G1 X94.403 Y115.885 E714.462
G1 X94.968 E714.471
G1 X83.198 Y104.115 E714.748
G1 X83.764 E714.758
G1 X95.534 Y115.885 E715.034
G1 X96.1 E715.044
G1 X84.33 Y104.115 E715.321
G1 X84.895 E715.33
G1 X96.665 Y115.885 E715.607
G1 X97.231 E715.616
G1 X85.461 Y104.115 E715.893
G1 X86.027 E715.902
G1 X97.797 Y115.885 E716.179
G1 X98.362 E716.189
G1 X86.592 Y104.115 E716.466
G1 X87.158 E716.475
G1 X98.928 Y115.885 E716.752
G1 X99.494 E716.761
G1 X87.724 Y104.115 E717.038
G1 X88.289 E717.047
G1 X100.059 Y115.885 E717.324
G1 X100.625 E717.334
G1 X88.855 Y104.115 E717.61
G1 X89.421 E717.62
G1 X101.191 Y115.885 E717.897
G1 X101.757 E717.906
G1 X89.987 Y104.115 E718.183
G1 X90.552 E718.192
G1 X102.322 Y115.885 E718.469
G1 X102.888 E718.478
G1 X91.118 Y104.115 E718.755
G1 X91.684 E718.765
G1 X103.454 Y115.885 E719.042
G1 X104.019 E719.051
G1 X92.249 Y104.115 E719.328
G1 X92.815 E719.337
G1 X104.585 Y115.885 E719.614
G1 X105.151 E719.623
G1 X93.381 Y104.115 E719.9
G1 X93.946 E719.91
G1 X105.716 Y115.885 E720.186
G1 X106.282 E720.196
G1 X94.512 Y104.115 E720.473
G1 X95.078 E720.482
G1 X106.848 Y115.885 E720.759
G1 X107.413 E720.768
G1 X95.643 Y104.115 E721.045
G1 X96.209 E721.054
G1 X107.979 Y115.885 E721.331
G1 X108.545 E721.341
G1 X96.775 Y104.115 E721.617
G1 X97.34 E721.627
G1 X109.11 Y115.885 E721.904
G1 X109.676 E721.913
G1 X97.906 Y104.115 E722.19
G1 X98.472 E722.199
G1 X110.242 Y115.885 E722.476
G1 X110.807 E722.486
G1 X99.038 Y104.115 E722.762
G1 X99.603 E722.772
G1 X111.373 Y115.885 E723.049
G1 X111.939 E723.058
G1 X100.169 Y104.115 E723.335
G1 X100.735 E723.344
G1 X112.505 Y115.885 E723.621
G1 X113.07 E723.63
G1 X101.3 Y104.115 E723.907
G1 X101.866 E723.917
G1 X113.636 Y115.885 E724.193
G1 X114.202 E724.203
G1 X102.432 Y104.115 E724.48
G1 X102.997 E724.489
G1 X114.767 Y115.885 E724.766
G1 X115.333 E724.775
G1 X103.563 Y104.115 E725.052
G1 X104.129 E725.062
G1 X115.899 Y115.885 E725.338
G1 X116.464 E725.348
G1 X104.694 Y104.115 E725.625
G1 X105.26 E725.634
G1 X117.03 Y115.885 E725.911
G1 X117.596 E725.92
G1 X105.826 Y104.115 E726.197
G1 X106.391 E726.206
G1 X118.161 Y115.885 E726.483
G1 X118.727 E726.493
G1 X106.957 Y104.115 E726.769
G1 X107.523 E726.779
G1 X119.293 Y115.885 E727.056
G1 X119.858 E727.065
G1 X108.088 Y104.115 E727.342
G1 X108.654 E727.351
G1 X120.424 Y115.885 E727.628
G1 X120.99 E727.637
G1 X109.22 Y104.115 E727.914
G1 X109.786 E727.924
G1 X121.556 Y115.885 E728.201
G1 X122.121 E728.21
G1 X110.351 Y104.115 E728.487
G1 X110.917 E728.496
G1 X122.687 Y115.885 E728.773
G1 X123.253 E728.782
G1 X111.483 Y104.115 E729.059
G1 X112.048 E729.069
G1 X123.818 Y115.885 E729.345
G1 X124.384 E729.355
G1 X112.614 Y104.115 E729.632
G1 X113.18 E729.641
G1 X124.95 Y115.885 E729.918
G1 X125.515 E729.927
G1 X113.745 Y104.115 E730.204
G1 X114.311 E730.213
G1 X126.081 Y115.885 E730.49
G1 X126.647 E730.5
G1 X114.877 Y104.115 E730.776
G1 X115.442 E730.786
G1 X127.212 Y115.885 E731.063
G1 X127.778 E731.072
G1 X116.008 Y104.115 E731.349
G1 X116.574 E731.358
G1 X128.344 Y115.885 E731.635
G1 X128.909 E731.645
G1 X117.139 Y104.115 E731.921
G1 X117.705 E731.931
G1 X129.475 Y115.885 E732.208
G1 X130.041 E732.217
G1 X118.271 Y104.115 E732.494
G1 X118.836 E732.503
G1 X130.606 Y115.885 E732.78
G1 X131.172 E732.789
G1 X119.402 Y104.115 E733.066
G1 X119.968 E733.076
G1 X131.738 Y115.885 E733.352
G1 X132.304 E733.362
G1 X120.534 Y104.115 E733.639
G1 X121.099 E733.648
G1 X132.869 Y115.885 E733.925
G1 X133.435 E733.934
G1 X121.665 Y104.115 E734.211
G1 X122.231 E734.221
G1 X134.001 Y115.885 E734.497
G1 X134.566 E734.507
G1 X122.796 Y104.115 E734.784
G1 X123.362 E734.793
G1 X135.132 Y115.885 E735.07
G1 X135.698 E735.079
G1 X123.928 Y104.115 E735.356
G1 X124.493 E735.365
G1 X136.263 Y115.885 E735.642
G1 X136.829 E735.652
G1 X125.059 Y104.115 E735.928
G1 X125.625 E735.938
G1 X137.385 Y115.875 E736.214
G1 Y115.31 E736.224
G1 X126.19 Y104.115 E736.487
G1 X126.756 E736.497
G1 X137.385 Y114.744 E736.746
G1 Y114.178 E736.756
G1 X127.322 Y104.115 E736.993
G1 X127.887 E737.002
G1 X137.385 Y113.612 E737.225
G1 Y113.047 E737.235
G1 X128.453 Y104.115 E737.445
G1 X129.019 E737.454
G1 X137.385 Y112.481 E737.651
G1 Y111.915 E737.66
G1 X129.585 Y104.115 E737.844
G1 X130.15 E737.853
G1 X137.385 Y111.349 E738.023
G1 Y110.784 E738.033
G1 X130.716 Y104.115 E738.19
G1 X131.282 E738.199
G1 X137.385 Y110.218 E738.343
G1 X137.384 Y109.652 E738.352
G1 X131.847 Y104.115 E738.482
G1 X132.413 E738.492
G1 X137.384 Y109.087 E738.609
G1 Y108.521 E738.618
G1 X132.979 Y104.115 E738.722
G1 X133.544 E738.731
G1 X137.384 Y107.955 E738.821
G1 Y107.389 E738.831
G1 X134.11 Y104.115 E738.908
G1 X134.676 E738.917
G1 X137.384 Y106.824 E738.981
G1 Y106.258 E738.99
G1 X135.241 Y104.115 E739.041
G1 X135.807 E739.05
G1 X137.384 Y105.692 E739.087
G1 Y105.126 E739.096
G1 X136.373 Y104.115 E739.12
G1 X136.938 E739.13
G1 X137.384 Y104.561 E739.14
G1 F1800 E738.64
;Layer : 7 of 69
;rapid-leaky
G1 F15000
G0 X137.704 Y103.795 Z1.6
G1 F1800 E739.14
;bead-perimeter_inner
G1 X137.705 Y116.205 F1560 E739.347
G1 X82.295 E740.268
G1 Y103.795 E740.474
G1 X137.704 E741.396
;rapid-leaky
G1 F15000
G0 X138.069 Y103.43
;bead-perimeter_inner
G1 X138.07 Y116.57 F1560 E741.614
G1 X81.93 E742.548
G1 Y103.43 E742.767
G1 X138.069 E743.7
;rapid-leaky
G1 F15000
G0 X138.434 Y103.065
;bead-perimeter_inner
G1 X138.435 Y116.81 F1560 E743.929
G1 Y116.935 E743.931
G1 X81.565 E744.877
G1 Y103.065 E745.107
G1 X138.434 E746.053
;rapid-leaky
G1 F15000
G0 X138.799 Y102.7
;bead-perimeter_outer
G1 X138.8 Y116.81 F1080 E746.288
G1 Y117.3 E746.296
G1 X81.2 E747.254
G1 Y102.7 E747.496
G1 X138.799 E748.454
G1 F1800 E747.954
;rapid-dry
G1 F15000
G0 X136.938 Y115.885
G1 F1800 E748.454
;bead-solid_infill
G1 X137.385 Y115.439 F2400 E748.465
G1 Y114.873 E748.474
G1 X136.373 Y115.885 E748.498
G1 X135.807 E748.507
G1 X137.385 Y114.307 E748.544
G1 Y113.742 E748.554
G1 X135.241 Y115.885 E748.604
G1 X134.676 E748.614
G1 X137.385 Y113.176 E748.677
G1 Y112.61 E748.687
G1 X134.11 Y115.885 E748.764
G1 X133.544 E748.773
G1 X137.385 Y112.045 E748.864
G1 Y111.479 E748.873
G1 X132.979 Y115.885 E748.977
G1 X132.413 E748.986
G1 X137.385 Y110.913 E749.103
G1 Y110.348 E749.112
G1 X131.847 Y115.885 E749.243
G1 X131.282 E749.252
G1 X137.384 Y109.782 E749.396
G1 Y109.216 E749.405
G1 X130.716 Y115.885 E749.562
G1 X130.15 E749.571
G1 X137.384 Y108.651 E749.741
G1 Y108.085 E749.751
G1 X129.585 Y115.885 E749.934
G1 X129.019 E749.944
G1 X137.384 Y107.52 E750.14
G1 Y106.954 E750.15
G1 X128.453 Y115.885 E750.36
G1 X127.887 E750.369
G1 X137.384 Y106.388 E750.593
G1 Y105.823 E750.602
G1 X127.322 Y115.885 E750.839
G1 X126.756 E750.848
G1 X137.384 Y105.257 E751.098
G1 Y104.691 E751.107
G1 X126.19 Y115.885 E751.371
G1 X125.625 E751.38
G1 X137.384 Y104.126 E751.657
G1 Y104.115
G1 X136.829 E751.666
G1 X125.059 Y115.885 E751.943
G1 X124.493 E751.952
G1 X136.263 Y104.115 E752.229
G1 X135.698 E752.238
G1 X123.928 Y115.885 E752.515
G1 X123.362 E752.525
G1 X135.132 Y104.115 E752.801
G1 X134.566 E752.811
G1 X122.796 Y115.885 E753.088
G1 X122.231 E753.097
G1 X134.001 Y104.115 E753.374
G1 X133.435 E753.383
G1 X121.665 Y115.885 E753.66
G1 X121.099 E753.669
G1 X132.869 Y104.115 E753.946
G1 X132.304 E753.956
G1 X120.534 Y115.885 E754.233
G1 X119.968 E754.242
G1 X131.738 Y104.115 E754.519
G1 X131.172 E754.528
G1 X119.402 Y115.885 E754.805
G1 X118.837 E754.814
G1 X130.607 Y104.115 E755.091
G1 X130.041 E755.101
G1 X118.271 Y115.885 E755.377
G1 X117.705 E755.387
G1 X129.475 Y104.115 E755.664
G1 X128.909 E755.673
G1 X117.139 Y115.885 E755.95
G1 X116.574 E755.959
G1 X128.344 Y104.115 E756.236
G1 X127.778 E756.245
G1 X116.008 Y115.885 E756.522
G1 X115.442 E756.532
G1 X127.212 Y104.115 E756.809
G1 X126.647 E756.818
G1 X114.877 Y115.885 E757.095
G1 X114.311 E757.104
G1 X126.081 Y104.115 E757.381
G1 X125.515 E757.39
G1 X113.745 Y115.885 E757.667
G1 X113.18 E757.677
G1 X124.95 Y104.115 E757.953
G1 X124.384 E757.963
G1 X112.614 Y115.885 E758.24
G1 X112.048 E758.249
G1 X123.818 Y104.115 E758.526
G1 X123.253 E758.535
G1 X111.483 Y115.885 E758.812
G1 X110.917 E758.821
G1 X122.687 Y104.115 E759.098
G1 X122.121 E759.108
G1 X110.351 Y115.885 E759.385
G1 X109.786 E759.394
G1 X121.556 Y104.115 E759.671
G1 X120.99 E759.68
G1 X109.22 Y115.885 E759.957
G1 X108.654 E759.966
G1 X120.424 Y104.115 E760.243
G1 X119.858 E760.253
G1 X108.088 Y115.885 E760.529
G1 X107.523 E760.539
G1 X119.293 Y104.115 E760.816
G1 X118.727 E760.825
G1 X106.957 Y115.885 E761.102
G1 X106.391 E761.111
G1 X118.161 Y104.115 E761.388
G1 X117.596 E761.397
G1 X105.826 Y115.885 E761.674
G1 X105.26 E761.684
G1 X117.03 Y104.115 E761.961
G1 X116.464 E761.97
G1 X104.694 Y115.885 E762.247
G1 X104.129 E762.256
G1 X115.899 Y104.115 E762.533
G1 X115.333 E762.542
G1 X103.563 Y115.885 E762.819
G1 X102.997 E762.829
G1 X114.767 Y104.115 E763.105
G1 X114.202 E763.115
G1 X102.432 Y115.885 E763.392
G1 X101.866 E763.401
G1 X113.636 Y104.115 E763.678
G1 X113.07 E763.687
G1 X101.3 Y115.885 E763.964
G1 X100.735 E763.973
G1 X112.505 Y104.115 E764.25
G1 X111.939 E764.26
G1 X100.169 Y115.885 E764.536
G1 X99.603 E764.546
G1 X111.373 Y104.115 E764.823
G1 X110.808 E764.832
G1 X99.038 Y115.885 E765.109
G1 X98.472 E765.118
G1 X110.242 Y104.115 E765.395
G1 X109.676 E765.405
G1 X97.906 Y115.885 E765.681
G1 X97.34 E765.691
G1 X109.11 Y104.115 E765.968
G1 X108.545 E765.977
G1 X96.775 Y115.885 E766.254
G1 X96.209 E766.263
G1 X107.979 Y104.115 E766.54
G1 X107.413 E766.549
G1 X95.643 Y115.885 E766.826
G1 X95.078 E766.836
G1 X106.848 Y104.115 E767.112
G1 X106.282 E767.122
G1 X94.512 Y115.885 E767.399
G1 X93.946 E767.408
G1 X105.716 Y104.115 E767.685
G1 X105.151 E767.694
G1 X93.381 Y115.885 E767.971
G1 X92.815 E767.981
G1 X104.585 Y104.115 E768.257
G1 X104.019 E768.267
G1 X92.249 Y115.885 E768.544
G1 X91.684 E768.553
G1 X103.454 Y104.115 E768.83
G1 X102.888 E768.839
G1 X91.118 Y115.885 E769.116
G1 X90.552 E769.125
G1 X102.322 Y104.115 E769.402
G1 X101.757 E769.412
G1 X89.987 Y115.885 E769.688
G1 X89.421 E769.698
G1 X101.191 Y104.115 E769.975
G1 X100.625 E769.984
G1 X88.855 Y115.885 E770.261
G1 X88.289 E770.27
G1 X100.059 Y104.115 E770.547
G1 X99.494 E770.556
G1 X87.724 Y115.885 E770.833
G1 X87.158 E770.843
G1 X98.928 Y104.115 E771.12
G1 X98.362 E771.129
G1 X86.592 Y115.885 E771.406
G1 X86.027 E771.415
G1 X97.797 Y104.115 E771.692
G1 X97.231 E771.701
G1 X85.461 Y115.885 E771.978
G1 X84.895 E771.988
G1 X96.665 Y104.115 E772.264
G1 X96.1 E772.274
G1 X84.33 Y115.885 E772.551
G1 X83.764 E772.56
G1 X95.534 Y104.115 E772.837
G1 X94.968 E772.846
G1 X83.198 Y115.885 E773.123
G1 X82.633 E773.132
G1 X94.403 Y104.115 E773.409
G1 X93.837 E773.419
G1 X82.615 Y115.337 E773.683
G1 Y114.771 E773.692
G1 X93.271 Y104.115 E773.943
G1 X92.706 E773.952
G1 X82.615 Y114.206 E774.189
G1 Y113.64 E774.199
G1 X92.14 Y104.115 E774.423
G1 X91.574 E774.432
G1 X82.615 Y113.074 E774.643
G1 Y112.509 E774.652
G1 X91.009 Y104.115 E774.85
G1 X90.443 E774.859
G1 X82.615 Y111.943 E775.043
G1 Y111.377 E775.053
G1 X89.877 Y104.115 E775.223
G1 X89.311 E775.233
G1 X82.615 Y110.811 E775.39
G1 Y110.246 E775.4
G1 X88.746 Y104.115 E775.544
G1 X88.18 E775.553
G1 X82.615 Y109.68 E775.684
G1 Y109.114 E775.694
G1 X87.614 Y104.115 E775.811
G1 X87.049 E775.821
G1 X82.615 Y108.549 E775.925
G1 Y107.983 E775.934
G1 X86.483 Y104.115 E776.025
G1 X85.917 E776.035
G1 X82.615 Y107.417 E776.112
G1 Y106.852 E776.122
G1 X85.352 Y104.115 E776.186
G1 X84.786 E776.195
G1 X82.615 Y106.286 E776.247
G1 Y105.72 E776.256
G1 X84.22 Y104.115 E776.294
G1 X83.655 E776.303
G1 X82.615 Y105.155 E776.328
G1 Y104.589 E776.337
G1 X83.089 Y104.115 E776.348
G1 F1800 E775.848
;Layer : 8 of 69
;rapid-leaky
G1 F15000
G0 X82.295 Y103.795 Z1.7
G1 F1800 E776.348
;bead-perimeter_inner
G1 X137.704 F1560 E777.27
G1 X137.705 Y116.205 E777.476
G1 X82.295 E778.397
G1 Y103.795 E778.604
;rapid-leaky
G1 F15000
G0 X81.93 Y103.43
;bead-perimeter_inner
G1 X138.069 F1560 E779.537
G1 X138.07 Y116.57 E779.756
G1 X81.93 E780.69
G1 Y103.43 E780.908
;rapid-leaky
G1 F15000
G0 X81.565 Y103.065
;bead-perimeter_inner
G1 X138.434 F1560 E781.854
G1 X138.435 Y116.579 E782.078
G1 Y116.935 E782.084
G1 X81.565 E783.03
G1 Y103.065 E783.261
;rapid-leaky
G1 F15000
G0 X81.2 Y102.7
;bead-perimeter_outer
G1 X138.799 F1080 E784.219
G1 X138.8 Y116.579 E784.45
G1 Y117.3 E784.462
G1 X81.2 E785.419
G1 Y102.7 E785.662
G1 F1800 E785.162
;rapid-dry
G1 F15000
G0 X82.615 Y115.411
G1 F1800 E785.662
;bead-solid_infill
G1 X83.089 Y115.885 F2400 E785.673
G1 X83.655 E785.683
G1 X82.615 Y114.845 E785.707
G1 Y114.28 E785.717
G1 X84.22 Y115.885 E785.754
G1 X84.786 E785.764
G1 X82.615 Y113.714 E785.815
G1 Y113.148 E785.824
G1 X85.352 Y115.885 E785.889
G1 X85.917 E785.898
G1 X82.615 Y112.583 E785.976
G1 Y112.017 E785.985
G1 X86.483 Y115.885 E786.076
G1 X87.049 E786.085
G1 X82.615 Y111.451 E786.19
G1 Y110.886 E786.199
G1 X87.614 Y115.885 E786.317
G1 X88.18 E786.326
G1 X82.615 Y110.32 E786.457
G1 Y109.754 E786.466
G1 X88.746 Y115.885 E786.611
G1 X89.311 E786.62
G1 X82.615 Y109.189 E786.778
G1 Y108.623 E786.787
G1 X89.877 Y115.885 E786.958
G1 X90.443 E786.967
G1 X82.615 Y108.057 E787.151
G1 Y107.492 E787.161
G1 X91.009 Y115.885 E787.358
G1 X91.574 E787.367
G1 X82.615 Y106.926 E787.578
G1 Y106.36 E787.588
G1 X92.14 Y115.885 E787.812
G1 X92.706 E787.821
G1 X82.615 Y105.794 E788.058
G1 Y105.229 E788.068
G1 X93.271 Y115.885 E788.318
G1 X93.837 E788.328
G1 X82.615 Y104.663 E788.592
G1 Y104.115 E788.601
G1 X82.633
G1 X94.403 Y115.885 E788.878
G1 X94.968 E788.887
G1 X83.198 Y104.115 E789.164
G1 X83.764 E789.173
G1 X95.534 Y115.885 E789.45
G1 X96.1 E789.46
G1 X84.33 Y104.115 E789.737
G1 X84.895 E789.746
G1 X96.665 Y115.885 E790.023
G1 X97.231 E790.032
G1 X85.461 Y104.115 E790.309
G1 X86.027 E790.318
G1 X97.797 Y115.885 E790.595
G1 X98.362 E790.605
G1 X86.592 Y104.115 E790.881
G1 X87.158 E790.891
G1 X98.928 Y115.885 E791.168
G1 X99.494 E791.177
G1 X87.724 Y104.115 E791.454
G1 X88.289 E791.463
G1 X100.059 Y115.885 E791.74
G1 X100.625 E791.749
G1 X88.855 Y104.115 E792.026
G1 X89.421 E792.036
G1 X101.191 Y115.885 E792.313
G1 X101.757 E792.322
G1 X89.987 Y104.115 E792.599
G1 X90.552 E792.608
G1 X102.322 Y115.885 E792.885
G1 X102.888 E792.894
G1 X91.118 Y104.115 E793.171
G1 X91.684 E793.181
G1 X103.454 Y115.885 E793.457
G1 X104.019 E793.467
G1 X92.249 Y104.115 E793.744
G1 X92.815 E793.753
G1 X104.585 Y115.885 E794.03
G1 X105.151 E794.039
G1 X93.381 Y104.115 E794.316
G1 X93.946 E794.325
G1 X105.716 Y115.885 E794.602
G1 X106.282 E794.612
G1 X94.512 Y104.115 E794.888
G1 X95.078 E794.898
G1 X106.848 Y115.885 E795.175
G1 X107.413 E795.184
G1 X95.643 Y104.115 E795.461
G1 X96.209 E795.47
G1 X107.979 Y115.885 E795.747
G1 X108.545 E795.757
G1 X96.775 Y104.115 E796.033
G1 X97.34 E796.043
G1 X109.11 Y115.885 E796.32
G1 X109.676 E796.329
G1 X97.906 Y104.115 E796.606
G1 X98.472 E796.615
G1 X110.242 Y115.885 E796.892
G1 X110.807 E796.901
G1 X99.038 Y104.115 E797.178
G1 X99.603 E797.188
G1 X111.373 Y115.885 E797.464
G1 X111.939 E797.474
G1 X100.169 Y104.115 E797.751
G1 X100.735 E797.76
G1 X112.505 Y115.885 E798.037
G1 X113.07 E798.046
G1 X101.3 Y104.115 E798.323
G1 X101.866 E798.333
G1 X113.636 Y115.885 E798.609
G1 X114.202 E798.619
G1 X102.432 Y104.115 E798.896
G1 X102.997 E798.905
G1 X114.767 Y115.885 E799.182
G1 X115.333 E799.191
G1 X103.563 Y104.115 E799.468
G1 X104.129 E799.477
G1 X115.899 Y115.885 E799.754
G1 X116.464 E799.764
G1 X104.694 Y104.115 E800.04
G1 X105.26 E800.05
G1 X117.03 Y115.885 E800.327
G1 X117.596 E800.336
G1 X105.826 Y104.115 E800.613
G1 X106.391 E800.622
G1 X118.161 Y115.885 E800.899
G1 X118.727 E800.909
G1 X106.957 Y104.115 E801.185
G1 X107.523 E801.195
G1 X119.293 Y115.885 E801.471
G1 X119.858 E801.481
G1 X108.088 Y104.115 E801.758
G1 X108.654 E801.767
G1 X120.424 Y115.885 E802.044
G1 X120.99 E802.053
G1 X109.22 Y104.115 E802.33
G1 X109.786 E802.34
G1 X121.556 Y115.885 E802.616
G1 X122.121 E802.626
G1 X110.351 Y104.115 E802.903
G1 X110.917 E802.912
G1 X122.687 Y115.885 E803.189
G1 X123.253 E803.198
G1 X111.483 Y104.115 E803.475
G1 X112.048 E803.484
G1 X123.818 Y115.885 E803.761
G1 X124.384 E803.771
G1 X112.614 Y104.115 E804.047
G1 X113.18 E804.057
G1 X124.95 Y115.885 E804.334
G1 X125.515 E804.343
G1 X113.745 Y104.115 E804.62
G1 X114.311 E804.629
G1 X126.081 Y115.885 E804.906
G1 X126.647 E804.916
G1 X114.877 Y104.115 E805.192
G1 X115.442 E805.202
G1 X127.212 Y115.885 E805.479
G1 X127.778 E805.488
G1 X116.008 Y104.115 E805.765
G1 X116.574 E805.774
G1 X128.344 Y115.885 E806.051
G1 X128.909 E806.06
G1 X117.139 Y104.115 E806.337
G1 X117.705 E806.347
G1 X129.475 Y115.885 E806.623
G1 X130.041 E806.633
G1 X118.271 Y104.115 E806.91
G1 X118.836 E806.919
G1 X130.606 Y115.885 E807.196
G1 X131.172 E807.205
G1 X119.402 Y104.115 E807.482
G1 X119.968 E807.492
G1 X131.738 Y115.885 E807.768
G1 X132.304 E807.778
G1 X120.534 Y104.115 E808.055
G1 X121.099 E808.064
G1 X132.869 Y115.885 E808.341
G1 X133.435 E808.35
G1 X121.665 Y104.115 E808.627
G1 X122.231 E808.636
G1 X134.001 Y115.885 E808.913
G1 X134.566 E808.923
G1 X122.796 Y104.115 E809.199
G1 X123.362 E809.209
G1 X135.132 Y115.885 E809.486
G1 X135.698 E809.495
G1 X123.928 Y104.115 E809.772
G1 X124.493 E809.781
G1 X136.263 Y115.885 E810.058
G1 X136.829 E810.068
G1 X125.059 Y104.115 E810.344
G1 X125.625 E810.354
G1 X137.385 Y115.875 E810.63
G1 Y115.31 E810.64
G1 X126.19 Y104.115 E810.903
G1 X126.756 E810.912
G1 X137.385 Y114.744 E811.162
G1 Y114.178 E811.172
G1 X127.322 Y104.115 E811.408
G1 X127.887 E811.418
G1 X137.385 Y113.612 E811.641
G1 Y113.047 E811.651
G1 X128.453 Y104.115 E811.861
G1 X129.019 E811.87
G1 X137.385 Y112.481 E812.067
G1 Y111.915 E812.076
G1 X129.585 Y104.115 E812.26
G1 X130.15 E812.269
G1 X137.385 Y111.349 E812.439
G1 Y110.784 E812.449
G1 X130.716 Y104.115 E812.606
G1 X131.282 E812.615
G1 X137.385 Y110.218 E812.758
G1 Y109.652 E812.768
G1 X131.847 Y104.115 E812.898
G1 X132.413 E812.907
G1 X137.384 Y109.087 E813.024
G1 Y108.521 E813.034
G1 X132.979 Y104.115 E813.137
G1 X133.544 E813.147
G1 X137.384 Y107.955 E813.237
G1 Y107.389 E813.247
G1 X134.11 Y104.115 E813.324
G1 X134.676 E813.333
G1 X137.384 Y106.824 E813.397
G1 Y106.258 E813.406
G1 X135.241 Y104.115 E813.456
G1 X135.807 E813.466
G1 X137.384 Y105.692 E813.503
G1 Y105.126 E813.512
G1 X136.373 Y104.115 E813.536
G1 X136.938 E813.546
G1 X137.384 Y104.561 E813.556
G1 F1800 E813.056
;Layer : 9 of 69
;rapid-leaky
G1 F15000
G0 X137.704 Y103.795 Z1.8
G1 F1800 E813.556
;bead-perimeter_inner
G1 X137.705 Y116.205 F1560 E813.762
G1 X82.295 E814.684
G1 Y103.795 E814.89
G1 X137.704 E815.812
;rapid-leaky
G1 F15000
G0 X138.069 Y103.43
;bead-perimeter_inner
G1 X138.07 Y116.348 F1560 E816.027
G1 Y116.57 E816.03
G1 X81.93 E816.964
G1 Y103.43 E817.182
G1 X138.069 E818.116
;rapid-leaky
G1 F15000
G0 X138.434 Y103.065
;bead-perimeter_inner
G1 X138.435 Y116.348 F1560 E818.337
G1 Y116.935 E818.347
G1 X81.565 E819.292
G1 Y103.065 E819.523
G1 X138.434 E820.469
;rapid-leaky
G1 F15000
G0 X138.799 Y102.7
;bead-perimeter_outer
G1 X138.8 Y116.348 F1080 E820.696
G1 Y117.3 E820.712
G1 X81.2 E821.669
G1 Y102.7 E821.912
G1 X138.799 E822.87
G1 F1800 E822.37
;rapid-dry
G1 F15000
G0 X136.938 Y115.885
G1 F1800 E822.87
;bead-solid_infill
G1 X137.385 Y115.439 F2400 E822.881
G1 Y114.873 E822.89
G1 X136.373 Y115.885 E822.914
G1 X135.807 E822.923
G1 X137.385 Y114.307 E822.96
G1 Y113.742 E822.97
G1 X135.241 Y115.885 E823.02
G1 X134.676 E823.03
G1 X137.385 Y113.176 E823.093
G1 Y112.61 E823.103
G1 X134.11 Y115.885 E823.18
G1 X133.544 E823.189
G1 X137.385 Y112.045 E823.279
G1 Y111.479 E823.289
G1 X132.979 Y115.885 E823.393
G1 X132.413 E823.402
G1 X137.385 Y110.913 E823.519
G1 Y110.348 E823.528
G1 X131.847 Y115.885 E823.659
G1 X131.282 E823.668
G1 X137.385 Y109.782 E823.811
G1 X137.384 Y109.216 E823.821
G1 X130.716 Y115.885 E823.978
G1 X130.15 E823.987
G1 X137.384 Y108.651 E824.157
G1 Y108.085 E824.167
G1 X129.585 Y115.885 E824.35
G1 X129.019 E824.359
G1 X137.384 Y107.52 E824.556
G1 Y106.954 E824.566
G1 X128.453 Y115.885 E824.776
G1 X127.887 E824.785
G1 X137.384 Y106.388 E825.008
G1 Y105.823 E825.018
G1 X127.322 Y115.885 E825.255
G1 X126.756 E825.264
G1 X137.384 Y105.257 E825.514
G1 Y104.691 E825.523
G1 X126.19 Y115.885 E825.786
G1 X125.625 E825.796
G1 X137.384 Y104.126 E826.073
G1 Y104.115
G1 X136.829 E826.082
G1 X125.059 Y115.885 E826.359
G1 X124.493 E826.368
G1 X136.263 Y104.115 E826.645
G1 X135.698 E826.654
G1 X123.928 Y115.885 E826.931
G1 X123.362 E826.941
G1 X135.132 Y104.115 E827.217
G1 X134.566 E827.227
G1 X122.796 Y115.885 E827.504
G1 X122.231 E827.513
G1 X134.001 Y104.115 E827.79
G1 X133.435 E827.799
G1 X121.665 Y115.885 E828.076
G1 X121.099 E828.085
G1 X132.869 Y104.115 E828.362
G1 X132.304 E828.372
G1 X120.534 Y115.885 E828.648
G1 X119.968 E828.658
G1 X131.738 Y104.115 E828.935
G1 X131.172 E828.944
G1 X119.402 Y115.885 E829.221
G1 X118.837 E829.23
G1 X130.607 Y104.115 E829.507
G1 X130.041 E829.517
G1 X118.271 Y115.885 E829.793
G1 X117.705 E829.803
G1 X129.475 Y104.115 E830.08
G1 X128.909 E830.089
G1 X117.139 Y115.885 E830.366
G1 X116.574 E830.375
G1 X128.344 Y104.115 E830.652
G1 X127.778 E830.661
G1 X116.008 Y115.885 E830.938
G1 X115.442 E830.948
G1 X127.212 Y104.115 E831.224
G1 X126.647 E831.234
G1 X114.877 Y115.885 E831.511
G1 X114.311 E831.52
G1 X126.081 Y104.115 E831.797
G1 X125.515 E831.806
G1 X113.745 Y115.885 E832.083
G1 X113.18 E832.093
G1 X124.95 Y104.115 E832.369
G1 X124.384 E832.379
G1 X112.614 Y115.885 E832.656
G1 X112.048 E832.665
G1 X123.818 Y104.115 E832.942
G1 X123.253 E832.951
G1 X111.483 Y115.885 E833.228
G1 X110.917 E833.237
G1 X122.687 Y104.115 E833.514
G1 X122.121 E833.524
G1 X110.351 Y115.885 E833.8
G1 X109.786 E833.81
G1 X121.556 Y104.115 E834.087
G1 X120.99 E834.096
G1 X109.22 Y115.885 E834.373
G1 X108.654 E834.382
G1 X120.424 Y104.115 E834.659
G1 X119.858 E834.669
G1 X108.088 Y115.885 E834.945
G1 X107.523 E834.955
G1 X119.293 Y104.115 E835.232
G1 X118.727 E835.241
G1 X106.957 Y115.885 E835.518
G1 X106.391 E835.527
G1 X118.161 Y104.115 E835.804
G1 X117.596 E835.813
G1 X105.826 Y115.885 E836.09
G1 X105.26 E836.1
G1 X117.03 Y104.115 E836.376
G1 X116.464 E836.386
G1 X104.694 Y115.885 E836.663
G1 X104.129 E836.672
G1 X115.899 Y104.115 E836.949
G1 X115.333 E836.958
G1 X103.563 Y115.885 E837.235
G1 X102.997 E837.244
G1 X114.767 Y104.115 E837.521
G1 X114.202 E837.531
G1 X102.432 Y115.885 E837.807
G1 X101.866 E837.817
G1 X113.636 Y104.115 E838.094
G1 X113.07 E838.103
G1 X101.3 Y115.885 E838.38
G1 X100.735 E838.389
G1 X112.505 Y104.115 E838.666
G1 X111.939 E838.676
G1 X100.169 Y115.885 E838.952
G1 X99.603 E838.962
G1 X111.373 Y104.115 E839.239
G1 X110.808 E839.248
G1 X99.038 Y115.885 E839.525
G1 X98.472 E839.534
G1 X110.242 Y104.115 E839.811
G1 X109.676 E839.82
G1 X97.906 Y115.885 E840.097
G1 X97.34 E840.107
G1 X109.11 Y104.115 E840.383
G1 X108.545 E840.393
G1 X96.775 Y115.885 E840.67
G1 X96.209 E840.679
G1 X107.979 Y104.115 E840.956
G1 X107.413 E840.965
G1 X95.643 Y115.885 E841.242
G1 X95.078 E841.252
G1 X106.848 Y104.115 E841.528
G1 X106.282 E841.538
G1 X94.512 Y115.885 E841.815
G1 X93.946 E841.824
G1 X105.716 Y104.115 E842.101
G1 X105.151 E842.11
G1 X93.381 Y115.885 E842.387
G1 X92.815 E842.396
G1 X104.585 Y104.115 E842.673
G1 X104.019 E842.683
G1 X92.249 Y115.885 E842.959
G1 X91.684 E842.969
G1 X103.454 Y104.115 E843.246
G1 X102.888 E843.255
G1 X91.118 Y115.885 E843.532
G1 X90.552 E843.541
G1 X102.322 Y104.115 E843.818
G1 X101.757 E843.828
G1 X89.987 Y115.885 E844.104
G1 X89.421 E844.114
G1 X101.191 Y104.115 E844.391
G1 X100.625 E844.4
G1 X88.855 Y115.885 E844.677
G1 X88.289 E844.686
G1 X100.059 Y104.115 E844.963
G1 X99.494 E844.972
G1 X87.724 Y115.885 E845.249
G1 X87.158 E845.259
G1 X98.928 Y104.115 E845.535
G1 X98.362 E845.545
G1 X86.592 Y115.885 E845.822
G1 X86.027 E845.831
G1 X97.797 Y104.115 E846.108
G1 X97.231 E846.117
G1 X85.461 Y115.885 E846.394
G1 X84.895 E846.404
G1 X96.665 Y104.115 E846.68
G1 X96.1 E846.69
G1 X84.33 Y115.885 E846.967
G1 X83.764 E846.976
G1 X95.534 Y104.115 E847.253
G1 X94.968 E847.262
G1 X83.198 Y115.885 E847.539
G1 X82.633 E847.548
G1 X94.403 Y104.115 E847.825
G1 X93.837 E847.835
G1 X82.615 Y115.337 E848.099
G1 Y114.771 E848.108
G1 X93.271 Y104.115 E848.359
G1 X92.706 E848.368
G1 X82.615 Y114.206 E848.605
G1 Y113.64 E848.615
G1 X92.14 Y104.115 E848.839
G1 X91.574 E848.848
G1 X82.615 Y113.074 E849.059
G1 Y112.509 E849.068
G1 X91.009 Y104.115 E849.266
G1 X90.443 E849.275
G1 X82.615 Y111.943 E849.459
G1 Y111.377 E849.469
G1 X89.877 Y104.115 E849.639
G1 X89.311 E849.649
G1 X82.615 Y110.811 E849.806
G1 Y110.246 E849.816
G1 X88.746 Y104.115 E849.96
G1 X88.18 E849.969
G1 X82.615 Y109.68 E850.1
G1 Y109.114 E850.109
G1 X87.614 Y104.115 E850.227
G1 X87.049 E850.237
G1 X82.615 Y108.549 E850.341
G1 Y107.983 E850.35
G1 X86.483 Y104.115 E850.441
G1 X85.917 E850.451
G1 X82.615 Y107.417 E850.528
G1 Y106.852 E850.538
G1 X85.352 Y104.115 E850.602
G1 X84.786 E850.611
G1 X82.615 Y106.286 E850.662
G1 Y105.72 E850.672
G1 X84.22 Y104.115 E850.71
G1 X83.655 E850.719
G1 X82.615 Y105.155 E850.743
G1 Y104.589 E850.753
G1 X83.089 Y104.115 E850.764
G1 F1800 E850.264
;Layer : 10 of 69
;rapid-leaky
G1 F15000
G0 X82.295 Y103.795 Z1.9
G1 F1800 E850.764
;bead-perimeter_inner
G1 X137.704 F1560 E851.685
G1 X137.705 Y116.118 E851.89
G1 Y116.205 E851.892
G1 X82.295 E852.813
G1 Y103.795 E853.02
;rapid-leaky
G1 F15000
G0 X81.93 Y103.43
;bead-perimeter_inner
G1 X138.069 F1560 E853.953
G1 X138.07 Y116.118 E854.164
G1 Y116.57 E854.172
G1 X81.93 E855.105
G1 Y103.43 E855.324
;rapid-leaky
G1 F15000
G0 X81.565 Y103.065
;bead-perimeter_inner
G1 X138.434 F1560 E856.27
G1 X138.435 Y116.118 E856.487
G1 Y116.935 E856.5
G1 X81.565 E857.446
G1 Y103.065 E857.677
;rapid-leaky
G1 F15000
G0 X81.2 Y102.7
;bead-perimeter_outer
G1 X138.799 F1080 E858.635
G1 X138.8 Y116.118 E858.858
G1 Y117.3 E858.877
G1 X81.2 E859.835
G1 Y102.7 E860.078
G1 F1800 E859.578
;rapid-dry
G1 F15000
G0 X83.277 Y115.885
G1 F1800 E860.078
;bead-sparse_infill
G1 X82.615 Y115.223 F3600 E860.094
G1 Y111.451 E860.156
G1 X87.049 Y115.885 E860.261
G1 X90.82 E860.323
G1 X82.615 Y107.68 E860.516
G1 Y104.115 E860.576
G1 X82.821 E860.579
G1 X94.591 Y115.885 E860.856
G1 X98.362 E860.919
G1 X86.592 Y104.115 E861.195
G1 X90.364 E861.258
G1 X102.134 Y115.885 E861.535
G1 X105.905 E861.598
G1 X94.135 Y104.115 E861.875
G1 X97.906 E861.937
G1 X109.676 Y115.885 E862.214
G1 X113.447 E862.277
G1 X101.677 Y104.115 E862.554
G1 X105.449 E862.616
G1 X117.219 Y115.885 E862.893
G1 X120.99 E862.956
G1 X109.22 Y104.115 E863.233
G1 X112.991 E863.295
G1 X124.761 Y115.885 E863.572
G1 X128.532 E863.635
G1 X116.762 Y104.115 E863.912
G1 X120.534 E863.974
G1 X132.304 Y115.885 E864.251
G1 X136.075 E864.314
G1 X124.305 Y104.115 E864.591
G1 X128.076 E864.653
G1 X137.385 Y113.424 E864.872
G1 Y109.652 E864.935
G1 X131.847 Y104.115 E865.065
G1 X135.618 E865.128
G1 X137.384 Y105.881 E865.17
G1 F1800 E864.67
;Layer : 11 of 69
;rapid-leaky
G1 F15000
G0 X137.704 Y103.795 Z2
G1 F1800 E865.17
;bead-perimeter_inner
G1 X137.705 Y115.887 F1560 E865.371
G1 Y116.205 E865.376
G1 X82.295 E866.297
G1 Y103.795 E866.504
G1 X137.704 E867.425
;rapid-leaky
G1 F15000
G0 X138.069 Y103.43
;bead-perimeter_inner
G1 X138.07 Y115.887 F1560 E867.632
G1 Y116.57 E867.644
G1 X81.93 E868.577
G1 Y103.43 E868.796
G1 X138.069 E869.729
;rapid-leaky
G1 F15000
G0 X138.434 Y103.065
;bead-perimeter_inner
G1 X138.435 Y115.887 F1560 E869.943
G1 Y116.935 E869.96
G1 X81.565 E870.906
G1 Y103.065 E871.137
G1 X138.434 E872.082
;rapid-leaky
G1 F15000
G0 X138.799 Y102.7
;bead-perimeter_outer
G1 X138.8 Y115.887 F1080 E872.302
G1 Y117.3 E872.325
G1 X81.2 E873.283
G1 Y102.7 E873.526
G1 X138.799 E874.484
G1 F1800 E873.984
;rapid-dry
G1 F15000
G0 X135.619 Y115.885
G1 F1800 E874.484
;bead-sparse_infill
G1 X137.385 Y114.119 F3600 E874.525
G1 Y110.348 E874.588
G1 X131.847 Y115.885 E874.718
G1 X128.076 E874.781
G1 X137.384 Y106.577 E875
G1 Y104.115 E875.041
G1 X136.075 E875.063
G1 X124.305 Y115.885 E875.339
G1 X120.534 E875.402
G1 X132.304 Y104.115 E875.679
G1 X128.532 E875.742
G1 X116.762 Y115.885 E876.018
G1 X112.991 E876.081
G1 X124.761 Y104.115 E876.358
G1 X120.99 E876.421
G1 X109.22 Y115.885 E876.697
G1 X105.449 E876.76
G1 X117.219 Y104.115 E877.037
G1 X113.447 E877.1
G1 X101.677 Y115.885 E877.376
G1 X97.906 E877.439
G1 X109.676 Y104.115 E877.716
G1 X105.905 E877.779
G1 X94.135 Y115.885 E878.056
G1 X90.364 E878.118
G1 X102.134 Y104.115 E878.395
G1 X98.362 E878.458
G1 X86.592 Y115.885 E878.735
G1 X82.821 E878.797
G1 X94.591 Y104.115 E879.074
G1 X90.82 E879.137
G1 X82.615 Y112.32 E879.33
G1 Y108.549 E879.393
G1 X87.049 Y104.115 E879.497
G1 X83.277 E879.56
G1 X82.615 Y104.777 E879.575
G1 F1800 E879.075
;Layer : 12 of 69
;rapid-leaky
G1 F15000
G0 X82.295 Y103.795 Z2.1
G1 F1800 E879.575
;bead-perimeter_inner
G1 X137.704 F1560 E880.497
G1 X137.705 Y115.656 E880.694
G1 Y116.205 E880.703
G1 X82.295 E881.624
G1 Y103.795 E881.831
;rapid-leaky
G1 F15000
G0 X81.93 Y103.43
;bead-perimeter_inner
G1 X138.069 F1560 E882.764
G1 X138.07 Y115.656 E882.968
G1 Y116.57 E882.983
G1 X81.93 E883.917
G1 Y103.43 E884.135
;rapid-leaky
G1 F15000
G0 X81.565 Y103.065
;bead-perimeter_inner
G1 X138.434 F1560 E885.081
G1 X138.435 Y115.656 E885.29
G1 Y116.935 E885.311
G1 X81.565 E886.257
G1 Y103.065 E886.488
;rapid-leaky
G1 F15000
G0 X81.2 Y102.7
;bead-perimeter_outer
G1 X138.799 F1080 E887.446
G1 X138.8 Y115.656 E887.661
G1 Y117.3 E887.688
G1 X81.2 E888.646
G1 Y102.7 E888.889
G1 F1800 E888.389
;rapid-dry
G1 F15000
G0 X83.277 Y115.885
G1 F1800 E888.889
;bead-sparse_infill
G1 X82.615 Y115.223 F3600 E888.905
G1 Y111.451 E888.967
G1 X87.049 Y115.885 E889.072
G1 X90.82 E889.134
G1 X82.615 Y107.68 E889.327
G1 Y104.115 E889.387
G1 X82.821 E889.39
G1 X94.591 Y115.885 E889.667
G1 X98.362 E889.73
G1 X86.592 Y104.115 E890.007
G1 X90.364 E890.069
G1 X102.134 Y115.885 E890.346
G1 X105.905 E890.409
G1 X94.135 Y104.115 E890.686
G1 X97.906 E890.748
G1 X109.676 Y115.885 E891.025
G1 X113.447 E891.088
G1 X101.677 Y104.115 E891.365
G1 X105.449 E891.427
G1 X117.219 Y115.885 E891.704
G1 X120.99 E891.767
G1 X109.22 Y104.115 E892.044
G1 X112.991 E892.106
G1 X124.761 Y115.885 E892.383
G1 X128.532 E892.446
G1 X116.762 Y104.115 E892.723
G1 X120.534 E892.785
G1 X132.304 Y115.885 E893.062
G1 X136.075 E893.125
G1 X124.305 Y104.115 E893.402
G1 X128.076 E893.464
G1 X137.385 Y113.424 E893.683
G1 Y109.652 E893.746
G1 X131.847 Y104.115 E893.876
G1 X135.618 E893.939
G1 X137.384 Y105.881 E893.981
G1 F1800 E893.481
;Layer : 13 of 69
;rapid-leaky
G1 F15000
G0 X137.704 Y103.795 Z2.2
G1 F1800 E893.981
;bead-perimeter_inner
G1 X137.705 Y115.425 F1560 E894.174
G1 Y116.205 E894.187
G1 X82.295 E895.108
G1 Y103.795 E895.315
G1 X137.704 E896.236
;rapid-leaky
G1 F15000
G0 X138.069 Y103.43
;bead-perimeter_inner
G1 X138.07 Y115.425 F1560 E896.436
G1 Y116.57 E896.455
G1 X81.93 E897.388
G1 Y103.43 E897.607
G1 X138.069 E898.541
;rapid-leaky
G1 F15000
G0 X138.434 Y103.065
;bead-perimeter_inner
G1 X138.435 Y115.425 F1560 E898.746
G1 Y116.935 E898.771
G1 X81.565 E899.717
G1 Y103.065 E899.948
G1 X138.434 E900.893
;rapid-leaky
G1 F15000
G0 X138.799 Y102.7
;bead-perimeter_outer
G1 X138.8 Y115.425 F1080 E901.105
G1 Y117.3 E901.136
G1 X81.2 E902.094
G1 Y102.7 E902.337
G1 X138.799 E903.295
G1 F1800 E902.795
;rapid-dry
G1 F15000
G0 X135.619 Y115.885
G1 F1800 E903.295
;bead-sparse_infill
G1 X137.385 Y114.119 F3600 E903.336
G1 Y110.348 E903.399
G1 X131.847 Y115.885 E903.529
G1 X128.076 E903.592
G1 X137.384 Y106.577 E903.811
G1 Y104.115 E903.852
G1 X136.075 E903.874
G1 X124.305 Y115.885 E904.15
G1 X120.534 E904.213
G1 X132.304 Y104.115 E904.49
G1 X128.532 E904.553
G1 X116.762 Y115.885 E904.829
G1 X112.991 E904.892
G1 X124.761 Y104.115 E905.169
G1 X120.99 E905.232
G1 X109.22 Y115.885 E905.508
G1 X105.449 E905.571
G1 X117.219 Y104.115 E905.848
G1 X113.447 E905.911
G1 X101.677 Y115.885 E906.188
G1 X97.906 E906.25
G1 X109.676 Y104.115 E906.527
G1 X105.905 E906.59
G1 X94.135 Y115.885 E906.867
G1 X90.364 E906.929
G1 X102.134 Y104.115 E907.206
G1 X98.362 E907.269
G1 X86.592 Y115.885 E907.546
G1 X82.821 E907.608
G1 X94.591 Y104.115 E907.885
G1 X90.82 E907.948
G1 X82.615 Y112.32 E908.141
G1 Y108.549 E908.204
G1 X87.049 Y104.115 E908.308
G1 X83.277 E908.371
G1 X82.615 Y104.777 E908.386
G1 F1800 E907.886
;Layer : 14 of 69
;rapid-leaky
G1 F15000
G0 X82.295 Y103.795 Z2.3
G1 F1800 E908.386
;bead-perimeter_inner
G1 X137.704 F1560 E909.308
G1 X137.705 Y115.195 E909.497
G1 Y116.205 E909.514
G1 X82.295 E910.435
G1 Y103.795 E910.642
;rapid-leaky
G1 F15000
G0 X81.93 Y103.43
;bead-perimeter_inner
G1 X138.069 F1560 E911.575
G1 X138.07 Y115.195 E911.771
G1 Y116.57 E911.794
G1 X81.93 E912.728
G1 Y103.43 E912.946
;rapid-leaky
G1 F15000
G0 X81.565 Y103.065
;bead-perimeter_inner
G1 X138.434 F1560 E913.892
G1 X138.435 Y115.195 E914.094
G1 Y116.935 E914.122
G1 X81.565 E915.068
G1 Y103.065 E915.299
;rapid-leaky
G1 F15000
G0 X81.2 Y102.7
;bead-perimeter_outer
G1 X138.799 F1080 E916.257
G1 X138.8 Y115.195 E916.465
G1 Y117.3 E916.5
G1 X81.2 E917.457
G1 Y102.7 E917.7
G1 F1800 E917.2
;rapid-dry
G1 F15000
G0 X83.277 Y115.885
G1 F1800 E917.7
;bead-sparse_infill
G1 X82.615 Y115.223 F3600 E917.716
G1 Y111.451 E917.779
G1 X87.049 Y115.885 E917.883
G1 X90.82 E917.946
G1 X82.615 Y107.68 E918.138
G1 Y104.115 E918.198
G1 X82.821 E918.201
G1 X94.591 Y115.885 E918.478
G1 X98.362 E918.541
G1 X86.592 Y104.115 E918.818
G1 X90.364 E918.88
G1 X102.134 Y115.885 E919.157
G1 X105.905 E919.22
G1 X94.135 Y104.115 E919.497
G1 X97.906 E919.559
G1 X109.676 Y115.885 E919.836
G1 X113.447 E919.899
G1 X101.677 Y104.115 E920.176
G1 X105.449 E920.238
G1 X117.219 Y115.885 E920.515
G1 X120.99 E920.578
G1 X109.22 Y104.115 E920.855
G1 X112.991 E920.917
G1 X124.761 Y115.885 E921.194
G1 X128.532 E921.257
G1 X116.762 Y104.115 E921.534
G1 X120.534 E921.596
G1 X132.304 Y115.885 E921.873
G1 X136.075 E921.936
G1 X124.305 Y104.115 E922.213
G1 X128.076 E922.276
G1 X137.385 Y113.424 E922.495
G1 Y109.652 E922.557
G1 X131.847 Y104.115 E922.687
G1 X135.618 E922.75
G1 X137.384 Y105.881 E922.792
G1 F1800 E922.292
;Layer : 15 of 69
;rapid-leaky
G1 F15000
G0 X137.704 Y103.795 Z2.4
G1 F1800 E922.792
;bead-perimeter_inner
G1 X137.705 Y114.964 F1560 E922.977
G1 Y116.205 E922.998
G1 X82.295 E923.92
G1 Y103.795 E924.126
G1 X137.704 E925.047
;rapid-leaky
G1 F15000
G0 X138.069 Y103.43
;bead-perimeter_inner
G1 X138.07 Y114.964 F1560 E925.239
G1 Y116.57 E925.266
G1 X81.93 E926.2
G1 Y103.43 E926.418
G1 X138.069 E927.352
;rapid-leaky
G1 F15000
G0 X138.434 Y103.065
;bead-perimeter_inner
G1 X138.435 Y114.964 F1560 E927.549
G1 Y116.935 E927.582
G1 X81.565 E928.528
G1 Y103.065 E928.759
G1 X138.434 E929.704
;rapid-leaky
G1 F15000
G0 X138.799 Y102.7
;bead-perimeter_outer
G1 X138.8 Y114.964 F1080 E929.908
G1 Y117.3 E929.947
G1 X81.2 E930.905
G1 Y102.7 E931.148
G1 X138.799 E932.106
G1 F1800 E931.606
;rapid-dry
G1 F15000
G0 X135.619 Y115.885
G1 F1800 E932.106
;bead-sparse_infill
G1 X137.385 Y114.119 F3600 E932.147
G1 Y110.348 E932.21
G1 X131.847 Y115.885 E932.34
G1 X128.076 E932.403
G1 X137.384 Y106.577 E932.622
G1 Y104.115 E932.663
G1 X136.075 E932.685
G1 X124.305 Y115.885 E932.961
G1 X120.534 E933.024
G1 X132.304 Y104.115 E933.301
G1 X128.532 E933.364
G1 X116.762 Y115.885 E933.641
G1 X112.991 E933.703
G1 X124.761 Y104.115 E933.98
G1 X120.99 E934.043
G1 X109.22 Y115.885 E934.32
G1 X105.449 E934.382
G1 X117.219 Y104.115 E934.659
G1 X113.447 E934.722
G1 X101.677 Y115.885 E934.999
G1 X97.906 E935.061
G1 X109.676 Y104.115 E935.338
G1 X105.905 E935.401
G1 X94.135 Y115.885 E935.678
G1 X90.364 E935.74
G1 X102.134 Y104.115 E936.017
G1 X98.362 E936.08
G1 X86.592 Y115.885 E936.357
G1 X82.821 E936.419
G1 X94.591 Y104.115 E936.696
G1 X90.82 E936.759
G1 X82.615 Y112.32 E936.952
G1 Y108.549 E937.015
G1 X87.049 Y104.115 E937.119
G1 X83.277 E937.182
G1 X82.615 Y104.777 E937.197
G1 F1800 E936.697
;Layer : 16 of 69
;rapid-leaky
G1 F15000
G0 X82.295 Y103.795 Z2.5
G1 F1800 E937.197
;bead-perimeter_inner
G1 X137.704 F1560 E938.119
G1 X137.705 Y114.733 E938.301
G1 Y116.205 E938.325
G1 X82.295 E939.247
G1 Y103.795 E939.453
;rapid-leaky
G1 F15000
G0 X81.93 Y103.43
;bead-perimeter_inner
G1 X138.069 F1560 E940.386
G1 X138.07 Y114.733 E940.574
G1 Y116.57 E940.605
G1 X81.93 E941.539
G1 Y103.43 E941.757
;rapid-leaky
G1 F15000
G0 X81.565 Y103.065
;bead-perimeter_inner
G1 X138.434 F1560 E942.703
G1 X138.435 Y114.733 E942.897
G1 Y116.935 E942.934
G1 X81.565 E943.879
G1 Y103.065 E944.11
;rapid-leaky
G1 F15000
G0 X81.2 Y102.7
;bead-perimeter_outer
G1 X138.799 F1080 E945.068
G1 X138.8 Y114.733 E945.268
G1 Y117.3 E945.311
G1 X81.2 E946.268
G1 Y102.7 E946.511
G1 F1800 E946.011
;rapid-dry
G1 F15000
G0 X83.277 Y115.885
G1 F1800 E946.511
;bead-sparse_infill
G1 X82.615 Y115.223 F3600 E946.527
G1 Y111.451 E946.59
G1 X87.049 Y115.885 E946.694
G1 X90.82 E946.757
G1 X82.615 Y107.68 E946.95
G1 Y104.115 E947.009
G1 X82.821 E947.012
G1 X94.591 Y115.885 E947.289
G1 X98.362 E947.352
G1 X86.592 Y104.115 E947.629
G1 X90.364 E947.691
G1 X102.134 Y115.885 E947.968
G1 X105.905 E948.031
G1 X94.135 Y104.115 E948.308
G1 X97.906 E948.37
G1 X109.676 Y115.885 E948.647
G1 X113.447 E948.71
G1 X101.677 Y104.115 E948.987
G1 X105.449 E949.049
G1 X117.219 Y115.885 E949.326
G1 X120.99 E949.389
G1 X109.22 Y104.115 E949.666
G1 X112.991 E949.729
G1 X124.761 Y115.885 E950.005
G1 X128.532 E950.068
G1 X116.762 Y104.115 E950.345
G1 X120.534 E950.408
G1 X132.304 Y115.885 E950.684
G1 X136.075 E950.747
G1 X124.305 Y104.115 E951.024
G1 X128.076 E951.087
G1 X137.385 Y113.424 E951.306
G1 Y109.652 E951.368
G1 X131.847 Y104.115 E951.499
G1 X135.618 E951.561
G1 X137.384 Y105.881 E951.603
G1 F1800 E951.103
;Layer : 17 of 69
;rapid-leaky
G1 F15000
G0 X137.704 Y103.795 Z2.6
G1 F1800 E951.603
;bead-perimeter_inner
G1 X137.705 Y114.502 F1560 E951.781
G1 Y116.205 E951.809
G1 X82.295 E952.731
G1 Y103.795 E952.937
G1 X137.704 E953.858
;rapid-leaky
G1 F15000
G0 X138.069 Y103.43
;bead-perimeter_inner
G1 X138.07 Y114.502 F1560 E954.043
G1 Y116.57 E954.077
G1 X81.93 E955.011
G1 Y103.43 E955.229
G1 X138.069 E956.163
;rapid-leaky
G1 F15000
G0 X138.434 Y103.065
;bead-perimeter_inner
G1 X138.435 Y114.502 F1560 E956.353
G1 Y116.935 E956.393
G1 X81.565 E957.339
G1 Y103.065 E957.57
G1 X138.434 E958.516
;rapid-leaky
G1 F15000
G0 X138.799 Y102.7
;bead-perimeter_outer
G1 X138.8 Y114.502 F1080 E958.712
G1 Y117.3 E958.758
G1 X81.2 E959.716
G1 Y102.7 E959.959
G1 X138.799 E960.917
G1 F1800 E960.417
;rapid-dry
G1 F15000
G0 X135.619 Y115.885
G1 F1800 E960.917
;bead-sparse_infill
G1 X137.385 Y114.119 F3600 E960.958
G1 Y110.348 E961.021
G1 X131.847 Y115.885 E961.151
G1 X128.076 E961.214
G1 X137.384 Y106.577 E961.433
G1 Y104.115 E961.474
G1 X136.075 E961.496
G1 X124.305 Y115.885 E961.773
G1 X120.534 E961.835
G1 X132.304 Y104.115 E962.112
G1 X128.532 E962.175
G1 X116.762 Y115.885 E962.452
G1 X112.991 E962.514
G1 X124.761 Y104.115 E962.791
G1 X120.99 E962.854
G1 X109.22 Y115.885 E963.131
G1 X105.449 E963.193
G1 X117.219 Y104.115 E963.47
G1 X113.447 E963.533
G1 X101.677 Y115.885 E963.81
G1 X97.906 E963.872
G1 X109.676 Y104.115 E964.149
G1 X105.905 E964.212
G1 X94.135 Y115.885 E964.489
G1 X90.364 E964.551
G1 X102.134 Y104.115 E964.828
G1 X98.362 E964.891
G1 X86.592 Y115.885 E965.168
G1 X82.821 E965.231
G1 X94.591 Y104.115 E965.507
G1 X90.82 E965.57
G1 X82.615 Y112.32 E965.763
G1 Y108.549 E965.826
G1 X87.049 Y104.115 E965.93
G1 X83.277 E965.993
G1 X82.615 Y104.777 E966.008
G1 F1800 E965.508
;Layer : 18 of 69
;rapid-leaky
G1 F15000
G0 X82.295 Y103.795 Z2.7
G1 F1800 E966.008
;bead-perimeter_inner
G1 X137.704 F1560 E966.93
G1 X137.705 Y114.272 E967.104
G1 Y116.205 E967.136
G1 X82.295 E968.058
G1 Y103.795 E968.264
;rapid-leaky
G1 F15000
G0 X81.93 Y103.43
;bead-perimeter_inner
G1 X138.069 F1560 E969.198
G1 X138.07 Y114.272 E969.378
G1 Y116.57 E969.416
G1 X81.93 E970.35
G1 Y103.43 E970.568
;rapid-leaky
G1 F15000
G0 X81.565 Y103.065
;bead-perimeter_inner
G1 X138.434 F1560 E971.514
G1 X138.435 Y114.272 E971.7
G1 Y116.935 E971.745
G1 X81.565 E972.69
G1 Y103.065 E972.921
;rapid-leaky
G1 F15000
G0 X81.2 Y102.7
;bead-perimeter_outer
G1 X138.799 F1080 E973.879
G1 X138.8 Y114.272 E974.071
G1 Y117.3 E974.122
G1 X81.2 E975.08
G1 Y102.7 E975.322
G1 F1800 E974.822
;rapid-dry
G1 F15000
G0 X83.277 Y115.885
G1 F1800 E975.322
;bead-sparse_infill
G1 X82.615 Y115.223 F3600 E975.338
G1 Y111.451 E975.401
G1 X87.049 Y115.885 E975.505
G1 X90.82 E975.568
G1 X82.615 Y107.68 E975.761
G1 Y104.115 E975.82
G1 X82.821 E975.823
G1 X94.591 Y115.885 E976.1
G1 X98.362 E976.163
G1 X86.592 Y104.115 E976.44
G1 X90.364 E976.502
G1 X102.134 Y115.885 E976.779
G1 X105.905 E976.842
G1 X94.135 Y104.115 E977.119
G1 X97.906 E977.181
G1 X109.676 Y115.885 E977.458
G1 X113.447 E977.521
G1 X101.677 Y104.115 E977.798
G1 X105.449 E977.861
G1 X117.219 Y115.885 E978.137
G1 X120.99 E978.2
G1 X109.22 Y104.115 E978.477
G1 X112.991 E978.54
G1 X124.761 Y115.885 E978.816
G1 X128.532 E978.879
G1 X116.762 Y104.115 E979.156
G1 X120.534 E979.219
G1 X132.304 Y115.885 E979.495
G1 X136.075 E979.558
G1 X124.305 Y104.115 E979.835
G1 X128.076 E979.898
G1 X137.385 Y113.424 E980.117
G1 Y109.652 E980.179
G1 X131.847 Y104.115 E980.31
G1 X135.618 E980.372
G1 X137.384 Y105.881 E980.414
G1 F1800 E979.914
;Layer : 19 of 69
;rapid-leaky
G1 F15000
G0 X137.704 Y103.795 Z2.8
G1 F1800 E980.414
;bead-perimeter_inner
G1 X137.705 Y114.041 F1560 E980.584
G1 Y116.205 E980.62
G1 X82.295 E981.542
G1 Y103.795 E981.748
G1 X137.704 E982.669
;rapid-leaky
G1 F15000
G0 X138.069 Y103.43
;bead-perimeter_inner
G1 X138.07 Y114.041 F1560 E982.846
G1 Y116.57 E982.888
G1 X81.93 E983.822
G1 Y103.43 E984.04
G1 X138.069 E984.974
;rapid-leaky
G1 F15000
G0 X138.434 Y103.065
;bead-perimeter_inner
G1 X138.435 Y114.041 F1560 E985.156
G1 Y116.935 E985.204
G1 X81.565 E986.15
G1 Y103.065 E986.381
G1 X138.434 E987.327
;rapid-leaky
G1 F15000
G0 X138.799 Y102.7
;bead-perimeter_outer
G1 X138.8 Y114.041 F1080 E987.515
G1 Y117.3 E987.569
G1 X81.2 E988.527
G1 Y102.7 E988.77
G1 X138.799 E989.728
G1 F1800 E989.228
;rapid-dry
G1 F15000
G0 X135.619 Y115.885
G1 F1800 E989.728
;bead-sparse_infill
G1 X137.385 Y114.119 F3600 E989.769
G1 Y114.041 E989.771
G1 Y110.348 E989.832
G1 X131.847 Y115.885 E989.962
G1 X128.076 E990.025
G1 X137.384 Y106.577 E990.244
G1 Y104.115 E990.285
G1 X136.075 E990.307
G1 X124.305 Y115.885 E990.584
G1 X120.534 E990.646
G1 X132.304 Y104.115 E990.923
G1 X128.532 E990.986
G1 X116.762 Y115.885 E991.263
G1 X112.991 E991.325
G1 X124.761 Y104.115 E991.602
G1 X120.99 E991.665
G1 X109.22 Y115.885 E991.942
G1 X105.449 E992.004
G1 X117.219 Y104.115 E992.281
G1 X113.447 E992.344
G1 X101.677 Y115.885 E992.621
G1 X97.906 E992.683
G1 X109.676 Y104.115 E992.96
G1 X105.905 E993.023
G1 X94.135 Y115.885 E993.3
G1 X90.364 E993.363
G1 X102.134 Y104.115 E993.639
G1 X98.362 E993.702
G1 X86.592 Y115.885 E993.979
G1 X82.821 E994.042
G1 X94.591 Y104.115 E994.318
G1 X90.82 E994.381
G1 X82.615 Y112.32 E994.574
G1 Y108.549 E994.637
G1 X87.049 Y104.115 E994.741
G1 X83.277 E994.804
G1 X82.615 Y104.777 E994.819
G1 F1800 E994.319
;Layer : 20 of 69
;rapid-leaky
G1 F15000
G0 X82.295 Y103.795 Z2.9
G1 F1800 E994.819
;bead-perimeter_inner
G1 X137.704 F1560 E995.741
G1 X137.705 Y113.81 E995.907
G1 Y116.205 E995.947
G1 X82.295 E996.869
G1 Y103.795 E997.075
;rapid-leaky
G1 F15000
G0 X81.93 Y103.43
;bead-perimeter_inner
G1 X138.069 F1560 E998.009
G1 X138.07 Y113.81 E998.181
G1 Y116.57 E998.227
G1 X81.93 E999.161
G1 Y103.43 E999.379
;rapid-leaky
G1 F15000
G0 X81.565 Y103.065
;bead-perimeter_inner
G1 X138.434 F1560 E1000.325
G1 X138.435 Y113.81 E1000.504
G1 Y116.935 E1000.556
G1 X81.565 E1001.501
G1 Y103.065 E1001.732
;rapid-leaky
G1 F15000
G0 X81.2 Y102.7
;bead-perimeter_outer
G1 X138.799 F1080 E1002.69
G1 X138.8 Y113.81 E1002.875
G1 Y117.3 E1002.933
G1 X81.2 E1003.891
G1 Y102.7 E1004.133
G1 F1800 E1003.633
;rapid-dry
G1 F15000
G0 X83.277 Y115.885
G1 F1800 E1004.133
;bead-sparse_infill
G1 X82.615 Y115.223 F3600 E1004.149
G1 Y111.451 E1004.212
G1 X87.049 Y115.885 E1004.316
G1 X90.82 E1004.379
G1 X82.615 Y107.68 E1004.572
G1 Y104.115 E1004.631
G1 X82.821 E1004.634
G1 X94.591 Y115.885 E1004.911
G1 X98.362 E1004.974
G1 X86.592 Y104.115 E1005.251
G1 X90.364 E1005.313
G1 X102.134 Y115.885 E1005.59
G1 X105.905 E1005.653
G1 X94.135 Y104.115 E1005.93
G1 X97.906 E1005.993
G1 X109.676 Y115.885 E1006.269
G1 X113.447 E1006.332
G1 X101.677 Y104.115 E1006.609
G1 X105.449 E1006.672
G1 X117.219 Y115.885 E1006.948
G1 X120.99 E1007.011
G1 X109.22 Y104.115 E1007.288
G1 X112.991 E1007.351
G1 X124.761 Y115.885 E1007.628
G1 X128.532 E1007.69
G1 X116.762 Y104.115 E1007.967
G1 X120.534 E1008.03
G1 X132.304 Y115.885 E1008.307
G1 X136.075 E1008.369
G1 X124.305 Y104.115 E1008.646
G1 X128.076 E1008.709
G1 X137.385 Y113.424 E1008.928
G1 Y109.652 E1008.99
G1 X131.847 Y104.115 E1009.121
G1 X135.618 E1009.183
G1 X137.384 Y105.881 E1009.225
G1 F1800 E1008.725
;Layer : 21 of 69
;rapid-leaky
G1 F15000
G0 X137.704 Y103.795 Z3
G1 F1800 E1009.225
;bead-perimeter_inner
G1 X137.705 Y113.579 F1560 E1009.388
G1 Y116.205 E1009.431
G1 X82.295 E1010.353
G1 Y103.795 E1010.559
G1 X137.704 E1011.481
;rapid-leaky
G1 F15000
G0 X138.069 Y103.43
;bead-perimeter_inner
G1 X138.07 Y113.579 F1560 E1011.649
G1 Y116.57 E1011.699
G1 X81.93 E1012.633
G1 Y103.43 E1012.851
G1 X138.069 E1013.785
;rapid-leaky
G1 F15000
G0 X138.434 Y103.065
;bead-perimeter_inner
G1 X138.435 Y113.579 F1560 E1013.96
G1 Y116.935 E1014.016
G1 X81.565 E1014.961
G1 Y103.065 E1015.192
G1 X138.434 E1016.138
;rapid-leaky
G1 F15000
G0 X138.799 Y102.7
;bead-perimeter_outer
G1 X138.8 Y113.579 F1080 E1016.319
G1 Y117.3 E1016.38
G1 X81.2 E1017.338
G1 Y102.7 E1017.581
G1 X138.799 E1018.539
G1 F1800 E1018.039
;rapid-dry
G1 F15000
G0 X135.619 Y115.885
G1 F1800 E1018.539
;bead-sparse_infill
G1 X137.385 Y114.119 F3600 E1018.581
G1 Y113.579 E1018.59
G1 Y110.348 E1018.643
G1 X131.847 Y115.885 E1018.773
G1 X128.076 E1018.836
G1 X137.384 Y106.577 E1019.055
G1 Y104.115 E1019.096
G1 X136.075 E1019.118
G1 X124.305 Y115.885 E1019.395
G1 X120.534 E1019.457
G1 X132.304 Y104.115 E1019.734
G1 X128.532 E1019.797
G1 X116.762 Y115.885 E1020.074
G1 X112.991 E1020.136
G1 X124.761 Y104.115 E1020.413
G1 X120.99 E1020.476
G1 X109.22 Y115.885 E1020.753
G1 X105.449 E1020.815
G1 X117.219 Y104.115 E1021.092
G1 X113.447 E1021.155
G1 X101.677 Y115.885 E1021.432
G1 X97.906 E1021.495
G1 X109.676 Y104.115 E1021.771
G1 X105.905 E1021.834
G1 X94.135 Y115.885 E1022.111
G1 X90.364 E1022.174
G1 X102.134 Y104.115 E1022.45
G1 X98.362 E1022.513
G1 X86.592 Y115.885 E1022.79
G1 X82.821 E1022.853
G1 X94.591 Y104.115 E1023.129
G1 X90.82 E1023.192
G1 X82.615 Y112.32 E1023.385
G1 Y108.549 E1023.448
G1 X87.049 Y104.115 E1023.552
G1 X83.277 E1023.615
G1 X82.615 Y104.777 E1023.63
G1 F1800 E1023.13
;Layer : 22 of 69
;rapid-leaky
G1 F15000
G0 X82.295 Y103.795 Z3.1
G1 F1800 E1023.63
;bead-perimeter_inner
G1 X137.704 F1560 E1024.552
G1 X137.705 Y113.348 E1024.711
G1 Y116.205 E1024.758
G1 X82.295 E1025.68
G1 Y103.795 E1025.886
;rapid-leaky
G1 F15000
G0 X81.93 Y103.43
;bead-perimeter_inner
G1 X138.069 F1560 E1026.82
G1 X138.07 Y113.348 E1026.985
G1 Y116.57 E1027.038
G1 X81.93 E1027.972
G1 Y103.43 E1028.19
;rapid-leaky
G1 F15000
G0 X81.565 Y103.065
;bead-perimeter_inner
G1 X138.434 F1560 E1029.136
G1 X138.435 Y113.348 E1029.307
G1 Y116.935 E1029.367
G1 X81.565 E1030.313
G1 Y103.065 E1030.543
;rapid-leaky
G1 F15000
G0 X81.2 Y102.7
;bead-perimeter_outer
G1 X138.799 F1080 E1031.501
G1 X138.8 Y113.348 E1031.678
G1 Y117.3 E1031.744
G1 X81.2 E1032.702
G1 Y102.7 E1032.945
G1 F1800 E1032.445
;rapid-dry
G1 F15000
G0 X83.277 Y115.885
G1 F1800 E1032.945
;bead-sparse_infill
G1 X82.615 Y115.223 F3600 E1032.96
G1 Y111.451 E1033.023
G1 X87.049 Y115.885 E1033.127
G1 X90.82 E1033.19
G1 X82.615 Y107.68 E1033.383
G1 Y104.115 E1033.442
G1 X82.821 E1033.446
G1 X94.591 Y115.885 E1033.722
G1 X98.362 E1033.785
G1 X86.592 Y104.115 E1034.062
G1 X90.364 E1034.125
G1 X102.134 Y115.885 E1034.401
G1 X105.905 E1034.464
G1 X94.135 Y104.115 E1034.741
G1 X97.906 E1034.804
G1 X109.676 Y115.885 E1035.08
G1 X113.447 E1035.143
G1 X101.677 Y104.115 E1035.42
G1 X105.449 E1035.483
G1 X117.219 Y115.885 E1035.76
G1 X120.99 E1035.822
G1 X109.22 Y104.115 E1036.099
G1 X112.991 E1036.162
G1 X124.761 Y115.885 E1036.439
G1 X128.532 E1036.501
G1 X116.762 Y104.115 E1036.778
G1 X120.534 E1036.841
G1 X132.304 Y115.885 E1037.118
G1 X136.075 E1037.18
G1 X124.305 Y104.115 E1037.457
G1 X128.076 E1037.52
G1 X137.385 Y113.424 E1037.739
G1 Y113.348 E1037.74
G1 Y109.652 E1037.802
G1 X131.847 Y104.115 E1037.932
G1 X135.618 E1037.995
G1 X137.384 Y105.881 E1038.036
G1 F1800 E1037.536
;Layer : 23 of 69
;rapid-leaky
G1 F15000
G0 X137.704 Y103.795 Z3.2
G1 F1800 E1038.036
;bead-perimeter_inner
G1 X137.705 Y113.118 F1560 E1038.191
G1 Y116.205 E1038.242
G1 X82.295 E1039.164
G1 Y103.795 E1039.37
G1 X137.704 E1040.292
;rapid-leaky
G1 F15000
G0 X138.069 Y103.43
;bead-perimeter_inner
G1 X138.07 Y113.118 F1560 E1040.453
G1 Y116.57 E1040.51
G1 X81.93 E1041.444
G1 Y103.43 E1041.662
G1 X138.069 E1042.596
;rapid-leaky
G1 F15000
G0 X138.434 Y103.065
;bead-perimeter_inner
G1 X138.435 Y113.118 F1560 E1042.763
G1 Y116.935 E1042.827
G1 X81.565 E1043.772
G1 Y103.065 E1044.003
G1 X138.434 E1044.949
;rapid-leaky
G1 F15000
G0 X138.799 Y102.7
;bead-perimeter_outer
G1 X138.8 Y113.118 F1080 E1045.122
G1 Y117.3 E1045.192
G1 X81.2 E1046.149
G1 Y102.7 E1046.392
G1 X138.799 E1047.35
G1 F1800 E1046.85
;rapid-dry
G1 F15000
G0 X135.619 Y115.885
G1 F1800 E1047.35
;bead-sparse_infill
G1 X137.385 Y114.119 F3600 E1047.392
G1 Y113.118 E1047.408
G1 Y110.348 E1047.454
G1 X131.847 Y115.885 E1047.585
G1 X128.076 E1047.647
G1 X137.384 Y106.577 E1047.866
G1 Y104.115 E1047.907
G1 X136.075 E1047.929
G1 X124.305 Y115.885 E1048.206
G1 X120.534 E1048.268
G1 X132.304 Y104.115 E1048.545
G1 X128.532 E1048.608
G1 X116.762 Y115.885 E1048.885
G1 X112.991 E1048.948
G1 X124.761 Y104.115 E1049.224
G1 X120.99 E1049.287
G1 X109.22 Y115.885 E1049.564
G1 X105.449 E1049.627
G1 X117.219 Y104.115 E1049.903
G1 X113.447 E1049.966
G1 X101.677 Y115.885 E1050.243
G1 X97.906 E1050.306
G1 X109.676 Y104.115 E1050.582
G1 X105.905 E1050.645
G1 X94.135 Y115.885 E1050.922
G1 X90.364 E1050.985
G1 X102.134 Y104.115 E1051.261
G1 X98.362 E1051.324
G1 X86.592 Y115.885 E1051.601
G1 X82.821 E1051.664
G1 X94.591 Y104.115 E1051.941
G1 X90.82 E1052.003
G1 X82.615 Y112.32 E1052.196
G1 Y108.549 E1052.259
G1 X87.049 Y104.115 E1052.363
G1 X83.277 E1052.426
G1 X82.615 Y104.777 E1052.442
G1 F1800 E1051.942
;Layer : 24 of 69
;rapid-leaky
G1 F15000
G0 X82.295 Y103.795 Z3.3
G1 F1800 E1052.442
;bead-perimeter_inner
G1 X137.704 F1560 E1053.363
G1 X137.705 Y112.887 E1053.514
G1 Y116.205 E1053.569
G1 X82.295 E1054.491
G1 Y103.795 E1054.697
;rapid-leaky
G1 F15000
G0 X81.93 Y103.43
;bead-perimeter_inner
G1 X138.069 F1560 E1055.631
G1 X138.07 Y112.887 E1055.788
G1 Y116.57 E1055.849
G1 X81.93 E1056.783
G1 Y103.43 E1057.001
;rapid-leaky
G1 F15000
G0 X81.565 Y103.065
;bead-perimeter_inner
G1 X138.434 F1560 E1057.947
G1 X138.435 Y112.887 E1058.11
G1 Y116.935 E1058.178
G1 X81.565 E1059.124
G1 Y103.065 E1059.354
;rapid-leaky
G1 F15000
G0 X81.2 Y102.7
;bead-perimeter_outer
G1 X138.799 F1080 E1060.312
G1 X138.8 Y112.887 E1060.482
G1 Y117.3 E1060.555
G1 X81.2 E1061.513
G1 Y102.7 E1061.756
G1 F1800 E1061.256
;rapid-dry
G1 F15000
G0 X83.277 Y115.885
G1 F1800 E1061.756
;bead-sparse_infill
G1 X82.615 Y115.223 F3600 E1061.771
G1 Y111.451 E1061.834
G1 X87.049 Y115.885 E1061.938
G1 X90.82 E1062.001
G1 X82.615 Y107.68 E1062.194
G1 Y104.115 E1062.253
G1 X82.821 E1062.257
G1 X94.591 Y115.885 E1062.533
G1 X98.362 E1062.596
G1 X86.592 Y104.115 E1062.873
G1 X90.364 E1062.936
G1 X102.134 Y115.885 E1063.212
G1 X105.905 E1063.275
G1 X94.135 Y104.115 E1063.552
G1 X97.906 E1063.615
G1 X109.676 Y115.885 E1063.891
G1 X113.447 E1063.954
G1 X101.677 Y104.115 E1064.231
G1 X105.449 E1064.294
G1 X117.219 Y115.885 E1064.571
G1 X120.99 E1064.633
G1 X109.22 Y104.115 E1064.91
G1 X112.991 E1064.973
G1 X124.761 Y115.885 E1065.25
G1 X128.532 E1065.312
G1 X116.762 Y104.115 E1065.589
G1 X120.534 E1065.652
G1 X132.304 Y115.885 E1065.929
G1 X136.075 E1065.991
G1 X124.305 Y104.115 E1066.268
G1 X128.076 E1066.331
G1 X137.385 Y113.424 E1066.55
G1 Y112.887 E1066.559
G1 Y109.652 E1066.613
G1 X131.847 Y104.115 E1066.743
G1 X135.618 E1066.806
G1 X137.384 Y105.881 E1066.847
G1 F1800 E1066.347
;Layer : 25 of 69
;rapid-leaky
G1 F15000
G0 X137.704 Y103.795 Z3.4
G1 F1800 E1066.847
;bead-perimeter_inner
G1 X137.705 Y112.656 F1560 E1066.994
G1 Y116.205 E1067.053
G1 X82.295 E1067.975
G1 Y103.795 E1068.181
G1 X137.704 E1069.103
;rapid-leaky
G1 F15000
G0 X138.069 Y103.43
;bead-perimeter_inner
G1 X138.07 Y112.656 F1560 E1069.256
G1 Y116.57 E1069.321
G1 X81.93 E1070.255
G1 Y103.43 E1070.473
G1 X138.069 E1071.407
;rapid-leaky
G1 F15000
G0 X138.434 Y103.065
;bead-perimeter_inner
G1 X138.435 Y112.656 F1560 E1071.567
G1 Y116.935 E1071.638
G1 X81.565 E1072.583
G1 Y103.065 E1072.814
G1 X138.434 E1073.76
;rapid-leaky
G1 F15000
G0 X138.799 Y102.7
;bead-perimeter_outer
G1 X138.8 Y112.656 F1080 E1073.925
G1 Y117.3 E1074.003
G1 X81.2 E1074.96
G1 Y102.7 E1075.203
G1 X138.799 E1076.161
G1 F1800 E1075.661
;rapid-dry
G1 F15000
G0 X135.619 Y115.885
G1 F1800 E1076.161
;bead-sparse_infill
G1 X137.385 Y114.119 F3600 E1076.203
G1 Y112.656 E1076.227
G1 Y110.348 E1076.265
G1 X131.847 Y115.885 E1076.396
G1 X128.076 E1076.458
G1 X137.384 Y106.577 E1076.677
G1 Y104.115 E1076.718
G1 X136.075 E1076.74
G1 X124.305 Y115.885 E1077.017
G1 X120.534 E1077.08
G1 X132.304 Y104.115 E1077.356
G1 X128.532 E1077.419
G1 X116.762 Y115.885 E1077.696
G1 X112.991 E1077.759
G1 X124.761 Y104.115 E1078.035
G1 X120.99 E1078.098
G1 X109.22 Y115.885 E1078.375
G1 X105.449 E1078.438
G1 X117.219 Y104.115 E1078.714
G1 X113.447 E1078.777
G1 X101.677 Y115.885 E1079.054
G1 X97.906 E1079.117
G1 X109.676 Y104.115 E1079.394
G1 X105.905 E1079.456
G1 X94.135 Y115.885 E1079.733
G1 X90.364 E1079.796
G1 X102.134 Y104.115 E1080.073
G1 X98.362 E1080.135
G1 X86.592 Y115.885 E1080.412
G1 X82.821 E1080.475
G1 X94.591 Y104.115 E1080.752
G1 X90.82 E1080.814
G1 X82.615 Y112.32 E1081.007
G1 Y108.549 E1081.07
G1 X87.049 Y104.115 E1081.174
G1 X83.277 E1081.237
G1 X82.615 Y104.777 E1081.253
G1 F1800 E1080.753
;Layer : 26 of 69
;rapid-leaky
G1 F15000
G0 X82.295 Y103.795 Z3.5
G1 F1800 E1081.253
;bead-perimeter_inner
G1 X137.704 F1560 E1082.174
G1 X137.705 Y112.425 E1082.318
G1 Y116.205 E1082.38
G1 X82.295 E1083.302
G1 Y103.795 E1083.508
;rapid-leaky
G1 F15000
G0 X81.93 Y103.43
;bead-perimeter_inner
G1 X138.069 F1560 E1084.442
G1 X138.07 Y112.425 E1084.591
G1 Y116.57 E1084.66
G1 X81.93 E1085.594
G1 Y103.43 E1085.813
;rapid-leaky
G1 F15000
G0 X81.565 Y103.065
;bead-perimeter_inner
G1 X138.434 F1560 E1086.758
G1 X138.435 Y112.425 E1086.914
G1 Y116.935 E1086.989
G1 X81.565 E1087.935
G1 Y103.065 E1088.165
;rapid-leaky
G1 F15000
G0 X81.2 Y102.7
;bead-perimeter_outer
G1 X138.799 F1080 E1089.123
G1 X138.8 Y112.425 E1089.285
G1 Y117.3 E1089.366
G1 X81.2 E1090.324
G1 Y102.7 E1090.567
G1 F1800 E1090.067
;rapid-dry
G1 F15000
G0 X83.277 Y115.885
G1 F1800 E1090.567
;bead-sparse_infill
G1 X82.615 Y115.223 F3600 E1090.582
G1 Y111.451 E1090.645
G1 X87.049 Y115.885 E1090.749
G1 X90.82 E1090.812
G1 X82.615 Y107.68 E1091.005
G1 Y104.115 E1091.064
G1 X82.821 E1091.068
G1 X94.591 Y115.885 E1091.344
G1 X98.362 E1091.407
G1 X86.592 Y104.115 E1091.684
G1 X90.364 E1091.747
G1 X102.134 Y115.885 E1092.024
G1 X105.905 E1092.086
G1 X94.135 Y104.115 E1092.363
G1 X97.906 E1092.426
G1 X109.676 Y115.885 E1092.703
G1 X113.447 E1092.765
G1 X101.677 Y104.115 E1093.042
G1 X105.449 E1093.105
G1 X117.219 Y115.885 E1093.382
G1 X120.99 E1093.444
G1 X109.22 Y104.115 E1093.721
G1 X112.991 E1093.784
G1 X124.761 Y115.885 E1094.061
G1 X128.532 E1094.123
G1 X116.762 Y104.115 E1094.4
G1 X120.534 E1094.463
G1 X132.304 Y115.885 E1094.74
G1 X136.075 E1094.802
G1 X124.305 Y104.115 E1095.079
G1 X128.076 E1095.142
G1 X137.385 Y113.424 E1095.361
G1 Y112.425 E1095.378
G1 Y109.653 E1095.424
G1 X131.847 Y104.115 E1095.554
G1 X135.618 E1095.617
G1 X137.384 Y105.881 E1095.658
G1 F1800 E1095.158
;Layer : 27 of 69
;rapid-leaky
G1 F15000
G0 X137.704 Y103.795 Z3.6
G1 F1800 E1095.658
;bead-perimeter_inner
G1 X137.705 Y112.195 F1560 E1095.798
G1 Y116.205 E1095.865
G1 X82.295 E1096.786
G1 Y103.795 E1096.992
G1 X137.704 E1097.914
;rapid-leaky
G1 F15000
G0 X138.069 Y103.43
;bead-perimeter_inner
G1 X138.07 Y112.195 F1560 E1098.06
G1 Y116.57 E1098.132
G1 X81.93 E1099.066
G1 Y103.43 E1099.284
G1 X138.069 E1100.218
;rapid-leaky
G1 F15000
G0 X138.434 Y103.065
;bead-perimeter_inner
G1 X138.435 Y112.195 F1560 E1100.37
G1 Y116.935 E1100.449
G1 X81.565 E1101.395
G1 Y103.065 E1101.625
G1 X138.434 E1102.571
;rapid-leaky
G1 F15000
G0 X138.799 Y102.7
;bead-perimeter_outer
G1 X138.8 Y112.195 F1080 E1102.729
G1 Y117.3 E1102.814
G1 X81.2 E1103.772
G1 Y102.7 E1104.014
G1 X138.799 E1104.972
G1 F1800 E1104.472
;rapid-dry
G1 F15000
G0 X135.619 Y115.885
G1 F1800 E1104.972
;bead-sparse_infill
G1 X137.385 Y114.119 F3600 E1105.014
G1 Y112.195 E1105.046
G1 Y110.347 E1105.077
G1 X131.847 Y115.885 E1105.207
G1 X128.076 E1105.269
G1 X137.384 Y106.577 E1105.488
G1 Y104.115 E1105.529
G1 X136.075 E1105.551
G1 X124.305 Y115.885 E1105.828
G1 X120.534 E1105.891
G1 X132.304 Y104.115 E1106.167
G1 X128.532 E1106.23
G1 X116.762 Y115.885 E1106.507
G1 X112.991 E1106.57
G1 X124.761 Y104.115 E1106.846
G1 X120.99 E1106.909
G1 X109.22 Y115.885 E1107.186
G1 X105.449 E1107.249
G1 X117.219 Y104.115 E1107.526
G1 X113.447 E1107.588
G1 X101.677 Y115.885 E1107.865
G1 X97.906 E1107.928
G1 X109.676 Y104.115 E1108.205
G1 X105.905 E1108.267
G1 X94.135 Y115.885 E1108.544
G1 X90.364 E1108.607
G1 X102.134 Y104.115 E1108.884
G1 X98.362 E1108.946
G1 X86.592 Y115.885 E1109.223
G1 X82.821 E1109.286
G1 X94.591 Y104.115 E1109.563
G1 X90.82 E1109.625
G1 X82.615 Y112.32 E1109.818
G1 Y108.549 E1109.881
G1 X87.049 Y104.115 E1109.985
G1 X83.277 E1110.048
G1 X82.615 Y104.777 E1110.064
G1 F1800 E1109.564
;Layer : 28 of 69
;rapid-leaky
G1 F15000
G0 X82.295 Y103.795 Z3.7
G1 F1800 E1110.064
;bead-perimeter_inner
G1 X137.704 F1560 E1110.985
G1 X137.705 Y111.964 E1111.121
G1 Y116.205 E1111.192
G1 X82.295 E1112.113
G1 Y103.795 E1112.319
;rapid-leaky
G1 F15000
G0 X81.93 Y103.43
;bead-perimeter_inner
G1 X138.069 F1560 E1113.253
G1 X138.07 Y111.964 E1113.395
G1 Y116.57 E1113.471
G1 X81.93 E1114.405
G1 Y103.43 E1114.624
;rapid-leaky
G1 F15000
G0 X81.565 Y103.065
;bead-perimeter_inner
G1 X138.434 F1560 E1115.569
G1 X138.435 Y111.964 E1115.717
G1 Y116.935 E1115.8
G1 X81.565 E1116.746
G1 Y103.065 E1116.976
;rapid-leaky
G1 F15000
G0 X81.2 Y102.7
;bead-perimeter_outer
G1 X138.799 F1080 E1117.934
G1 X138.8 Y111.964 E1118.088
G1 Y117.3 E1118.177
G1 X81.2 E1119.135
G1 Y102.7 E1119.378
G1 F1800 E1118.878
;rapid-dry
G1 F15000
G0 X83.277 Y115.885
G1 F1800 E1119.378
;bead-sparse_infill
G1 X82.615 Y115.223 F3600 E1119.393
G1 Y111.451 E1119.456
G1 X87.049 Y115.885 E1119.56
G1 X90.82 E1119.623
G1 X82.615 Y107.68 E1119.816
G1 Y104.115 E1119.875
G1 X82.821 E1119.879
G1 X94.591 Y115.885 E1120.156
G1 X98.362 E1120.218
G1 X86.592 Y104.115 E1120.495
G1 X90.364 E1120.558
G1 X102.134 Y115.885 E1120.835
G1 X105.905 E1120.897
G1 X94.135 Y104.115 E1121.174
G1 X97.906 E1121.237
G1 X109.676 Y115.885 E1121.514
G1 X113.447 E1121.576
G1 X101.677 Y104.115 E1121.853
G1 X105.449 E1121.916
G1 X117.219 Y115.885 E1122.193
G1 X120.99 E1122.255
G1 X109.22 Y104.115 E1122.532
G1 X112.991 E1122.595
G1 X124.761 Y115.885 E1122.872
G1 X128.532 E1122.935
G1 X116.762 Y104.115 E1123.211
G1 X120.534 E1123.274
G1 X132.304 Y115.885 E1123.551
G1 X136.075 E1123.614
G1 X124.305 Y104.115 E1123.89
G1 X128.076 E1123.953
G1 X137.385 Y113.424 E1124.172
G1 Y111.964 E1124.196
G1 Y109.653 E1124.235
G1 X131.847 Y104.115 E1124.365
G1 X135.618 E1124.428
G1 X137.384 Y105.881 E1124.469
G1 F1800 E1123.969
;Layer : 29 of 69
;rapid-leaky
G1 F15000
G0 X137.704 Y103.795 Z3.8
G1 F1800 E1124.469
;bead-perimeter_inner
G1 X137.705 Y111.733 F1560 E1124.601
G1 Y116.205 E1124.676
G1 X82.295 E1125.597
G1 Y103.795 E1125.803
G1 X137.704 E1126.725
;rapid-leaky
G1 F15000
G0 X138.069 Y103.43
;bead-perimeter_inner
G1 X138.07 Y111.733 F1560 E1126.863
G1 Y116.57 E1126.943
G1 X81.93 E1127.877
G1 Y103.43 E1128.096
G1 X138.069 E1129.029
;rapid-leaky
G1 F15000
G0 X138.434 Y103.065
;bead-perimeter_inner
G1 X138.435 Y111.733 F1560 E1129.173
G1 Y116.935 E1129.26
G1 X81.565 E1130.206
G1 Y103.065 E1130.436
G1 X138.434 E1131.382
;rapid-leaky
G1 F15000
G0 X138.799 Y102.7
;bead-perimeter_outer
G1 X138.8 Y111.733 F1080 E1131.532
G1 Y117.3 E1131.625
G1 X81.2 E1132.583
G1 Y102.7 E1132.825
G1 X138.799 E1133.783
G1 F1800 E1133.283
;rapid-dry
G1 F15000
G0 X135.619 Y115.885
G1 F1800 E1133.783
;bead-sparse_infill
G1 X137.385 Y114.119 F3600 E1133.825
G1 Y111.733 E1133.865
G1 Y110.347 E1133.888
G1 X131.847 Y115.885 E1134.018
G1 X128.076 E1134.081
G1 X137.384 Y106.577 E1134.299
G1 Y104.115 E1134.34
G1 X136.075 E1134.362
G1 X124.305 Y115.885 E1134.639
G1 X120.534 E1134.702
G1 X132.304 Y104.115 E1134.979
G1 X128.532 E1135.041
G1 X116.762 Y115.885 E1135.318
G1 X112.991 E1135.381
G1 X124.761 Y104.115 E1135.658
G1 X120.99 E1135.72
G1 X109.22 Y115.885 E1135.997
G1 X105.449 E1136.06
G1 X117.219 Y104.115 E1136.337
G1 X113.447 E1136.399
G1 X101.677 Y115.885 E1136.676
G1 X97.906 E1136.739
G1 X109.676 Y104.115 E1137.016
G1 X105.905 E1137.078
G1 X94.135 Y115.885 E1137.355
G1 X90.364 E1137.418
G1 X102.134 Y104.115 E1137.695
G1 X98.362 E1137.757
G1 X86.592 Y115.885 E1138.034
G1 X82.821 E1138.097
G1 X94.591 Y104.115 E1138.374
G1 X90.82 E1138.437
G1 X82.615 Y112.32 E1138.63
G1 Y108.549 E1138.692
G1 X87.049 Y104.115 E1138.797
G1 X83.277 E1138.859
G1 X82.615 Y104.777 E1138.875
G1 F1800 E1138.375
;Layer : 30 of 69
;rapid-leaky
G1 F15000
G0 X82.295 Y103.795 Z3.9
G1 F1800 E1138.875
;bead-perimeter_inner
G1 X137.704 F1560 E1139.796
G1 X137.705 Y111.502 E1139.924
G1 Y116.205 E1140.003
G1 X82.295 E1140.924
G1 Y103.795 E1141.13
;rapid-leaky
G1 F15000
G0 X81.93 Y103.43
;bead-perimeter_inner
G1 X138.069 F1560 E1142.064
G1 X138.07 Y111.502 E1142.198
G1 Y116.57 E1142.283
G1 X81.93 E1143.216
G1 Y103.43 E1143.435
;rapid-leaky
G1 F15000
G0 X81.565 Y103.065
;bead-perimeter_inner
G1 X138.434 F1560 E1144.38
G1 X138.435 Y111.502 E1144.521
G1 Y116.935 E1144.611
G1 X81.565 E1145.557
G1 Y103.065 E1145.787
;rapid-leaky
G1 F15000
G0 X81.2 Y102.7
;bead-perimeter_outer
G1 X138.799 F1080 E1146.745
G1 X138.8 Y111.502 E1146.892
G1 Y117.3 E1146.988
G1 X81.2 E1147.946
G1 Y102.7 E1148.189
G1 F1800 E1147.689
;rapid-dry
G1 F15000
G0 X83.277 Y115.885
G1 F1800 E1148.189
;bead-sparse_infill
G1 X82.615 Y115.223 F3600 E1148.204
G1 Y111.451 E1148.267
G1 X87.049 Y115.885 E1148.371
G1 X90.82 E1148.434
G1 X82.615 Y107.68 E1148.627
G1 Y104.115 E1148.686
G1 X82.821 E1148.69
G1 X94.591 Y115.885 E1148.967
G1 X98.362 E1149.029
G1 X86.592 Y104.115 E1149.306
G1 X90.364 E1149.369
G1 X102.134 Y115.885 E1149.646
G1 X105.905 E1149.708
G1 X94.135 Y104.115 E1149.985
G1 X97.906 E1150.048
G1 X109.676 Y115.885 E1150.325
G1 X113.447 E1150.387
G1 X101.677 Y104.115 E1150.664
G1 X105.449 E1150.727
G1 X117.219 Y115.885 E1151.004
G1 X120.99 E1151.067
G1 X109.22 Y104.115 E1151.343
G1 X112.991 E1151.406
G1 X124.761 Y115.885 E1151.683
G1 X128.532 E1151.746
G1 X116.762 Y104.115 E1152.022
G1 X120.534 E1152.085
G1 X132.304 Y115.885 E1152.362
G1 X136.075 E1152.425
G1 X124.305 Y104.115 E1152.701
G1 X128.076 E1152.764
G1 X137.385 Y113.424 E1152.983
G1 Y111.502 E1153.015
G1 Y109.653 E1153.046
G1 X131.847 Y104.115 E1153.176
G1 X135.618 E1153.239
G1 X137.384 Y105.881 E1153.28
G1 F1800 E1152.78
;Layer : 31 of 69
;rapid-leaky
G1 F15000
G0 X137.704 Y103.795 Z4
G1 F1800 E1153.28
;bead-perimeter_inner
G1 X137.705 Y111.272 F1560 E1153.405
G1 Y116.205 E1153.487
G1 X82.295 E1154.408
G1 Y103.795 E1154.615
G1 X137.704 E1155.536
;rapid-leaky
G1 F15000
G0 X138.069 Y103.43
;bead-perimeter_inner
G1 X138.07 Y111.272 F1560 E1155.666
G1 Y116.57 E1155.755
G1 X81.93 E1156.688
G1 Y103.43 E1156.907
G1 X138.069 E1157.84
;rapid-leaky
G1 F15000
G0 X138.434 Y103.065
;bead-perimeter_inner
G1 X138.435 Y111.272 F1560 E1157.977
G1 Y116.935 E1158.071
G1 X81.565 E1159.017
G1 Y103.065 E1159.247
G1 X138.434 E1160.193
;rapid-leaky
G1 F15000
G0 X138.799 Y102.7
;bead-perimeter_outer
G1 X138.8 Y111.272 F1080 E1160.336
G1 Y117.3 E1160.436
G1 X81.2 E1161.394
G1 Y102.7 E1161.637
G1 X138.799 E1162.594
G1 F1800 E1162.094
;rapid-dry
G1 F15000
G0 X137.385 Y114.119
G1 F1800 E1162.594
;bead-sparse_infill
G1 X135.619 Y115.885 F3600 E1162.636
G1 X131.847 E1162.699
G1 X137.385 Y110.347 E1162.829
G1 X137.384 Y106.577 E1162.892
G1 X128.076 Y115.885 E1163.111
G1 X124.305 E1163.173
G1 X136.075 Y104.115 E1163.45
G1 X132.304 E1163.513
G1 X120.534 Y115.885 E1163.79
G1 X116.762 E1163.852
G1 X128.532 Y104.115 E1164.129
G1 X124.761 E1164.192
G1 X112.991 Y115.885 E1164.469
G1 X109.22 E1164.531
G1 X120.99 Y104.115 E1164.808
G1 X117.219 E1164.871
G1 X105.449 Y115.885 E1165.148
G1 X101.677 E1165.21
G1 X113.447 Y104.115 E1165.487
G1 X109.676 E1165.55
G1 X97.906 Y115.885 E1165.827
G1 X94.135 E1165.89
G1 X105.905 Y104.115 E1166.166
G1 X102.134 E1166.229
G1 X90.364 Y115.885 E1166.506
G1 X86.592 E1166.569
G1 X98.362 Y104.115 E1166.845
G1 X94.591 E1166.908
G1 X82.821 Y115.885 E1167.185
G1 X82.615 E1167.188
G1 Y112.32 E1167.248
G1 X90.82 Y104.115 E1167.441
G1 X87.049 E1167.503
G1 X82.615 Y108.549 E1167.608
G1 Y104.777 E1167.67
G1 X83.277 Y104.115 E1167.686
G1 F1800 E1167.186
;Layer : 32 of 69
;rapid-leaky
G1 F15000
G0 X82.295 Y103.795 Z4.1
G1 F1800 E1167.686
;bead-perimeter_inner
G1 X137.704 F1560 E1168.607
G1 X137.705 Y111.041 E1168.728
G1 Y116.205 E1168.814
G1 X82.295 E1169.735
G1 Y103.795 E1169.942
;rapid-leaky
G1 F15000
G0 X81.93 Y103.43
;bead-perimeter_inner
G1 X138.069 F1560 E1170.875
G1 X138.07 Y111.041 E1171.002
G1 Y116.57 E1171.094
G1 X81.93 E1172.027
G1 Y103.43 E1172.246
;rapid-leaky
G1 F15000
G0 X81.565 Y103.065
;bead-perimeter_inner
G1 X138.434 F1560 E1173.192
G1 X138.435 Y111.041 E1173.324
G1 Y116.935 E1173.422
G1 X81.565 E1174.368
G1 Y103.065 E1174.599
;rapid-leaky
G1 F15000
G0 X81.2 Y102.7
;bead-perimeter_outer
G1 X138.799 F1080 E1175.557
G1 X138.8 Y111.041 E1175.695
G1 Y117.3 E1175.799
G1 X81.2 E1176.757
G1 Y102.7 E1177
G1 F1800 E1176.5
;rapid-dry
G1 F15000
G0 X83.277 Y115.885
G1 F1800 E1177
;bead-sparse_infill
G1 X82.615 Y115.223 F3600 E1177.016
G1 Y111.451 E1177.078
G1 X87.049 Y115.885 E1177.182
G1 X90.82 E1177.245
G1 X82.615 Y107.68 E1177.438
G1 Y104.115 E1177.498
G1 X82.821 E1177.501
G1 X94.591 Y115.885 E1177.778
G1 X98.362 E1177.84
G1 X86.592 Y104.115 E1178.117
G1 X90.364 E1178.18
G1 X102.134 Y115.885 E1178.457
G1 X105.905 E1178.52
G1 X94.135 Y104.115 E1178.796
G1 X97.906 E1178.859
G1 X109.676 Y115.885 E1179.136
G1 X113.447 E1179.199
G1 X101.677 Y104.115 E1179.475
G1 X105.449 E1179.538
G1 X117.219 Y115.885 E1179.815
G1 X120.99 E1179.878
G1 X109.22 Y104.115 E1180.154
G1 X112.991 E1180.217
G1 X124.761 Y115.885 E1180.494
G1 X128.532 E1180.557
G1 X116.762 Y104.115 E1180.833
G1 X120.534 E1180.896
G1 X132.304 Y115.885 E1181.173
G1 X136.075 E1181.236
G1 X124.305 Y104.115 E1181.513
G1 X128.076 E1181.575
G1 X137.385 Y113.424 E1181.794
G1 Y111.041 E1181.834
G1 Y109.653 E1181.857
G1 X131.847 Y104.115 E1181.987
G1 X135.618 E1182.05
G1 X137.384 Y105.881 E1182.091
G1 F1800 E1181.591
;Layer : 33 of 69
;rapid-leaky
G1 F15000
G0 X137.704 Y103.795 Z4.2
G1 F1800 E1182.091
;bead-perimeter_inner
G1 X137.705 Y110.81 F1560 E1182.208
G1 Y116.205 E1182.298
G1 X82.295 E1183.219
G1 Y103.795 E1183.426
G1 X137.704 E1184.347
;rapid-leaky
G1 F15000
G0 X138.069 Y103.43
;bead-perimeter_inner
G1 X138.07 Y110.81 F1560 E1184.47
G1 Y116.57 E1184.566
G1 X81.93 E1185.499
G1 Y103.43 E1185.718
G1 X138.069 E1186.651
;rapid-leaky
G1 F15000
G0 X138.434 Y103.065
;bead-perimeter_inner
G1 X138.435 Y110.81 F1560 E1186.78
G1 Y116.935 E1186.882
G1 X81.565 E1187.828
G1 Y103.065 E1188.058
G1 X138.434 E1189.004
;rapid-leaky
G1 F15000
G0 X138.799 Y102.7
;bead-perimeter_outer
G1 X138.8 Y110.81 F1080 E1189.139
G1 Y117.3 E1189.247
G1 X81.2 E1190.205
G1 Y102.7 E1190.448
G1 X138.799 E1191.406
G1 F1800 E1190.906
;rapid-dry
G1 F15000
G0 X137.385 Y114.119
G1 F1800 E1191.406
;bead-sparse_infill
G1 X135.619 Y115.885 F3600 E1191.447
G1 X131.847 E1191.51
G1 X137.385 Y110.347 E1191.64
G1 X137.384 Y106.577 E1191.703
G1 X128.076 Y115.885 E1191.922
G1 X124.305 E1191.984
G1 X136.075 Y104.115 E1192.261
G1 X132.304 E1192.324
G1 X120.534 Y115.885 E1192.601
G1 X116.762 E1192.663
G1 X128.532 Y104.115 E1192.94
G1 X124.761 E1193.003
G1 X112.991 Y115.885 E1193.28
G1 X109.22 E1193.343
G1 X120.99 Y104.115 E1193.619
G1 X117.219 E1193.682
G1 X105.449 Y115.885 E1193.959
G1 X101.677 E1194.021
G1 X113.447 Y104.115 E1194.298
G1 X109.676 E1194.361
G1 X97.906 Y115.885 E1194.638
G1 X94.135 E1194.701
G1 X105.905 Y104.115 E1194.977
G1 X102.134 E1195.04
G1 X90.364 Y115.885 E1195.317
G1 X86.592 E1195.38
G1 X98.362 Y104.115 E1195.656
G1 X94.591 E1195.719
G1 X82.821 Y115.885 E1195.996
G1 X82.615 E1195.999
G1 Y112.32 E1196.059
G1 X90.82 Y104.115 E1196.252
G1 X87.049 E1196.314
G1 X82.615 Y108.549 E1196.419
G1 Y104.777 E1196.481
G1 X83.277 Y104.115 E1196.497
G1 F1800 E1195.997
;Layer : 34 of 69
;rapid-leaky
G1 F15000
G0 X82.295 Y103.795 Z4.3
G1 F1800 E1196.497
;bead-perimeter_inner
G1 X137.704 F1560 E1197.418
G1 X137.705 Y110.579 E1197.531
G1 Y116.205 E1197.625
G1 X82.295 E1198.546
G1 Y103.795 E1198.753
;rapid-leaky
G1 F15000
G0 X81.93 Y103.43
;bead-perimeter_inner
G1 X138.069 F1560 E1199.686
G1 X138.07 Y110.579 E1199.805
G1 Y116.57 E1199.905
G1 X81.93 E1200.838
G1 Y103.43 E1201.057
;rapid-leaky
G1 F15000
G0 X81.565 Y103.065
;bead-perimeter_inner
G1 X138.434 F1560 E1202.003
G1 X138.435 Y110.579 E1202.128
G1 Y116.935 E1202.233
G1 X81.565 E1203.179
G1 Y103.065 E1203.41
;rapid-leaky
G1 F15000
G0 X81.2 Y102.7
;bead-perimeter_outer
G1 X138.799 F1080 E1204.368
G1 X138.8 Y110.579 E1204.499
G1 Y117.3 E1204.61
G1 X81.2 E1205.568
G1 Y102.7 E1205.811
G1 F1800 E1205.311
;rapid-dry
G1 F15000
G0 X83.277 Y115.885
G1 F1800 E1205.811
;bead-sparse_infill
G1 X82.615 Y115.223 F3600 E1205.827
G1 Y111.451 E1205.889
G1 X87.049 Y115.885 E1205.994
G1 X90.82 E1206.056
G1 X82.615 Y107.68 E1206.249
G1 Y104.115 E1206.309
G1 X82.821 E1206.312
G1 X94.591 Y115.885 E1206.589
G1 X98.362 E1206.652
G1 X86.592 Y104.115 E1206.928
G1 X90.364 E1206.991
G1 X102.134 Y115.885 E1207.268
G1 X105.905 E1207.331
G1 X94.135 Y104.115 E1207.607
G1 X97.906 E1207.67
G1 X109.676 Y115.885 E1207.947
G1 X113.447 E1208.01
G1 X101.677 Y104.115 E1208.286
G1 X105.449 E1208.349
G1 X117.219 Y115.885 E1208.626
G1 X120.99 E1208.689
G1 X109.22 Y104.115 E1208.966
G1 X112.991 E1209.028
G1 X124.761 Y115.885 E1209.305
G1 X128.532 E1209.368
G1 X116.762 Y104.115 E1209.645
G1 X120.534 E1209.707
G1 X132.304 Y115.885 E1209.984
G1 X136.075 E1210.047
G1 X124.305 Y104.115 E1210.324
G1 X128.076 E1210.386
G1 X137.385 Y113.424 E1210.605
G1 Y110.579 E1210.653
G1 Y109.653 E1210.668
G1 X131.847 Y104.115 E1210.798
G1 X135.618 E1210.861
G1 X137.384 Y105.881 E1210.902
G1 F1800 E1210.402
;Layer : 35 of 69
;rapid-leaky
G1 F15000
G0 X137.704 Y103.795 Z4.4
G1 F1800 E1210.902
;bead-perimeter_inner
G1 X137.705 Y110.348 F1560 E1211.011
G1 Y116.205 E1211.109
G1 X82.295 E1212.03
G1 Y103.795 E1212.237
G1 X137.704 E1213.158
;rapid-leaky
G1 F15000
G0 X138.069 Y103.43
;bead-perimeter_inner
G1 X138.07 Y110.348 F1560 E1213.273
G1 Y116.57 E1213.377
G1 X81.93 E1214.31
G1 Y103.43 E1214.529
G1 X138.069 E1215.462
;rapid-leaky
G1 F15000
G0 X138.434 Y103.065
;bead-perimeter_inner
G1 X138.435 Y110.348 F1560 E1215.583
G1 Y116.935 E1215.693
G1 X81.565 E1216.639
G1 Y103.065 E1216.87
G1 X138.434 E1217.815
;rapid-leaky
G1 F15000
G0 X138.799 Y102.7
;bead-perimeter_outer
G1 X138.8 Y110.348 F1080 E1217.942
G1 Y117.3 E1218.058
G1 X81.2 E1219.016
G1 Y102.7 E1219.259
G1 X138.799 E1220.217
G1 F1800 E1219.717
;rapid-dry
G1 F15000
G0 X137.385 Y114.119
G1 F1800 E1220.217
;bead-sparse_infill
G1 X135.619 Y115.885 F3600 E1220.258
G1 X131.847 E1220.321
G1 X137.385 Y110.347 E1220.451
G1 Y106.577 E1220.514
G1 X128.076 Y115.885 E1220.733
G1 X124.305 E1220.795
G1 X136.075 Y104.115 E1221.072
G1 X132.304 E1221.135
G1 X120.534 Y115.885 E1221.412
G1 X116.762 E1221.474
G1 X128.532 Y104.115 E1221.751
G1 X124.761 E1221.814
G1 X112.991 Y115.885 E1222.091
G1 X109.22 E1222.154
G1 X120.99 Y104.115 E1222.43
G1 X117.219 E1222.493
G1 X105.449 Y115.885 E1222.77
G1 X101.677 E1222.833
G1 X113.447 Y104.115 E1223.109
G1 X109.676 E1223.172
G1 X97.906 Y115.885 E1223.449
G1 X94.135 E1223.512
G1 X105.905 Y104.115 E1223.788
G1 X102.134 E1223.851
G1 X90.364 Y115.885 E1224.128
G1 X86.592 E1224.191
G1 X98.362 Y104.115 E1224.468
G1 X94.591 E1224.53
G1 X82.821 Y115.885 E1224.807
G1 X82.615 E1224.811
G1 Y112.32 E1224.87
G1 X90.82 Y104.115 E1225.063
G1 X87.049 E1225.125
G1 X82.615 Y108.549 E1225.23
G1 Y104.777 E1225.292
G1 X83.277 Y104.115 E1225.308
G1 F1800 E1224.808
;Layer : 36 of 69
;rapid-leaky
G1 F15000
G0 X82.295 Y103.795 Z4.5
G1 F1800 E1225.308
;bead-perimeter_inner
G1 X137.704 F1560 E1226.229
G1 X137.705 Y110.118 E1226.335
G1 Y116.205 E1226.436
G1 X82.295 E1227.357
G1 Y103.795 E1227.564
;rapid-leaky
G1 F15000
G0 X81.93 Y103.43
;bead-perimeter_inner
G1 X138.069 F1560 E1228.497
G1 X138.07 Y110.118 E1228.609
G1 Y116.57 E1228.716
G1 X81.93 E1229.649
G1 Y103.43 E1229.868
;rapid-leaky
G1 F15000
G0 X81.565 Y103.065
;bead-perimeter_inner
G1 X138.434 F1560 E1230.814
G1 X138.435 Y110.118 E1230.931
G1 Y116.935 E1231.044
G1 X81.565 E1231.99
G1 Y103.065 E1232.221
;rapid-leaky
G1 F15000
G0 X81.2 Y102.7
;bead-perimeter_outer
G1 X138.799 F1080 E1233.179
G1 X138.8 Y110.118 E1233.302
G1 Y117.3 E1233.422
G1 X81.2 E1234.379
G1 Y102.7 E1234.622
G1 F1800 E1234.122
;rapid-dry
G1 F15000
G0 X83.277 Y115.885
G1 F1800 E1234.622
;bead-sparse_infill
G1 X82.615 Y115.223 F3600 E1234.638
G1 Y111.451 E1234.7
G1 X87.049 Y115.885 E1234.805
G1 X90.82 E1234.867
G1 X82.615 Y107.68 E1235.06
G1 Y104.115 E1235.12
G1 X82.821 E1235.123
G1 X94.591 Y115.885 E1235.4
G1 X98.362 E1235.463
G1 X86.592 Y104.115 E1235.74
G1 X90.364 E1235.802
G1 X102.134 Y115.885 E1236.079
G1 X105.905 E1236.142
G1 X94.135 Y104.115 E1236.419
G1 X97.906 E1236.481
G1 X109.676 Y115.885 E1236.758
G1 X113.447 E1236.821
G1 X101.677 Y104.115 E1237.098
G1 X105.449 E1237.16
G1 X117.219 Y115.885 E1237.437
G1 X120.99 E1237.5
G1 X109.22 Y104.115 E1237.777
G1 X112.991 E1237.839
G1 X124.761 Y115.885 E1238.116
G1 X128.532 E1238.179
G1 X116.762 Y104.115 E1238.456
G1 X120.534 E1238.518
G1 X132.304 Y115.885 E1238.795
G1 X136.075 E1238.858
G1 X124.305 Y104.115 E1239.135
G1 X128.076 E1239.198
G1 X137.385 Y113.424 E1239.416
G1 Y110.118 E1239.471
G1 Y109.653 E1239.479
G1 X131.847 Y104.115 E1239.609
G1 X135.618 E1239.672
G1 X137.384 Y105.881 E1239.714
G1 F1800 E1239.214
;Layer : 37 of 69
;rapid-leaky
G1 F15000
G0 X137.705 Y103.795 Z4.6
G1 F1800 E1239.714
;bead-perimeter_inner
G1 Y116.205 F1560 E1239.92
G1 X82.295 Y116.204 E1240.841
G1 Y103.795 E1241.048
G1 X137.705 E1241.969
;rapid-leaky
G1 F15000
G0 X138.07 Y103.43
;bead-perimeter_inner
G1 Y116.57 F1560 E1242.188
G1 X81.93 Y116.569 E1243.121
G1 Y103.43 E1243.34
G1 X138.07 E1244.274
;rapid-leaky
G1 F15000
G0 X138.435 Y103.065
;bead-perimeter_inner
G1 Y116.935 F1560 E1244.504
G1 X81.565 Y116.934 E1245.45
G1 Y103.065 E1245.681
G1 X138.435 E1246.626
;rapid-leaky
G1 F15000
G0 X138.8 Y102.7
;bead-perimeter_outer
G1 Y117.3 F1080 E1246.869
G1 X81.2 Y117.299 E1247.827
G1 Y102.7 E1248.07
G1 X138.8 E1249.028
G1 F1800 E1248.528
;rapid-dry
G1 F15000
G0 X137.385 Y114.119
G1 F1800 E1249.028
;bead-sparse_infill
G1 X135.619 Y115.885 F3600 E1249.069
G1 X131.847 E1249.132
G1 X137.385 Y110.347 E1249.262
G1 Y106.576 E1249.325
G1 X128.076 Y115.885 E1249.544
G1 X124.305 E1249.607
G1 X136.075 Y104.115 E1249.883
G1 X132.304 E1249.946
G1 X120.534 Y115.885 E1250.223
G1 X116.763 E1250.286
G1 X128.532 Y104.115 E1250.562
G1 X124.761 E1250.625
G1 X112.992 Y115.885 E1250.902
G1 X109.22 Y115.884 E1250.965
G1 X120.99 Y104.115 E1251.241
G1 X117.219 E1251.304
G1 X105.449 Y115.884 E1251.581
G1 X101.678 E1251.644
G1 X113.447 Y104.115 E1251.92
G1 X109.676 E1251.983
G1 X97.907 Y115.884 E1252.26
G1 X94.136 E1252.323
G1 X105.905 Y104.115 E1252.599
G1 X102.134 E1252.662
G1 X90.365 Y115.884 E1252.939
G1 X86.593 E1253.002
G1 X98.362 Y104.115 E1253.278
G1 X94.591 E1253.341
G1 X82.822 Y115.884 E1253.618
G1 X82.615 E1253.621
G1 Y112.32 E1253.681
G1 X90.82 Y104.115 E1253.874
G1 X87.049 E1253.936
G1 X82.615 Y108.549 E1254.041
G1 Y104.777 E1254.103
G1 X83.277 Y104.115 E1254.119
G1 F1800 E1253.619
;Layer : 38 of 69
;rapid-leaky
G1 F15000
G0 X82.295 Y103.795 Z4.7
G1 F1800 E1254.119
;bead-perimeter_inner
G1 X137.705 F1560 E1255.04
G1 X137.704 Y116.205 E1255.247
G1 X82.295 Y116.204 E1256.168
G1 Y103.795 E1256.375
;rapid-leaky
G1 F15000
G0 X81.93 Y103.43
;bead-perimeter_inner
G1 X138.07 F1560 E1257.308
G1 X138.069 Y116.57 E1257.527
G1 X81.93 Y116.569 E1258.46
G1 Y103.43 E1258.679
;rapid-leaky
G1 F15000
G0 X81.565 Y103.065
;bead-perimeter_inner
G1 X138.435 F1560 E1259.625
G1 X138.434 Y116.935 E1259.855
G1 X81.565 Y116.934 E1260.801
G1 Y103.065 E1261.032
;rapid-leaky
G1 F15000
G0 X81.2 Y102.7
;bead-perimeter_outer
G1 X138.8 F1080 E1261.99
G1 X138.799 Y117.3 E1262.232
G1 X81.2 Y117.299 E1263.19
G1 Y102.7 E1263.433
G1 F1800 E1262.933
;rapid-dry
G1 F15000
G0 X82.615 Y115.223
G1 F1800 E1263.433
;bead-sparse_infill
G1 X83.277 Y115.884 F3600 E1263.449
G1 X87.048 E1263.511
G1 X82.615 Y111.451 E1263.616
G1 Y107.68 E1263.678
G1 X90.819 Y115.884 E1263.871
G1 X94.59 E1263.934
G1 X82.821 Y104.115 E1264.211
G1 X86.592 E1264.273
G1 X98.362 Y115.884 E1264.55
G1 X102.133 E1264.613
G1 X90.364 Y104.115 E1264.89
G1 X94.135 E1264.953
G1 X105.904 Y115.884 E1265.229
G1 X109.676 Y115.885 E1265.292
G1 X97.906 Y104.115 E1265.569
G1 X101.677 E1265.631
G1 X113.447 Y115.885 E1265.908
G1 X117.218 E1265.971
G1 X105.449 Y104.115 E1266.248
G1 X109.22 E1266.311
G1 X120.99 Y115.885 E1266.587
G1 X124.761 E1266.65
G1 X112.991 Y104.115 E1266.927
G1 X116.762 E1266.99
G1 X128.532 Y115.885 E1267.266
G1 X132.303 E1267.329
G1 X120.534 Y104.115 E1267.606
G1 X124.305 E1267.669
G1 X136.075 Y115.885 E1267.945
G1 X137.384 E1267.967
G1 Y113.423 E1268.008
G1 X128.076 Y104.115 E1268.227
G1 X131.847 E1268.29
G1 X137.385 Y109.652 E1268.42
G1 Y105.881 E1268.483
G1 X135.618 Y104.115 E1268.524
G1 F1800 E1268.024
;Layer : 39 of 69
;rapid-leaky
G1 F15000
G0 X137.705 Y103.795 Z4.8
G1 F1800 E1268.524
;bead-perimeter_inner
G1 X137.704 Y116.205 F1560 E1268.731
G1 X82.295 Y116.204 E1269.652
G1 Y103.795 E1269.859
G1 X137.705 E1270.78
;rapid-leaky
G1 F15000
G0 X138.07 Y103.43
;bead-perimeter_inner
G1 X138.069 Y116.57 F1560 E1270.998
G1 X81.93 Y116.569 E1271.932
G1 Y103.43 E1272.151
G1 X138.07 E1273.084
;rapid-leaky
G1 F15000
G0 X138.435 Y103.065
;bead-perimeter_inner
G1 X138.434 Y116.935 F1560 E1273.315
G1 X81.565 Y116.934 E1274.261
G1 Y103.065 E1274.491
G1 X138.435 E1275.437
;rapid-leaky
G1 F15000
G0 X138.8 Y102.7
;bead-perimeter_outer
G1 X138.799 Y117.3 F1080 E1275.68
G1 X81.2 Y117.299 E1276.638
G1 Y102.7 E1276.88
G1 X138.8 E1277.838
G1 F1800 E1277.338
;rapid-dry
G1 F15000
G0 X137.384 Y114.119
G1 F1800 E1277.838
;bead-sparse_infill
G1 X135.619 Y115.885 F3600 E1277.88
G1 X131.847 E1277.943
G1 X137.385 Y110.348 E1278.073
G1 Y106.576 E1278.135
G1 X128.076 Y115.885 E1278.354
G1 X124.305 E1278.417
G1 X136.075 Y104.115 E1278.694
G1 X132.304 E1278.757
G1 X120.534 Y115.885 E1279.033
G1 X116.763 E1279.096
G1 X128.532 Y104.115 E1279.373
G1 X124.761 E1279.436
G1 X112.992 Y115.885 E1279.713
G1 X109.22 Y115.884 E1279.775
G1 X120.99 Y104.115 E1280.052
G1 X117.219 E1280.115
G1 X105.449 Y115.884 E1280.391
G1 X101.678 E1280.454
G1 X113.447 Y104.115 E1280.731
G1 X109.676 E1280.794
G1 X97.907 Y115.884 E1281.071
G1 X94.136 E1281.133
G1 X105.905 Y104.115 E1281.41
G1 X102.134 E1281.473
G1 X90.365 Y115.884 E1281.75
G1 X86.593 E1281.812
G1 X98.362 Y104.115 E1282.089
G1 X94.591 E1282.152
G1 X82.822 Y115.884 E1282.429
G1 X82.615 E1282.432
G1 Y112.32 E1282.491
G1 X90.82 Y104.115 E1282.684
G1 X87.049 E1282.747
G1 X82.615 Y108.549 E1282.851
G1 Y104.777 E1282.914
G1 X83.277 Y104.115 E1282.93
G1 F1800 E1282.43
;Layer : 40 of 69
;rapid-leaky
G1 F15000
G0 X82.295 Y103.795 Z4.9
G1 F1800 E1282.93
;bead-perimeter_inner
G1 X137.705 F1560 E1283.851
G1 X137.704 Y116.205 E1284.057
G1 X82.295 Y116.204 E1284.979
G1 Y103.795 E1285.185
;rapid-leaky
G1 F15000
G0 X81.93 Y103.43
;bead-perimeter_inner
G1 X138.07 F1560 E1286.119
G1 X138.069 Y116.57 E1286.337
G1 X81.93 Y116.569 E1287.271
G1 Y103.43 E1287.49
;rapid-leaky
G1 F15000
G0 X81.565 Y103.065
;bead-perimeter_inner
G1 X138.435 F1560 E1288.435
G1 X138.434 Y116.935 E1288.666
G1 X81.565 Y116.934 E1289.612
G1 Y103.065 E1289.842
;rapid-leaky
G1 F15000
G0 X81.2 Y102.7
;bead-perimeter_outer
G1 X138.8 F1080 E1290.8
G1 X138.799 Y117.3 E1291.043
G1 X81.2 Y117.299 E1292.001
G1 Y102.7 E1292.244
G1 F1800 E1291.744
;rapid-dry
G1 F15000
G0 X82.615 Y115.223
G1 F1800 E1292.244
;bead-sparse_infill
G1 X83.277 Y115.884 F3600 E1292.259
G1 X87.048 E1292.322
G1 X82.615 Y111.451 E1292.426
G1 Y107.68 E1292.489
G1 X90.819 Y115.884 E1292.682
G1 X94.59 E1292.745
G1 X82.821 Y104.115 E1293.021
G1 X86.592 E1293.084
G1 X98.362 Y115.884 E1293.361
G1 X102.133 E1293.423
G1 X90.364 Y104.115 E1293.7
G1 X94.135 E1293.763
G1 X105.904 Y115.884 E1294.04
G1 X109.676 Y115.885 E1294.103
G1 X97.906 Y104.115 E1294.379
G1 X101.677 E1294.442
G1 X113.447 Y115.885 E1294.719
G1 X117.218 E1294.782
G1 X105.449 Y104.115 E1295.058
G1 X109.22 E1295.121
G1 X120.99 Y115.885 E1295.398
G1 X124.761 E1295.461
G1 X112.991 Y104.115 E1295.737
G1 X116.762 E1295.8
G1 X128.532 Y115.885 E1296.077
G1 X132.303 E1296.14
G1 X120.534 Y104.115 E1296.417
G1 X124.305 E1296.479
G1 X136.075 Y115.885 E1296.756
G1 X137.384 E1296.778
G1 Y113.423 E1296.819
G1 X128.076 Y104.115 E1297.038
G1 X131.847 E1297.1
