;headset-holder-base-plate-2
;Printer Name: Creality Ender 3
;Print time: 18383s
;Extruder 1 Material used: 11948mm
;Extruder 1 Material name: PLA 1.75mm
;Extruder 1 Filament diameter: 1.75mm
;Extruder 1 Nozzle diameter: 0.4mm
;Extruder 1 offset x: 0mm
;Extruder 1 offset y: 0mm
;Extruder 1 offset z: 0mm
;Max temp: 220
;Bed temp: 60
;Layer Count: 151
;width: 220mm
;depth: 220mm
;height: 250mm
;center x: 110mm
;center y: 110mm
;center z: 0mm
;Count of bodies: 1
;Version of Fusion: 2.0.8407
;--------------------------------
;Selected Profile: PLA 1.75mm, 0.4mm Nozzle
;Selected Printer: Creality, Ender 3
;--------------------------------
M140 S60
M190 S60
M104 S220
M105
M109 S220
G1 F15000
G21
G90
M82
;Reset multiplier
M220 S100
M221 S100
;Enable auto bed leveling
M420 S1 Z2
G28
G1 Z10 F6000
G92 E0
G0 X0 Y0
G92 E0
;--------------------------------
;Layer : 1 of 151
M107
;rapid-leaky
G0 X10 Y10.8 Z0.3
G1 F1800 E0.5
;bead-prime
G1 X210 F270 E40.412
G1 F1800 E39.912
;rapid-dry
G1 F15000
G0 X176.764 Y47.479
G1 F1800 E40.412
;bead-raft
G1 Y48.644 F288 E40.587
G1 X178.431 E40.836
G1 Y52.644 E41.435
G1 X176.764 E41.684
G1 Y56.644 E42.283
G1 X178.431 E42.533
G1 Y60.644 E43.131
G1 X176.764 E43.381
G1 Y64.644 E43.979
G1 X178.431 E44.229
G1 Y68.644 E44.828
G1 X176.764 E45.077
G1 Y71.809 E45.551
G1 X170.231 Y72.644 E46.537
G1 X159.864 E48.088
G1 Y68.644 E48.687
G1 X174.864 E50.932
G1 Y64.644 E51.531
G1 X159.864 E53.776
G1 Y60.644 E54.374
G1 X174.864 E56.619
G1 Y56.644 E57.218
G1 X159.864 E59.463
G1 Y52.644 E60.062
G1 X174.864 E62.307
G1 Y48.644 E62.906
G1 X159.864 E65.151
G1 Y44.644 E65.749
G1 X170.231 E67.301
G1 Y40.644 E67.9
G1 X159.864 E69.451
;bead-raft
G1 F1800 E68.951
;rapid-dry
G1 F15000
G0 X142.964
G1 F1800 E69.451
;bead-raft
G1 X157.964 F288 E71.696
G1 Y44.644 E72.295
G1 X142.964 E74.54
G1 Y48.644 E75.139
G1 X157.964 E77.384
G1 Y52.644 E77.983
G1 X142.964 E80.228
G1 Y56.644 E80.826
G1 X157.964 E83.071
G1 Y60.644 E83.67
G1 X142.964 E85.915
G1 Y64.644 E86.514
G1 X157.964 E88.759
G1 Y68.644 E89.358
G1 X142.964 E91.603
G1 Y72.644 E92.201
G1 X157.964 E94.446
G1 Y76.644 E95.045
G1 X142.964 E97.29
G1 Y80.644 E97.889
G1 X144.979 E98.19
G1 X141.064 Y81.29 E98.784
G1 Y80.644 E98.881
G1 X126.064 E101.126
G1 Y76.644 E101.725
G1 X141.064 E103.97
G1 Y72.644 E104.569
G1 X126.064 E106.814
G1 Y68.644 E107.412
G1 X141.064 E109.657
G1 Y64.644 E110.256
G1 X126.064 E112.501
G1 Y60.644 E113.1
G1 X141.064 E115.345
G1 Y56.644 E115.944
G1 X126.064 E118.189
G1 Y52.644 E118.787
G1 X141.064 E121.032
G1 Y48.644 E121.631
G1 X126.064 E123.876
G1 Y44.644 E124.475
G1 X141.064 E126.72
G1 Y40.644 E127.318
G1 X126.064 E129.564
;bead-raft
G1 F1800 E129.064
;rapid-dry
G1 F15000
G0 X109.164
G1 F1800 E129.564
;bead-raft
G1 X124.164 F288 E131.809
G1 Y44.644 E132.407
G1 X109.164 E134.652
G1 Y48.644 E135.251
G1 X124.164 E137.496
G1 Y52.644 E138.095
G1 X109.164 E140.34
G1 Y56.644 E140.939
G1 X124.164 E143.184
G1 Y60.644 E143.782
G1 X109.164 E146.027
G1 Y64.644 E146.626
G1 X124.164 E148.871
G1 Y68.644 E149.47
G1 X109.164 E151.715
G1 Y72.644 E152.313
G1 X124.164 E154.559
G1 Y76.644 E155.157
G1 X109.164 E157.402
G1 Y80.644 E158.001
G1 X124.164 E160.246
G1 Y84.644 E160.845
G1 X109.164 E163.09
G1 Y88.644 E163.688
G1 X117.248 E164.898
G1 X112.586 Y92.644 E165.818
G1 X109.164 E166.33
G1 Y96.644 E166.929
G1 X109.547 E166.986
G1 X106.33 Y104.644 E168.277
G1 X92.264 E170.382
G1 Y100.644 E170.981
G1 X107.264 E173.226
G1 Y96.644 E173.824
G1 X92.264 E176.069
G1 Y92.644 E176.668
G1 X107.264 E178.913
G1 Y88.644 E179.512
G1 X92.264 E181.757
G1 Y84.644 E182.356
G1 X107.264 E184.601
G1 Y80.644 E185.199
G1 X92.264 E187.444
G1 Y76.644 E188.043
G1 X107.264 E190.288
G1 Y72.644 E190.887
G1 X92.264 E193.132
G1 Y68.644 E193.73
G1 X107.264 E195.976
G1 Y64.644 E196.574
G1 X92.264 E198.819
G1 Y60.644 E199.418
G1 X107.264 E201.663
G1 Y56.644 E202.262
G1 X92.264 E204.507
G1 Y52.644 E205.105
G1 X107.264 E207.351
G1 Y48.644 E207.949
G1 X92.264 E210.194
G1 Y44.644 E210.793
G1 X107.264 E213.038
G1 Y40.644 E213.637
G1 X92.264 E215.882
;bead-raft
G1 F1800 E215.382
;rapid-dry
G1 F15000
G0 X56.489 Y56.644
G1 F1800 E215.882
;bead-raft
G1 X56.564 F288 E215.893
G1 Y60.644 E216.492
G1 X54.179 E216.849
G1 X51.869 Y64.644 E217.54
G1 X56.564 E218.243
G1 Y68.644 E218.841
G1 X49.559 E219.89
G1 X47.249 Y72.644 E220.581
G1 X56.564 E221.975
G1 Y76.644 E222.574
G1 X44.939 E224.314
G1 X42.806 Y80.644 E224.992
G1 X56.564 E227.051
G1 Y84.644 E227.65
G1 X41.721 E229.872
G1 X41.675 Y88.644 E230.47
G1 X56.564 E232.699
G1 Y92.644 E233.297
G1 X42.627 E235.383
G1 X44.697 Y96.644 E236.057
G1 X56.564 E237.833
G1 Y100.644 E238.432
G1 X47.006 E239.863
G1 X49.315 Y104.644 E240.554
G1 X56.564 E241.639
G1 Y108.644 E242.237
G1 X51.625 E242.977
G1 X53.934 Y112.644 E243.668
G1 X56.564 E244.062
G1 Y116.644 E244.66
G1 X56.243 E244.708
G1 X58.464 Y120.49 E245.373
G1 Y116.644 E245.949
G1 X73.464 E248.194
G1 Y112.644 E248.792
G1 X58.464 E251.037
G1 Y108.644 E251.636
G1 X73.464 E253.881
G1 Y105.894 E254.293
G1 X72.731 Y104.644 E254.51
G1 X58.464 E256.645
G1 Y100.644 E257.244
G1 X72.895 E259.404
G1 X73.091 Y96.644 E260.003
G1 X58.464 E262.192
G1 Y92.644 E262.791
G1 X73.34 E265.018
G1 X73.464 Y90.666 E265.314
G1 Y88.644 E265.617
G1 X58.464 E267.862
G1 Y84.644 E268.461
G1 X73.464 E270.706
G1 Y80.644 E271.304
G1 X58.464 E273.549
G1 Y76.644 E274.148
G1 X73.464 E276.393
G1 Y72.644 E276.992
G1 X58.464 E279.237
G1 Y68.644 E279.836
G1 X73.464 E282.081
G1 Y64.644 E282.679
G1 X58.464 E284.924
G1 Y60.644 E285.523
G1 X73.464 E287.768
G1 Y56.644 E288.367
G1 X58.464 E290.612
G1 Y53.224 E291.124
G1 X58.799 Y52.644 E291.224
G1 X73.464 E293.419
G1 Y48.644 E294.018
G1 X61.108 E295.867
G1 X64.455 Y44.644 E296.647
G1 X73.464 E297.996
G1 Y40.734 E298.581
G1 X75.364 Y40.644 E298.866
G1 X90.364 E301.111
G1 Y44.644 E301.709
G1 X75.364 E303.954
G1 Y48.644 E304.553
G1 X90.364 E306.798
G1 Y52.644 E307.397
G1 X75.364 E309.642
G1 Y56.644 E310.241
G1 X90.364 E312.486
G1 Y60.644 E313.084
G1 X75.364 E315.329
G1 Y64.644 E315.928
G1 X90.364 E318.173
G1 Y68.644 E318.772
G1 X88.18 E319.099
G1 X75.797 E320.952
G1 X75.364 E321.017
G1 Y72.449 E321.586
G1 X88.18 Y72.644 E323.505
G1 X90.364 E323.832
G1 Y76.644 E324.43
G1 X88.18 E324.757
G1 Y80.644 E325.356
G1 X90.364 E325.683
G1 Y84.644 E326.281
G1 X88.181 E326.608
G1 Y88.644 E327.207
G1 X90.364 E327.533
G1 Y92.644 E328.132
G1 X88.181 E328.459
G1 Y96.644 E329.058
G1 X90.364 E329.384
G1 Y100.644 E329.983
G1 X88.181 E330.31
G1 X87.299 Y104.644 E330.923
G1 X90.364 E331.381
G1 Y108.644 E331.98
G1 X75.364 E334.225
G1 Y112.644 E334.824
G1 X90.364 E337.069
G1 Y116.644 E337.668
G1 X75.364 E339.913
G1 Y120.644 E340.511
G1 X90.364 E342.756
G1 Y124.644 E343.355
G1 X75.364 E345.6
G1 Y128.644 E346.199
G1 X90.364 E348.444
G1 Y132.644 E349.042
G1 X75.364 E351.288
G1 Y136.644 E351.886
G1 X90.364 E354.131
G1 Y140.644 E354.73
G1 X75.364 E356.975
G1 Y144.644 E357.574
G1 X90.364 E359.819
G1 Y148.644 E360.417
G1 X75.364 E362.663
G1 Y149.764 E362.83
G1 X58.552 Y120.644 E367.863
G1 X73.464 E370.094
G1 Y124.644 E370.693
G1 X60.862 E372.579
G1 X63.171 Y128.644 E373.271
G1 X73.464 E374.811
G1 Y132.644 E375.41
G1 X65.48 E376.605
G1 X67.79 Y136.644 E377.296
G1 X73.464 E378.145
G1 Y140.644 E378.744
G1 X70.099 E379.247
G1 X72.408 Y144.644 E379.939
G1 X73.464 E380.097
G1 Y146.473 E380.37
G1 X77.027 Y152.644 E381.437
G1 X90.364 E383.433
G1 Y156.644 E384.032
G1 X79.336 E385.682
G1 X81.645 Y160.644 E386.374
G1 X90.364 E387.679
G1 Y164.644 E388.277
G1 X83.954 E389.237
G1 X86.264 Y168.644 E389.928
G1 X90.364 E390.542
G1 Y172.644 E391.14
G1 X88.573 E391.408
;bead-raft
G1 F1800 E390.908
;rapid-dry
G1 F15000
G0 X114.547 Y140.644
G1 F1800 E391.408
;bead-raft
G1 X109.164 F288 E392.214
G1 Y144.644 E392.813
G1 X116.372 E393.891
G1 X118.35 Y148.644 E394.559
G1 X109.164 E395.934
G1 Y152.644 E396.533
G1 X120.483 E398.227
G1 X122.745 Y156.644 E398.915
G1 X109.164 E400.948
G1 Y160.644 E401.546
G1 X121.183 E403.345
G1 X118.892 Y164.644 E404.035
G1 X109.164 E405.491
G1 Y168.644 E406.09
G1 X122.266 E408.051
G1 X116.7 Y172.644 E409.077
G1 X109.164 E410.205
G1 Y176.644 E410.803
G1 X109.812 E410.9
G1 X107.264 Y178.124 E411.341
G1 Y176.644 E411.563
G1 X99.308 E412.753
G1 X102.923 Y180.644 E413.56
G1 X100.775 E413.882
G1 X93.469 Y176.644 E415.129
G1 X92.264 E415.309
G1 Y172.644 E415.908
G1 X107.264 E418.153
G1 Y168.644 E418.751
G1 X92.264 E420.996
G1 Y164.644 E421.595
G1 X107.264 E423.84
G1 Y160.644 E424.439
G1 X92.264 E426.684
G1 Y156.644 E427.283
G1 X107.264 E429.528
G1 Y152.644 E430.126
G1 X92.264 E432.371
G1 Y148.644 E432.97
G1 X107.264 E435.215
G1 Y144.644 E435.814
G1 X92.264 E438.059
G1 Y140.644 E438.658
G1 X107.264 E440.903
G1 Y136.644 E441.501
G1 X92.264 E443.746
G1 Y132.644 E444.345
G1 X107.264 E446.59
G1 Y128.644 E447.189
G1 X92.264 E449.434
G1 Y124.644 E450.032
G1 X107.264 E452.278
G1 Y120.644 E452.876
G1 X92.264 E455.121
G1 Y116.644 E455.72
G1 X106.529 E457.855
G1 X112.866 Y136.644 E460.995
G1 X109.164 E461.549
G1 Y132.644 E462.148
G1 X111.325 E462.471
G1 X109.916 Y128.644 E463.106
G1 X109.164 E463.219
G1 Y126.23 E463.58
;bead-raft
;rapid-leaky
G1 F15000
G0 X105.766 Y108.644
;bead-raft
G1 X92.264 F288 E465.601
G1 Y112.644 E466.2
G1 X105.841 E468.232
G1 X126.064 Y84.809 E473.381
G1 Y84.644 E473.406
G1 X126.64 E473.492
G1 X159.864 Y79.254 E478.53
G1 Y76.644 E478.921
G1 X170.231 E480.472
;bead-raft
G1 F1800 E479.972
;Layer : 2 of 151
M106 S255
;rapid-leaky
G1 F15000
G0 X178.231 Y71.298 Z0.5
G1 F1800 E480.472
;bead-raft
G1 X177.749 Y71.78 F3600 E480.495
G1 X176.146 Y71.497 E480.549
G1 X178.231 Y69.412 E480.647
G1 Y67.527 E480.71
G1 X174.544 Y71.214 E480.883
G1 X172.941 Y70.932 E480.937
G1 X178.231 Y65.641 E481.186
G1 Y63.756 E481.249
G1 X171.338 Y70.649 E481.573
G1 X170.031 Y71.956 E481.635
G1 X163.039 Y78.947 E481.964
G1 X164.945 Y78.927 E482.027
G1 X170.031 Y73.841 E482.266
G1 Y75.727 E482.329
G1 X166.851 Y78.907 E482.478
G1 X168.756 Y78.887 E482.542
G1 X170.031 Y77.612 E482.602
G1 X122.171 Y168.842 E486.028
G1 X121.23 Y169.782 E486.073
G1 X116.734 Y172.393 E486.245
G1 X121.308 Y167.819 E486.461
G1 X120.445 Y166.796 E486.505
G1 X112.237 Y175.005 E486.891
G1 X107.74 Y177.616 E487.064
G1 X119.583 Y165.773 E487.621
G1 X118.72 Y164.75 E487.666
G1 X103.243 Y180.227 E488.394
G1 X100.976 Y180.609 E488.47
G1 X117.858 Y163.727 E489.264
G1 X121.156 Y160.428 E489.42
G1 X123.391 Y158.194 E489.525
G1 X122.71 Y156.989 E489.571
G1 X100.47 Y179.229 E490.617
G1 X99.964 Y177.85 E490.666
G1 X122.029 Y155.784 E491.704
G1 X121.348 Y154.58 E491.75
G1 X99.458 Y176.47 E492.779
G1 X98.952 Y175.09 E492.828
G1 X120.667 Y153.375 E493.849
G1 X119.986 Y152.171 E493.896
G1 X98.446 Y173.711 E494.909
G1 X94.389 Y175.882 E495.062
G1 X119.333 Y150.937 E496.235
G1 X118.682 Y149.703 E496.281
G1 X91.343 Y177.042 E497.567
G1 X90.653 Y175.847 E497.613
G1 X118.032 Y148.468 E498.901
G1 X117.391 Y147.223 E498.948
G1 X89.963 Y174.651 E500.238
G1 X89.273 Y173.456 E500.284
G1 X116.779 Y145.95 E501.578
G1 X116.166 Y144.677 E501.625
G1 X88.582 Y172.26 E502.922
G1 X87.892 Y171.065 E502.968
G1 X115.553 Y143.404 E504.269
G1 X114.967 Y142.105 E504.316
G1 X87.202 Y169.869 E505.622
G1 X86.512 Y168.674 E505.668
G1 X114.393 Y140.793 E506.98
G1 X113.82 Y139.481 E507.027
G1 X85.822 Y167.478 E508.344
G1 X85.132 Y166.283 E508.39
G1 X113.25 Y138.164 E509.713
G1 X112.717 Y136.812 E509.761
G1 X84.441 Y165.088 E511.091
G1 X83.751 Y163.892 E511.137
G1 X112.184 Y135.459 E512.475
G1 X111.651 Y134.107 E512.523
G1 X83.061 Y162.697 E513.868
G1 X82.371 Y161.501 E513.914
G1 X111.143 Y132.729 E515.267
G1 X110.651 Y131.335 E515.316
G1 X81.681 Y160.306 E516.679
G1 X80.991 Y159.11 E516.725
G1 X110.16 Y129.941 E518.097
G1 X109.675 Y128.541 E518.146
G1 X80.3 Y157.915 E519.528
G1 X79.61 Y156.719 E519.574
G1 X109.226 Y127.103 E520.967
G1 X108.778 Y125.666 E521.017
G1 X78.92 Y155.524 E522.421
G1 X78.23 Y154.328 E522.467
G1 X108.33 Y124.228 E523.883
G1 X107.916 Y122.756 E523.934
G1 X77.54 Y153.133 E525.363
G1 X76.85 Y151.938 E525.408
G1 X107.514 Y121.274 E526.851
G1 X107.111 Y119.791 E526.902
G1 X76.16 Y150.742 E528.358
G1 X75.469 Y149.547 E528.404
G1 X106.722 Y118.294 E529.874
G1 X106.355 Y116.775 E529.926
G1 X74.779 Y148.351 E531.411
G1 X74.089 Y147.156 E531.457
G1 X106.022 Y115.223 E532.959
G1 X105.757 Y113.602 E533.013
G1 X73.399 Y145.96 E534.536
G1 X72.709 Y144.765 E534.581
G1 X105.586 Y111.887 E536.128
G1 X105.53 Y110.058 E536.189
G1 X72.019 Y143.569 E537.765
G1 X71.328 Y142.374 E537.811
G1 X105.617 Y108.085 E539.424
G1 X105.884 Y105.932 E539.496
G1 X70.638 Y141.178 E541.154
G1 X69.948 Y139.983 E541.2
G1 X106.388 Y103.543 E542.914
G1 X106.598 Y102.796 E542.94
G1 X106.628 Y102.702 E542.943
G1 X107.041 Y101.401 E542.988
G1 X107.719 Y99.694 E543.049
G1 X108.028 Y99.054 E543.073
G1 X107.303 Y100.743 E543.134
G1 X69.258 Y138.787 E544.924
G1 X68.568 Y137.592 E544.97
G1 X109.05 Y97.11 E546.874
;bead-raft
;rapid-leaky
G1 F15000
G0 X118.549 Y87.61
;bead-raft
G1 X165.316 Y40.844 F3600 E549.073
G1 X167.201 E549.136
G1 X122.194 Y85.852 E551.253
G1 X125.013 Y84.918 E551.352
G1 X169.087 Y40.844 E553.425
G1 X170.031 Y41.786 E553.469
G1 X127.661 Y84.156 E555.462
G1 X130.262 Y83.441 E555.552
G1 X170.031 Y43.671 E557.423
G1 Y45.557 E557.485
G1 X132.762 Y82.826 E559.238
G1 X135.239 Y82.234 E559.323
G1 X170.031 Y47.442 E560.96
G1 X170.588 Y48.771 E561.008
G1 X137.611 Y81.748 E562.559
G1 X139.972 Y81.273 E562.639
G1 X172.877 Y48.368 E564.187
G1 X175.166 Y47.964 E564.264
G1 X142.245 Y80.885 E565.812
G1 X144.51 Y80.506 E565.889
G1 X177.456 Y47.56 E567.438
G1 X178.231 Y48.671 E567.484
G1 X146.693 Y80.208 E568.967
G1 X148.877 Y79.91 E569.04
G1 X178.231 Y50.556 E570.421
G1 Y52.442 E570.484
G1 X150.978 Y79.695 E571.766
G1 X153.08 Y79.479 E571.836
G1 X178.231 Y54.327 E573.019
G1 Y56.213 E573.082
G1 X155.12 Y79.324 E574.169
G1 X157.146 Y79.183 E574.236
G1 X178.231 Y58.099 E575.228
G1 Y59.984 E575.291
G1 X159.135 Y79.08 E576.189
G1 X161.091 Y79.009 E576.254
G1 X178.231 Y61.87 E577.06
;bead-raft
;rapid-leaky
G1 F15000
G0 X67.878 Y136.397
;bead-raft
G1 X163.43 Y40.844 F3600 E581.555
G1 X161.545 E581.617
G1 X67.187 Y135.201 E586.056
G1 X66.497 Y134.006 E586.102
G1 X159.659 Y40.844 E590.484
G1 X157.773 E590.546
G1 X65.807 Y132.81 E594.872
G1 X65.117 Y131.615 E594.918
G1 X155.888 Y40.844 E599.188
G1 X154.002 E599.25
G1 X64.427 Y130.419 E603.464
G1 X63.737 Y129.224 E603.51
G1 X152.116 Y40.844 E607.667
G1 X150.231 E607.729
G1 X88.381 Y102.694 E610.639
G1 Y100.808 E610.701
G1 X148.345 Y40.844 E613.522
G1 X146.46 E613.585
G1 X88.381 Y98.923 E616.317
G1 Y97.037 E616.379
G1 X144.574 Y40.844 E619.022
G1 X142.688 E619.085
G1 X88.381 Y95.152 E621.64
G1 Y93.266 E621.702
G1 X140.803 Y40.844 E624.168
G1 X138.917 E624.231
G1 X88.381 Y91.38 E626.608
G1 Y89.495 E626.671
G1 X137.032 Y40.844 E628.959
G1 X135.146 E629.022
G1 X88.381 Y87.609 E631.221
G1 Y85.724 E631.284
G1 X133.26 Y40.844 E633.395
G1 X131.375 E633.458
G1 X88.381 Y83.838 E635.48
G1 X88.38 Y81.953 E635.543
G1 X129.489 Y40.844 E637.476
G1 X127.603 E637.539
G1 X88.38 Y80.067 E639.384
G1 Y78.181 E639.447
G1 X125.718 Y40.844 E641.203
G1 X123.832 E641.266
G1 X88.38 Y76.296 E642.933
G1 Y74.41 E642.996
G1 X121.947 Y40.844 E644.575
G1 X120.061 E644.638
G1 X88.38 Y72.525 E646.128
G1 Y70.639 E646.19
G1 X118.175 Y40.844 E647.592
G1 X116.29 E647.655
G1 X88.38 Y68.754 E648.967
G1 Y66.868 E649.03
G1 X114.404 Y40.844 E650.254
G1 X112.518 E650.317
G1 X88.167 Y65.196 E651.462
G1 X86.281 Y65.195 E651.525
G1 X110.633 Y40.844 E652.671
G1 X108.747 E652.733
G1 X84.396 Y65.195 E653.879
G1 X82.511 E653.941
G1 X106.862 Y40.844 E655.087
G1 X104.976 E655.149
G1 X80.625 Y65.195 E656.295
G1 X78.74 E656.358
G1 X103.09 Y40.844 E657.503
G1 X101.205 E657.566
G1 X76.854 Y65.194 E658.711
G1 X75.878 Y66.171 E658.757
G1 X45.102 Y96.946 E660.205
G1 X45.792 Y98.142 E660.25
G1 X75.636 Y68.299 E661.654
G1 X75.393 Y70.427 E661.725
G1 X46.483 Y99.337 E663.085
G1 X47.173 Y100.533 E663.131
G1 X75.15 Y72.555 E664.447
G1 X74.908 Y74.684 E664.518
G1 X47.863 Y101.728 E665.79
G1 X48.553 Y102.924 E665.836
G1 X74.665 Y76.812 E667.065
G1 X74.422 Y78.94 E667.136
G1 X49.243 Y104.119 E668.32
G1 X49.933 Y105.315 E668.366
G1 X74.18 Y81.068 E669.507
G1 X73.937 Y83.197 E669.578
G1 X50.624 Y106.51 E670.674
G1 X51.314 Y107.706 E670.72
G1 X73.694 Y85.325 E671.773
G1 X73.663 Y85.603 E671.782
G1 X73.513 Y87.392 E671.842
G1 X52.004 Y108.901 E672.854
G1 X52.694 Y110.097 E672.9
G1 X73.34 Y89.451 E673.871
G1 X73.337 Y89.492 E673.872
G1 X73.214 Y91.462 E673.938
G1 X53.384 Y111.292 E674.871
G1 X54.074 Y112.487 E674.917
G1 X73.088 Y93.473 E675.811
G1 X72.963 Y95.484 E675.878
G1 X54.765 Y113.683 E676.734
G1 X55.455 Y114.878 E676.78
G1 X72.841 Y97.492 E677.598
G1 X72.749 Y99.469 E677.663
G1 X56.145 Y116.074 E678.444
G1 X56.835 Y117.269 E678.49
G1 X72.657 Y101.447 E679.235
G1 X72.565 Y103.425 E679.3
G1 X57.525 Y118.465 E680.008
G1 X58.215 Y119.66 E680.054
G1 X72.516 Y105.359 E680.727
G1 X72.501 Y106.094 E680.751
G1 X73.667 E680.79
G1 X58.906 Y120.856 E681.484
G1 X59.596 Y122.051 E681.53
G1 X75.553 Y106.094 E682.281
G1 X77.438 E682.343
G1 X60.286 Y123.247 E683.15
G1 X60.976 Y124.442 E683.196
G1 X79.324 Y106.094 E684.059
G1 X81.21 E684.122
G1 X61.666 Y125.637 E685.041
G1 X62.356 Y126.833 E685.087
G1 X83.095 Y106.094 E686.062
G1 X84.981 E686.125
G1 X63.046 Y128.028 E687.157
;bead-raft
;rapid-leaky
G1 F15000
G0 X44.412 Y95.751
;bead-raft
G1 X99.319 Y40.844 F3600 E689.74
G1 X97.434 E689.802
G1 X43.724 Y94.553 E692.329
G1 X43.11 Y93.282 E692.375
G1 X95.548 Y40.844 E694.842
G1 X93.662 E694.905
G1 X42.591 Y91.916 E697.307
G1 X42.176 Y90.445 E697.358
G1 X91.777 Y40.844 E699.691
G1 X89.891 E699.754
G1 X41.897 Y88.838 E702.011
G1 X41.773 Y87.076 E702.07
G1 X88.005 Y40.844 E704.244
G1 X86.12 E704.307
G1 X41.874 Y85.09 E706.388
G1 X41.787 Y86.228 E706.426
G1 X41.808 Y85.692 E706.444
G1 X41.933 Y84.546 E706.483
G1 X42.048 Y83.915 E706.504
G1 X42.301 Y82.777 E706.543
G1 X84.234 Y40.844 E708.515
G1 X82.349 E708.578
G1 X43.408 Y79.785 E710.409
G1 X42.94 Y80.841 E710.448
G1 X43.251 Y80.096 E710.475
G1 X43.743 Y79.123 E710.511
G1 X43.762 Y79.088 E710.512
G1 X45.864 Y75.443 E710.652
G1 X80.463 Y40.844 E712.28
G1 X78.577 E712.342
G1 X48.441 Y70.98 E713.76
G1 X51.018 Y66.518 E713.931
G1 X76.692 Y40.844 E715.139
G1 X74.803 Y40.847 E715.202
G1 X53.595 Y62.055 E716.199
G1 X56.172 Y57.593 E716.371
G1 X72.736 Y41.028 E717.15
G1 X71.595 Y41.244 E717.188
G1 X71.385 Y41.287 E717.196
G1 X70.265 Y41.598 E717.234
G1 X69.198 Y41.981 E717.272
G1 X70.286 Y41.593 E717.31
G1 X58.749 Y53.13 E717.853
G1 X61.326 Y48.667 E718.024
G1 X66.833 Y43.16 E718.284
;bead-raft
G1 F1800 E717.784
;Layer : 3 of 151
;rapid-dry
G1 F15000
G0 X67.187 Y43.174 Z0.8
G1 F1800 E718.284
;bead-raft
G1 X68.211 Y42.633 F3600 E718.341
G1 X69.251 Y42.174 E718.398
G1 X70.326 Y41.789 E718.455
G1 X71.432 Y41.481 E718.512
G1 X72.559 Y41.253 E718.57
G1 X73.688 Y41.109 E718.626
G1 X74.771 Y41.047 E718.68
G1 X75.114 Y41.044 E718.698
G1 X169.831 E723.423
G1 Y49.108 E723.825
G1 X178.031 Y47.662 E724.241
G1 Y71.626 E725.436
G1 X169.831 Y70.18 E725.852
G1 Y78.676 E726.276
G1 X162.705 Y78.751 E726.631
G1 X158.08 Y78.918 E726.862
G1 X153.458 Y79.239 E727.093
G1 X148.853 Y79.712 E727.324
G1 X144.26 Y80.338 E727.555
G1 X139.694 Y81.118 E727.786
G1 X135.152 Y82.048 E728.018
G1 X130.649 Y83.127 E728.249
G1 X126.166 Y84.36 E728.481
G1 X123.819 Y85.071 E728.603
G1 X122.076 Y85.681 E728.695
G1 X120.349 Y86.426 E728.789
G1 X118.732 Y87.265 E728.88
G1 X117.076 Y88.275 E728.977
G1 X115.555 Y89.364 E729.07
G1 X114.089 Y90.582 E729.165
G1 X112.735 Y91.883 E729.259
G1 X111.525 Y93.221 E729.349
G1 X110.345 Y94.724 E729.444
G1 X109.277 Y96.312 E729.54
G1 X108.343 Y97.941 E729.633
G1 X107.536 Y99.613 E729.726
G1 X106.853 Y101.333 E729.818
G1 X106.437 Y102.642 E729.887
G1 X106.278 Y103.146 E729.913
G1 X105.837 Y104.987 E730.008
G1 X105.53 Y106.857 E730.102
G1 X105.358 Y108.71 E730.195
G1 X105.32 Y110.548 E730.287
G1 X105.414 Y112.452 E730.382
G1 X105.646 Y114.339 E730.477
G1 X105.993 Y116.127 E730.568
G1 X106.668 Y118.925 E730.711
G1 X108.029 Y123.936 E730.97
G1 X109.55 Y128.811 E731.225
G1 X111.25 Y133.635 E731.48
G1 X113.124 Y138.388 E731.735
G1 X115.17 Y143.069 E731.99
G1 X117.386 Y147.673 E732.245
G1 X119.777 Y152.207 E732.501
G1 X123.522 Y158.832 E732.88
G1 X116.76 Y162.735 E733.27
G1 X122.087 Y169.053 E733.682
G1 X101.364 Y181.087 E734.878
G1 X98.5 Y173.278 E735.293
G1 X91.675 Y177.217 E735.686
G1 X43.923 Y94.504 E740.451
G1 X43.422 Y93.51 E740.506
G1 X42.987 Y92.467 E740.563
G1 X42.621 Y91.379 E740.62
G1 X42.334 Y90.258 E740.678
G1 X42.132 Y89.145 E740.734
G1 X42.008 Y88.008 E740.791
G1 X41.964 Y86.821 E740.85
G1 X42.008 Y85.706 E740.906
G1 X42.131 Y84.575 E740.963
G1 X42.336 Y83.447 E741.02
G1 X42.624 Y82.326 E741.078
G1 X42.982 Y81.262 E741.134
G1 X43.432 Y80.18 E741.192
G1 X43.919 Y79.217 E741.246
G1 X44.091 Y78.914 E741.263
G1 X61.542 Y48.693 E743.005
G1 X62.157 Y47.754 E743.061
G1 X62.837 Y46.864 E743.116
G1 X63.586 Y46.016 E743.173
G1 X64.413 Y45.204 E743.231
G1 X65.302 Y44.45 E743.289
G1 X66.208 Y43.788 E743.345
G1 X67.187 Y43.174 E743.402
;bead-raft
;rapid-leaky
G1 F15000
G0 X67.087 Y43.001
;bead-raft
G1 X68.123 Y42.453 F3600 E743.461
G1 X69.177 Y41.988 E743.518
G1 X70.265 Y41.598 E743.576
G1 X71.385 Y41.287 E743.634
G1 X72.526 Y41.055 E743.692
G1 X73.669 Y40.91 E743.75
G1 X74.765 Y40.847 E743.804
G1 X75.113 Y40.844 E743.822
G1 X170.031 E748.557
G1 Y48.869 E748.958
G1 X178.231 Y47.423 E749.373
G1 Y71.865 E750.592
G1 X170.031 Y70.419 E751.008
G1 Y78.874 E751.43
G1 X162.71 Y78.951 E751.795
G1 X158.091 Y79.118 E752.026
G1 X153.475 Y79.438 E752.256
G1 X148.877 Y79.91 E752.487
G1 X144.29 Y80.536 E752.718
G1 X139.73 Y81.314 E752.949
G1 X135.195 Y82.243 E753.18
G1 X130.699 Y83.32 E753.41
G1 X126.222 Y84.552 E753.642
G1 X123.881 Y85.261 E753.764
G1 X122.149 Y85.867 E753.856
G1 X120.435 Y86.607 E753.949
G1 X118.83 Y87.439 E754.039
G1 X117.186 Y88.442 E754.135
G1 X115.677 Y89.522 E754.228
G1 X114.223 Y90.731 E754.322
G1 X112.879 Y92.022 E754.415
G1 X111.678 Y93.35 E754.504
G1 X110.507 Y94.842 E754.599
G1 X109.447 Y96.417 E754.694
G1 X108.52 Y98.035 E754.787
G1 X107.719 Y99.694 E754.878
G1 X107.041 Y101.401 E754.97
G1 X106.628 Y102.702 E755.038
G1 X106.471 Y103.2 E755.064
G1 X106.033 Y105.027 E755.158
G1 X105.728 Y106.883 E755.252
G1 X105.558 Y108.721 E755.344
G1 X105.52 Y110.545 E755.435
G1 X105.614 Y112.435 E755.529
G1 X105.844 Y114.308 E755.623
G1 X106.188 Y116.084 E755.714
G1 X106.862 Y118.875 E755.857
G1 X108.221 Y123.88 E756.116
G1 X109.739 Y128.748 E756.37
G1 X111.438 Y133.565 E756.625
G1 X113.308 Y138.311 E756.879
G1 X115.352 Y142.986 E757.134
G1 X117.565 Y147.583 E757.389
G1 X119.952 Y152.111 E757.644
G1 X123.794 Y158.906 E758.033
G1 X117.067 Y162.789 E758.421
G1 X122.394 Y169.107 E758.833
G1 X101.258 Y181.38 E760.052
G1 X98.394 Y173.57 E760.468
G1 X91.602 Y177.491 E760.859
G1 X43.747 Y94.599 E765.634
G1 X43.24 Y93.594 E765.69
G1 X42.8 Y92.538 E765.747
G1 X42.429 Y91.436 E765.805
G1 X42.139 Y90.301 E765.864
G1 X41.934 Y89.174 E765.921
G1 X41.809 Y88.022 E765.979
G1 X41.764 Y86.821 E766.039
G1 X41.808 Y85.692 E766.095
G1 X41.933 Y84.546 E766.152
G1 X42.14 Y83.405 E766.21
G1 X42.432 Y82.27 E766.269
G1 X42.794 Y81.191 E766.326
G1 X43.251 Y80.096 E766.385
G1 X43.743 Y79.123 E766.439
G1 X43.917 Y78.815 E766.457
G1 X61.372 Y48.588 E768.198
G1 X61.994 Y47.638 E768.255
G1 X62.683 Y46.736 E768.311
G1 X63.441 Y45.878 E768.369
G1 X64.278 Y45.057 E768.427
G1 X65.178 Y44.293 E768.486
G1 X66.096 Y43.622 E768.543
G1 X67.087 Y43.001 E768.601
;bead-raft
;rapid-leaky
G1 F15000
G0 X75.811 Y64.994
;bead-raft
G1 X73.464 Y85.584 F3600 E769.635
G1 X73.137 Y89.477 E769.83
G1 X72.651 Y97.272 E770.22
G1 X72.351 Y103.725 E770.542
G1 X72.297 Y106.294 E770.67
G1 X85.767 E771.342
G1 X86.206 Y106.067 E771.367
G1 X86.459 Y105.906 E771.382
G1 X86.8 Y105.655 E771.403
G1 X87.119 Y105.386 E771.424
G1 X87.499 Y105.018 E771.45
G1 X87.798 Y104.69 E771.472
G1 X88.071 Y104.345 E771.494
G1 X88.386 Y103.864 E771.523
G1 X88.581 Y103.472 E771.545
G1 X88.58 Y64.996 E773.464
G1 X75.811 Y64.994 E774.101
;bead-raft
;rapid-leaky
G1 F15000
G0 X75.989 Y65.194
;bead-raft
G1 X73.663 Y85.603 F3600 E775.126
G1 X73.337 Y89.492 E775.321
G1 X72.851 Y97.283 E775.71
G1 X72.551 Y103.732 E776.032
G1 X72.501 Y106.094 E776.15
G1 X85.719 E776.81
G1 X86.106 Y105.893 E776.831
G1 X86.346 Y105.741 E776.846
G1 X86.676 Y105.498 E776.866
G1 X86.985 Y105.237 E776.886
G1 X87.356 Y104.879 E776.912
G1 X87.645 Y104.561 E776.933
G1 X87.908 Y104.228 E776.955
G1 X88.213 Y103.764 E776.982
G1 X88.381 Y103.425 E777.001
G1 X88.38 Y65.196 E778.908
G1 X75.989 Y65.194 E779.526
;bead-raft
;rapid-leaky
G1 F15000
G0 X75.453 Y64.6
;bead-raft
G1 X52.818 F3600 E780.656
G1 X52.587 Y65 E780.679
G1 X75.408 E781.817
G1 X75.362 Y65.4 E781.837
G1 X52.356 E782.985
G1 X52.125 Y65.8 E783.008
G1 X75.317 E784.165
G1 X75.271 Y66.2 E784.185
G1 X51.894 E785.352
G1 X51.663 Y66.6 E785.375
G1 X75.225 E786.55
G1 X75.18 Y67 E786.57
G1 X51.432 E787.755
G1 X51.201 Y67.4 E787.778
G1 X75.134 E788.972
G1 X75.089 Y67.8 E788.992
G1 X50.97 E790.195
G1 X50.739 Y68.2 E790.218
G1 X75.043 E791.431
G1 X74.997 Y68.6 E791.451
G1 X50.508 E792.673
G1 X50.277 Y69 E792.696
G1 X74.952 E793.927
G1 X74.906 Y69.4 E793.947
G1 X50.046 E795.187
G1 X49.815 Y69.8 E795.21
G1 X74.861 E796.46
G1 X74.815 Y70.2 E796.48
G1 X49.584 E797.739
G1 X49.353 Y70.6 E797.762
G1 X74.769 E799.03
G1 X74.724 Y71 E799.05
G1 X49.122 E800.327
G1 X48.891 Y71.4 E800.35
G1 X74.678 E801.637
G1 X74.632 Y71.8 E801.657
G1 X48.66 E802.952
G1 X48.43 Y72.2 E802.975
G1 X74.587 E804.28
G1 X74.541 Y72.6 E804.3
G1 X48.199 E805.615
G1 X47.968 Y73 E805.638
G1 X74.496 E806.961
G1 X74.45 Y73.4 E806.981
G1 X47.737 E808.314
G1 X47.506 Y73.8 E808.337
G1 X74.404 E809.679
G1 X74.359 Y74.2 E809.699
G1 X47.275 E811.05
G1 X47.044 Y74.6 E811.073
G1 X74.313 E812.434
G1 X74.268 Y75 E812.454
G1 X46.813 E813.824
G1 X46.582 Y75.4 E813.847
G1 X74.222 E815.226
G1 X74.176 Y75.8 E815.246
G1 X46.351 E816.634
G1 X46.12 Y76.2 E816.657
G1 X74.131 E818.055
G1 X74.085 Y76.6 E818.075
G1 X45.889 E819.482
G1 X45.658 Y77 E819.505
G1 X74.04 E820.921
G1 X73.994 Y77.4 E820.941
G1 X45.427 E822.366
G1 X45.196 Y77.8 E822.389
G1 X73.948 E823.823
G1 X73.903 Y78.2 E823.843
G1 X44.965 E825.287
G1 X44.734 Y78.6 E825.31
G1 X73.857 E826.763
G1 X73.812 Y79 E826.783
G1 X44.503 E828.246
G1 X44.275 Y79.4 E828.268
G1 X73.766 E829.74
G1 X73.72 Y79.8 E829.76
G1 X44.072 E831.239
G1 X43.87 Y80.2 E831.261
G1 X73.675 E832.748
G1 X73.629 Y80.6 E832.768
G1 X43.691 E834.262
G1 X43.524 Y81 E834.284
G1 X73.584 E835.783
G1 X73.538 Y81.4 E835.803
G1 X43.357 E837.309
G1 X43.223 Y81.8 E837.33
G1 X73.492 E838.84
G1 X73.447 Y82.2 E838.86
G1 X43.088 E840.375
G1 X42.966 Y82.6 E840.396
G1 X73.401 E841.914
G1 X73.356 Y83 E841.934
G1 X42.864 E843.456
G1 X42.761 Y83.4 E843.476
G1 X73.31 E845
G1 X73.264 Y83.8 E845.02
G1 X42.678 E846.546
G1 X42.605 Y84.2 E846.567
G1 X73.219 E848.094
G1 X73.173 Y84.6 E848.114
G1 X42.533 E849.643
G1 X42.487 Y85 E849.663
G1 X73.128 E851.192
G1 X73.082 Y85.4 E851.212
G1 X42.444 E852.74
G1 X42.405 Y85.8 E852.76
G1 X73.044 E854.289
G1 X73.011 Y86.2 E854.309
G1 X42.389 E855.837
G1 X42.373 Y86.6 E855.857
G1 X72.977 E857.383
G1 X72.943 Y87 E857.403
G1 X42.371 E858.929
G1 X42.386 Y87.4 E858.949
G1 X72.91 E860.471
G1 X72.876 Y87.8 E860.492
G1 X42.401 E862.012
G1 X42.431 Y88.2 E862.032
G1 X72.843 E863.549
G1 X72.809 Y88.6 E863.569
G1 X42.475 E865.083
G1 X42.518 Y89 E865.103
G1 X72.776 E866.612
G1 X72.742 Y89.4 E866.632
G1 X42.585 E868.137
G1 X42.657 Y89.8 E868.157
G1 X72.716 E869.657
G1 X72.691 Y90.2 E869.677
G1 X42.732 E871.171
G1 X42.835 Y90.6 E871.192
G1 X72.666 E872.68
G1 X72.641 Y91 E872.7
G1 X42.937 E874.182
G1 X43.05 Y91.4 E874.203
G1 X72.616 E875.678
G1 X72.592 Y91.8 E875.698
G1 X43.185 E877.165
G1 X43.319 Y92.2 E877.186
G1 X72.567 E878.645
G1 X72.542 Y92.6 E878.665
G1 X43.476 E880.115
G1 X43.643 Y93 E880.137
G1 X72.517 E881.578
G1 X72.492 Y93.4 E881.598
G1 X43.814 E883.028
G1 X44.016 Y93.8 E883.051
G1 X72.467 E884.47
G1 X72.442 Y94.2 E884.49
G1 X44.218 E885.898
G1 X44.44 Y94.6 E885.921
G1 X72.417 E887.317
G1 X72.392 Y95 E887.337
G1 X44.671 E888.72
G1 X44.902 Y95.4 E888.743
G1 X72.367 E890.113
G1 X72.342 Y95.8 E890.133
G1 X45.133 E891.491
G1 X45.364 Y96.2 E891.514
G1 X72.317 E892.858
G1 X72.292 Y96.6 E892.878
G1 X45.595 E894.21
G1 X45.826 Y97 E894.233
G1 X72.268 E895.552
G1 X72.252 Y97.25 E895.565
G1 X72.245 Y97.4 E895.572
G1 X46.057 E896.879
G1 X46.288 Y97.8 E896.902
G1 X72.226 E898.196
G1 X72.208 Y98.2 E898.216
G1 X46.519 E899.498
G1 X46.75 Y98.6 E899.521
G1 X72.189 E900.79
G1 X72.17 Y99 E900.81
G1 X46.981 E902.067
G1 X47.212 Y99.4 E902.09
G1 X72.152 E903.334
G1 X72.133 Y99.8 E903.354
G1 X47.442 E904.586
G1 X47.673 Y100.2 E904.609
G1 X72.115 E905.828
G1 X72.096 Y100.6 E905.848
G1 X47.904 E907.055
G1 X48.135 Y101 E907.078
G1 X72.077 E908.273
G1 X72.059 Y101.4 E908.293
G1 X48.366 E909.475
G1 X48.597 Y101.8 E909.498
G1 X72.04 E910.667
G1 X72.021 Y102.2 E910.687
G1 X48.828 E911.844
G1 X49.059 Y102.6 E911.867
G1 X72.003 E913.012
G1 X71.984 Y103 E913.032
G1 X49.29 E914.164
G1 X49.521 Y103.4 E914.187
G1 X71.965 E915.307
G1 X71.951 Y103.712 E915.323
G1 X71.949 Y103.8 E915.327
G1 X49.752 E916.434
G1 X49.983 Y104.2 E916.457
G1 X71.941 E917.553
G1 X71.932 Y104.6 E917.573
G1 X50.214 E918.656
G1 X50.445 Y105 E918.679
G1 X71.924 E919.751
G1 X71.915 Y105.4 E919.771
G1 X50.675 E920.831
G1 X50.906 Y105.8 E920.854
G1 X71.907 E921.901
G1 X71.899 Y106.2 E921.921
G1 X51.137 E922.957
G1 X51.368 Y106.6 E922.98
G1 X71.89 E924.004
G1 X86.046 E924.71
G1 X105.167 E925.664
G1 X105.232 Y106.2 E925.684
G1 X86.734 E926.607
G1 X87.048 Y105.97 E926.627
G1 X87.249 Y105.8 E926.64
G1 X105.298 E927.54
G1 X105.364 Y105.4 E927.561
G1 X87.68 E928.443
G1 X87.787 Y105.297 E928.45
G1 X88.057 Y105 E928.47
G1 X105.429 E929.337
G1 X105.518 Y104.6 E929.357
G1 X88.379 E930.213
G1 X88.395 Y104.579 E930.214
G1 X88.644 Y104.2 E930.236
G1 X105.614 E931.083
G1 X105.71 Y103.8 E931.104
G1 X88.865 E931.944
G1 X88.981 Y103.566 E931.957
G1 Y103.4 E931.965
G1 X105.806 E932.805
G1 X105.904 Y103 E932.825
G1 X88.981 E933.67
G1 Y102.6 E933.69
G1 X106.031 E934.54
G1 X106.158 Y102.2 E934.561
G1 X88.981 E935.418
G1 Y101.8 E935.438
G1 X106.285 E936.301
G1 X106.412 Y101.4 E936.322
G1 X88.981 E937.192
G1 Y101 E937.212
G1 X106.555 E938.089
G1 X106.714 Y100.6 E938.11
G1 X88.981 E938.995
G1 Y100.2 E939.015
G1 X106.873 E939.907
G1 X107.032 Y99.8 E939.929
G1 X88.981 E940.829
G1 Y99.4 E940.849
G1 X107.195 E941.758
G1 X107.388 Y99 E941.78
G1 X88.981 E942.699
G1 Y98.6 E942.718
G1 X107.581 E943.646
G1 X107.774 Y98.2 E943.669
G1 X88.981 E944.606
G1 Y97.8 E944.626
G1 X107.967 E945.573
G1 X108.192 Y97.4 E945.596
G1 X88.981 E946.555
G1 Y97 E946.575
G1 X108.421 E947.545
G1 X108.65 Y96.6 E947.568
G1 X88.981 E948.549
G1 Y96.2 E948.569
G1 X108.879 E949.562
G1 X109.139 Y95.8 E949.585
G1 X88.981 E950.591
G1 Y95.4 E950.611
G1 X109.408 E951.63
G1 X109.677 Y95 E951.654
G1 X88.981 E952.687
G1 Y94.6 E952.707
G1 X109.946 E953.753
G1 X110.248 Y94.2 E953.778
G1 X88.981 E954.839
G1 Y93.8 E954.859
G1 X110.562 E955.935
G1 X110.876 Y93.4 E955.961
G1 X88.981 E957.053
G1 Y93 E957.073
G1 X111.19 E958.181
G1 X111.547 Y92.6 E958.208
G1 X88.981 E959.334
G1 Y92.2 E959.354
G1 X111.909 E960.497
G1 X112.271 Y91.8 E960.524
G1 X88.981 E961.686
G1 Y91.4 E961.706
G1 X112.66 E962.888
G1 X113.077 Y91 E962.917
G1 X88.981 E964.119
G1 Y90.6 E964.139
G1 X113.493 E965.362
G1 X113.923 Y90.2 E965.391
G1 X88.981 E966.635
G1 Y89.8 E966.655
G1 X114.404 E967.924
G1 X114.885 Y89.4 E967.955
G1 X88.981 E969.247
G1 Y89 E969.267
G1 X115.376 E970.584
G1 X115.934 Y88.6 E970.618
G1 X88.981 E971.963
G1 Y88.2 E971.983
G1 X116.493 E973.356
G1 X117.086 Y87.8 E973.391
G1 X88.981 E974.793
G1 Y87.4 E974.813
G1 X117.742 E976.248
G1 X118.398 Y87 E976.287
G1 X88.981 E977.754
G1 Y86.6 E977.774
G1 X119.145 E979.279
G1 X119.916 Y86.2 E979.323
G1 X88.981 E980.866
G1 Y85.8 E980.886
G1 X120.791 E982.473
G1 X121.718 Y85.4 E982.523
G1 X88.981 E984.156
G1 Y85 E984.176
G1 X122.811 E985.864
G1 X123.994 Y84.6 E985.927
G1 X88.981 E987.673
G1 Y84.2 E987.693
G1 X125.314 E989.506
G1 X126.692 Y83.8 E989.578
G1 X88.981 E991.459
G1 Y83.4 E991.479
G1 X128.147 E993.433
G1 X129.601 Y83 E993.508
G1 X88.981 E995.535
G1 Y82.6 E995.555
G1 X131.13 E997.658
G1 X132.8 Y82.2 E997.743
G1 X88.98 E999.929
G1 Y81.8 E999.949
G1 X134.469 E1002.219
G1 X136.322 Y81.4 E1002.313
G1 X88.98 E1004.675
G1 Y81 E1004.695
G1 X138.275 E1007.154
G1 X140.349 Y80.6 E1007.26
G1 X88.98 E1009.823
G1 Y80.2 E1009.843
G1 X142.693 E1012.522
G1 X145.247 Y79.8 E1012.651
G1 X88.98 E1015.459
G1 Y79.4 E1015.479
G1 X148.18 E1018.432
G1 X151.868 Y79 E1018.617
G1 X88.98 E1021.755
G1 Y78.6 E1021.774
G1 X156.887 E1025.162
G1 X161.524 Y78.393 E1025.394
G1 X162.696 Y78.351 E1025.452
G1 X169.431 Y78.28 E1025.788
G1 Y69.703 E1026.216
G1 X169.507 Y69.717 E1026.22
G1 X169.431 Y78.2 E1026.643
G1 X88.98 E1030.657
G1 Y77.8 E1030.677
G1 X169.431 E1034.691
G1 Y77.4 E1034.711
G1 X88.98 E1038.724
G1 Y77 E1038.744
G1 X169.431 E1042.758
G1 Y76.6 E1042.778
G1 X88.98 E1046.792
G1 Y76.2 E1046.812
G1 X169.431 E1050.825
G1 Y75.8 E1050.845
G1 X88.98 E1054.859
G1 Y75.4 E1054.879
G1 X169.431 E1058.893
G1 Y75 E1058.913
G1 X88.98 E1062.926
G1 Y74.6 E1062.946
G1 X169.431 E1066.96
G1 Y74.2 E1066.98
G1 X88.98 E1070.994
G1 Y73.8 E1071.014
G1 X169.431 E1075.027
G1 Y73.4 E1075.047
G1 X88.98 E1079.061
G1 Y73 E1079.081
G1 X169.431 E1083.095
G1 Y72.6 E1083.115
G1 X88.98 E1087.128
G1 Y72.2 E1087.148
G1 X169.431 E1091.162
G1 Y71.8 E1091.182
G1 X88.98 E1095.196
G1 Y71.4 E1095.216
G1 X169.431 E1099.229
G1 Y71 E1099.249
G1 X88.98 E1103.263
G1 Y70.6 E1103.283
G1 X169.431 E1107.297
G1 Y70.2 E1107.317
G1 X88.98 E1111.33
G1 Y69.8 E1111.35
G1 X169.431 E1115.364
;bead-raft
;rapid-leaky
G1 F15000
G0 X169.978
;bead-raft
G1 X177.631 F3600 E1115.746
G1 Y70.2 E1115.766
G1 X172.247 E1116.034
G1 X174.515 Y70.6 E1116.149
G1 X177.631 E1116.305
G1 Y71 E1116.325
G1 X176.783 E1116.367
;bead-raft
;rapid-leaky
G1 F15000
G0 X177.631 Y69.4
;bead-raft
G1 X88.98 F3600 E1120.79
G1 Y69 E1120.81
G1 X177.631 E1125.233
G1 Y68.6 E1125.252
G1 X88.98 E1129.675
G1 Y68.2 E1129.695
G1 X177.631 E1134.118
G1 Y67.8 E1134.138
G1 X88.98 E1138.561
G1 Y67.4 E1138.581
G1 X177.631 E1143.004
G1 Y67 E1143.024
G1 X88.98 E1147.446
G1 Y66.6 E1147.466
G1 X177.631 E1151.889
G1 Y66.2 E1151.909
G1 X88.98 E1156.332
G1 Y65.8 E1156.352
G1 X177.631 E1160.775
G1 Y65.4 E1160.795
G1 X88.98 E1165.217
G1 Y65 E1165.237
G1 X177.631 E1169.66
G1 Y64.6 E1169.68
G1 X88.98 E1174.103
;bead-raft
;rapid-leaky
G1 F15000
G0 X71.873 Y41.8
;bead-raft
G1 X169.431 F3600 E1178.97
G1 Y42.2 E1178.99
G1 X70.365 E1183.932
G1 X69.277 Y42.6 E1183.99
G1 X169.431 E1188.987
G1 Y43 E1189.007
G1 X68.372 E1194.049
G1 X67.616 Y43.4 E1194.092
G1 X169.431 E1199.171
G1 Y43.8 E1199.191
G1 X66.942 E1204.304
G1 X66.322 Y44.2 E1204.341
G1 X169.431 E1209.485
G1 Y44.6 E1209.505
G1 X65.775 E1214.677
G1 X65.272 Y45 E1214.709
G1 X169.431 E1219.905
G1 Y45.4 E1219.925
G1 X64.801 E1225.145
G1 X64.377 Y45.8 E1225.174
G1 X169.431 E1230.415
G1 Y46.2 E1230.435
G1 X63.97 E1235.697
G1 X63.604 Y46.6 E1235.724
G1 X169.431 E1241.004
G1 Y47 E1241.024
G1 X63.25 E1246.321
G1 X62.931 Y47.4 E1246.346
G1 X169.431 E1251.66
G1 Y47.8 E1251.68
G1 X62.625 E1257.008
G1 X62.343 Y48.2 E1257.033
G1 X169.431 E1262.375
G1 Y48.6 E1262.395
G1 X62.081 E1267.751
G1 X61.827 Y49 E1267.775
G1 X169.431 E1273.143
G1 Y49.4 E1273.163
G1 X61.596 E1278.543
G1 X61.365 Y49.8 E1278.566
G1 X177.631 E1284.366
G1 Y50.2 E1284.386
G1 X61.134 E1290.198
G1 X60.903 Y50.6 E1290.222
G1 X177.631 E1296.045
G1 Y51 E1296.065
G1 X60.672 E1301.9
G1 X60.441 Y51.4 E1301.923
G1 X177.631 E1307.77
G1 Y51.8 E1307.79
G1 X60.21 E1313.648
G1 X59.979 Y52.2 E1313.671
G1 X177.631 E1319.541
G1 Y52.6 E1319.561
G1 X59.748 E1325.442
G1 X59.517 Y53 E1325.465
G1 X177.631 E1331.358
G1 Y53.4 E1331.378
G1 X59.286 E1337.282
G1 X59.055 Y53.8 E1337.305
G1 X177.631 E1343.221
G1 Y54.2 E1343.241
G1 X58.824 E1349.168
G1 X58.593 Y54.6 E1349.191
G1 X177.631 E1355.13
G1 Y55 E1355.15
G1 X58.362 E1361.1
G1 X58.131 Y55.4 E1361.123
G1 X177.631 E1367.085
G1 Y55.8 E1367.105
G1 X57.9 E1373.078
G1 X57.669 Y56.2 E1373.102
G1 X177.631 E1379.087
G1 Y56.6 E1379.106
G1 X57.438 E1385.103
G1 X57.207 Y57 E1385.126
G1 X177.631 E1391.134
G1 Y57.4 E1391.154
G1 X56.976 E1397.173
G1 X56.745 Y57.8 E1397.196
G1 X177.631 E1403.228
G1 Y58.2 E1403.247
G1 X56.514 E1409.29
G1 X56.283 Y58.6 E1409.313
G1 X177.631 E1415.367
G1 Y59 E1415.387
G1 X56.052 E1421.453
G1 X55.821 Y59.4 E1421.476
G1 X177.631 E1427.553
G1 Y59.8 E1427.573
G1 X55.59 E1433.661
G1 X55.359 Y60.2 E1433.684
G1 X177.631 E1439.785
G1 Y60.6 E1439.805
G1 X55.128 E1445.916
G1 X54.897 Y61 E1445.939
G1 X177.631 E1452.063
G1 Y61.4 E1452.083
G1 X54.666 E1458.217
G1 X54.435 Y61.8 E1458.24
G1 X177.631 E1464.387
G1 Y62.2 E1464.406
G1 X54.204 E1470.564
G1 X53.973 Y62.6 E1470.587
G1 X177.631 E1476.757
G1 Y63 E1476.777
G1 X53.742 E1482.958
G1 X53.511 Y63.4 E1482.98
G1 X177.631 E1489.173
G1 Y63.8 E1489.193
G1 X53.28 E1495.397
G1 X53.049 Y64.2 E1495.42
G1 X177.631 E1501.635
;bead-raft
;rapid-leaky
G1 F15000
G0 Y49.4
;bead-raft
G1 X170.478 F3600 E1501.992
G1 X172.746 Y49 E1502.107
G1 X177.631 E1502.351
G1 Y48.6 E1502.371
G1 X175.014 E1502.501
G1 X177.282 Y48.2 E1502.616
G1 X177.631 E1502.634
;bead-raft
G1 F1800 E1502.134
;rapid-dry
G1 F15000
G0 X105.115 Y107
G1 F1800 E1502.634
;bead-raft
G1 X51.599 F3600 E1505.303
G1 X51.83 Y107.4 E1505.326
G1 X105.078 E1507.983
G1 X105.041 Y107.8 E1508.003
G1 X52.061 E1510.646
G1 X52.292 Y108.2 E1510.669
G1 X105.004 E1513.299
G1 X104.967 Y108.6 E1513.319
G1 X52.523 E1515.936
G1 X52.754 Y109 E1515.959
G1 X104.952 E1518.563
G1 X104.944 Y109.4 E1518.583
G1 X52.985 E1521.175
G1 X53.216 Y109.8 E1521.198
G1 X104.935 E1523.778
G1 X104.927 Y110.2 E1523.798
G1 X53.447 E1526.367
G1 X53.678 Y110.6 E1526.39
G1 X104.922 E1528.946
G1 X104.942 Y111 E1528.966
G1 X53.908 E1531.512
G1 X54.139 Y111.4 E1531.535
G1 X104.962 E1534.071
G1 X104.981 Y111.8 E1534.091
G1 X54.37 E1536.616
G1 X54.601 Y112.2 E1536.639
G1 X105.001 E1539.153
G1 X105.029 Y112.6 E1539.173
G1 X54.832 E1541.678
G1 X55.063 Y113 E1541.701
G1 X105.079 E1544.196
G1 X105.128 Y113.4 E1544.216
G1 X55.294 E1546.702
G1 X55.525 Y113.8 E1546.725
G1 X105.177 E1549.203
G1 X105.226 Y114.2 E1549.223
G1 X55.756 E1551.691
G1 X55.987 Y114.6 E1551.714
G1 X105.289 E1554.174
G1 X105.367 Y115 E1554.194
G1 X56.218 E1556.646
G1 X56.449 Y115.4 E1556.669
G1 X105.445 E1559.113
G1 X105.522 Y115.8 E1559.134
G1 X56.68 E1561.571
G1 X56.911 Y116.2 E1561.594
G1 X105.6 E1564.023
G1 X105.696 Y116.6 E1564.043
G1 X57.141 E1566.466
G1 X57.372 Y117 E1566.489
G1 X105.792 E1568.904
G1 X105.889 Y117.4 E1568.925
G1 X57.603 E1571.334
G1 X57.834 Y117.8 E1571.357
G1 X105.985 E1573.759
G1 X106.082 Y118.2 E1573.78
G1 X58.065 E1576.175
G1 X58.296 Y118.6 E1576.198
G1 X106.179 E1578.587
G1 X106.275 Y119 E1578.608
G1 X58.527 E1580.99
G1 X58.758 Y119.4 E1581.013
G1 X106.383 E1583.389
G1 X106.492 Y119.8 E1583.41
G1 X58.989 E1585.78
G1 X59.22 Y120.2 E1585.802
G1 X106.6 E1588.166
G1 X106.709 Y120.6 E1588.187
G1 X59.451 E1590.545
G1 X59.682 Y121 E1590.568
G1 X106.818 E1592.919
G1 X106.926 Y121.4 E1592.94
G1 X59.913 E1595.286
G1 X60.144 Y121.8 E1595.309
G1 X107.035 E1597.648
G1 X107.144 Y122.2 E1597.669
G1 X60.374 E1600.002
G1 X60.605 Y122.6 E1600.025
G1 X107.252 E1602.352
G1 X107.361 Y123 E1602.373
G1 X60.836 E1604.694
G1 X61.067 Y123.4 E1604.717
G1 X107.469 E1607.032
G1 X107.578 Y123.8 E1607.053
G1 X61.298 E1609.362
G1 X61.529 Y124.2 E1609.385
G1 X107.693 E1611.688
G1 X107.818 Y124.6 E1611.709
G1 X61.76 E1614.007
G1 X61.991 Y125 E1614.03
G1 X107.942 E1616.322
G1 X108.067 Y125.4 E1616.343
G1 X62.222 E1618.63
G1 X62.453 Y125.8 E1618.653
G1 X108.192 E1620.935
G1 X108.316 Y126.2 E1620.956
G1 X62.684 E1623.233
G1 X62.915 Y126.6 E1623.256
G1 X108.441 E1625.527
G1 X108.566 Y127 E1625.548
G1 X63.146 E1627.814
G1 X63.377 Y127.4 E1627.837
G1 X108.691 E1630.098
G1 X108.815 Y127.8 E1630.119
G1 X63.607 E1632.374
G1 X63.838 Y128.2 E1632.397
G1 X108.94 E1634.647
G1 X109.065 Y128.6 E1634.668
G1 X64.069 E1636.913
G1 X64.3 Y129 E1636.936
G1 X109.192 E1639.176
G1 X109.333 Y129.4 E1639.197
G1 X64.531 E1641.432
G1 X64.762 Y129.8 E1641.455
G1 X109.474 E1643.686
G1 X109.615 Y130.2 E1643.707
G1 X64.993 E1645.933
G1 X65.224 Y130.6 E1645.956
G1 X109.756 E1648.178
G1 X109.897 Y131 E1648.199
G1 X65.455 E1650.416
G1 X65.686 Y131.4 E1650.439
G1 X110.038 E1652.652
G1 X110.179 Y131.8 E1652.673
G1 X65.917 E1654.882
G1 X66.148 Y132.2 E1654.905
G1 X110.32 E1657.108
G1 X110.461 Y132.6 E1657.13
G1 X66.379 E1659.329
G1 X66.61 Y133 E1659.352
G1 X110.602 E1661.547
G1 X110.743 Y133.4 E1661.568
G1 X66.84 E1663.758
G1 X67.071 Y133.8 E1663.781
G1 X110.885 E1665.967
G1 X111.043 Y134.2 E1665.989
G1 X67.302 E1668.171
G1 X67.533 Y134.6 E1668.194
G1 X111.201 E1670.372
G1 X111.358 Y135 E1670.394
G1 X67.764 E1672.569
G1 X67.995 Y135.4 E1672.592
G1 X111.516 E1674.763
G1 X111.674 Y135.8 E1674.785
G1 X68.226 E1676.952
G1 X68.457 Y136.2 E1676.975
G1 X111.831 E1679.139
G1 X111.989 Y136.6 E1679.161
G1 X68.688 E1681.321
G1 X68.919 Y137 E1681.344
G1 X112.147 E1683.501
G1 X112.304 Y137.4 E1683.522
G1 X69.15 E1685.675
G1 X69.381 Y137.8 E1685.698
G1 X112.462 E1687.847
G1 X112.62 Y138.2 E1687.869
G1 X69.612 E1690.015
G1 X69.842 Y138.6 E1690.038
G1 X112.78 E1692.18
G1 X112.955 Y139 E1692.202
G1 X70.073 E1694.341
G1 X70.304 Y139.4 E1694.364
G1 X113.13 E1696.5
G1 X113.304 Y139.8 E1696.522
G1 X70.535 E1698.656
G1 X70.766 Y140.2 E1698.679
G1 X113.479 E1700.81
G1 X113.654 Y140.6 E1700.832
G1 X70.997 E1702.96
G1 X71.228 Y141 E1702.983
G1 X113.829 E1705.108
G1 X114.004 Y141.4 E1705.13
G1 X71.459 E1707.253
G1 X71.69 Y141.8 E1707.276
G1 X114.179 E1709.396
G1 X114.354 Y142.2 E1709.417
G1 X71.921 E1711.534
G1 X72.152 Y142.6 E1711.557
G1 X114.528 E1713.672
G1 X114.703 Y143 E1713.693
G1 X72.383 E1715.805
G1 X72.614 Y143.4 E1715.828
G1 X114.885 E1717.937
G1 X115.078 Y143.8 E1717.959
G1 X72.845 E1720.066
G1 X73.075 Y144.2 E1720.089
G1 X115.271 E1722.194
G1 X115.463 Y144.6 E1722.216
G1 X73.306 E1724.319
G1 X73.537 Y145 E1724.343
G1 X115.656 E1726.444
G1 X115.848 Y145.4 E1726.466
G1 X73.768 E1728.565
G1 X73.999 Y145.8 E1728.588
G1 X116.041 E1730.686
G1 X116.233 Y146.2 E1730.708
G1 X74.23 E1732.803
G1 X74.461 Y146.6 E1732.827
G1 X116.426 E1734.92
G1 X116.618 Y147 E1734.942
G1 X74.692 E1737.034
G1 X74.923 Y147.4 E1737.057
G1 X116.811 E1739.147
G1 X117.004 Y147.8 E1739.169
G1 X75.154 E1741.257
G1 X75.385 Y148.2 E1741.28
G1 X117.212 E1743.367
G1 X117.423 Y148.6 E1743.389
G1 X75.616 E1745.475
G1 X75.847 Y149 E1745.498
G1 X117.634 E1747.583
G1 X117.845 Y149.4 E1747.605
G1 X76.078 E1749.689
G1 X76.308 Y149.8 E1749.712
G1 X118.055 E1751.795
G1 X118.266 Y150.2 E1751.818
G1 X76.539 E1753.899
G1 X76.77 Y150.6 E1753.922
G1 X118.477 E1756.003
G1 X118.688 Y151 E1756.026
G1 X77.001 E1758.105
G1 X77.232 Y151.4 E1758.129
G1 X118.899 E1760.207
G1 X119.11 Y151.8 E1760.23
G1 X77.463 E1762.308
G1 X77.694 Y152.2 E1762.331
G1 X119.321 E1764.407
G1 X119.539 Y152.6 E1764.43
G1 X77.925 E1766.506
G1 X78.156 Y153 E1766.529
G1 X119.765 E1768.605
G1 X119.992 Y153.4 E1768.628
G1 X78.387 E1770.704
G1 X78.618 Y153.8 E1770.727
G1 X120.218 E1772.802
G1 X120.444 Y154.2 E1772.825
G1 X78.849 E1774.9
G1 X79.08 Y154.6 E1774.923
G1 X120.67 E1776.998
G1 X120.896 Y155 E1777.021
G1 X79.311 E1779.096
G1 X79.541 Y155.4 E1779.119
G1 X121.122 E1781.194
G1 X121.349 Y155.8 E1781.217
G1 X79.772 E1783.291
G1 X80.003 Y156.2 E1783.314
G1 X121.575 E1785.388
G1 X121.801 Y156.6 E1785.411
G1 X80.234 E1787.484
G1 X80.465 Y157 E1787.508
G1 X122.027 E1789.581
G1 X122.253 Y157.4 E1789.604
G1 X80.696 E1791.677
G1 X80.927 Y157.8 E1791.7
G1 X122.479 E1793.773
G1 X122.705 Y158.2 E1793.796
G1 X81.158 E1795.869
G1 X81.389 Y158.6 E1795.892
G1 X122.932 E1797.965
G1 X122.43 Y159 E1797.997
G1 X81.62 E1800.033
G1 X81.851 Y159.4 E1800.056
G1 X121.737 E1802.046
G1 X121.045 Y159.8 E1802.086
G1 X82.082 E1804.03
G1 X82.313 Y160.2 E1804.053
G1 X120.352 E1805.95
G1 X119.659 Y160.6 E1805.99
G1 X82.544 E1807.842
G1 X82.774 Y161 E1807.865
G1 X118.966 E1809.671
G1 X118.273 Y161.4 E1809.71
G1 X83.005 E1811.47
G1 X83.236 Y161.8 E1811.493
G1 X117.58 E1813.206
G1 X116.887 Y162.2 E1813.246
G1 X83.467 E1814.914
G1 X83.698 Y162.6 E1814.937
G1 X116.194 E1816.558
G1 X116.46 Y163 E1816.582
G1 X83.929 E1818.205
G1 X84.16 Y163.4 E1818.228
G1 X116.797 E1819.856
G1 X117.134 Y163.8 E1819.882
G1 X84.391 E1821.516
G1 X84.622 Y164.2 E1821.539
G1 X117.472 E1823.178
G1 X117.809 Y164.6 E1823.204
G1 X84.853 E1824.848
G1 X85.084 Y165 E1824.871
G1 X118.146 E1826.521
G1 X118.484 Y165.4 E1826.547
G1 X85.315 E1828.202
G1 X85.546 Y165.8 E1828.224
G1 X118.821 E1829.885
G1 X119.158 Y166.2 E1829.911
G1 X85.777 E1831.576
G1 X86.007 Y166.6 E1831.599
G1 X119.495 E1833.27
G1 X119.833 Y167 E1833.296
G1 X86.238 E1834.972
G1 X86.469 Y167.4 E1834.995
G1 X120.17 E1836.676
G1 X120.507 Y167.8 E1836.703
G1 X86.7 E1838.389
G1 X86.931 Y168.2 E1838.412
G1 X120.845 E1840.104
G1 X121.182 Y168.6 E1840.13
G1 X87.162 E1841.828
G1 X87.393 Y169 E1841.851
G1 X121.383 E1843.546
G1 X120.694 Y169.4 E1843.586
G1 X87.624 E1845.236
G1 X87.855 Y169.8 E1845.259
G1 X120.005 E1846.863
G1 X119.316 Y170.2 E1846.903
G1 X88.086 E1848.461
G1 X88.317 Y170.6 E1848.484
G1 X118.627 E1849.996
G1 X117.938 Y171 E1850.036
G1 X88.548 E1851.502
G1 X88.779 Y171.4 E1851.525
G1 X117.25 E1852.946
G1 X116.561 Y171.8 E1852.985
G1 X89.01 E1854.36
G1 X89.24 Y172.2 E1854.383
G1 X115.872 E1855.711
G1 X115.183 Y172.6 E1855.751
G1 X89.471 E1857.034
G1 X89.702 Y173 E1857.057
G1 X98.181 E1857.48
G1 X97.488 Y173.4 E1857.52
G1 X89.933 E1857.897
G1 X90.164 Y173.8 E1857.92
G1 X96.795 E1858.251
G1 X96.102 Y174.2 E1858.291
G1 X90.395 E1858.575
G1 X90.626 Y174.6 E1858.598
G1 X95.409 E1858.837
G1 X94.716 Y175 E1858.877
G1 X90.857 E1859.069
G1 X91.088 Y175.4 E1859.093
G1 X94.023 E1859.239
G1 X93.331 Y175.8 E1859.279
G1 X91.319 E1859.379
G1 X91.55 Y176.2 E1859.402
G1 X92.638 E1859.457
G1 X91.945 Y176.6 E1859.497
G1 X91.781 E1859.505
;bead-raft
;rapid-leaky
G1 F15000
G0 X98.824 Y173
;bead-raft
G1 X114.494 F3600 E1860.286
G1 X113.805 Y173.4 E1860.326
G1 X98.971 E1861.066
G1 X99.118 Y173.8 E1861.088
G1 X113.116 E1861.786
G1 X112.428 Y174.2 E1861.826
G1 X99.264 E1862.482
G1 X99.411 Y174.6 E1862.504
G1 X111.739 E1863.119
G1 X111.05 Y175 E1863.158
G1 X99.558 E1863.732
G1 X99.704 Y175.4 E1863.753
G1 X110.361 E1864.285
G1 X109.672 Y175.8 E1864.324
G1 X99.851 E1864.814
G1 X99.998 Y176.2 E1864.836
G1 X108.983 E1865.284
G1 X108.294 Y176.6 E1865.324
G1 X100.144 E1865.73
G1 X100.291 Y177 E1865.752
G1 X107.606 E1866.117
G1 X106.917 Y177.4 E1866.156
G1 X100.438 E1866.479
G1 X100.585 Y177.8 E1866.501
G1 X106.228 E1866.782
G1 X105.539 Y178.2 E1866.822
G1 X100.731 E1867.062
G1 X100.878 Y178.6 E1867.083
G1 X104.85 E1867.281
G1 X104.161 Y179 E1867.321
G1 X101.025 E1867.478
G1 X101.171 Y179.4 E1867.499
G1 X103.473 E1867.614
G1 X102.784 Y179.8 E1867.653
G1 X101.318 E1867.727
G1 X101.465 Y180.2 E1867.748
G1 X102.095 E1867.779
;bead-raft
G1 F1800 E1867.279
;Layer : 4 of 151
;rapid-leaky
G1 F15000
G0 X101.364 Y181.087 Z1.1
G1 F1800 E1867.779
;bead-raft
G1 X98.5 Y173.278 F3600 E1868.194
G1 X91.675 Y177.217 E1868.587
G1 X43.923 Y94.504 E1873.352
G1 X43.422 Y93.51 E1873.408
G1 X42.987 Y92.467 E1873.464
G1 X42.621 Y91.379 E1873.521
G1 X42.334 Y90.258 E1873.579
G1 X42.132 Y89.145 E1873.636
G1 X42.008 Y88.008 E1873.693
G1 X41.964 Y86.821 E1873.752
G1 X42.008 Y85.706 E1873.808
G1 X42.131 Y84.575 E1873.864
G1 X42.336 Y83.447 E1873.922
G1 X42.624 Y82.326 E1873.979
G1 X42.982 Y81.262 E1874.035
G1 X43.432 Y80.18 E1874.094
G1 X43.919 Y79.217 E1874.148
G1 X44.091 Y78.914 E1874.165
G1 X61.542 Y48.693 E1875.906
G1 X62.157 Y47.754 E1875.962
G1 X62.837 Y46.864 E1876.018
G1 X63.586 Y46.016 E1876.074
G1 X64.413 Y45.204 E1876.132
G1 X65.302 Y44.45 E1876.19
G1 X66.208 Y43.788 E1876.246
G1 X67.187 Y43.174 E1876.304
G1 X68.211 Y42.633 E1876.362
G1 X69.251 Y42.174 E1876.418
G1 X70.326 Y41.789 E1876.475
G1 X71.432 Y41.481 E1876.533
G1 X72.559 Y41.253 E1876.59
G1 X73.688 Y41.109 E1876.647
G1 X74.771 Y41.047 E1876.701
G1 X75.114 Y41.044 E1876.718
G1 X169.831 E1881.444
G1 Y49.108 E1881.846
G1 X178.031 Y47.662 E1882.261
G1 Y71.626 E1883.457
G1 X169.831 Y70.18 E1883.872
G1 Y78.676 E1884.296
G1 X162.705 Y78.751 E1884.652
G1 X158.08 Y78.918 E1884.883
G1 X153.458 Y79.239 E1885.114
G1 X148.853 Y79.712 E1885.345
G1 X144.26 Y80.338 E1885.576
G1 X139.694 Y81.118 E1885.807
G1 X135.152 Y82.048 E1886.038
G1 X130.649 Y83.127 E1886.269
G1 X126.166 Y84.36 E1886.501
G1 X123.819 Y85.071 E1886.624
G1 X122.076 Y85.681 E1886.716
G1 X120.349 Y86.426 E1886.81
G1 X118.732 Y87.265 E1886.901
G1 X117.076 Y88.275 E1886.997
G1 X115.555 Y89.364 E1887.091
G1 X114.089 Y90.582 E1887.186
G1 X112.735 Y91.883 E1887.279
G1 X111.525 Y93.221 E1887.369
G1 X110.345 Y94.724 E1887.465
G1 X109.277 Y96.312 E1887.56
G1 X108.343 Y97.941 E1887.654
G1 X107.536 Y99.613 E1887.746
G1 X106.853 Y101.333 E1887.839
G1 X106.437 Y102.642 E1887.907
G1 X106.278 Y103.146 E1887.934
G1 X105.837 Y104.987 E1888.028
G1 X105.53 Y106.857 E1888.123
G1 X105.358 Y108.71 E1888.216
G1 X105.32 Y110.548 E1888.307
G1 X105.414 Y112.452 E1888.402
G1 X105.646 Y114.339 E1888.497
G1 X105.993 Y116.127 E1888.588
G1 X106.668 Y118.925 E1888.732
G1 X108.029 Y123.936 E1888.991
G1 X109.55 Y128.811 E1889.245
G1 X111.25 Y133.635 E1889.501
G1 X113.124 Y138.388 E1889.756
G1 X115.17 Y143.069 E1890.01
G1 X117.386 Y147.673 E1890.265
G1 X119.777 Y152.207 E1890.521
G1 X123.522 Y158.832 E1890.901
G1 X116.76 Y162.735 E1891.29
G1 X122.087 Y169.053 E1891.703
G1 X101.364 Y181.087 E1892.898
;bead-raft
;rapid-leaky
G1 F15000
G0 X101.258 Y181.38
;bead-raft
G1 X98.394 Y173.57 F3600 E1893.313
G1 X91.602 Y177.491 E1893.704
G1 X43.747 Y94.599 E1898.48
G1 X43.24 Y93.594 E1898.536
G1 X42.8 Y92.538 E1898.593
G1 X42.429 Y91.436 E1898.651
G1 X42.139 Y90.301 E1898.709
G1 X41.934 Y89.174 E1898.766
G1 X41.809 Y88.022 E1898.824
G1 X41.764 Y86.821 E1898.884
G1 X41.808 Y85.692 E1898.941
G1 X41.933 Y84.546 E1898.998
G1 X42.14 Y83.405 E1899.056
G1 X42.432 Y82.27 E1899.115
G1 X42.794 Y81.191 E1899.171
G1 X43.251 Y80.096 E1899.23
G1 X43.743 Y79.123 E1899.285
G1 X43.917 Y78.815 E1899.302
G1 X61.372 Y48.588 E1901.044
G1 X61.994 Y47.638 E1901.101
G1 X62.683 Y46.736 E1901.157
G1 X63.441 Y45.878 E1901.214
G1 X64.278 Y45.057 E1901.273
G1 X65.178 Y44.293 E1901.332
G1 X66.096 Y43.622 E1901.388
G1 X67.087 Y43.001 E1901.447
G1 X68.123 Y42.453 E1901.505
G1 X69.177 Y41.988 E1901.563
G1 X70.265 Y41.598 E1901.62
G1 X71.385 Y41.287 E1901.678
G1 X72.526 Y41.055 E1901.736
G1 X73.669 Y40.91 E1901.794
G1 X74.765 Y40.847 E1901.849
G1 X75.113 Y40.844 E1901.866
G1 X170.031 E1906.602
G1 Y48.869 E1907.002
G1 X178.231 Y47.423 E1907.417
G1 Y71.865 E1908.637
G1 X170.031 Y70.419 E1909.052
G1 Y78.874 E1909.474
G1 X162.71 Y78.951 E1909.839
G1 X158.091 Y79.118 E1910.07
G1 X153.475 Y79.438 E1910.301
G1 X148.877 Y79.91 E1910.531
G1 X144.29 Y80.536 E1910.762
G1 X139.73 Y81.314 E1910.993
G1 X135.195 Y82.243 E1911.224
G1 X130.699 Y83.32 E1911.455
G1 X126.222 Y84.552 E1911.686
G1 X123.881 Y85.261 E1911.808
G1 X122.149 Y85.867 E1911.9
G1 X120.435 Y86.607 E1911.993
G1 X118.83 Y87.439 E1912.083
G1 X117.186 Y88.442 E1912.179
G1 X115.677 Y89.522 E1912.272
G1 X114.223 Y90.731 E1912.366
G1 X112.879 Y92.022 E1912.459
G1 X111.678 Y93.35 E1912.548
G1 X110.507 Y94.842 E1912.643
G1 X109.447 Y96.417 E1912.738
G1 X108.52 Y98.035 E1912.831
G1 X107.719 Y99.694 E1912.923
G1 X107.041 Y101.401 E1913.014
G1 X106.628 Y102.702 E1913.083
G1 X106.471 Y103.2 E1913.109
G1 X106.033 Y105.027 E1913.202
G1 X105.728 Y106.883 E1913.296
G1 X105.558 Y108.721 E1913.388
G1 X105.52 Y110.545 E1913.479
G1 X105.614 Y112.435 E1913.574
G1 X105.844 Y114.308 E1913.668
G1 X106.188 Y116.084 E1913.758
G1 X106.862 Y118.875 E1913.901
G1 X108.221 Y123.88 E1914.16
G1 X109.739 Y128.748 E1914.414
G1 X111.438 Y133.565 E1914.669
G1 X113.308 Y138.311 E1914.924
G1 X115.352 Y142.986 E1915.178
G1 X117.565 Y147.583 E1915.433
G1 X119.952 Y152.111 E1915.688
G1 X123.794 Y158.906 E1916.078
G1 X117.067 Y162.789 E1916.465
G1 X122.394 Y169.107 E1916.877
G1 X101.258 Y181.38 E1918.097
;bead-raft
;rapid-leaky
G1 F15000
G0 X85.767 Y106.294
;bead-raft
G1 X86.206 Y106.067 F3600 E1918.121
G1 X86.459 Y105.906 E1918.136
G1 X86.8 Y105.655 E1918.158
G1 X87.119 Y105.386 E1918.178
G1 X87.499 Y105.018 E1918.205
G1 X87.798 Y104.69 E1918.227
G1 X88.071 Y104.345 E1918.249
G1 X88.386 Y103.864 E1918.278
G1 X88.581 Y103.472 E1918.299
G1 X88.58 Y64.996 E1920.219
G1 X75.811 Y64.994 E1920.856
G1 X73.464 Y85.584 E1921.89
G1 X73.137 Y89.477 E1922.085
G1 X72.651 Y97.272 E1922.474
G1 X72.351 Y103.725 E1922.797
G1 X72.297 Y106.294 E1922.925
G1 X85.767 E1923.597
;bead-raft
;rapid-leaky
G1 F15000
G0 X85.719 Y106.094
;bead-raft
G1 X86.106 Y105.893 F3600 E1923.619
G1 X86.346 Y105.741 E1923.633
G1 X86.676 Y105.498 E1923.653
G1 X86.985 Y105.237 E1923.674
G1 X87.356 Y104.879 E1923.699
G1 X87.645 Y104.561 E1923.721
G1 X87.908 Y104.228 E1923.742
G1 X88.213 Y103.764 E1923.77
G1 X88.381 Y103.425 E1923.788
G1 X88.38 Y65.196 E1925.696
G1 X75.989 Y65.194 E1926.314
G1 X73.663 Y85.603 E1927.339
G1 X73.337 Y89.492 E1927.533
G1 X72.851 Y97.283 E1927.923
G1 X72.551 Y103.732 E1928.245
G1 X72.501 Y106.094 E1928.363
G1 X85.719 E1929.022
;bead-raft
;rapid-leaky
G1 F15000
G0 X86.046 Y106.6
;bead-raft
G1 X105.167 F3600 E1929.976
G1 X105.232 Y106.2 E1929.996
G1 X86.734 E1930.919
G1 X87.048 Y105.97 E1930.939
G1 X87.249 Y105.8 E1930.952
G1 X105.298 E1931.852
G1 X105.364 Y105.4 E1931.873
G1 X87.68 E1932.755
G1 X87.787 Y105.297 E1932.762
G1 X88.057 Y105 E1932.782
G1 X105.429 E1933.649
G1 X105.518 Y104.6 E1933.669
G1 X88.379 E1934.524
G1 X88.395 Y104.579 E1934.526
G1 X88.644 Y104.2 E1934.548
G1 X105.614 E1935.395
G1 X105.71 Y103.8 E1935.416
G1 X88.865 E1936.256
G1 X88.981 Y103.566 E1936.269
G1 Y103.4 E1936.277
G1 X105.806 E1937.117
G1 X105.904 Y103 E1937.137
G1 X88.981 E1937.982
G1 Y102.6 E1938.001
G1 X106.031 E1938.852
G1 X106.158 Y102.2 E1938.873
G1 X88.981 E1939.73
G1 Y101.8 E1939.75
G1 X106.285 E1940.613
G1 X106.412 Y101.4 E1940.634
G1 X88.981 E1941.504
G1 Y101 E1941.524
G1 X106.555 E1942.401
G1 X106.714 Y100.6 E1942.422
G1 X88.981 E1943.307
G1 Y100.2 E1943.327
G1 X106.873 E1944.219
G1 X107.032 Y99.8 E1944.241
G1 X88.981 E1945.141
G1 Y99.4 E1945.161
G1 X107.195 E1946.07
G1 X107.388 Y99 E1946.092
G1 X88.981 E1947.01
G1 Y98.6 E1947.03
G1 X107.581 E1947.958
G1 X107.774 Y98.2 E1947.981
G1 X88.981 E1948.918
G1 Y97.8 E1948.938
G1 X107.967 E1949.885
G1 X108.192 Y97.4 E1949.908
G1 X88.981 E1950.867
G1 Y97 E1950.887
G1 X108.421 E1951.857
G1 X108.65 Y96.6 E1951.88
G1 X88.981 E1952.861
G1 Y96.2 E1952.881
G1 X108.879 E1953.874
G1 X109.139 Y95.8 E1953.897
G1 X88.981 E1954.903
G1 Y95.4 E1954.923
G1 X109.408 E1955.942
G1 X109.677 Y95 E1955.966
G1 X88.981 E1956.999
G1 Y94.6 E1957.019
G1 X109.946 E1958.065
G1 X110.248 Y94.2 E1958.09
G1 X88.981 E1959.151
G1 Y93.8 E1959.171
G1 X110.562 E1960.247
G1 X110.876 Y93.4 E1960.273
G1 X88.981 E1961.365
G1 Y93 E1961.385
G1 X111.19 E1962.493
G1 X111.547 Y92.6 E1962.52
G1 X88.981 E1963.646
G1 Y92.2 E1963.666
G1 X111.909 E1964.809
G1 X112.271 Y91.8 E1964.836
G1 X88.981 E1965.998
G1 Y91.4 E1966.018
G1 X112.66 E1967.2
G1 X113.077 Y91 E1967.228
G1 X88.981 E1968.431
G1 Y90.6 E1968.451
G1 X113.493 E1969.673
G1 X113.923 Y90.2 E1969.703
G1 X88.981 E1970.947
G1 Y89.8 E1970.967
G1 X114.404 E1972.235
G1 X114.885 Y89.4 E1972.267
G1 X88.981 E1973.559
G1 Y89 E1973.579
G1 X115.376 E1974.896
G1 X115.934 Y88.6 E1974.93
G1 X88.981 E1976.275
G1 Y88.2 E1976.295
G1 X116.493 E1977.667
G1 X117.086 Y87.8 E1977.703
G1 X88.981 E1979.105
G1 Y87.4 E1979.125
G1 X117.742 E1980.56
G1 X118.398 Y87 E1980.599
G1 X88.981 E1982.066
G1 Y86.6 E1982.086
G1 X119.145 E1983.591
G1 X119.916 Y86.2 E1983.634
G1 X88.981 E1985.178
G1 Y85.8 E1985.198
G1 X120.791 E1986.785
G1 X121.718 Y85.4 E1986.835
G1 X88.981 E1988.468
G1 Y85 E1988.488
G1 X122.811 E1990.176
G1 X123.994 Y84.6 E1990.239
G1 X88.981 E1991.985
G1 Y84.2 E1992.005
G1 X125.314 E1993.818
G1 X126.692 Y83.8 E1993.89
G1 X88.981 E1995.771
G1 Y83.4 E1995.791
G1 X128.147 E1997.745
G1 X129.601 Y83 E1997.82
G1 X88.981 E1999.847
G1 Y82.6 E1999.867
G1 X131.13 E2001.97
G1 X132.8 Y82.2 E2002.055
G1 X88.98 E2004.241
G1 Y81.8 E2004.261
G1 X134.469 E2006.531
G1 X136.322 Y81.4 E2006.625
G1 X88.98 E2008.987
G1 Y81 E2009.007
G1 X138.275 E2011.466
G1 X140.349 Y80.6 E2011.572
G1 X88.98 E2014.135
G1 Y80.2 E2014.155
G1 X142.693 E2016.834
G1 X145.247 Y79.8 E2016.963
G1 X88.98 E2019.771
G1 Y79.4 E2019.791
G1 X148.18 E2022.744
G1 X151.868 Y79 E2022.929
G1 X88.98 E2026.067
G1 Y78.6 E2026.086
G1 X156.887 E2029.474
G1 X161.524 Y78.393 E2029.706
G1 X162.696 Y78.351 E2029.764
G1 X169.431 Y78.28 E2030.1
G1 Y69.703 E2030.528
G1 X169.507 Y69.717 E2030.532
G1 X169.431 Y78.2 E2030.955
G1 X88.98 E2034.969
G1 Y77.8 E2034.989
G1 X169.431 E2039.003
G1 Y77.4 E2039.023
G1 X88.98 E2043.036
G1 Y77 E2043.056
G1 X169.431 E2047.07
G1 Y76.6 E2047.09
G1 X88.98 E2051.104
G1 Y76.2 E2051.124
G1 X169.431 E2055.137
G1 Y75.8 E2055.157
G1 X88.98 E2059.171
G1 Y75.4 E2059.191
G1 X169.431 E2063.205
G1 Y75 E2063.225
G1 X88.98 E2067.238
G1 Y74.6 E2067.258
G1 X169.431 E2071.272
G1 Y74.2 E2071.292
G1 X88.98 E2075.306
G1 Y73.8 E2075.326
G1 X169.431 E2079.339
G1 Y73.4 E2079.359
G1 X88.98 E2083.373
G1 Y73 E2083.393
G1 X169.431 E2087.407
G1 Y72.6 E2087.427
G1 X88.98 E2091.44
G1 Y72.2 E2091.46
G1 X169.431 E2095.474
G1 Y71.8 E2095.494
G1 X88.98 E2099.508
G1 Y71.4 E2099.528
G1 X169.431 E2103.541
G1 Y71 E2103.561
G1 X88.98 E2107.575
G1 Y70.6 E2107.595
G1 X169.431 E2111.609
G1 Y70.2 E2111.629
G1 X88.98 E2115.642
G1 Y69.8 E2115.662
G1 X169.431 E2119.676
;bead-raft
;rapid-leaky
G1 F15000
G0 X169.978
;bead-raft
G1 X177.631 F3600 E2120.058
G1 Y70.2 E2120.078
G1 X172.247 E2120.346
G1 X174.515 Y70.6 E2120.461
G1 X177.631 E2120.617
G1 Y71 E2120.637
G1 X176.783 E2120.679
;bead-raft
;rapid-leaky
G1 F15000
G0 X177.631 Y69.4
;bead-raft
G1 X88.98 F3600 E2125.102
G1 Y69 E2125.122
G1 X177.631 E2129.544
G1 Y68.6 E2129.564
G1 X88.98 E2133.987
G1 Y68.2 E2134.007
G1 X177.631 E2138.43
G1 Y67.8 E2138.45
G1 X88.98 E2142.873
G1 Y67.4 E2142.893
G1 X177.631 E2147.315
G1 Y67 E2147.335
G1 X88.98 E2151.758
G1 Y66.6 E2151.778
G1 X177.631 E2156.201
G1 Y66.2 E2156.221
G1 X88.98 E2160.644
G1 Y65.8 E2160.664
G1 X177.631 E2165.087
G1 Y65.4 E2165.106
G1 X88.98 E2169.529
G1 Y65 E2169.549
G1 X177.631 E2173.972
G1 Y64.6 E2173.992
G1 X88.98 E2178.415
G1 X75.453 E2179.09
G1 X52.818 E2180.219
G1 X52.587 Y65 E2180.242
G1 X75.408 E2181.381
G1 X75.362 Y65.4 E2181.401
G1 X52.356 E2182.548
G1 X52.125 Y65.8 E2182.572
G1 X75.317 E2183.729
G1 X75.271 Y66.2 E2183.749
G1 X51.894 E2184.915
G1 X51.663 Y66.6 E2184.938
G1 X75.225 E2186.114
G1 X75.18 Y67 E2186.134
G1 X51.432 E2187.318
G1 X51.201 Y67.4 E2187.341
G1 X75.134 E2188.535
G1 X75.089 Y67.8 E2188.555
G1 X50.97 E2189.759
G1 X50.739 Y68.2 E2189.782
G1 X75.043 E2190.994
G1 X74.997 Y68.6 E2191.014
G1 X50.508 E2192.236
G1 X50.277 Y69 E2192.259
G1 X74.952 E2193.49
G1 X74.906 Y69.4 E2193.51
G1 X50.046 E2194.75
G1 X49.815 Y69.8 E2194.773
G1 X74.861 E2196.023
G1 X74.815 Y70.2 E2196.043
G1 X49.584 E2197.302
G1 X49.353 Y70.6 E2197.325
G1 X74.769 E2198.593
G1 X74.724 Y71 E2198.613
G1 X49.122 E2199.89
G1 X48.891 Y71.4 E2199.913
G1 X74.678 E2201.2
G1 X74.632 Y71.8 E2201.22
G1 X48.66 E2202.516
G1 X48.43 Y72.2 E2202.539
G1 X74.587 E2203.844
G1 X74.541 Y72.6 E2203.864
G1 X48.199 E2205.178
G1 X47.968 Y73 E2205.201
G1 X74.496 E2206.524
G1 X74.45 Y73.4 E2206.545
G1 X47.737 E2207.877
G1 X47.506 Y73.8 E2207.9
G1 X74.404 E2209.242
G1 X74.359 Y74.2 E2209.262
G1 X47.275 E2210.614
G1 X47.044 Y74.6 E2210.637
G1 X74.313 E2211.997
G1 X74.268 Y75 E2212.017
G1 X46.813 E2213.387
G1 X46.582 Y75.4 E2213.41
G1 X74.222 E2214.789
G1 X74.176 Y75.8 E2214.809
G1 X46.351 E2216.198
G1 X46.12 Y76.2 E2216.22
G1 X74.131 E2217.618
G1 X74.085 Y76.6 E2217.638
G1 X45.889 E2219.045
G1 X45.658 Y77 E2219.068
G1 X74.04 E2220.484
G1 X73.994 Y77.4 E2220.504
G1 X45.427 E2221.929
G1 X45.196 Y77.8 E2221.952
G1 X73.948 E2223.387
G1 X73.903 Y78.2 E2223.407
G1 X44.965 E2224.85
G1 X44.734 Y78.6 E2224.874
G1 X73.857 E2226.326
G1 X73.812 Y79 E2226.346
G1 X44.503 E2227.809
G1 X44.275 Y79.4 E2227.832
G1 X73.766 E2229.303
G1 X73.72 Y79.8 E2229.323
G1 X44.072 E2230.802
G1 X43.87 Y80.2 E2230.825
G1 X73.675 E2232.312
G1 X73.629 Y80.6 E2232.332
G1 X43.691 E2233.825
G1 X43.524 Y81 E2233.847
G1 X73.584 E2235.347
G1 X73.538 Y81.4 E2235.367
G1 X43.357 E2236.872
G1 X43.223 Y81.8 E2236.894
G1 X73.492 E2238.404
G1 X73.447 Y82.2 E2238.424
G1 X43.088 E2239.938
G1 X42.966 Y82.6 E2239.959
G1 X73.401 E2241.478
G1 X73.356 Y83 E2241.498
G1 X42.864 E2243.019
G1 X42.761 Y83.4 E2243.04
G1 X73.31 E2244.564
G1 X73.264 Y83.8 E2244.584
G1 X42.678 E2246.11
G1 X42.605 Y84.2 E2246.13
G1 X73.219 E2247.657
G1 X73.173 Y84.6 E2247.677
G1 X42.533 E2249.206
G1 X42.487 Y85 E2249.226
G1 X73.128 E2250.755
G1 X73.082 Y85.4 E2250.775
G1 X42.444 E2252.303
G1 X42.405 Y85.8 E2252.323
G1 X73.044 E2253.852
G1 X73.011 Y86.2 E2253.872
G1 X42.389 E2255.4
G1 X42.373 Y86.6 E2255.42
G1 X72.977 E2256.947
G1 X72.943 Y87 E2256.967
G1 X42.371 E2258.492
G1 X42.386 Y87.4 E2258.512
G1 X72.91 E2260.035
G1 X72.876 Y87.8 E2260.055
G1 X42.401 E2261.575
G1 X42.431 Y88.2 E2261.595
G1 X72.843 E2263.112
G1 X72.809 Y88.6 E2263.132
G1 X42.475 E2264.646
G1 X42.518 Y89 E2264.666
G1 X72.776 E2266.176
G1 X72.742 Y89.4 E2266.196
G1 X42.585 E2267.7
G1 X42.657 Y89.8 E2267.72
G1 X72.716 E2269.22
G1 X72.691 Y90.2 E2269.24
G1 X42.732 E2270.735
G1 X42.835 Y90.6 E2270.755
G1 X72.666 E2272.243
G1 X72.641 Y91 E2272.263
G1 X42.937 E2273.745
G1 X43.05 Y91.4 E2273.766
G1 X72.616 E2275.241
G1 X72.592 Y91.8 E2275.261
G1 X43.185 E2276.729
G1 X43.319 Y92.2 E2276.75
G1 X72.567 E2278.208
G1 X72.542 Y92.6 E2278.229
G1 X43.476 E2279.679
G1 X43.643 Y93 E2279.7
G1 X72.517 E2281.141
G1 X72.492 Y93.4 E2281.161
G1 X43.814 E2282.592
G1 X44.016 Y93.8 E2282.614
G1 X72.467 E2284.033
G1 X72.442 Y94.2 E2284.053
G1 X44.218 E2285.461
G1 X44.44 Y94.6 E2285.484
G1 X72.417 E2286.88
G1 X72.392 Y95 E2286.9
G1 X44.671 E2288.283
G1 X44.902 Y95.4 E2288.306
G1 X72.367 E2289.676
G1 X72.342 Y95.8 E2289.696
G1 X45.133 E2291.054
G1 X45.364 Y96.2 E2291.077
G1 X72.317 E2292.422
G1 X72.292 Y96.6 E2292.441
G1 X45.595 E2293.773
G1 X45.826 Y97 E2293.796
G1 X72.268 E2295.116
G1 X72.252 Y97.25 E2295.128
G1 X72.245 Y97.4 E2295.136
G1 X46.057 E2296.442
G1 X46.288 Y97.8 E2296.465
G1 X72.226 E2297.759
G1 X72.208 Y98.2 E2297.779
G1 X46.519 E2299.061
G1 X46.75 Y98.6 E2299.084
G1 X72.189 E2300.353
G1 X72.17 Y99 E2300.373
G1 X46.981 E2301.63
G1 X47.212 Y99.4 E2301.653
G1 X72.152 E2302.897
G1 X72.133 Y99.8 E2302.917
G1 X47.442 E2304.149
G1 X47.673 Y100.2 E2304.172
G1 X72.115 E2305.391
G1 X72.096 Y100.6 E2305.411
G1 X47.904 E2306.618
G1 X48.135 Y101 E2306.641
G1 X72.077 E2307.836
G1 X72.059 Y101.4 E2307.856
G1 X48.366 E2309.038
G1 X48.597 Y101.8 E2309.061
G1 X72.04 E2310.23
G1 X72.021 Y102.2 E2310.25
G1 X48.828 E2311.407
G1 X49.059 Y102.6 E2311.43
G1 X72.003 E2312.575
G1 X71.984 Y103 E2312.595
G1 X49.29 E2313.727
G1 X49.521 Y103.4 E2313.75
G1 X71.965 E2314.87
G1 X71.951 Y103.712 E2314.886
G1 X71.949 Y103.8 E2314.89
G1 X49.752 E2315.998
G1 X49.983 Y104.2 E2316.021
G1 X71.941 E2317.116
G1 X71.932 Y104.6 E2317.136
G1 X50.214 E2318.22
G1 X50.445 Y105 E2318.243
G1 X71.924 E2319.314
G1 X71.915 Y105.4 E2319.334
G1 X50.675 E2320.394
G1 X50.906 Y105.8 E2320.417
G1 X71.907 E2321.465
G1 X71.899 Y106.2 E2321.485
G1 X51.137 E2322.521
G1 X51.368 Y106.6 E2322.543
G1 X71.89 E2323.567
;bead-raft
;rapid-leaky
G1 F15000
G0 X91.945 Y176.6
;bead-raft
G1 X91.781 F3600 E2323.575
G1 X91.55 Y176.2 E2323.599
G1 X92.638 E2323.653
G1 X93.331 Y175.8 E2323.693
G1 X91.319 E2323.793
G1 X91.088 Y175.4 E2323.816
G1 X94.023 E2323.963
G1 X94.716 Y175 E2324.002
G1 X90.857 E2324.195
G1 X90.626 Y174.6 E2324.218
G1 X95.409 E2324.457
G1 X96.102 Y174.2 E2324.497
G1 X90.395 E2324.781
G1 X90.164 Y173.8 E2324.804
G1 X96.795 E2325.135
G1 X97.488 Y173.4 E2325.175
G1 X89.933 E2325.552
G1 X89.702 Y173 E2325.575
G1 X98.181 E2325.998
;bead-raft
;rapid-leaky
G1 F15000
G0 X101.465 Y180.2
;bead-raft
G1 X102.095 F3600 E2326.03
G1 X102.784 Y179.8 E2326.069
G1 X101.318 E2326.142
G1 X101.171 Y179.4 E2326.164
G1 X103.473 E2326.279
G1 X104.161 Y179 E2326.318
G1 X101.025 E2326.475
G1 X100.878 Y178.6 E2326.496
G1 X104.85 E2326.694
G1 X105.539 Y178.2 E2326.734
G1 X100.731 E2326.974
G1 X100.585 Y177.8 E2326.995
G1 X106.228 E2327.277
G1 X106.917 Y177.4 E2327.316
G1 X100.438 E2327.64
G1 X100.291 Y177 E2327.661
G1 X107.606 E2328.026
G1 X108.294 Y176.6 E2328.065
G1 X100.144 E2328.472
G1 X99.998 Y176.2 E2328.493
G1 X108.983 E2328.942
G1 X109.672 Y175.8 E2328.981
G1 X99.851 E2329.471
G1 X99.704 Y175.4 E2329.493
G1 X110.361 E2330.024
G1 X111.05 Y175 E2330.064
G1 X99.558 E2330.637
G1 X99.411 Y174.6 E2330.659
G1 X111.739 E2331.274
G1 X112.428 Y174.2 E2331.313
G1 X99.264 E2331.97
G1 X99.118 Y173.8 E2331.991
G1 X113.116 E2332.69
G1 X113.805 Y173.4 E2332.729
G1 X98.971 E2333.47
G1 X98.824 Y173 E2333.491
G1 X114.494 E2334.273
G1 X115.183 Y172.6 E2334.313
G1 X89.471 E2335.595
G1 X89.24 Y172.2 E2335.618
G1 X115.872 E2336.947
G1 X116.561 Y171.8 E2336.987
G1 X89.01 E2338.361
G1 X88.779 Y171.4 E2338.384
G1 X117.25 E2339.805
G1 X117.938 Y171 E2339.844
G1 X88.548 E2341.311
G1 X88.317 Y170.6 E2341.334
G1 X118.627 E2342.846
G1 X119.316 Y170.2 E2342.885
G1 X88.086 E2344.444
G1 X87.855 Y169.8 E2344.467
G1 X120.005 E2346.071
G1 X120.694 Y169.4 E2346.11
G1 X87.624 E2347.76
G1 X87.393 Y169 E2347.783
G1 X121.383 E2349.479
G1 X121.182 Y168.6 E2349.501
G1 X87.162 E2351.199
G1 X86.931 Y168.2 E2351.222
G1 X120.845 E2352.914
G1 X120.507 Y167.8 E2352.94
G1 X86.7 E2354.626
G1 X86.469 Y167.4 E2354.649
G1 X120.17 E2356.331
G1 X119.833 Y167 E2356.357
G1 X86.238 E2358.033
G1 X86.007 Y166.6 E2358.056
G1 X119.495 E2359.727
G1 X119.158 Y166.2 E2359.753
G1 X85.777 E2361.418
G1 X85.546 Y165.8 E2361.441
G1 X118.821 E2363.101
G1 X118.484 Y165.4 E2363.127
G1 X85.315 E2364.782
G1 X85.084 Y165 E2364.805
G1 X118.146 E2366.455
G1 X117.809 Y164.6 E2366.481
G1 X84.853 E2368.125
G1 X84.622 Y164.2 E2368.148
G1 X117.472 E2369.787
G1 X117.134 Y163.8 E2369.813
G1 X84.391 E2371.447
G1 X84.16 Y163.4 E2371.47
G1 X116.797 E2373.098
G1 X116.46 Y163 E2373.124
G1 X83.929 E2374.747
G1 X83.698 Y162.6 E2374.77
G1 X116.194 E2376.391
G1 X116.887 Y162.2 E2376.431
G1 X83.467 E2378.099
G1 X83.236 Y161.8 E2378.122
G1 X117.58 E2379.835
G1 X118.273 Y161.4 E2379.875
G1 X83.005 E2381.635
G1 X82.774 Y161 E2381.657
G1 X118.966 E2383.463
G1 X119.659 Y160.6 E2383.503
G1 X82.544 E2385.355
G1 X82.313 Y160.2 E2385.378
G1 X120.352 E2387.275
G1 X121.045 Y159.8 E2387.315
G1 X82.082 E2389.259
G1 X81.851 Y159.4 E2389.282
G1 X121.737 E2391.272
G1 X122.43 Y159 E2391.312
G1 X81.62 E2393.348
G1 X81.389 Y158.6 E2393.371
G1 X122.932 E2395.444
G1 X122.705 Y158.2 E2395.467
G1 X81.158 E2397.54
G1 X80.927 Y157.8 E2397.563
G1 X122.479 E2399.636
G1 X122.253 Y157.4 E2399.659
G1 X80.696 E2401.732
G1 X80.465 Y157 E2401.755
G1 X122.027 E2403.828
G1 X121.801 Y156.6 E2403.851
G1 X80.234 E2405.925
G1 X80.003 Y156.2 E2405.948
G1 X121.575 E2408.022
G1 X121.349 Y155.8 E2408.045
G1 X79.772 E2410.119
G1 X79.541 Y155.4 E2410.142
G1 X121.122 E2412.217
G1 X120.896 Y155 E2412.24
G1 X79.311 E2414.314
G1 X79.08 Y154.6 E2414.338
G1 X120.67 E2416.413
G1 X120.444 Y154.2 E2416.435
G1 X78.849 E2418.51
G1 X78.618 Y153.8 E2418.534
G1 X120.218 E2420.609
G1 X119.992 Y153.4 E2420.632
G1 X78.387 E2422.708
G1 X78.156 Y153 E2422.731
G1 X119.765 E2424.807
G1 X119.539 Y152.6 E2424.83
G1 X77.925 E2426.906
G1 X77.694 Y152.2 E2426.929
G1 X119.321 E2429.006
G1 X119.11 Y151.8 E2429.028
G1 X77.463 E2431.106
G1 X77.232 Y151.4 E2431.129
G1 X118.899 E2433.208
G1 X118.688 Y151 E2433.23
G1 X77.001 E2435.31
G1 X76.77 Y150.6 E2435.333
G1 X118.477 E2437.414
G1 X118.266 Y150.2 E2437.436
G1 X76.539 E2439.518
G1 X76.308 Y149.8 E2439.541
G1 X118.055 E2441.624
G1 X117.845 Y149.4 E2441.646
G1 X76.078 E2443.73
G1 X75.847 Y149 E2443.753
G1 X117.634 E2445.838
G1 X117.423 Y148.6 E2445.861
G1 X75.616 E2447.946
G1 X75.385 Y148.2 E2447.969
G1 X117.212 E2450.056
G1 X117.004 Y147.8 E2450.079
G1 X75.154 E2452.167
G1 X74.923 Y147.4 E2452.19
G1 X116.811 E2454.28
G1 X116.618 Y147 E2454.302
G1 X74.692 E2456.393
G1 X74.461 Y146.6 E2456.416
G1 X116.426 E2458.51
G1 X116.233 Y146.2 E2458.532
G1 X74.23 E2460.628
G1 X73.999 Y145.8 E2460.651
G1 X116.041 E2462.748
G1 X115.848 Y145.4 E2462.77
G1 X73.768 E2464.87
G1 X73.537 Y145 E2464.893
G1 X115.656 E2466.994
G1 X115.463 Y144.6 E2467.016
G1 X73.306 E2469.119
G1 X73.075 Y144.2 E2469.142
G1 X115.271 E2471.248
G1 X115.078 Y143.8 E2471.27
G1 X72.845 E2473.377
G1 X72.614 Y143.4 E2473.4
G1 X114.885 E2475.509
G1 X114.703 Y143 E2475.531
G1 X72.383 E2477.642
G1 X72.152 Y142.6 E2477.665
G1 X114.528 E2479.779
G1 X114.354 Y142.2 E2479.801
G1 X71.921 E2481.918
G1 X71.69 Y141.8 E2481.941
G1 X114.179 E2484.061
G1 X114.004 Y141.4 E2484.083
G1 X71.459 E2486.205
G1 X71.228 Y141 E2486.228
G1 X113.829 E2488.354
G1 X113.654 Y140.6 E2488.375
G1 X70.997 E2490.503
G1 X70.766 Y140.2 E2490.527
G1 X113.479 E2492.657
G1 X113.304 Y139.8 E2492.679
G1 X70.535 E2494.813
G1 X70.304 Y139.4 E2494.836
G1 X113.13 E2496.973
G1 X112.955 Y139 E2496.994
G1 X70.073 E2499.134
G1 X69.842 Y138.6 E2499.157
G1 X112.78 E2501.299
G1 X112.62 Y138.2 E2501.321
G1 X69.612 E2503.466
G1 X69.381 Y137.8 E2503.489
G1 X112.462 E2505.639
G1 X112.304 Y137.4 E2505.66
G1 X69.15 E2507.813
G1 X68.919 Y137 E2507.836
G1 X112.147 E2509.993
G1 X111.989 Y136.6 E2510.014
G1 X68.688 E2512.175
G1 X68.457 Y136.2 E2512.198
G1 X111.831 E2514.362
G1 X111.674 Y135.8 E2514.383
G1 X68.226 E2516.551
G1 X67.995 Y135.4 E2516.573
G1 X111.516 E2518.745
G1 X111.358 Y135 E2518.766
G1 X67.764 E2520.941
G1 X67.533 Y134.6 E2520.964
G1 X111.201 E2523.143
G1 X111.043 Y134.2 E2523.164
G1 X67.302 E2525.346
G1 X67.071 Y133.8 E2525.37
G1 X110.885 E2527.555
G1 X110.743 Y133.4 E2527.577
G1 X66.84 E2529.767
G1 X66.61 Y133 E2529.79
G1 X110.602 E2531.985
G1 X110.461 Y132.6 E2532.006
G1 X66.379 E2534.205
G1 X66.148 Y132.2 E2534.228
G1 X110.32 E2536.432
G1 X110.179 Y131.8 E2536.453
G1 X65.917 E2538.661
G1 X65.686 Y131.4 E2538.685
G1 X110.038 E2540.897
G1 X109.897 Y131 E2540.918
G1 X65.455 E2543.136
G1 X65.224 Y130.6 E2543.159
G1 X109.756 E2545.38
G1 X109.615 Y130.2 E2545.402
G1 X64.993 E2547.628
G1 X64.762 Y129.8 E2547.651
G1 X109.474 E2549.882
G1 X109.333 Y129.4 E2549.903
G1 X64.531 E2552.138
G1 X64.3 Y129 E2552.161
G1 X109.192 E2554.401
G1 X109.065 Y128.6 E2554.421
G1 X64.069 E2556.666
G1 X63.838 Y128.2 E2556.689
G1 X108.94 E2558.939
G1 X108.815 Y127.8 E2558.96
G1 X63.607 E2561.216
G1 X63.377 Y127.4 E2561.239
G1 X108.691 E2563.5
G1 X108.566 Y127 E2563.521
G1 X63.146 E2565.787
G1 X62.915 Y126.6 E2565.81
G1 X108.441 E2568.081
G1 X108.316 Y126.2 E2568.102
G1 X62.684 E2570.378
G1 X62.453 Y125.8 E2570.401
G1 X108.192 E2572.683
G1 X108.067 Y125.4 E2572.704
G1 X62.222 E2574.991
G1 X61.991 Y125 E2575.015
G1 X107.942 E2577.307
G1 X107.818 Y124.6 E2577.328
G1 X61.76 E2579.626
G1 X61.529 Y124.2 E2579.649
G1 X107.693 E2581.952
G1 X107.578 Y123.8 E2581.973
G1 X61.298 E2584.281
G1 X61.067 Y123.4 E2584.305
G1 X107.469 E2586.62
G1 X107.361 Y123 E2586.64
G1 X60.836 E2588.961
G1 X60.605 Y122.6 E2588.985
G1 X107.252 E2591.312
G1 X107.144 Y122.2 E2591.333
G1 X60.374 E2593.666
G1 X60.144 Y121.8 E2593.689
G1 X107.035 E2596.028
G1 X106.926 Y121.4 E2596.049
G1 X59.913 E2598.394
G1 X59.682 Y121 E2598.417
G1 X106.818 E2600.769
G1 X106.709 Y120.6 E2600.79
G1 X59.451 E2603.147
G1 X59.22 Y120.2 E2603.17
G1 X106.6 E2605.534
G1 X106.492 Y119.8 E2605.555
G1 X58.989 E2607.925
G1 X58.758 Y119.4 E2607.948
G1 X106.383 E2610.324
G1 X106.275 Y119 E2610.345
G1 X58.527 E2612.727
G1 X58.296 Y118.6 E2612.75
G1 X106.179 E2615.139
G1 X106.082 Y118.2 E2615.159
G1 X58.065 E2617.555
G1 X57.834 Y117.8 E2617.578
G1 X105.985 E2619.98
G1 X105.889 Y117.4 E2620.001
G1 X57.603 E2622.41
G1 X57.372 Y117 E2622.433
G1 X105.792 E2624.848
G1 X105.696 Y116.6 E2624.869
G1 X57.141 E2627.291
G1 X56.911 Y116.2 E2627.314
G1 X105.6 E2629.743
G1 X105.522 Y115.8 E2629.764
G1 X56.68 E2632.2
G1 X56.449 Y115.4 E2632.224
G1 X105.445 E2634.668
G1 X105.367 Y115 E2634.688
G1 X56.218 E2637.14
G1 X55.987 Y114.6 E2637.163
G1 X105.289 E2639.623
G1 X105.226 Y114.2 E2639.643
G1 X55.756 E2642.111
G1 X55.525 Y113.8 E2642.135
G1 X105.177 E2644.612
G1 X105.128 Y113.4 E2644.632
G1 X55.294 E2647.118
G1 X55.063 Y113 E2647.141
G1 X105.079 E2649.636
G1 X105.029 Y112.6 E2649.656
G1 X54.832 E2652.161
G1 X54.601 Y112.2 E2652.184
G1 X105.001 E2654.698
G1 X104.981 Y111.8 E2654.718
G1 X54.37 E2657.243
G1 X54.139 Y111.4 E2657.266
G1 X104.962 E2659.802
G1 X104.942 Y111 E2659.822
G1 X53.908 E2662.368
G1 X53.678 Y110.6 E2662.391
G1 X104.922 E2664.948
G1 X104.927 Y110.2 E2664.968
G1 X53.447 E2667.536
G1 X53.216 Y109.8 E2667.559
G1 X104.935 E2670.139
G1 X104.944 Y109.4 E2670.159
G1 X52.985 E2672.751
G1 X52.754 Y109 E2672.774
G1 X104.952 E2675.379
G1 X104.967 Y108.6 E2675.399
G1 X52.523 E2678.015
G1 X52.292 Y108.2 E2678.038
G1 X105.004 E2680.668
G1 X105.041 Y107.8 E2680.688
G1 X52.061 E2683.331
G1 X51.83 Y107.4 E2683.354
G1 X105.078 E2686.011
G1 X105.115 Y107 E2686.031
G1 X51.599 E2688.701
;bead-raft
;rapid-leaky
G1 F15000
G0 X53.049 Y64.2
;bead-raft
G1 X177.631 F3600 E2694.916
G1 Y63.8 E2694.936
G1 X53.28 E2701.14
G1 X53.511 Y63.4 E2701.163
G1 X177.631 E2707.355
G1 Y63 E2707.375
G1 X53.742 E2713.556
G1 X53.973 Y62.6 E2713.579
G1 X177.631 E2719.748
G1 Y62.2 E2719.768
G1 X54.204 E2725.926
G1 X54.435 Y61.8 E2725.949
G1 X177.631 E2732.095
G1 Y61.4 E2732.115
G1 X54.666 E2738.25
G1 X54.897 Y61 E2738.273
G1 X177.631 E2744.396
G1 Y60.6 E2744.416
G1 X55.128 E2750.528
G1 X55.359 Y60.2 E2750.551
G1 X177.631 E2756.651
G1 Y59.8 E2756.671
G1 X55.59 E2762.76
G1 X55.821 Y59.4 E2762.783
G1 X177.631 E2768.86
G1 Y59 E2768.88
G1 X56.052 E2774.946
G1 X56.283 Y58.6 E2774.969
G1 X177.631 E2781.023
G1 Y58.2 E2781.043
G1 X56.514 E2787.085
G1 X56.745 Y57.8 E2787.108
G1 X177.631 E2793.139
G1 Y57.4 E2793.159
G1 X56.976 E2799.179
G1 X57.207 Y57 E2799.202
G1 X177.631 E2805.21
G1 Y56.6 E2805.23
G1 X57.438 E2811.226
G1 X57.669 Y56.2 E2811.249
G1 X177.631 E2817.234
G1 Y55.8 E2817.254
G1 X57.9 E2823.228
G1 X58.131 Y55.4 E2823.25
G1 X177.631 E2829.212
G1 Y55 E2829.232
G1 X58.362 E2835.183
G1 X58.593 Y54.6 E2835.206
G1 X177.631 E2841.145
G1 Y54.2 E2841.165
G1 X58.824 E2847.092
G1 X59.055 Y53.8 E2847.115
G1 X177.631 E2853.031
G1 Y53.4 E2853.051
G1 X59.286 E2858.955
G1 X59.517 Y53 E2858.978
G1 X177.631 E2864.871
G1 Y52.6 E2864.891
G1 X59.748 E2870.772
G1 X59.979 Y52.2 E2870.795
G1 X177.631 E2876.665
G1 Y51.8 E2876.685
G1 X60.21 E2882.543
G1 X60.441 Y51.4 E2882.566
G1 X177.631 E2888.413
G1 Y51 E2888.432
G1 X60.672 E2894.268
G1 X60.903 Y50.6 E2894.291
G1 X177.631 E2900.114
G1 Y50.2 E2900.134
G1 X61.134 E2905.946
G1 X61.365 Y49.8 E2905.969
G1 X177.631 E2911.77
G1 Y49.4 E2911.79
G1 X170.478 E2912.147
G1 X172.746 Y49 E2912.261
G1 X177.631 E2912.505
G1 Y48.6 E2912.525
G1 X175.014 E2912.656
G1 X177.282 Y48.2 E2912.771
G1 X177.631 E2912.788
;bead-raft
;rapid-leaky
G1 F15000
G0 X169.431 Y49.4
;bead-raft
G1 X61.596 F3600 E2918.168
G1 X61.827 Y49 E2918.191
G1 X169.431 E2923.56
G1 Y48.6 E2923.579
G1 X62.081 E2928.935
G1 X62.343 Y48.2 E2928.959
G1 X169.431 E2934.302
G1 Y47.8 E2934.322
G1 X62.625 E2939.65
G1 X62.931 Y47.4 E2939.675
G1 X169.431 E2944.989
G1 Y47 E2945.009
G1 X63.25 E2950.306
G1 X63.604 Y46.6 E2950.333
G1 X169.431 E2955.612
G1 Y46.2 E2955.632
G1 X63.97 E2960.894
G1 X64.377 Y45.8 E2960.922
G1 X169.431 E2966.163
G1 Y45.4 E2966.183
G1 X64.801 E2971.403
G1 X65.272 Y45 E2971.434
G1 X169.431 E2976.631
G1 Y44.6 E2976.651
G1 X65.775 E2981.822
G1 X66.322 Y44.2 E2981.856
G1 X169.431 E2987
G1 Y43.8 E2987.02
G1 X66.942 E2992.133
G1 X67.616 Y43.4 E2992.172
G1 X169.431 E2997.252
G1 Y43 E2997.272
G1 X68.372 E3002.314
G1 X69.277 Y42.6 E3002.363
G1 X169.431 E3007.36
G1 Y42.2 E3007.38
G1 X70.365 E3012.322
G1 X69.32 Y42.581 E3012.377
G1 X69.4 Y42.546 E3012.382
G1 X70.447 Y42.171 E3012.437
G1 X70.788 Y42.076 E3012.455
G1 X71.873 Y41.8 E3012.511
G1 X169.431 E3017.378
;bead-raft
G1 F1800 E3016.878
;Layer : 5 of 151
;rapid-dry
G1 F15000
G0 X163.936 Y46.939 Z1.7
G1 F1800 E3017.378
;bead-perimeter_inner
G1 Y56.133 F780 E3017.837
G1 X172.136 Y54.687 E3018.252
G1 Y64.601 E3018.747
G1 X163.936 Y63.155 E3019.162
G1 Y72.842 E3019.646
G1 X162.59 Y72.856 E3019.713
G1 X157.77 Y73.031 E3019.953
G1 X152.953 Y73.365 E3020.194
G1 X148.158 Y73.857 E3020.435
G1 X143.366 Y74.511 E3020.676
G1 X138.606 Y75.323 E3020.917
G1 X133.87 Y76.293 E3021.158
G1 X129.18 Y77.417 E3021.399
G1 X124.529 Y78.696 E3021.639
G1 X121.989 Y79.466 E3021.772
G1 X119.932 Y80.186 E3021.88
G1 X117.822 Y81.096 E3021.995
G1 X115.818 Y82.135 E3022.108
G1 X113.821 Y83.356 E3022.225
G1 X111.951 Y84.694 E3022.339
G1 X110.173 Y86.169 E3022.455
G1 X108.511 Y87.765 E3022.569
G1 X106.979 Y89.459 E3022.683
G1 X105.563 Y91.269 E3022.798
G1 X104.279 Y93.176 E3022.913
G1 X103.135 Y95.171 E3023.027
G1 X102.136 Y97.241 E3023.142
G1 X101.299 Y99.346 E3023.255
G1 X100.589 Y101.579 E3023.372
G1 X100.057 Y103.806 E3023.486
G1 X99.684 Y106.057 E3023.6
G1 X99.468 Y108.383 E3023.717
G1 X99.421 Y110.667 E3023.831
G1 X99.537 Y112.958 E3023.945
G1 X99.815 Y115.234 E3024.06
G1 X100.231 Y117.38 E3024.168
G1 X100.967 Y120.431 E3024.325
G1 X102.365 Y125.572 E3024.591
G1 X103.952 Y130.663 E3024.857
G1 X105.725 Y135.692 E3025.123
G1 X107.68 Y140.653 E3025.389
G1 X109.812 Y145.529 E3025.655
G1 X112.121 Y150.327 E3025.92
G1 X114.594 Y155.019 E3026.185
G1 X115.515 Y156.647 E3026.278
G1 X107.713 Y161.151 E3026.728
G1 X113.052 Y167.483 E3027.141
G1 X104.479 Y172.461 E3027.635
G1 X101.622 Y164.669 E3028.05
G1 X93.833 Y169.165 E3028.498
G1 X49.116 Y91.709 E3032.96
G1 X48.787 Y91.058 E3032.997
G1 X48.508 Y90.39 E3033.033
G1 X48.28 Y89.71 E3033.068
G1 X48.099 Y89.007 E3033.105
G1 X47.97 Y88.303 E3033.14
G1 X47.891 Y87.578 E3033.177
G1 X47.865 Y86.861 E3033.213
G1 X47.891 Y86.133 E3033.249
G1 X47.969 Y85.417 E3033.285
G1 X48.096 Y84.72 E3033.32
G1 X48.281 Y84 E3033.357
G1 X48.509 Y83.322 E3033.393
G1 X48.787 Y82.655 E3033.429
G1 X49.208 Y81.84 E3033.475
G1 X66.459 Y51.961 E3035.196
G1 X66.962 Y51.178 E3035.242
G1 X67.405 Y50.597 E3035.279
G1 X67.874 Y50.067 E3035.314
G1 X68.39 Y49.561 E3035.35
G1 X68.945 Y49.09 E3035.387
G1 X69.518 Y48.671 E3035.422
G1 X70.136 Y48.283 E3035.458
G1 X70.773 Y47.946 E3035.494
G1 X71.438 Y47.652 E3035.531
G1 X72.113 Y47.411 E3035.566
G1 X72.81 Y47.217 E3035.603
G1 X73.517 Y47.074 E3035.638
G1 X74.231 Y46.982 E3035.674
G1 X75.153 Y46.939 E3035.72
G1 X163.936 E3040.15
;rapid-leaky
G1 F15000
G0 X164.301 Y46.574
;bead-perimeter_inner
G1 Y55.698 F780 E3040.605
G1 X172.501 Y54.252 E3041.021
G1 Y65.036 E3041.559
G1 X164.301 Y63.59 E3041.974
G1 Y73.204 E3042.454
G1 X162.598 Y73.221 E3042.539
G1 X157.789 Y73.395 E3042.779
G1 X152.984 Y73.728 E3043.019
G1 X148.202 Y74.219 E3043.259
G1 X143.421 Y74.872 E3043.5
G1 X138.673 Y75.682 E3043.74
G1 X133.949 Y76.649 E3043.98
G1 X129.271 Y77.77 E3044.22
G1 X124.631 Y79.046 E3044.46
G1 X122.102 Y79.813 E3044.592
G1 X120.065 Y80.526 E3044.7
G1 X117.978 Y81.426 E3044.813
G1 X115.997 Y82.453 E3044.925
G1 X114.022 Y83.66 E3045.04
G1 X112.174 Y84.983 E3045.154
G1 X110.416 Y86.442 E3045.268
G1 X108.773 Y88.019 E3045.381
G1 X107.259 Y89.694 E3045.494
G1 X105.858 Y91.484 E3045.607
G1 X104.589 Y93.369 E3045.72
G1 X103.458 Y95.341 E3045.834
G1 X102.47 Y97.388 E3045.947
G1 X101.643 Y99.469 E3046.059
G1 X100.941 Y101.677 E3046.175
G1 X100.415 Y103.879 E3046.288
G1 X100.046 Y106.104 E3046.4
G1 X99.833 Y108.403 E3046.515
G1 X99.787 Y110.662 E3046.628
G1 X99.901 Y112.927 E3046.741
G1 X100.176 Y115.177 E3046.854
G1 X100.588 Y117.303 E3046.962
G1 X101.321 Y120.34 E3047.118
G1 X102.715 Y125.469 E3047.383
G1 X104.298 Y130.548 E3047.649
G1 X106.067 Y135.564 E3047.914
G1 X108.017 Y140.513 E3048.179
G1 X110.144 Y145.377 E3048.444
G1 X112.447 Y150.163 E3048.709
G1 X114.915 Y154.844 E3048.973
G1 X116.011 Y156.782 E3049.084
G1 X108.273 Y161.249 E3049.53
G1 X113.612 Y167.58 E3049.943
G1 X104.287 Y172.995 E3050.481
G1 X101.428 Y165.202 E3050.896
G1 X93.699 Y169.664 E3051.341
G1 X48.794 Y91.882 E3055.822
G1 X48.455 Y91.211 E3055.859
G1 X48.166 Y90.518 E3055.896
G1 X47.929 Y89.814 E3055.934
G1 X47.742 Y89.086 E3055.971
G1 X47.609 Y88.355 E3056.008
G1 X47.527 Y87.604 E3056.046
G1 X47.5 Y86.861 E3056.083
G1 X47.527 Y86.106 E3056.121
G1 X47.608 Y85.365 E3056.158
G1 X47.739 Y84.642 E3056.194
G1 X47.93 Y83.896 E3056.233
G1 X48.167 Y83.194 E3056.27
G1 X48.455 Y82.502 E3056.307
G1 X48.891 Y81.659 E3056.354
G1 X66.144 Y51.777 E3058.076
G1 X66.664 Y50.967 E3058.124
G1 X67.123 Y50.365 E3058.162
G1 X67.609 Y49.816 E3058.198
G1 X68.143 Y49.291 E3058.236
G1 X68.719 Y48.803 E3058.273
G1 X69.313 Y48.368 E3058.31
G1 X69.953 Y47.967 E3058.348
G1 X70.614 Y47.617 E3058.385
G1 X71.303 Y47.313 E3058.423
G1 X72.002 Y47.063 E3058.46
G1 X72.724 Y46.862 E3058.497
G1 X73.458 Y46.713 E3058.534
G1 X74.197 Y46.619 E3058.572
G1 X75.151 Y46.574 E3058.619
G1 X164.301 E3063.067
;rapid-leaky
G1 F15000
G0 X164.666 Y46.209
;bead-perimeter_inner
G1 Y55.263 F780 E3063.519
G1 X172.866 Y53.817 E3063.934
G1 Y65.471 E3064.516
G1 X164.666 Y64.025 E3064.931
G1 Y73.565 E3065.407
G1 X162.607 Y73.586 E3065.51
G1 X157.808 Y73.76 E3065.749
G1 X153.016 Y74.092 E3065.989
G1 X148.245 Y74.582 E3066.228
G1 X143.476 Y75.232 E3066.468
G1 X138.741 Y76.041 E3066.708
G1 X134.028 Y77.005 E3066.948
G1 X129.362 Y78.124 E3067.187
G1 X124.732 Y79.397 E3067.427
G1 X122.216 Y80.16 E3067.558
G1 X120.198 Y80.866 E3067.665
G1 X118.135 Y81.756 E3067.777
G1 X116.176 Y82.772 E3067.887
G1 X114.224 Y83.965 E3068.001
G1 X112.397 Y85.272 E3068.113
G1 X110.659 Y86.714 E3068.226
G1 X109.035 Y88.273 E3068.338
G1 X107.538 Y89.929 E3068.449
G1 X106.154 Y91.699 E3068.562
G1 X104.899 Y93.562 E3068.674
G1 X103.781 Y95.511 E3068.786
G1 X102.804 Y97.535 E3068.898
G1 X101.987 Y99.592 E3069.008
G1 X101.293 Y101.775 E3069.123
G1 X100.773 Y103.951 E3069.234
G1 X100.408 Y106.151 E3069.345
G1 X100.198 Y108.424 E3069.459
G1 X100.152 Y110.656 E3069.571
G1 X100.265 Y112.896 E3069.683
G1 X100.537 Y115.12 E3069.794
G1 X100.945 Y117.225 E3069.901
G1 X101.675 Y120.249 E3070.057
G1 X103.066 Y125.367 E3070.321
G1 X104.645 Y130.433 E3070.586
G1 X106.409 Y135.437 E3070.851
G1 X108.354 Y140.373 E3071.115
G1 X110.475 Y145.225 E3071.379
G1 X112.773 Y149.998 E3071.644
G1 X115.235 Y154.669 E3071.907
G1 X116.507 Y156.918 E3072.036
G1 X108.833 Y161.347 E3072.478
G1 X114.171 Y167.678 E3072.891
G1 X104.094 Y173.529 E3073.473
G1 X101.235 Y165.735 E3073.887
G1 X93.566 Y170.162 E3074.329
G1 X48.473 Y92.055 E3078.828
G1 X48.124 Y91.364 E3078.867
G1 X47.824 Y90.647 E3078.906
G1 X47.579 Y89.917 E3078.944
G1 X47.385 Y89.164 E3078.983
G1 X47.247 Y88.408 E3079.021
G1 X47.163 Y87.631 E3079.06
G1 X47.134 Y86.861 E3079.099
G1 X47.163 Y86.08 E3079.137
G1 X47.247 Y85.312 E3079.176
G1 X47.382 Y84.564 E3079.214
G1 X47.58 Y83.793 E3079.254
G1 X47.825 Y83.065 E3079.292
G1 X48.124 Y82.349 E3079.331
G1 X48.574 Y81.477 E3079.38
G1 X65.828 Y51.593 E3081.101
G1 X66.365 Y50.756 E3081.151
G1 X66.841 Y50.133 E3081.19
G1 X67.344 Y49.564 E3081.228
G1 X67.897 Y49.022 E3081.267
G1 X68.493 Y48.516 E3081.306
G1 X69.108 Y48.066 E3081.344
G1 X69.771 Y47.651 E3081.383
G1 X70.454 Y47.289 E3081.421
G1 X71.168 Y46.974 E3081.46
G1 X71.891 Y46.715 E3081.499
G1 X72.639 Y46.507 E3081.537
G1 X73.398 Y46.353 E3081.576
G1 X74.164 Y46.255 E3081.614
G1 X75.149 Y46.209 E3081.664
G1 X164.666 E3086.13
;rapid-leaky
G1 F15000
G0 X165.031 Y45.844
;bead-perimeter_outer
G1 Y54.828 F540 E3086.578
G1 X173.231 Y53.382 E3086.993
G1 Y65.906 E3087.618
G1 X165.031 Y64.46 E3088.033
G1 Y73.926 E3088.506
G1 X162.615 Y73.951 E3088.626
G1 X157.827 Y74.124 E3088.865
G1 X153.047 Y74.456 E3089.104
G1 X148.288 Y74.944 E3089.343
G1 X143.532 Y75.593 E3089.583
G1 X138.808 Y76.399 E3089.822
G1 X134.108 Y77.362 E3090.061
G1 X129.453 Y78.477 E3090.3
G1 X124.833 Y79.748 E3090.539
G1 X122.329 Y80.507 E3090.669
G1 X120.33 Y81.207 E3090.775
G1 X118.291 Y82.086 E3090.886
G1 X116.356 Y83.09 E3090.994
G1 X114.426 Y84.269 E3091.107
G1 X112.62 Y85.562 E3091.218
G1 X110.903 Y86.987 E3091.329
G1 X109.297 Y88.528 E3091.44
G1 X107.818 Y90.164 E3091.551
G1 X106.449 Y91.913 E3091.661
G1 X105.209 Y93.755 E3091.772
G1 X104.104 Y95.682 E3091.883
G1 X103.139 Y97.681 E3091.994
G1 X102.331 Y99.715 E3092.103
G1 X101.645 Y101.872 E3092.216
G1 X101.131 Y104.023 E3092.326
G1 X100.771 Y106.197 E3092.436
G1 X100.562 Y108.445 E3092.549
G1 X100.517 Y110.651 E3092.659
G1 X100.629 Y112.864 E3092.769
G1 X100.897 Y115.063 E3092.88
G1 X101.302 Y117.148 E3092.986
G1 X102.028 Y120.159 E3093.14
G1 X103.416 Y125.265 E3093.404
G1 X104.991 Y130.318 E3093.668
G1 X106.751 Y135.309 E3093.932
G1 X108.691 Y140.233 E3094.197
G1 X110.807 Y145.072 E3094.46
G1 X113.099 Y149.834 E3094.724
G1 X115.555 Y154.494 E3094.986
G1 X117.002 Y157.053 E3095.133
G1 X109.393 Y161.445 E3095.571
G1 X114.73 Y167.775 E3095.984
G1 X103.901 Y174.063 E3096.609
G1 X101.042 Y166.268 E3097.023
G1 X93.432 Y170.661 E3097.462
G1 X48.151 Y92.228 E3101.98
G1 X47.792 Y91.516 E3102.02
G1 X47.482 Y90.776 E3102.06
G1 X47.229 Y90.021 E3102.1
G1 X47.028 Y89.242 E3102.14
G1 X46.886 Y88.46 E3102.179
G1 X46.799 Y87.657 E3102.22
G1 X46.769 Y86.861 E3102.26
G1 X46.799 Y86.054 E3102.3
G1 X46.885 Y85.26 E3102.34
G1 X47.026 Y84.486 E3102.379
G1 X47.23 Y83.689 E3102.42
G1 X47.483 Y82.937 E3102.459
G1 X47.792 Y82.197 E3102.5
G1 X48.258 Y81.296 E3102.55
G1 X65.513 Y51.41 E3104.272
G1 X66.067 Y50.545 E3104.323
G1 X66.559 Y49.901 E3104.364
G1 X67.079 Y49.313 E3104.403
G1 X67.651 Y48.752 E3104.443
G1 X68.267 Y48.229 E3104.483
G1 X68.903 Y47.764 E3104.522
G1 X69.588 Y47.334 E3104.563
G1 X70.295 Y46.96 E3104.603
G1 X71.032 Y46.635 E3104.643
G1 X71.781 Y46.367 E3104.682
G1 X72.554 Y46.152 E3104.722
G1 X73.339 Y45.992 E3104.762
G1 X74.13 Y45.891 E3104.802
G1 X75.148 Y45.844 E3104.853
G1 X165.031 E3109.337
G1 F1800 E3108.837
;rapid-dry
G1 F15000
G0 X94.44 Y62.216
G1 F1800 E3109.337
;bead-perimeter_inner
G1 X94.35 Y61.86 F780 E3109.356
G1 X94.21 Y61.5 E3109.375
G1 X94.088 Y61.26 E3109.388
G1 X93.947 Y61.019 E3109.402
G1 X93.615 Y60.569 E3109.43
G1 X93.401 Y60.33 E3109.446
G1 X93.163 Y60.098 E3109.463
G1 X92.693 Y59.72 E3109.493
G1 X92.219 Y59.435 E3109.521
G1 X91.794 Y59.252 E3109.543
G1 X91.422 Y59.147 E3109.563
G1 X91.092 Y59.101 E3109.579
G1 X73.689 Y59.099 E3110.448
G1 X73.224 Y59.133 E3110.471
G1 X72.983 Y59.175 E3110.483
G1 X72.745 Y59.233 E3110.495
G1 X72.28 Y59.401 E3110.52
G1 X71.825 Y59.642 E3110.546
G1 X71.446 Y59.916 E3110.569
G1 X71.106 Y60.241 E3110.593
G1 X70.786 Y60.644 E3110.618
G1 X70.654 Y60.855 E3110.631
G1 X70.429 Y61.31 E3110.656
G1 X70.285 Y61.738 E3110.678
G1 X70.227 Y62.007 E3110.692
G1 X70.177 Y62.364 E3110.71
G1 X67.688 Y84.156 E3111.804
G1 X67.595 Y85.025 E3111.848
G1 X67.257 Y89.048 E3112.05
G1 X66.765 Y96.952 E3112.445
G1 X66.459 Y103.526 E3112.773
G1 X66.385 Y107.023 E3112.948
G1 X66.386 Y108.681 E3113.03
G1 X66.4 Y108.919 E3113.042
G1 X66.452 Y109.21 E3113.057
G1 X66.516 Y109.442 E3113.069
G1 X66.651 Y109.788 E3113.087
G1 X66.915 Y110.27 E3113.115
G1 X67.246 Y110.718 E3113.143
G1 X67.46 Y110.958 E3113.159
G1 X67.699 Y111.191 E3113.175
G1 X68.166 Y111.567 E3113.205
G1 X68.642 Y111.852 E3113.233
G1 X68.869 Y111.962 E3113.245
G1 X69.257 Y112.097 E3113.266
G1 X69.605 Y112.17 E3113.284
G1 X69.888 Y112.189 E3113.298
G1 X85.999 E3114.102
G1 X86.577 Y112.143 E3114.131
G1 X86.94 Y112.076 E3114.149
G1 X87.3 Y111.986 E3114.167
G1 X87.719 Y111.852 E3114.189
G1 X88.149 Y111.684 E3114.212
G1 X88.654 Y111.448 E3114.24
G1 X89.214 Y111.14 E3114.272
G1 X89.789 Y110.774 E3114.306
G1 X90.453 Y110.287 E3114.347
G1 X91.071 Y109.765 E3114.387
G1 X91.734 Y109.124 E3114.434
G1 X92.294 Y108.508 E3114.475
G1 X92.802 Y107.865 E3114.516
G1 X93.198 Y107.297 E3114.551
G1 X93.519 Y106.768 E3114.581
G1 X93.796 Y106.243 E3114.611
G1 X94.032 Y105.715 E3114.64
G1 X94.198 Y105.256 E3114.664
G1 X94.312 Y104.868 E3114.684
G1 X94.39 Y104.522 E3114.702
G1 X94.44 Y104.213 E3114.718
G1 X94.476 Y103.665 E3114.745
G1 X94.475 Y62.523 E3116.798
G1 X94.44 Y62.216 E3116.813
;rapid-leaky
G1 F15000
G0 X94.08 Y62.282
;bead-perimeter_inner
G1 X94.002 Y61.971 F780 E3116.829
G1 X93.877 Y61.649 E3116.846
G1 X93.768 Y61.435 E3116.858
G1 X93.639 Y61.214 E3116.871
G1 X93.335 Y60.804 E3116.896
G1 X93.137 Y60.582 E3116.911
G1 X92.917 Y60.367 E3116.927
G1 X92.485 Y60.019 E3116.954
G1 X92.052 Y59.76 E3116.979
G1 X91.678 Y59.599 E3117
G1 X91.347 Y59.505 E3117.017
G1 X91.067 Y59.466 E3117.031
G1 X73.696 Y59.464 E3117.898
G1 X73.275 Y59.494 E3117.919
G1 X73.058 Y59.532 E3117.93
G1 X72.844 Y59.585 E3117.941
G1 X72.428 Y59.735 E3117.963
G1 X72.023 Y59.95 E3117.986
G1 X71.68 Y60.198 E3118.007
G1 X71.372 Y60.491 E3118.028
G1 X71.088 Y60.85 E3118.051
G1 X70.97 Y61.038 E3118.062
G1 X70.769 Y61.444 E3118.085
G1 X70.638 Y61.835 E3118.105
G1 X70.587 Y62.071 E3118.117
G1 X70.539 Y62.41 E3118.134
G1 X68.051 Y84.196 E3119.228
G1 X67.958 Y85.06 E3119.272
G1 X67.621 Y89.074 E3119.473
G1 X67.129 Y96.971 E3119.867
G1 X66.823 Y103.539 E3120.195
G1 X66.75 Y107.026 E3120.369
G1 X66.751 Y108.671 E3120.451
G1 X66.763 Y108.877 E3120.462
G1 X66.808 Y109.129 E3120.475
G1 X66.863 Y109.327 E3120.485
G1 X66.984 Y109.639 E3120.501
G1 X67.224 Y110.074 E3120.526
G1 X67.526 Y110.484 E3120.552
G1 X67.724 Y110.706 E3120.566
G1 X67.945 Y110.921 E3120.582
G1 X68.375 Y111.268 E3120.609
G1 X68.81 Y111.528 E3120.635
G1 X69.009 Y111.624 E3120.646
G1 X69.355 Y111.745 E3120.664
G1 X69.655 Y111.808 E3120.679
G1 X69.9 Y111.824 E3120.692
G1 X85.991 E3121.494
G1 X86.524 Y111.782 E3121.521
G1 X86.862 Y111.719 E3121.538
G1 X87.2 Y111.635 E3121.556
G1 X87.597 Y111.508 E3121.576
G1 X88.006 Y111.348 E3121.598
G1 X88.489 Y111.123 E3121.625
G1 X89.028 Y110.826 E3121.656
G1 X89.582 Y110.473 E3121.688
G1 X90.227 Y110 E3121.728
G1 X90.826 Y109.494 E3121.767
G1 X91.472 Y108.87 E3121.812
G1 X92.016 Y108.272 E3121.853
G1 X92.509 Y107.647 E3121.892
G1 X92.892 Y107.097 E3121.926
G1 X93.201 Y106.588 E3121.955
G1 X93.468 Y106.083 E3121.984
G1 X93.693 Y105.578 E3122.011
G1 X93.851 Y105.142 E3122.035
G1 X93.959 Y104.777 E3122.053
G1 X94.032 Y104.453 E3122.07
G1 X94.078 Y104.166 E3122.085
G1 X94.111 Y103.66 E3122.11
G1 X94.11 Y62.544 E3124.161
G1 X94.08 Y62.282 E3124.174
;rapid-leaky
G1 F15000
G0 X93.72 Y62.347
;bead-perimeter_inner
G1 X93.653 Y62.082 F780 E3124.188
G1 X93.543 Y61.799 E3124.203
G1 X93.447 Y61.61 E3124.214
G1 X93.33 Y61.41 E3124.225
G1 X93.055 Y61.039 E3124.248
G1 X92.671 Y60.637 E3124.276
G1 X92.276 Y60.319 E3124.302
G1 X91.884 Y60.084 E3124.324
G1 X91.563 Y59.945 E3124.342
G1 X91.271 Y59.863 E3124.357
G1 X91.042 Y59.831 E3124.368
G1 X73.703 Y59.829 E3125.233
G1 X73.325 Y59.856 E3125.252
G1 X73.133 Y59.89 E3125.262
G1 X72.944 Y59.936 E3125.272
G1 X72.575 Y60.069 E3125.291
G1 X72.221 Y60.257 E3125.311
G1 X71.914 Y60.479 E3125.33
G1 X71.638 Y60.742 E3125.349
G1 X71.39 Y61.055 E3125.369
G1 X71.285 Y61.222 E3125.379
G1 X71.109 Y61.578 E3125.399
G1 X70.99 Y61.932 E3125.417
G1 X70.901 Y62.456 E3125.444
G1 X68.413 Y84.236 E3126.538
G1 X68.322 Y85.094 E3126.581
G1 X67.985 Y89.101 E3126.781
G1 X67.494 Y96.991 E3127.176
G1 X67.188 Y103.551 E3127.503
G1 X67.115 Y107.03 E3127.677
G1 X67.116 Y108.66 E3127.758
G1 X67.126 Y108.834 E3127.767
G1 X67.21 Y109.212 E3127.786
G1 X67.318 Y109.489 E3127.801
G1 X67.532 Y109.878 E3127.823
G1 X67.806 Y110.249 E3127.846
G1 X68.191 Y110.651 E3127.874
G1 X68.584 Y110.968 E3127.899
G1 X68.978 Y111.204 E3127.922
G1 X69.149 Y111.286 E3127.932
G1 X69.453 Y111.392 E3127.948
G1 X69.705 Y111.445 E3127.96
G1 X69.912 Y111.459 E3127.971
G1 X85.983 E3128.773
G1 X86.47 Y111.42 E3128.797
G1 X86.785 Y111.362 E3128.813
G1 X87.1 Y111.284 E3128.829
G1 X87.475 Y111.164 E3128.849
G1 X87.862 Y111.013 E3128.87
G1 X88.323 Y110.797 E3128.895
G1 X88.842 Y110.511 E3128.925
G1 X89.376 Y110.172 E3128.956
G1 X90.001 Y109.713 E3128.995
G1 X90.581 Y109.223 E3129.033
G1 X91.21 Y108.616 E3129.076
G1 X91.737 Y108.036 E3129.115
G1 X92.216 Y107.43 E3129.154
G1 X92.586 Y106.898 E3129.186
G1 X92.884 Y106.408 E3129.215
G1 X93.139 Y105.923 E3129.242
G1 X93.354 Y105.442 E3129.269
G1 X93.504 Y105.028 E3129.29
G1 X93.605 Y104.685 E3129.308
G1 X93.673 Y104.383 E3129.324
G1 X93.716 Y104.12 E3129.337
G1 X93.746 Y103.654 E3129.36
G1 X93.745 Y62.565 E3131.41
G1 X93.72 Y62.347 E3131.421
;rapid-leaky
G1 F15000
G0 X93.36 Y62.413
;bead-perimeter_outer
G1 X93.305 Y62.193 F540 E3131.432
G1 X93.21 Y61.948 E3131.446
G1 X93.022 Y61.606 E3131.465
G1 X92.775 Y61.273 E3131.486
G1 X92.609 Y61.087 E3131.498
G1 X92.22 Y60.733 E3131.524
G1 X91.911 Y60.518 E3131.543
G1 X91.575 Y60.341 E3131.562
G1 X91.196 Y60.221 E3131.582
G1 X91.017 Y60.196 E3131.591
G1 X73.71 Y60.194 E3132.454
G1 X73.375 Y60.218 E3132.471
G1 X73.208 Y60.247 E3132.48
G1 X73.043 Y60.287 E3132.488
G1 X72.723 Y60.403 E3132.505
G1 X72.419 Y60.564 E3132.522
G1 X72.148 Y60.76 E3132.539
G1 X71.904 Y60.993 E3132.556
G1 X71.793 Y61.124 E3132.564
G1 X71.601 Y61.405 E3132.581
G1 X71.449 Y61.712 E3132.598
G1 X71.343 Y62.029 E3132.615
G1 X71.264 Y62.502 E3132.639
G1 X68.776 Y84.276 E3133.732
G1 X68.685 Y85.129 E3133.775
G1 X68.35 Y89.127 E3133.975
G1 X67.858 Y97.011 E3134.369
G1 X67.553 Y103.563 E3134.697
G1 X67.48 Y107.034 E3134.87
G1 X67.481 Y108.65 E3134.95
G1 X67.489 Y108.791 E3134.958
G1 X67.557 Y109.097 E3134.973
G1 X67.651 Y109.34 E3134.986
G1 X67.735 Y109.503 E3134.995
G1 X67.945 Y109.835 E3135.015
G1 X68.252 Y110.201 E3135.039
G1 X68.436 Y110.381 E3135.052
G1 X68.793 Y110.669 E3135.074
G1 X69.146 Y110.88 E3135.095
G1 X69.288 Y110.948 E3135.103
G1 X69.551 Y111.04 E3135.117
G1 X69.755 Y111.083 E3135.127
G1 X69.924 Y111.094 E3135.136
G1 X85.974 E3135.936
G1 X86.417 Y111.059 E3135.958
G1 X86.707 Y111.006 E3135.973
G1 X87 Y110.932 E3135.988
G1 X87.353 Y110.82 E3136.007
G1 X87.718 Y110.677 E3136.026
G1 X88.158 Y110.471 E3136.051
G1 X88.656 Y110.197 E3136.079
G1 X89.17 Y109.87 E3136.109
G1 X89.775 Y109.426 E3136.147
G1 X90.336 Y108.952 E3136.183
G1 X90.948 Y108.361 E3136.226
G1 X91.459 Y107.799 E3136.264
G1 X91.923 Y107.212 E3136.301
G1 X92.28 Y106.699 E3136.332
G1 X92.566 Y106.228 E3136.36
G1 X92.811 Y105.764 E3136.386
G1 X93.016 Y105.305 E3136.411
G1 X93.157 Y104.914 E3136.432
G1 X93.252 Y104.593 E3136.448
G1 X93.314 Y104.314 E3136.463
G1 X93.354 Y104.073 E3136.475
G1 X93.381 Y103.648 E3136.496
G1 X93.38 Y62.586 E3138.545
G1 X93.36 Y62.413 E3138.553
G1 F1800 E3138.053
;rapid-dry
G1 F15000
G0 X67.607 Y50.859
G1 F1800 E3138.553
;bead-solid_infill
G1 X69.025 Y49.442 F1200 E3138.653
G1 X69.143 Y49.341 E3138.661
G1 X69.698 Y48.936 E3138.696
G1 X70.296 Y48.561 E3138.731
G1 X70.669 Y48.363 E3138.752
G1 X66.497 Y52.536 E3139.046
G1 X65.724 Y53.874 E3139.123
G1 X71.699 Y47.899 E3139.545
G1 X72.21 Y47.716 E3139.572
G1 X72.418 Y47.658 E3139.583
G1 X72.539 Y47.624 E3139.589
G1 X64.951 Y55.213 E3140.124
G1 X64.178 Y56.551 E3140.201
G1 X73.282 Y47.448 E3140.844
G1 X73.569 Y47.39 E3140.858
G1 X73.955 Y47.34 E3140.878
G1 X63.406 Y57.889 E3141.622
G1 X62.633 Y59.228 E3141.699
G1 X74.574 Y47.287 E3142.542
G1 X75.16 Y47.259 E3142.571
G1 X75.167
G1 X61.86 Y60.566 E3143.51
G1 X61.087 Y61.905 E3143.587
G1 X75.733 Y47.259 E3144.621
G1 X76.299 E3144.649
G1 X60.315 Y63.243 E3145.777
G1 X59.542 Y64.582 E3145.854
G1 X76.864 Y47.259 E3147.076
G1 X77.43 E3147.104
G1 X58.769 Y65.92 E3148.421
G1 X57.996 Y67.258 E3148.498
G1 X77.996 Y47.259 E3149.909
G1 X78.562 E3149.937
G1 X57.224 Y68.597 E3151.443
G1 X56.451 Y69.935 E3151.52
G1 X79.127 Y47.259 E3153.12
G1 X79.693 E3153.148
G1 X55.678 Y71.274 E3154.842
G1 X54.905 Y72.612 E3154.919
G1 X80.259 Y47.259 E3156.708
G1 X80.824 E3156.737
G1 X54.133 Y73.951 E3158.62
G1 X53.36 Y75.289 E3158.697
G1 X81.39 Y47.259 E3160.675
G1 X81.956 E3160.703
G1 X52.587 Y76.628 E3162.775
G1 X51.814 Y77.966 E3162.852
G1 X82.521 Y47.259 E3165.019
G1 X83.087 E3165.047
G1 X51.042 Y79.304 E3167.308
G1 X50.269 Y80.643 E3167.385
G1 X70.8 Y60.111 E3168.833
G1 X70.869 Y60.025 E3168.839
G1 X71.24 Y59.67 E3168.865
G1 X71.246 Y59.666
G1 X83.653 Y47.259 E3169.74
G1 X84.218 E3169.769
G1 X72.494 Y58.984 E3170.596
G1 X72.652 Y58.926 E3170.604
G1 X72.917 Y58.862 E3170.618
G1 X73.185 Y58.815 E3170.631
G1 X73.232 Y58.811 E3170.634
G1 X84.784 Y47.259 E3171.449
G1 X85.35 E3171.477
G1 X73.83 Y58.779 E3172.29
G1 X74.395 E3172.318
G1 X85.915 Y47.259 E3173.131
G1 X86.481 E3173.159
G1 X74.961 Y58.779 E3173.972
G1 X75.527 E3174
G1 X87.047 Y47.259 E3174.813
G1 X87.613 E3174.841
G1 X76.092 Y58.779 E3175.654
G1 X76.658 E3175.682
G1 X88.178 Y47.259 E3176.495
G1 X88.744 E3176.523
G1 X77.223 Y58.779 E3177.336
G1 X77.789 E3177.364
G1 X89.31 Y47.259 E3178.177
G1 X89.875 E3178.205
G1 X78.355 Y58.78 E3179.018
G1 X78.92 E3179.046
G1 X90.441 Y47.259 E3179.859
G1 X91.007 E3179.887
G1 X79.486 Y58.78 E3180.7
G1 X80.052 E3180.729
G1 X91.572 Y47.259 E3181.541
G1 X92.138 E3181.57
G1 X80.617 Y58.78 E3182.382
G1 X81.183 E3182.411
G1 X92.704 Y47.259 E3183.223
G1 X93.269 E3183.252
G1 X81.748 Y58.78 E3184.064
G1 X82.314 E3184.093
G1 X93.835 Y47.259 E3184.906
G1 X94.401 E3184.934
G1 X82.88 Y58.78 E3185.747
G1 X83.445 E3185.775
G1 X94.966 Y47.259 E3186.588
G1 X95.532 E3186.616
G1 X84.011 Y58.78 E3187.429
G1 X84.577 E3187.457
G1 X96.098 Y47.259 E3188.27
G1 X96.663 E3188.298
G1 X85.142 Y58.78 E3189.111
G1 X85.708 E3189.139
G1 X97.229 Y47.259 E3189.952
G1 X97.795 E3189.98
G1 X86.273 Y58.78 E3190.793
G1 X86.839 Y58.781 E3190.822
G1 X98.361 Y47.259 E3191.635
G1 X98.926 E3191.663
G1 X87.405 Y58.781 E3192.476
G1 X87.97 E3192.504
G1 X99.492 Y47.259 E3193.317
G1 X100.058 E3193.345
G1 X88.536 Y58.781 E3194.158
G1 X89.101 E3194.186
G1 X100.623 Y47.259 E3194.999
G1 X101.189 E3195.027
G1 X89.667 Y58.781 E3195.84
G1 X90.233 E3195.868
G1 X101.755 Y47.259 E3196.681
G1 X102.32 E3196.709
G1 X90.798 Y58.781 E3197.522
G1 X91.114 E3197.538
G1 X91.334 Y58.811 E3197.549
G1 X102.886 Y47.259 E3198.364
G1 X103.452 E3198.393
G1 X91.792 Y58.919 E3199.215
G1 X91.901 Y58.95 E3199.221
G1 X92.198 Y59.078 E3199.237
G1 X104.017 Y47.259 E3200.071
G1 X104.583 E3200.099
G1 X92.57 Y59.272 E3200.947
G1 X92.877 Y59.457 E3200.965
G1 X92.918 Y59.49 E3200.967
G1 X105.149 Y47.259 E3201.83
G1 X105.714 E3201.858
G1 X93.232 Y59.742 E3202.739
G1 X93.376 Y59.858 E3202.749
G1 X93.53 Y60.009 E3202.759
G1 X106.28 Y47.259 E3203.659
G1 X106.846 E3203.687
G1 X93.804 Y60.301 E3204.607
G1 X93.863 Y60.367 E3204.612
G1 X94.05 Y60.62 E3204.627
G1 X107.412 Y47.259 E3205.57
G1 X107.977 E3205.598
G1 X94.281 Y60.955 E3206.565
G1 X94.369 Y61.107 E3206.573
G1 X94.399 Y61.166 E3206.577
G1 X94.479 Y61.323 E3206.585
G1 X108.543 Y47.259 E3207.578
G1 X109.109 E3207.606
G1 X94.641 Y61.726 E3208.627
G1 X94.656 Y61.763 E3208.629
G1 X94.755 Y62.159 E3208.649
G1 X94.757 Y62.176 E3208.65
G1 X109.674 Y47.259 E3209.702
G1 X110.24 E3209.73
G1 X94.795 Y62.704 E3210.82
G1 Y63.27 E3210.848
G1 X110.806 Y47.259 E3211.978
G1 X111.371 E3212.006
G1 X94.795 Y63.835 E3213.176
G1 Y64.401 E3213.204
G1 X111.937 Y47.259 E3214.414
G1 X112.503 E3214.442
G1 X94.795 Y64.967 E3215.691
G1 Y65.532 E3215.719
G1 X113.068 Y47.259 E3217.009
G1 X113.634 E3217.037
G1 X94.795 Y66.098 E3218.366
G1 Y66.664 E3218.394
G1 X114.2 Y47.259 E3219.763
G1 X114.765 E3219.792
G1 X94.795 Y67.229 E3221.201
G1 Y67.795 E3221.229
G1 X115.331 Y47.259 E3222.678
G1 X115.897 E3222.706
G1 X94.795 Y68.361 E3224.195
G1 Y68.926 E3224.223
G1 X116.462 Y47.259 E3225.752
G1 X117.028 E3225.78
G1 X94.795 Y69.492 E3227.349
G1 Y70.058 E3227.377
G1 X117.594 Y47.259 E3228.985
G1 X118.16 E3229.014
G1 X94.795 Y70.623 E3230.662
G1 Y71.189 E3230.69
G1 X118.725 Y47.259 E3232.379
G1 X119.291 E3232.407
G1 X94.795 Y71.755 E3234.135
G1 Y72.32 E3234.164
G1 X119.857 Y47.259 E3235.932
G1 X120.422 E3235.96
G1 X94.795 Y72.886 E3237.768
G1 Y73.452 E3237.796
G1 X120.988 Y47.259 E3239.644
G1 X121.554 E3239.673
G1 X94.795 Y74.017 E3241.561
G1 Y74.583 E3241.589
G1 X122.119 Y47.259 E3243.517
G1 X122.685 E3243.545
G1 X94.795 Y75.149 E3245.512
G1 Y75.714 E3245.541
G1 X123.251 Y47.259 E3247.549
G1 X123.816 E3247.577
G1 X94.795 Y76.28 E3249.624
G1 Y76.846 E3249.653
G1 X124.382 Y47.259 E3251.74
G1 X124.948 E3251.768
G1 X94.795 Y77.411 E3253.896
G1 Y77.977 E3253.924
G1 X125.513 Y47.259 E3256.091
G1 X126.079 E3256.119
G1 X94.795 Y78.543 E3258.327
G1 Y79.108 E3258.355
G1 X126.645 Y47.259 E3260.602
G1 X127.211 E3260.63
G1 X94.795 Y79.674 E3262.917
G1 Y80.24 E3262.946
G1 X127.776 Y47.259 E3265.272
G1 X128.342 E3265.301
G1 X94.795 Y80.805 E3267.667
G1 Y81.371 E3267.696
G1 X128.908 Y47.259 E3270.103
G1 X129.473 E3270.131
