;PencilSharpenerGear
;Printer Name: Creality Ender 3
;Print time: 2073s
;Extruder 1 Material used: 2478mm
;Extruder 1 Material name: PLA 1.75mm
;Extruder 1 Filament diameter: 1.75mm
;Extruder 1 Nozzle diameter: 0.4mm
;Extruder 1 offset x: 0mm
;Extruder 1 offset y: 0mm
;Extruder 1 offset z: 0mm
;Max temp: 220
;Bed temp: 0
;Layer Count: 28
;width: 220mm
;depth: 220mm
;height: 250mm
;center x: 110mm
;center y: 110mm
;center z: 0mm
;Count of bodies: 1
;Version of Fusion: 2.0.8412
;--------------------------------
;Selected Profile: PLA 1.75mm, 0.4mm Nozzle
;Selected Printer: Creality, Ender 3
;--------------------------------
M104 S220
M105
M109 S220
G21
G90
M82
;Reset multiplier
M220 S100
M221 S100
;Enable auto bed leveling
M420 S1 Z2
G28
G1 Z10 F6000
G92 E0
G0 X0 Y0
G92 E0
;--------------------------------
;Layer : 1 of 28
M107
;rapid-leaky
G0 X10 Y10.8 Z0.3
G1 F1500 E1
;bead-prime
G1 X210 F270 E40.912
G1 F1500 E39.912
G1 F2400
G0 X209.2
G0 X210
;rapid-dry
G1 F15000
G0 X123.982 Y86.363
G1 F1500 E40.912
;bead-raft
G1 X116.154 F288 E42.084
G1 Y90.363 E42.682
G1 X129.223 E44.638
G1 X131.154 Y92.471 E45.066
G1 Y94.363 E45.349
G1 X116.154 E47.594
G1 Y98.363 E48.193
G1 X131.154 E50.438
G1 Y102.363 E51.037
G1 X116.154 E53.282
G1 Y106.363 E53.881
G1 X131.154 E56.126
G1 Y110.363 E56.724
G1 X116.154 E58.969
G1 Y114.363 E59.568
G1 X131.154 E61.813
G1 Y118.363 E62.412
G1 X116.154 E64.657
G1 Y122.363 E65.256
G1 X131.154 E67.501
G1 Y126.363 E68.099
G1 X116.154 E70.344
G1 Y130.363 E70.943
G1 X128.468 E72.786
G1 X122.922 Y134.363 E73.809
G1 X116.154 E74.822
G1 Y136.762 E75.181
G1 X99.254 Y135.413 E77.719
G1 Y134.363 E77.876
G1 X114.254 E80.121
G1 Y130.363 E80.72
G1 X99.254 E82.965
G1 Y126.363 E83.563
G1 X114.254 E85.808
G1 Y122.363 E86.407
G1 X99.254 E88.652
G1 Y118.363 E89.251
G1 X114.254 E91.496
G1 Y114.363 E92.095
G1 X99.254 E94.34
G1 Y110.363 E94.938
G1 X114.254 E97.183
G1 Y106.363 E97.782
G1 X99.254 E100.027
G1 Y102.363 E100.626
G1 X114.254 E102.871
G1 Y98.363 E103.47
G1 X99.254 E105.715
G1 Y94.363 E106.313
G1 X114.254 E108.558
G1 Y90.363 E109.157
G1 X99.254 E111.402
G1 Y86.363 E112.001
G1 X114.254 E114.246
G1 Y82.756 E114.786
G1 X97.354 Y85.456 E117.347
G1 Y86.363 E117.483
G1 X96.017 E117.683
G1 X90.776 Y90.363 E118.67
G1 X97.354 E119.655
G1 Y94.363 E120.253
G1 X87.424 E121.74
G1 X85.002 Y98.363 E122.44
G1 X97.354 E124.288
G1 Y102.363 E124.887
G1 X83.618 E126.943
G1 X82.629 Y106.363 E127.56
G1 X97.354 E129.764
G1 Y110.363 E130.362
G1 X82.384 E132.603
G1 X82.896 Y114.363 E133.206
G1 X97.354 E135.37
G1 Y118.363 E135.969
G1 X83.668 E138.018
G1 X85.451 Y122.363 E138.673
G1 X97.354 E140.455
G1 Y126.363 E141.053
G1 X87.748 E142.491
G1 X91.532 Y130.363 E143.315
G1 X97.354 E144.187
G1 Y134.363 E144.785
G1 X97.079 E144.827
;bead-raft
G1 F1500 E143.827
G1 F2400
G0 X97.354
G0 Y133.839
G0 Y134.363
G0 X97.079
;rapid-dry
G1 F15000
G0 X134.548 Y122.363
G1 F1500 E144.827
;bead-raft
G1 X133.054 F288 E145.05
G1 Y118.363 E145.649
G1 X136.328 E146.139
G1 X137.103 Y114.363 E146.749
G1 X133.054 E147.355
G1 Y110.363 E147.953
G1 X137.615 E148.636
G1 X137.361 Y106.363 E149.236
G1 X133.054 E149.88
G1 Y102.363 E150.479
G1 X136.381 E150.977
G1 X135.005 Y98.363 E151.61
G1 X133.054 E151.902
G1 Y95.027 E152.401
;bead-raft
G1 F1500 E151.401
G1 F2400
G0 Y95.827
G0 Y95.027
;Layer : 2 of 28
M106 S255
;rapid-leaky
G1 F15000
G0 X133.88 Y123.192 Z0.5
G1 F1500 E152.401
;bead-raft
G1 X122.94 Y134.131 F3600 E152.916
G1 X122.862 Y134.162 E152.918
G1 X122.39 Y134.485 E152.937
G1 X122.263 Y134.402 E152.943
G1 X121.47 Y134.719 E152.971
G1 X120.655 Y135.152 E153.002
G1 X120.639 Y135.282 E153.006
G1 X120.159 Y135.416 E153.023
G1 X119.659 Y135.682 E153.041
G1 X119.574 Y135.612 E153.045
G1 X135.495 Y119.691 E153.794
G1 X135.686 Y119.277 E153.809
G1 X135.828 Y119.251 E153.814
G1 X135.947 Y118.712 E153.832
G1 X136.155 Y118.261 E153.849
G1 X136.067 Y118.164 E153.853
G1 X136.263 Y117.268 E153.884
G1 X136.379 Y116.921 E153.896
G1 X116.781 Y136.519 E154.818
G1 X116.727 Y136.464 E154.82
G1 X115.899 Y136.602 E154.848
G1 X114.996 Y136.853 E154.879
G1 X114.951 Y136.979 E154.884
G1 X114.442 Y137.007 E154.901
G1 X114.394 Y137.021 E154.902
G1 X136.88 Y114.534 E155.96
G1 X136.898 Y114.365 E155.966
G1 X137.078 Y113.542 E155.994
G1 X137.215 Y113.485 E155.999
G1 X137.214 Y112.921 E156.017
G1 X137.319 Y112.445 E156.034
G1 X137.214 Y112.371 E156.038
G1 X137.213 Y112.316 E156.04
G1 X112.334 Y137.195 E157.21
G1 X112.058 Y137.241 E157.219
G1 X112 Y137.36 E157.224
G1 X111.503 Y137.333 E157.24
G1 X110.967 Y137.422 E157.258
G1 X110.89 Y137.299 E157.263
G1 X110.372 Y137.271 E157.28
G1 X137.4 Y110.243 E158.552
G1 X137.368 Y109.953 E158.561
G1 X137.419 Y109.478 E158.577
G1 X137.309 Y109.417 E158.581
G1 X137.213 Y108.544 E158.611
G1 X108.421 Y137.337 E159.965
G1 X107.992 Y137.361 E159.979
G1 X107.929 Y137.231 E159.984
G1 X107.066 Y137.09 E160.013
G1 X106.797 Y137.075 E160.022
G1 X137.204 Y106.668 E161.452
G1 Y106.514 E161.458
G1 X137.088 Y106.466 E161.462
G1 X136.884 Y105.546 E161.493
G1 X136.84 Y105.147 E161.506
G1 X105.032 Y136.955 E163.003
G1 X104.989 Y136.833 E163.007
G1 X104.227 Y136.627 E163.033
G1 X103.579 Y136.522 E163.055
G1 X136.548 Y103.553 E164.606
G1 X136.538 Y103.549
G1 X136.247 Y102.686 E164.636
G1 X136.117 Y102.098 E164.656
G1 X102.083 Y136.133 E166.257
G1 X101.148 Y135.761 E166.291
G1 X100.7 Y135.63 E166.306
G1 X135.666 Y100.663 E167.951
G1 X135.309 Y99.895 E167.979
G1 X135.118 Y99.326 E167.999
G1 X99.31 Y135.134 E169.683
G1 X98.551 Y134.73 E169.712
G1 X98.034 Y134.525 E169.73
G1 X134.567 Y97.991 E171.449
G1 X134.534 Y97.989 E171.45
G1 X134.049 Y97.186 E171.481
G1 X133.87 Y96.802 E171.495
G1 X96.689 Y133.984 E173.244
G1 X96.686 Y133.854 E173.248
G1 X95.91 Y133.326 E173.28
G1 X95.617 Y133.17 E173.291
G1 X133.272 Y95.515 E175.062
G1 X133.223 Y95.411 E175.066
G1 X133.099 Y95.415 E175.07
G1 X132.517 Y94.653 E175.102
G1 X132.416 Y94.486 E175.108
G1 X94.387 Y132.515 E176.897
G1 X94.166 Y132.398 E176.905
G1 X94.178 Y132.267 E176.91
G1 X93.47 Y131.663 E176.941
G1 X93.4 Y131.616 E176.943
G1 X131.705 Y93.311 E178.745
G1 X131.507 Y92.983 E178.758
G1 X131.383 Y93.001 E178.762
G1 X130.772 Y92.359 E178.792
G1 X92.274 Y130.857 E180.602
G1 X92.251 Y130.833 E180.604
G1 X91.85 Y130.56 E180.62
G1 X91.875 Y130.436 E180.624
G1 X91.357 Y129.888 E180.649
G1 X129.979 Y91.266 E182.466
G1 X129.839 Y91.148 E182.472
G1 X129.541 Y90.758 E182.488
G1 X129.417 Y90.79 E182.492
G1 X128.958 Y90.401 E182.512
G1 X90.304 Y129.055 E184.33
G1 X90.111 Y128.802 E184.341
G1 X89.728 Y128.475 E184.358
G1 X89.768 Y128.35 E184.362
G1 X89.49 Y127.984 E184.377
G1 X128.085 Y89.389 E186.193
G1 X127.702 Y89.129 E186.208
G1 X127.347 Y88.755 E186.225
G1 X127.221 Y88.803 E186.23
G1 X126.961 Y88.627 E186.24
G1 X88.587 Y127.001 E188.045
G1 X88.48 Y127.017 E188.049
G1 X88.199 Y126.55 E188.067
G1 X87.845 Y126.175 E188.084
G1 X87.9 Y126.051 E188.089
G1 X87.807 Y125.896 E188.095
G1 X125.897 Y87.805 E189.886
G1 X125.821 Y87.741 E189.89
G1 X125.834 Y87.594 E189.895
G1 X125.338 Y87.332 E189.913
G1 X124.954 Y87.006 E189.93
G1 X124.836 Y87.066 E189.934
G1 X124.78 Y87.037 E189.937
G1 X87.048 Y124.769 E191.711
G1 X86.914 Y124.593 E191.719
G1 X86.772 Y124.598 E191.723
G1 X86.544 Y124.105 E191.741
G1 X86.234 Y123.697 E191.759
G1 X123.591 Y86.34 E193.516
G1 X123.314 Y86.152 E193.527
G1 X123.311 Y86.013 E193.531
G1 X122.819 Y85.816 E193.549
G1 X122.467 Y85.578 E193.563
G1 X85.684 Y122.362 E195.293
G1 X85.468 Y122.003 E195.307
G1 X85.322 Y121.993 E195.312
G1 X85.145 Y121.466 E195.331
G1 X84.976 Y121.184 E195.342
G1 X121.08 Y85.079 E197.04
G1 X120.657 Y84.855 E197.056
G1 X120.644 Y84.755 E197.059
G1 X120.25 Y84.64 E197.073
G1 X119.847 Y84.427 E197.088
G1 X84.528 Y119.746 E198.749
G1 X84.312 Y119.278 E198.766
G1 X84.171 Y119.253 E198.771
G1 X84.055 Y118.722 E198.789
G1 X83.932 Y118.457 E198.799
G1 X118.351 Y84.038 E200.418
G1 X117.868 Y83.845 E200.435
G1 X117.836 Y83.713 E200.44
G1 X117.326 Y83.629 E200.457
G1 X117.002 Y83.501 E200.469
G1 X83.612 Y116.891 E202.039
G1 X83.466 Y116.457 E202.054
G1 X83.319 Y116.413 E202.059
G1 X83.257 Y115.832 E202.079
G1 X83.139 Y115.479 E202.091
G1 X115.357 Y83.261 E203.607
G1 X115.012 Y83.168 E203.619
G1 X114.96 Y83.021 E203.624
G1 X114.343 Y82.987 E203.644
G1 X113.895 Y82.866 E203.66
G1 X113.822 Y82.958 E203.664
G1 X113.776 Y82.956 E203.665
G1 X82.969 Y113.763 E205.114
G1 X82.921 Y113.546 E205.122
G1 X82.784 Y113.488 E205.127
G1 X82.785 Y112.92 E205.146
G1 X82.679 Y112.44 E205.162
G1 X82.786 Y112.366 E205.166
G1 Y112.06 E205.176
G1 X112.079 Y82.767 E206.554
G1 X112.069 Y82.765 E206.555
G1 X112.011 Y82.645 E206.559
G1 X111.501 Y82.672 E206.576
G1 X110.956 Y82.582 E206.594
G1 X110.879 Y82.705 E206.599
G1 X110.221 Y82.74 E206.621
G1 X82.584 Y110.376 E207.921
G1 X82.631 Y109.954 E207.935
G1 X82.58 Y109.474 E207.951
G1 X82.69 Y109.413 E207.955
G1 X82.792 Y108.486 E207.986
G1 Y108.282 E207.993
G1 X108.412 Y82.663 E209.198
G1 X107.983 Y82.639 E209.213
G1 X107.921 Y82.767 E209.217
G1 X107.07 Y82.907 E209.246
G1 X106.238 Y82.951 E209.274
G1 X82.964 Y106.225 E210.368
G1 X83.116 Y105.545 E210.392
G1 X83.206 Y104.718 E210.419
G1 X83.094 Y104.62 E210.424
G1 X83.277 Y104.08 E210.443
G1 X83.283 Y104.02 E210.445
G1 X103.871 Y83.432 E211.414
G1 X103.269 Y83.532 E211.434
G1 X103.173 Y83.434 E211.438
G1 X102.685 Y83.627 E211.456
G1 X102.155 Y83.715 E211.474
G1 X102.122 Y83.851 E211.478
G1 X101.326 Y84.167 E211.507
G1 X101.222 Y84.196 E211.511
G1 X83.972 Y101.446 E212.322
G1 X84.078 Y101.217 E212.33
G1 X84.183 Y100.747 E212.346
G1 X84.307 Y100.724 E212.351
G1 X84.701 Y99.875 E212.382
G1 X84.968 Y99.086 E212.409
G1 X84.876 Y98.962 E212.415
G1 X85.181 Y98.458 E212.434
G1 X85.235 Y98.297 E212.44
G1 X98.074 Y85.458 E213.044
G1 X97.731 Y85.594 E213.056
G1 X97.617 Y85.52 E213.061
G1 X97.192 Y85.809 E213.078
G1 X96.689 Y86.008 E213.096
G1 X96.686 Y86.152 E213.1
G1 X95.96 Y86.644 E213.13
G1 X95.159 Y87.068 E213.16
G1 X95.042 Y87.008 E213.164
G1 X94.662 Y87.331 E213.181
G1 X94.166 Y87.593 E213.199
G1 X94.18 Y87.739 E213.204
G1 X93.518 Y88.301 E213.233
G1 X92.984 Y88.663 E213.255
G1 X88.051 Y93.596 E213.487
;bead-raft
G1 F1500 E212.487
G1 F2400
G0 X88.616 Y93.03
G0 X88.051 Y93.596
;Layer : 3 of 28
;rapid-dry
G1 F15000
G0 X88.072 Y93.863 Z0.8
G1 F1500 E213.487
;bead-raft
G1 X88.405 Y93.514 F3600 E213.511
G1 X88.594 Y93.201 E213.529
G1 X88.689 Y93.215 E213.534
G1 X89.456 Y92.408 E213.589
G1 X89.991 Y91.715 E213.633
G1 X89.95 Y91.588 E213.639
G1 X90.348 Y91.251 E213.666
G1 X90.55 Y90.989 E213.682
G1 X90.632 Y91.01 E213.686
G1 X91.421 Y90.341 E213.738
G1 X92.086 Y89.641 E213.786
G1 X92.064 Y89.529 E213.792
G1 X92.428 Y89.282 E213.814
G1 X92.704 Y88.991 E213.834
G1 X92.802 Y89.028 E213.839
G1 X93.639 Y88.46 E213.889
G1 X94.389 Y87.825 E213.938
G1 X94.378 Y87.707 E213.944
G1 X94.774 Y87.497 E213.967
G1 X95.07 Y87.247 E213.986
G1 X95.161 Y87.293 E213.991
G1 X96.064 Y86.815 E214.042
G1 X96.884 Y86.259 E214.092
G1 X96.886 Y86.145 E214.097
G1 X97.286 Y85.986 E214.119
G1 X97.619 Y85.76 E214.139
G1 X97.708 Y85.819 E214.144
G1 X98.669 Y85.437 E214.196
G1 X99.52 Y84.987 E214.244
G1 X99.535 Y84.869 E214.25
G1 X99.971 Y84.749 E214.272
G1 X100.323 Y84.562 E214.292
G1 X100.403 Y84.629 E214.297
G1 X101.39 Y84.357 E214.348
G1 X102.293 Y83.998 E214.397
G1 X102.319 Y83.89 E214.402
G1 X102.738 Y83.821 E214.424
G1 X103.123 Y83.669 E214.444
G1 X103.198 Y83.746 E214.45
G1 X104.198 Y83.581 E214.5
G1 X105.143 Y83.321 E214.549
G1 X105.183 Y83.207 E214.555
G1 X105.643 Y83.183 E214.578
G1 X106.011 Y83.081 E214.597
G1 X106.073 Y83.16 E214.602
G1 X107.092 Y83.106 E214.653
G1 X108.057 Y82.947 E214.702
G1 X108.105 Y82.846 E214.707
G1 X108.53 Y82.87 E214.729
G1 X108.937 Y82.803 E214.749
G1 X108.995 Y82.895 E214.755
G1 X110.018 Y82.951 E214.806
G1 X110.994 Y82.899 E214.854
G1 X111.055 Y82.801 E214.86
G1 X111.49 Y82.873 E214.882
G1 X111.889 Y82.852 E214.902
G1 X111.935 Y82.946 E214.907
G1 X112.934 Y83.11 E214.958
G1 X113.916 Y83.164 E215.007
G1 X113.971 Y83.093 E215.011
G1 X114.311 Y83.185 E215.029
G1 X114.816 Y83.213 E215.054
G1 X114.858 Y83.333 E215.061
G1 X115.739 Y83.571 E215.106
G1 X116.794 Y83.745 E215.159
G1 X116.873 Y83.664 E215.165
G1 X117.272 Y83.823 E215.186
G1 X117.673 Y83.889 E215.207
G1 X117.697 Y83.993 E215.212
G1 X118.763 Y84.417 E215.269
G1 X119.577 Y84.653 E215.312
G1 X119.683 Y84.566 E215.318
G1 X120.175 Y84.827 E215.346
G1 X120.462 Y84.91 E215.361
G1 X120.472 Y84.984 E215.365
G1 X121.339 Y85.442 E215.414
G1 X122.283 Y85.818 E215.464
G1 X122.376 Y85.758 E215.47
G1 X122.725 Y85.994 E215.491
G1 X123.114 Y86.149 E215.512
G1 X123.116 Y86.259 E215.517
G1 X123.938 Y86.818 E215.567
G1 X124.834 Y87.291 E215.618
G1 X124.926 Y87.244 E215.623
G1 X125.226 Y87.498 E215.642
G1 X125.623 Y87.709 E215.665
G1 X125.612 Y87.826 E215.671
G1 X126.36 Y88.46 E215.719
G1 X127.195 Y89.027 E215.77
G1 X127.293 Y88.989 E215.775
G1 X127.572 Y89.282 E215.795
G1 X127.929 Y89.525 E215.817
G1 X127.907 Y89.635 E215.822
G1 X128.578 Y90.341 E215.871
G1 X129.367 Y91.01 E215.923
G1 X129.463 Y90.985 E215.928
G1 X129.693 Y91.287 E215.946
G1 X130.043 Y91.583 E215.969
G1 X130.007 Y91.697 E215.975
G1 X130.579 Y92.446 E216.022
G1 X131.309 Y93.214 E216.075
G1 X131.404 Y93.2 E216.08
G1 X131.594 Y93.514 E216.098
G1 X131.921 Y93.858 E216.122
G1 X131.871 Y93.972 E216.128
G1 X132.351 Y94.766 E216.175
G1 X133.003 Y95.619 E216.228
G1 X133.098 Y95.615 E216.233
G1 X133.249 Y95.941 E216.251
G1 X133.538 Y96.32 E216.274
G1 X133.476 Y96.428 E216.281
G1 X133.872 Y97.28 E216.328
G1 X134.417 Y98.181 E216.38
G1 X134.524 Y98.189 E216.386
G1 X134.652 Y98.571 E216.406
G1 X134.879 Y98.945 E216.427
G1 X134.81 Y99.039 E216.433
G1 X135.123 Y99.97 E216.482
G1 X135.558 Y100.904 E216.534
G1 X135.65 Y100.921 E216.538
G1 X135.727 Y101.269 E216.556
G1 X135.928 Y101.7 E216.58
G1 X135.844 Y101.792 E216.586
G1 X136.054 Y102.739 E216.634
G1 X136.382 Y103.712 E216.686
G1 X136.484 Y103.742 E216.691
G1 X136.529 Y104.15 E216.711
G1 X136.666 Y104.557 E216.733
G1 X136.582 Y104.631 E216.738
G1 X136.686 Y105.578 E216.786
G1 X136.915 Y106.61 E216.839
G1 X137.004 Y106.647 E216.844
G1 Y107.01 E216.862
G1 X137.106 Y107.466 E216.885
G1 X137.005 Y107.537 E216.891
G1 X137.007 Y108.498 E216.939
G1 X137.122 Y109.542 E216.991
G1 X137.206 Y109.589 E216.996
G1 X137.167 Y109.954 E217.015
G1 X137.217 Y110.41 E217.037
G1 X137.112 Y110.468 E217.043
G1 X137.012 Y111.411 E217.091
G1 X137.014 Y112.475 E217.144
G1 X137.095 Y112.532 E217.149
G1 X137.014 Y112.899 E217.168
G1 X137.015 Y113.352 E217.19
G1 X136.905 Y113.398 E217.196
G1 X136.701 Y114.333 E217.244
G1 X136.59 Y115.368 E217.296
G1 X136.668 Y115.436 E217.301
G1 X136.544 Y115.805 E217.32
G1 X136.496 Y116.257 E217.343
G1 X136.38 Y116.291 E217.349
G1 X136.07 Y117.214 E217.398
G1 X135.849 Y118.222 E217.449
G1 X135.918 Y118.297 E217.454
G1 X135.756 Y118.648 E217.473
G1 X135.662 Y119.078 E217.495
G1 X135.548 Y119.099 E217.501
G1 X135.135 Y119.994 E217.55
G1 X134.807 Y120.969 E217.602
G1 X134.869 Y121.053 E217.607
G1 X134.665 Y121.392 E217.627
G1 X134.527 Y121.802 E217.648
G1 X134.413 Y121.811 E217.654
G1 X133.911 Y122.647 E217.703
G1 X133.477 Y123.588 E217.754
G1 X133.522 Y123.666 E217.759
G1 X133.312 Y123.945 E217.776
G1 X133.109 Y124.385 E217.8
G1 X132.984 Y124.38 E217.807
G1 X132.419 Y125.131 E217.853
G1 X131.87 Y126.044 E217.907
G1 X131.912 Y126.14 E217.912
G1 X131.64 Y126.427 E217.932
G1 X131.416 Y126.8 E217.953
G1 X131.303 Y126.784 E217.959
G1 X130.561 Y127.568 E218.013
G1 X129.997 Y128.298 E218.059
G1 X130.034 Y128.415 E218.065
G1 X129.661 Y128.732 E218.089
G1 X129.448 Y129.009 E218.107
G1 X129.363 Y128.987 E218.111
G1 X128.624 Y129.616 E218.16
G1 X127.91 Y130.371 E218.211
G1 X127.929 Y130.466 E218.216
G1 X127.623 Y130.675 E218.235
G1 X127.304 Y131.012 E218.258
G1 X127.191 Y130.969 E218.264
G1 X126.41 Y131.502 E218.311
G1 X125.605 Y132.187 E218.364
G1 X125.614 Y132.287 E218.369
G1 X125.275 Y132.468 E218.388
G1 X124.936 Y132.756 E218.41
G1 X124.832 Y132.703 E218.416
G1 X123.99 Y133.152 E218.464
G1 X123.107 Y133.753 E218.517
G1 X123.105 Y133.85 E218.522
G1 X122.768 Y133.985 E218.54
G1 X122.387 Y134.244 E218.563
G1 X122.285 Y134.177 E218.569
G1 X121.385 Y134.537 E218.617
G1 X120.47 Y135.024 E218.669
G1 X120.457 Y135.125 E218.674
G1 X120.085 Y135.229 E218.693
G1 X119.684 Y135.442 E218.716
G1 X119.591 Y135.366 E218.722
G1 X118.665 Y135.624 E218.77
G1 X117.695 Y136.012 E218.822
G1 X117.672 Y136.104 E218.827
G1 X117.316 Y136.163 E218.845
G1 X116.882 Y136.336 E218.868
G1 X116.797 Y136.25 E218.874
G1 X115.856 Y136.406 E218.922
G1 X114.843 Y136.688 E218.974
G1 X114.807 Y136.787 E218.98
G1 X114.409 Y136.809 E219
G1 X113.993 Y136.925 E219.021
G1 X113.923 Y136.835 E219.027
G1 X112.958 Y136.888 E219.075
G1 X111.923 Y137.061 E219.127
G1 X111.878 Y137.153 E219.132
G1 X111.492 Y137.132 E219.152
G1 X111.066 Y137.203 E219.173
G1 X111.005 Y137.105 E219.179
G1 X109.999 Y137.05 E219.229
G1 X108.99 Y137.106 E219.28
G1 X108.936 Y137.192 E219.285
G1 X108.553 Y137.13 E219.304
G1 X108.114 Y137.154 E219.326
G1 X108.064 Y137.05 E219.332
G1 X107.088 Y136.891 E219.381
G1 X106.069 Y136.835 E219.432
G1 X106.015 Y136.904 E219.436
G1 X105.682 Y136.814 E219.454
G1 X105.184 Y136.787 E219.478
G1 X105.142 Y136.668 E219.485
G1 X104.269 Y136.432 E219.53
G1 X103.189 Y136.256 E219.584
G1 X103.118 Y136.328 E219.59
G1 X102.758 Y136.185 E219.609
G1 X102.329 Y136.116 E219.631
G1 X102.302 Y136.004 E219.636
G1 X101.213 Y135.572 E219.695
G1 X100.43 Y135.342 E219.735
G1 X100.311 Y135.44 E219.743
G1 X99.753 Y135.143 E219.775
G1 X99.537 Y135.079 E219.786
G1 X99.53 Y135.024 E219.789
G1 X98.635 Y134.548 E219.839
G1 X97.704 Y134.179 E219.889
G1 X97.609 Y134.241 E219.895
G1 X97.258 Y134.002 E219.916
G1 X96.886 Y133.854 E219.936
G1 X96.885 Y133.747 E219.941
G1 X96.014 Y133.154 E219.994
G1 X95.175 Y132.708 E220.041
G1 X95.068 Y132.762 E220.047
G1 X94.721 Y132.467 E220.07
G1 X94.378 Y132.284 E220.089
G1 X94.387 Y132.182 E220.095
G1 X93.592 Y131.504 E220.147
G1 X92.804 Y130.968 E220.194
G1 X92.693 Y131.01 E220.2
G1 X92.381 Y130.68 E220.223
G1 X92.072 Y130.469 E220.241
G1 X92.092 Y130.374 E220.246
G1 X91.373 Y129.614 E220.298
G1 X90.637 Y128.987 E220.347
G1 X90.525 Y129.015 E220.352
G1 X90.258 Y128.663 E220.375
G1 X89.959 Y128.409 E220.394
G1 X89.99 Y128.312 E220.399
G1 X89.374 Y127.501 E220.45
G1 X88.695 Y126.783 E220.499
G1 X88.583 Y126.799 E220.505
G1 X88.36 Y126.428 E220.527
G1 X88.082 Y126.134 E220.547
G1 X88.125 Y126.037 E220.552
G1 X87.605 Y125.171 E220.602
G1 X87.01 Y124.389 E220.652
G1 X86.897 Y124.393 E220.657
G1 X86.716 Y124.002 E220.679
G1 X86.466 Y123.673 E220.699
G1 X86.521 Y123.579 E220.705
G1 X86.095 Y122.659 E220.755
G1 X85.586 Y121.811 E220.805
G1 X85.469 Y121.803 E220.81
G1 X85.328 Y121.381 E220.833
G1 X85.127 Y121.047 E220.852
G1 X85.188 Y120.964 E220.857
G1 X84.862 Y119.992 E220.908
G1 X84.45 Y119.1 E220.957
G1 X84.338 Y119.08 E220.963
G1 X84.245 Y118.658 E220.985
G1 X84.077 Y118.294 E221.005
G1 X84.148 Y118.216 E221.01
G1 X83.925 Y117.197 E221.062
G1 X83.623 Y116.294 E221.109
G1 X83.504 Y116.259 E221.116
G1 X83.454 Y115.789 E221.139
G1 X83.337 Y115.441 E221.158
G1 X83.41 Y115.377 E221.162
G1 X83.299 Y114.333 E221.215
G1 X83.095 Y113.401 E221.262
G1 X82.984 Y113.355 E221.268
G1 X82.985 Y112.899 E221.291
G1 X82.903 Y112.527 E221.31
G1 X82.985 Y112.47 E221.315
G1 X82.987 Y111.411 E221.368
G1 X82.887 Y110.472 E221.415
G1 X82.781 Y110.414 E221.421
G1 X82.832 Y109.954 E221.444
G1 X82.792 Y109.585 E221.463
G1 X82.878 Y109.538 E221.467
G1 X82.992 Y108.497 E221.52
G1 X82.994 Y107.542 E221.567
G1 X82.892 Y107.471 E221.574
G1 X82.995 Y107.011 E221.597
G1 Y106.644 E221.615
G1 X83.084 Y106.607 E221.62
G1 X83.313 Y105.578 E221.673
G1 X83.417 Y104.637 E221.72
G1 X83.326 Y104.557 E221.726
G1 X83.473 Y104.123 E221.749
G1 X83.515 Y103.74 E221.768
G1 X83.613 Y103.711 E221.773
G1 X83.949 Y102.717 E221.826
G1 X84.157 Y101.785 E221.873
G1 X84.076 Y101.696 E221.879
G1 X84.269 Y101.281 E221.902
G1 X84.349 Y100.92 E221.92
G1 X84.445 Y100.902 E221.925
G1 X84.887 Y99.95 E221.978
G1 X85.191 Y99.052 E222.025
G1 X85.117 Y98.951 E222.031
G1 X85.363 Y98.543 E222.055
G1 X85.48 Y98.197 E222.073
G1 X85.577 Y98.19 E222.078
G1 X86.122 Y97.289 E222.131
G1 X86.525 Y96.421 E222.178
G1 X86.48 Y96.344 E222.183
G1 X86.692 Y96.062 E222.2
G1 X86.899 Y95.615 E222.225
G1 X87.022 Y95.62 E222.231
G1 X87.59 Y94.861 E222.278
G1 X88.124 Y93.979 E222.33
G1 X88.072 Y93.863 E222.336
;bead-raft
G1 F1500 E221.336
G1 F2400
G0 X88.405 Y93.514
G0 X88.569 Y93.242
G0 X88.405 Y93.514
G0 X88.072 Y93.863
;rapid-leaky
G1 F15000
G0 X87.899 Y93.965
G1 F1500 E222.336
;bead-raft
G1 X87.835 Y93.823 F3600 E222.344
G1 X88.245 Y93.392 E222.374
G1 X88.492 Y92.984 E222.397
G1 X88.615 Y93.002 E222.404
G1 X89.304 Y92.278 E222.453
G1 X89.768 Y91.676 E222.491
G1 X89.719 Y91.522 E222.499
G1 X90.203 Y91.112 E222.531
G1 X90.472 Y90.762 E222.553
G1 X90.582 Y90.79 E222.559
G1 X91.284 Y90.195 E222.605
G1 X91.87 Y89.579 E222.647
G1 X91.841 Y89.438 E222.654
G1 X92.298 Y89.128 E222.682
G1 X92.651 Y88.757 E222.707
G1 X92.775 Y88.805 E222.714
G1 X93.518 Y88.301 E222.759
G1 X94.18 Y87.739 E222.802
G1 X94.166 Y87.593 E222.809
G1 X94.662 Y87.331 E222.837
G1 X95.042 Y87.008 E222.862
G1 X95.159 Y87.068 E222.869
G1 X95.96 Y86.644 E222.914
G1 X96.686 Y86.152 E222.958
G1 X96.689 Y86.008 E222.965
G1 X97.192 Y85.809 E222.992
G1 X97.617 Y85.52 E223.018
G1 X97.731 Y85.594 E223.024
G1 X98.586 Y85.255 E223.07
G1 X99.334 Y84.859 E223.112
G1 X99.352 Y84.712 E223.12
G1 X99.896 Y84.562 E223.148
G1 X100.347 Y84.323 E223.173
G1 X100.451 Y84.409 E223.18
G1 X101.326 Y84.167 E223.225
G1 X102.122 Y83.851 E223.268
G1 X102.155 Y83.715 E223.275
G1 X102.685 Y83.627 E223.302
G1 X103.173 Y83.434 E223.328
G1 X103.269 Y83.532 E223.335
G1 X104.155 Y83.386 E223.38
G1 X104.989 Y83.156 E223.423
G1 X105.039 Y83.014 E223.43
G1 X105.61 Y82.984 E223.459
G1 X106.086 Y82.853 E223.484
G1 X106.166 Y82.955 E223.49
G1 X107.07 Y82.907 E223.535
G1 X107.921 Y82.767 E223.578
G1 X107.983 Y82.639 E223.585
G1 X108.519 Y82.669 E223.612
G1 X109.036 Y82.584 E223.638
G1 X109.11 Y82.701 E223.645
G1 X110.018 Y82.751 E223.691
G1 X110.879 Y82.705 E223.734
G1 X110.956 Y82.582 E223.741
G1 X111.501 Y82.672 E223.768
G1 X112.011 Y82.645 E223.794
G1 X112.069 Y82.765 E223.801
G1 X112.955 Y82.911 E223.845
G1 X113.822 Y82.958 E223.889
G1 X113.895 Y82.866 E223.895
G1 X114.343 Y82.987 E223.918
G1 X114.96 Y83.021 E223.948
G1 X115.012 Y83.168 E223.956
G1 X115.781 Y83.375 E223.996
G1 X116.724 Y83.53 E224.044
G1 X116.823 Y83.429 E224.051
G1 X117.326 Y83.629 E224.078
G1 X117.836 Y83.713 E224.104
G1 X117.868 Y83.845 E224.11
G1 X118.828 Y84.227 E224.162
G1 X119.532 Y84.432 E224.198
G1 X119.659 Y84.327 E224.207
G1 X120.25 Y84.64 E224.24
G1 X120.644 Y84.755 E224.261
G1 X120.657 Y84.855 E224.266
G1 X121.423 Y85.261 E224.309
G1 X122.261 Y85.594 E224.354
G1 X122.378 Y85.517 E224.361
G1 X122.819 Y85.816 E224.387
G1 X123.311 Y86.013 E224.414
G1 X123.314 Y86.152 E224.421
G1 X124.042 Y86.646 E224.465
G1 X124.836 Y87.066 E224.509
G1 X124.954 Y87.006 E224.516
G1 X125.338 Y87.332 E224.541
G1 X125.834 Y87.594 E224.569
G1 X125.821 Y87.741 E224.577
G1 X126.481 Y88.301 E224.62
G1 X127.221 Y88.803 E224.664
G1 X127.347 Y88.755 E224.671
G1 X127.702 Y89.129 E224.697
G1 X128.151 Y89.434 E224.724
G1 X128.123 Y89.572 E224.731
G1 X128.716 Y90.195 E224.774
G1 X129.417 Y90.79 E224.82
G1 X129.541 Y90.758 E224.826
G1 X129.839 Y91.148 E224.851
G1 X130.274 Y91.517 E224.879
G1 X130.229 Y91.658 E224.886
G1 X130.731 Y92.316 E224.928
G1 X131.383 Y93.001 E224.975
G1 X131.507 Y92.983 E224.981
G1 X131.754 Y93.392 E225.005
G1 X132.158 Y93.817 E225.034
G1 X132.096 Y93.957 E225.042
G1 X132.517 Y94.653 E225.083
G1 X133.099 Y95.415 E225.13
G1 X133.223 Y95.411 E225.137
G1 X133.421 Y95.837 E225.16
G1 X133.778 Y96.304 E225.189
G1 X133.701 Y96.438 E225.197
G1 X134.049 Y97.186 E225.238
G1 X134.534 Y97.989 E225.285
G1 X134.671 Y97.998 E225.292
G1 X134.835 Y98.486 E225.318
G1 X135.119 Y98.956 E225.345
G1 X135.033 Y99.074 E225.352
G1 X135.309 Y99.895 E225.395
G1 X135.695 Y100.726 E225.441
G1 X135.816 Y100.748 E225.447
G1 X135.918 Y101.205 E225.471
G1 X136.166 Y101.737 E225.5
G1 X136.062 Y101.851 E225.508
G1 X136.247 Y102.686 E225.55
G1 X136.538 Y103.549 E225.596
G1 X136.668 Y103.588 E225.603
G1 X136.725 Y104.107 E225.629
G1 X136.898 Y104.619 E225.656
G1 X136.792 Y104.712 E225.663
G1 X136.884 Y105.546 E225.704
G1 X137.088 Y106.466 E225.751
G1 X137.204 Y106.514 E225.758
G1 Y106.988 E225.781
G1 X137.33 Y107.553 E225.81
G1 X137.206 Y107.641 E225.818
G1 X137.207 Y108.486 E225.86
G1 X137.309 Y109.417 E225.907
G1 X137.419 Y109.478 E225.913
G1 X137.368 Y109.953 E225.937
G1 X137.431 Y110.52 E225.965
G1 X137.3 Y110.592 E225.973
G1 X137.212 Y111.421 E226.014
G1 X137.214 Y112.371 E226.062
G1 X137.319 Y112.445 E226.068
G1 X137.214 Y112.921 E226.092
G1 X137.215 Y113.485 E226.121
G1 X137.078 Y113.542 E226.128
G1 X136.898 Y114.365 E226.17
G1 X136.8 Y115.286 E226.216
G1 X136.9 Y115.374 E226.223
G1 X136.74 Y115.848 E226.248
G1 X136.68 Y116.411 E226.276
G1 X136.537 Y116.454 E226.284
G1 X136.263 Y117.268 E226.326
G1 X136.067 Y118.164 E226.372
G1 X136.155 Y118.261 E226.379
G1 X135.947 Y118.712 E226.403
G1 X135.828 Y119.251 E226.431
G1 X135.686 Y119.277 E226.438
G1 X135.321 Y120.068 E226.482
G1 X135.03 Y120.934 E226.527
G1 X135.108 Y121.042 E226.534
G1 X134.847 Y121.476 E226.559
G1 X134.674 Y121.992 E226.586
G1 X134.531 Y122.003 E226.594
G1 X134.088 Y122.741 E226.637
G1 X133.702 Y123.578 E226.682
G1 X133.761 Y123.681 E226.688
G1 X133.484 Y124.048 E226.711
G1 X133.235 Y124.59 E226.741
G1 X133.081 Y124.584 E226.749
G1 X132.585 Y125.243 E226.79
G1 X132.095 Y126.059 E226.837
G1 X132.148 Y126.181 E226.844
G1 X131.8 Y126.549 E226.869
G1 X131.519 Y127.018 E226.897
G1 X131.376 Y126.997 E226.904
G1 X130.713 Y127.698 E226.952
G1 X130.219 Y128.337 E226.992
G1 X130.265 Y128.481 E227
G1 X129.807 Y128.871 E227.03
G1 X129.525 Y129.235 E227.053
G1 X129.413 Y129.206 E227.059
G1 X128.762 Y129.761 E227.101
G1 X128.126 Y130.433 E227.147
G1 X128.151 Y130.556 E227.154
G1 X127.753 Y130.828 E227.178
G1 X127.358 Y131.246 E227.206
G1 X127.218 Y131.193 E227.214
G1 X126.531 Y131.661 E227.255
G1 X125.814 Y132.272 E227.302
G1 X125.825 Y132.402 E227.309
G1 X125.389 Y132.634 E227.333
G1 X124.965 Y132.995 E227.361
G1 X124.834 Y132.929 E227.369
G1 X124.093 Y133.323 E227.41
G1 X123.305 Y133.861 E227.458
G1 X123.302 Y133.986 E227.464
G1 X122.862 Y134.162 E227.488
G1 X122.39 Y134.485 E227.517
G1 X122.263 Y134.402 E227.524
G1 X121.47 Y134.719 E227.567
G1 X120.655 Y135.152 E227.613
G1 X120.639 Y135.282 E227.619
G1 X120.159 Y135.416 E227.644
G1 X119.659 Y135.682 E227.672
G1 X119.544 Y135.587 E227.68
G1 X118.729 Y135.814 E227.722
G1 X117.865 Y136.159 E227.768
G1 X117.836 Y136.279 E227.775
G1 X117.37 Y136.357 E227.798
G1 X116.833 Y136.572 E227.827
G1 X116.727 Y136.464 E227.835
G1 X115.899 Y136.602 E227.876
G1 X114.996 Y136.853 E227.923
G1 X114.951 Y136.979 E227.93
G1 X114.442 Y137.007 E227.955
G1 X113.919 Y137.153 E227.982
G1 X113.83 Y137.041 E227.99
G1 X112.98 Y137.087 E228.032
G1 X112.058 Y137.241 E228.079
G1 X112 Y137.36 E228.085
G1 X111.503 Y137.333 E228.11
G1 X110.967 Y137.422 E228.137
G1 X110.89 Y137.299 E228.144
G1 X109.999 Y137.251 E228.189
G1 X109.104 Y137.3 E228.234
G1 X109.034 Y137.411 E228.24
G1 X108.542 Y137.33 E228.265
G1 X107.992 Y137.361 E228.293
G1 X107.929 Y137.231 E228.3
G1 X107.066 Y137.09 E228.343
G1 X106.161 Y137.04 E228.389
G1 X106.09 Y137.131 E228.394
G1 X105.65 Y137.012 E228.417
G1 X105.04 Y136.979 E228.448
G1 X104.989 Y136.833 E228.455
G1 X104.227 Y136.627 E228.495
G1 X103.259 Y136.47 E228.544
G1 X103.167 Y136.563 E228.55
G1 X102.704 Y136.379 E228.575
G1 X102.165 Y136.292 E228.602
G1 X102.132 Y136.152 E228.609
G1 X101.148 Y135.761 E228.662
G1 X100.475 Y135.564 E228.697
G1 X100.335 Y135.679 E228.706
G1 X99.677 Y135.329 E228.743
G1 X99.355 Y135.234 E228.76
G1 X99.344 Y135.152 E228.764
G1 X98.551 Y134.73 E228.809
G1 X97.727 Y134.403 E228.853
G1 X97.607 Y134.481 E228.861
G1 X97.164 Y134.179 E228.887
G1 X96.689 Y133.991 E228.913
G1 X96.686 Y133.854 E228.92
G1 X95.91 Y133.326 E228.966
G1 X95.173 Y132.934 E229.008
G1 X95.04 Y133.001 E229.016
G1 X94.608 Y132.633 E229.044
G1 X94.166 Y132.398 E229.069
G1 X94.178 Y132.267 E229.075
G1 X93.47 Y131.663 E229.122
G1 X92.777 Y131.192 E229.164
G1 X92.639 Y131.244 E229.171
G1 X92.251 Y130.833 E229.199
G1 X91.85 Y130.56 E229.223
G1 X91.875 Y130.436 E229.23
G1 X91.235 Y129.759 E229.276
G1 X90.586 Y129.206 E229.319
G1 X90.446 Y129.242 E229.326
G1 X90.111 Y128.802 E229.354
G1 X89.728 Y128.475 E229.379
G1 X89.768 Y128.35 E229.385
G1 X89.221 Y127.63 E229.43
G1 X88.622 Y126.996 E229.474
G1 X88.48 Y127.017 E229.481
G1 X88.199 Y126.55 E229.508
G1 X87.845 Y126.175 E229.534
G1 X87.9 Y126.051 E229.541
G1 X87.439 Y125.283 E229.585
G1 X86.914 Y124.593 E229.629
G1 X86.772 Y124.598 E229.636
G1 X86.544 Y124.105 E229.663
G1 X86.226 Y123.687 E229.689
G1 X86.295 Y123.568 E229.696
G1 X85.918 Y122.753 E229.741
G1 X85.468 Y122.003 E229.784
G1 X85.322 Y121.993 E229.792
G1 X85.145 Y121.466 E229.819
G1 X84.887 Y121.036 E229.844
G1 X84.965 Y120.929 E229.851
G1 X84.676 Y120.066 E229.896
G1 X84.312 Y119.278 E229.94
G1 X84.171 Y119.253 E229.947
G1 X84.055 Y118.722 E229.974
G1 X83.84 Y118.257 E230
G1 X83.931 Y118.157 E230.006
G1 X83.732 Y117.25 E230.053
G1 X83.466 Y116.457 E230.094
G1 X83.319 Y116.413 E230.102
G1 X83.257 Y115.832 E230.131
G1 X83.105 Y115.378 E230.155
G1 X83.2 Y115.295 E230.161
G1 X83.101 Y114.365 E230.208
G1 X82.921 Y113.546 E230.25
G1 X82.784 Y113.488 E230.257
G1 X82.785 Y112.92 E230.286
G1 X82.679 Y112.44 E230.31
G1 X82.786 Y112.366 E230.317
G1 X82.787 Y111.422 E230.364
G1 X82.699 Y110.597 E230.405
G1 X82.568 Y110.524 E230.413
G1 X82.631 Y109.954 E230.441
G1 X82.58 Y109.474 E230.465
G1 X82.69 Y109.413 E230.472
G1 X82.792 Y108.486 E230.518
G1 X82.793 Y107.646 E230.56
G1 X82.668 Y107.558 E230.568
G1 X82.795 Y106.988 E230.597
G1 Y106.511 E230.621
G1 X82.912 Y106.462 E230.627
G1 X83.116 Y105.545 E230.674
G1 X83.206 Y104.718 E230.715
G1 X83.094 Y104.62 E230.723
G1 X83.277 Y104.08 E230.751
G1 X83.331 Y103.586 E230.776
G1 X83.457 Y103.549 E230.783
G1 X83.757 Y102.663 E230.829
G1 X83.939 Y101.843 E230.871
G1 X83.839 Y101.733 E230.879
G1 X84.078 Y101.217 E230.907
G1 X84.183 Y100.747 E230.931
G1 X84.307 Y100.724 E230.937
G1 X84.701 Y99.875 E230.984
G1 X84.968 Y99.086 E231.025
G1 X84.876 Y98.962 E231.033
G1 X85.181 Y98.458 E231.063
G1 X85.334 Y98.007 E231.086
G1 X85.459 Y97.998 E231.093
G1 X85.945 Y97.194 E231.139
G1 X86.3 Y96.431 E231.181
G1 X86.241 Y96.329 E231.187
G1 X86.519 Y95.958 E231.21
G1 X86.773 Y95.411 E231.241
G1 X86.925 Y95.416 E231.248
G1 X87.424 Y94.749 E231.29
G1 X87.899 Y93.965 E231.335
;bead-raft
G1 F1500 E230.335
G1 F2400
G0 X87.835 Y93.823
G0 X88.245 Y93.392
G0 X88.271 Y93.349
G0 X88.245 Y93.392
G0 X87.835 Y93.823
G0 X87.899 Y93.965
;rapid-leaky
G1 F15000
G0 X107.768 Y83.4
G1 F1500 E231.335
;bead-raft
G1 X112.231 F3600 E231.558
G1 X115.052 Y83.8 E231.7
G1 X104.909 E232.206
G1 X102.869 Y84.2 E232.31
G1 X117.137 E233.022
G1 X118.142 Y84.6 E233.076
G1 X101.861 E233.888
G1 X100.563 Y85 E233.956
G1 X119.337 E234.892
G1 X120.403 Y85.4 E234.949
G1 X99.595 E235.987
G1 X98.839 Y85.8 E236.03
G1 X121.159 E237.144
G1 X122.16 Y86.2 E237.197
G1 X97.832 E238.411
G1 X97.094 Y86.6 E238.453
G1 X122.905 E239.741
G1 X123.495 Y87 E239.776
G1 X96.504 E241.123
G1 X95.814 Y87.4 E241.163
G1 X124.184 E242.578
G1 X124.963 Y87.8 E242.622
G1 X95.036 E244.115
G1 X94.564 Y88.2 E244.146
G1 X125.435 E245.686
G1 X125.906 Y88.6 E245.717
G1 X94.093 E247.304
G1 X93.556 Y89 E247.337
G1 X126.443 E248.978
G1 X127.033 Y89.4 E249.014
G1 X92.966 E250.713
G1 X92.487 Y89.8 E250.744
G1 X127.512 E252.492
G1 X127.892 Y90.2 E252.519
G1 X92.107 E254.305
G1 X91.727 Y90.6 E254.332
G1 X128.272 E256.155
G1 X128.737 Y91 E256.186
G1 X91.262 E258.056
G1 X90.791 Y91.4 E258.086
G1 X129.209 E260.003
G1 X129.582 Y91.8 E260.03
G1 X90.43 E261.984
G1 X90.121 Y92.2 E262.009
G1 X129.888 E263.993
G1 X130.193 Y92.6 E264.018
G1 X89.813 E266.033
G1 X89.445 Y93 E266.06
G1 X130.554 E268.111
G1 X130.934 Y93.4 E268.138
G1 X89.065 E270.227
G1 X88.685 Y93.8 E270.254
G1 X131.314 E272.381
G1 X131.542 Y94.2 E272.404
G1 X88.457 E274.554
G1 X88.215 Y94.6 E274.577
G1 X131.784 E276.751
G1 X132.027 Y95 E276.774
G1 X87.974 E278.972
G1 X87.686 Y95.4 E278.996
G1 X132.332 E281.224
G1 X132.638 Y95.8 E281.249
G1 X87.387 E283.507
G1 X87.068 Y96.2 E283.532
G1 X132.944 E285.821
G1 X133.114 Y96.6 E285.842
G1 X86.883 E288.149
G1 X86.697 Y97 E288.171
G1 X133.301 E290.496
G1 X133.487 Y97.4 E290.518
G1 X86.511 E292.862
G1 X86.28 Y97.8 E292.885
G1 X133.719 E295.251
G1 X133.961 Y98.2 E295.275
G1 X86.038 E297.666
G1 X85.766 Y98.6 E297.69
G1 X134.24 E300.108
G1 X134.375 Y99 E300.129
G1 X85.631 E302.561
G1 X85.495 Y99.4 E302.582
G1 X134.509 E305.027
G1 X134.644 Y99.8 E305.048
G1 X85.36 E307.507
G1 X85.212 Y100.2 E307.529
G1 X134.789 E310.002
G1 X134.975 Y100.6 E310.024
G1 X85.026 E312.516
G1 X84.84 Y101 E312.538
G1 X135.161 E315.048
G1 X135.347 Y101.4 E315.07
G1 X84.652 E317.6
G1 X84.563 Y101.8 E317.62
G1 X135.436 E320.158
G1 X135.525 Y102.2 E320.179
G1 X84.474 E322.725
G1 X84.385 Y102.6 E322.746
G1 X135.614 E325.302
G1 X135.72 Y103 E325.322
G1 X84.276 E327.889
G1 X84.14 Y103.4 E327.91
G1 X135.855 E330.49
G1 X135.989 Y103.8 E330.511
G1 X84.005 E333.105
G1 X83.867 Y104.2 E333.126
G1 X136.132 E335.733
G1 X136.176 Y104.6 E335.753
G1 X83.823 E338.365
G1 X83.779 Y105 E338.385
G1 X136.22 E341.002
G1 X136.264 Y105.4 E341.022
G1 X83.735 E343.642
G1 X83.674 Y105.8 E343.662
G1 X136.326 E346.289
G1 X136.414 Y106.2 E346.31
G1 X83.585 E348.945
G1 X83.496 Y106.6 E348.966
G1 X136.503 E351.61
G1 X136.604 Y107 E351.631
G1 X83.395 E354.286
G1 X83.394 Y107.4 E354.306
G1 X136.605 E356.96
G1 X136.606 Y107.8 E356.98
G1 X83.393 E359.635
G1 Y108.2 E359.655
G1 X136.606 E362.31
G1 X136.616 Y108.6 E362.33
G1 X83.383 E364.986
G1 X83.339 Y109 E365.006
G1 X136.66 E367.666
G1 X136.704 Y109.4 E367.686
G1 X83.295 E370.351
G1 X83.23 Y109.8 E370.371
G1 X136.763 E373.042
G1 X136.77 Y110.2 E373.062
G1 X83.222 E375.733
G1 X83.303 Y110.6 E375.753
G1 X136.696 E378.417
G1 X136.653 Y111 E378.437
G1 X83.346 E381.097
G1 X83.387 Y111.4 E381.117
G1 X136.612 E383.772
G1 X136.613 Y111.8 E383.792
G1 X83.386 E386.448
G1 Y112.2 E386.468
G1 X136.613 E389.123
G1 X136.614 Y112.6 E389.143
G1 X83.385 E391.799
G1 X83.384 Y113 E391.819
G1 X136.615 E394.474
G1 X136.495 Y113.4 E394.495
G1 X83.504 E397.139
G1 X83.591 Y113.8 E397.159
G1 X136.408 E399.794
G1 X136.32 Y114.2 E399.815
G1 X83.679 E402.441
G1 X83.729 Y114.6 E402.461
G1 X136.27 E405.082
G1 X136.227 Y115 E405.103
G1 X83.772 E407.72
G1 X83.815 Y115.4 E407.74
G1 X136.185 E410.352
G1 X136.142 Y115.8 E410.372
G1 X83.857 E412.981
G1 X84.013 Y116.2 E413.002
G1 X135.989 E415.595
G1 X135.854 Y116.6 E415.616
G1 X84.147 E418.196
G1 X84.281 Y117 E418.217
G1 X135.72 E420.783
G1 X135.62 Y117.4 E420.804
G1 X84.379 E423.36
G1 X84.467 Y117.8 E423.381
G1 X135.532 E425.928
G1 X135.444 Y118.2 E425.949
G1 X84.555 E428.488
G1 X84.642 Y118.6 E428.508
G1 X135.357 E431.038
G1 X135.153 Y119 E431.061
G1 X84.844 E433.571
G1 X85.029 Y119.4 E433.593
G1 X134.968 E436.084
G1 X134.784 Y119.8 E436.106
G1 X85.214 E438.579
G1 X85.354 Y120.2 E438.6
G1 X134.644 E441.059
G1 X134.509 Y120.6 E441.081
G1 X85.488 E443.526
G1 X85.622 Y121 E443.547
G1 X134.375 E445.98
G1 X134.24 Y121.4 E446.001
G1 X85.756 E448.419
G1 X86.046 Y121.8 E448.444
G1 X133.953 E450.834
G1 X133.713 Y122.2 E450.857
G1 X86.286 E453.224
G1 X86.509 Y122.6 E453.246
G1 X133.492 E455.59
G1 X133.307 Y123 E455.612
G1 X86.694 E457.938
G1 X86.879 Y123.4 E457.96
G1 X133.123 E460.267
G1 X132.938 Y123.8 E460.289
G1 X87.064 E462.578
G1 X87.369 Y124.2 E462.603
G1 X132.619 E464.86
G1 X132.318 Y124.6 E464.885
G1 X87.673 E467.113
G1 X87.968 Y125 E467.138
G1 X132.031 E469.336
G1 X131.79 Y125.4 E469.359
G1 X88.209 E471.533
G1 X88.449 Y125.8 E471.557
G1 X131.55 E473.707
G1 X131.31 Y126.2 E473.73
G1 X88.689 E475.857
G1 X89.073 Y126.6 E475.884
G1 X130.926 E477.972
G1 X130.548 Y127 E478
G1 X89.451 E480.05
G1 X89.8 Y127.4 E480.077
G1 X130.185 E482.091
G1 X129.876 Y127.8 E482.117
G1 X90.104 E484.101
G1 X90.408 Y128.2 E484.126
G1 X129.567 E486.08
G1 X129.2 Y128.6 E486.107
G1 X90.8 E488.022
G1 X91.269 Y129 E488.053
G1 X128.73 E489.922
G1 X128.278 Y129.4 E489.952
G1 X91.721 E491.776
G1 X92.1 Y129.8 E491.804
G1 X127.899 E493.59
G1 X127.521 Y130.2 E493.617
G1 X92.478 E495.365
G1 X92.975 Y130.6 E495.397
G1 X127.022 E497.096
G1 X126.435 Y131 E497.131
G1 X93.562 E498.771
G1 X94.086 Y131.4 E498.804
G1 X125.912 E500.392
G1 X125.442 Y131.8 E500.423
G1 X94.556 E501.964
G1 X95.025 Y132.2 E501.994
G1 X124.973 E503.489
G1 X124.175 Y132.6 E503.533
G1 X95.824 E504.948
G1 X96.498 Y133 E504.987
G1 X123.502 E506.334
G1 X122.915 Y133.4 E506.369
G1 X97.085 E507.658
G1 X97.834 Y133.8 E507.7
G1 X122.152 E508.914
G1 X121.167 Y134.2 E508.967
G1 X98.832 E510.081
G1 X99.584 Y134.6 E510.123
G1 X120.415 E511.163
G1 X119.416 Y135 E511.216
G1 X100.685 E512.151
G1 X101.864 Y135.4 E512.213
G1 X118.148 E513.025
G1 X117.147 Y135.8 E513.079
G1 X102.871 E513.791
G1 X104.945 Y136.2 E513.897
G1 X115.105 E514.404
G1 X112.254 Y136.6 E514.547
G1 X107.79 E514.77
;bead-raft
G1 F1500 E513.77
G1 F2400
G0 X108.59
G0 X107.79
;Layer : 4 of 28
;rapid-leaky
G1 F15000
G0 X108.064 Y137.05 Z1.1
G1 F1500 E514.77
;bead-raft
G1 X107.088 Y136.891 F3600 E514.819
G1 X106.069 Y136.835 E514.87
G1 X106.015 Y136.904 E514.875
G1 X105.682 Y136.814 E514.892
G1 X105.184 Y136.787 E514.917
G1 X105.142 Y136.668 E514.923
G1 X104.269 Y136.432 E514.968
G1 X103.189 Y136.256 E515.023
G1 X103.118 Y136.328 E515.028
G1 X102.758 Y136.185 E515.047
G1 X102.329 Y136.116 E515.069
G1 X102.302 Y136.004 E515.074
G1 X101.213 Y135.572 E515.133
G1 X100.43 Y135.342 E515.174
G1 X100.311 Y135.44 E515.181
G1 X99.753 Y135.143 E515.213
G1 X99.537 Y135.079 E515.224
G1 X99.53 Y135.024 E515.227
G1 X98.635 Y134.548 E515.277
G1 X97.704 Y134.179 E515.327
G1 X97.609 Y134.241 E515.333
G1 X97.258 Y134.002 E515.354
G1 X96.886 Y133.854 E515.374
G1 X96.885 Y133.747 E515.379
G1 X96.014 Y133.154 E515.432
G1 X95.175 Y132.708 E515.479
G1 X95.068 Y132.762 E515.485
G1 X94.721 Y132.467 E515.508
G1 X94.378 Y132.284 E515.528
G1 X94.387 Y132.182 E515.533
G1 X93.592 Y131.504 E515.585
G1 X92.804 Y130.968 E515.632
G1 X92.693 Y131.01 E515.638
G1 X92.381 Y130.68 E515.661
G1 X92.072 Y130.469 E515.68
G1 X92.092 Y130.374 E515.684
G1 X91.373 Y129.614 E515.737
G1 X90.637 Y128.987 E515.785
G1 X90.525 Y129.015 E515.791
G1 X90.258 Y128.663 E515.813
G1 X89.959 Y128.409 E515.832
G1 X89.99 Y128.312 E515.837
G1 X89.374 Y127.501 E515.888
G1 X88.695 Y126.783 E515.937
G1 X88.583 Y126.799 E515.943
G1 X88.36 Y126.428 E515.965
G1 X88.082 Y126.134 E515.985
G1 X88.125 Y126.037 E515.99
G1 X87.605 Y125.171 E516.041
G1 X87.01 Y124.389 E516.09
G1 X86.897 Y124.393 E516.095
G1 X86.716 Y124.002 E516.117
G1 X86.466 Y123.673 E516.137
G1 X86.521 Y123.579 E516.143
G1 X86.095 Y122.659 E516.193
G1 X85.586 Y121.811 E516.243
G1 X85.469 Y121.803 E516.249
G1 X85.328 Y121.381 E516.271
G1 X85.127 Y121.047 E516.29
G1 X85.188 Y120.964 E516.295
G1 X84.862 Y119.992 E516.346
G1 X84.45 Y119.1 E516.395
G1 X84.338 Y119.08 E516.401
G1 X84.245 Y118.658 E516.423
G1 X84.077 Y118.294 E516.443
G1 X84.148 Y118.216 E516.448
G1 X83.925 Y117.197 E516.5
G1 X83.623 Y116.294 E516.547
G1 X83.504 Y116.259 E516.554
G1 X83.454 Y115.789 E516.577
G1 X83.337 Y115.441 E516.596
G1 X83.41 Y115.377 E516.6
G1 X83.299 Y114.333 E516.653
G1 X83.095 Y113.401 E516.7
G1 X82.984 Y113.355 E516.706
G1 X82.985 Y112.899 E516.729
G1 X82.903 Y112.527 E516.748
G1 X82.985 Y112.47 E516.753
G1 X82.987 Y111.411 E516.806
G1 X82.887 Y110.472 E516.853
G1 X82.781 Y110.414 E516.859
G1 X82.832 Y109.954 E516.882
G1 X82.792 Y109.585 E516.901
G1 X82.878 Y109.538 E516.906
G1 X82.992 Y108.497 E516.958
G1 X82.994 Y107.542 E517.005
G1 X82.892 Y107.471 E517.012
G1 X82.995 Y107.011 E517.035
G1 Y106.644 E517.053
G1 X83.084 Y106.607 E517.058
G1 X83.313 Y105.578 E517.111
G1 X83.417 Y104.637 E517.158
G1 X83.326 Y104.557 E517.164
G1 X83.473 Y104.123 E517.187
G1 X83.515 Y103.74 E517.206
G1 X83.613 Y103.711 E517.211
G1 X83.949 Y102.717 E517.264
G1 X84.157 Y101.785 E517.311
G1 X84.076 Y101.696 E517.317
G1 X84.269 Y101.281 E517.34
G1 X84.349 Y100.92 E517.359
G1 X84.445 Y100.902 E517.363
G1 X84.887 Y99.95 E517.416
G1 X85.191 Y99.052 E517.463
G1 X85.117 Y98.951 E517.469
G1 X85.363 Y98.543 E517.493
G1 X85.48 Y98.197 E517.511
G1 X85.577 Y98.19 E517.516
G1 X86.122 Y97.289 E517.569
G1 X86.525 Y96.421 E517.616
G1 X86.48 Y96.344 E517.621
G1 X86.692 Y96.062 E517.638
G1 X86.899 Y95.615 E517.663
G1 X87.022 Y95.62 E517.669
G1 X87.59 Y94.861 E517.716
G1 X88.124 Y93.979 E517.768
G1 X88.072 Y93.863 E517.774
G1 X88.405 Y93.514 E517.798
G1 X88.594 Y93.201 E517.817
G1 X88.689 Y93.215 E517.821
G1 X89.456 Y92.408 E517.877
G1 X89.991 Y91.715 E517.921
G1 X89.95 Y91.588 E517.927
G1 X90.348 Y91.251 E517.953
G1 X90.55 Y90.989 E517.97
G1 X90.632 Y91.01 E517.974
G1 X91.421 Y90.341 E518.026
G1 X92.086 Y89.641 E518.074
G1 X92.064 Y89.529 E518.079
G1 X92.428 Y89.282 E518.101
G1 X92.704 Y88.991 E518.121
G1 X92.802 Y89.028 E518.127
G1 X93.639 Y88.46 E518.177
G1 X94.389 Y87.825 E518.226
G1 X94.378 Y87.707 E518.232
G1 X94.774 Y87.497 E518.254
G1 X95.07 Y87.247 E518.274
G1 X95.161 Y87.293 E518.279
G1 X96.064 Y86.815 E518.33
G1 X96.884 Y86.259 E518.379
G1 X96.886 Y86.145 E518.385
G1 X97.286 Y85.986 E518.406
G1 X97.619 Y85.76 E518.426
G1 X97.708 Y85.819 E518.432
G1 X98.669 Y85.437 E518.483
G1 X99.52 Y84.987 E518.531
G1 X99.535 Y84.869 E518.537
G1 X99.971 Y84.749 E518.56
G1 X100.323 Y84.562 E518.58
G1 X100.403 Y84.629 E518.585
G1 X101.39 Y84.357 E518.636
G1 X102.293 Y83.998 E518.684
G1 X102.319 Y83.89 E518.69
G1 X102.738 Y83.821 E518.711
G1 X103.123 Y83.669 E518.732
G1 X103.198 Y83.746 E518.737
G1 X104.198 Y83.581 E518.788
G1 X105.143 Y83.321 E518.837
G1 X105.183 Y83.207 E518.843
G1 X105.643 Y83.183 E518.866
G1 X106.011 Y83.081 E518.885
G1 X106.073 Y83.16 E518.89
G1 X107.092 Y83.106 E518.941
G1 X108.057 Y82.947 E518.989
G1 X108.105 Y82.846 E518.995
G1 X108.53 Y82.87 E519.016
G1 X108.937 Y82.803 E519.037
G1 X108.995 Y82.895 E519.042
G1 X110.018 Y82.951 E519.093
G1 X110.994 Y82.899 E519.142
G1 X111.055 Y82.801 E519.148
G1 X111.49 Y82.873 E519.17
G1 X111.889 Y82.852 E519.19
G1 X111.935 Y82.946 E519.195
G1 X112.934 Y83.11 E519.246
G1 X113.916 Y83.164 E519.295
G1 X113.971 Y83.093 E519.299
G1 X114.311 Y83.185 E519.317
G1 X114.816 Y83.213 E519.342
G1 X114.858 Y83.333 E519.348
G1 X115.739 Y83.571 E519.394
G1 X116.794 Y83.745 E519.447
G1 X116.873 Y83.664 E519.453
G1 X117.272 Y83.823 E519.474
G1 X117.673 Y83.889 E519.494
G1 X117.697 Y83.993 E519.5
G1 X118.763 Y84.417 E519.557
G1 X119.577 Y84.653 E519.599
G1 X119.683 Y84.566 E519.606
G1 X120.175 Y84.827 E519.634
G1 X120.462 Y84.91 E519.649
G1 X120.472 Y84.984 E519.652
G1 X121.339 Y85.442 E519.701
G1 X122.283 Y85.818 E519.752
G1 X122.376 Y85.758 E519.758
G1 X122.725 Y85.994 E519.779
G1 X123.114 Y86.149 E519.8
G1 X123.116 Y86.259 E519.805
G1 X123.938 Y86.818 E519.855
G1 X124.834 Y87.291 E519.905
G1 X124.926 Y87.244 E519.91
G1 X125.226 Y87.498 E519.93
G1 X125.623 Y87.709 E519.952
G1 X125.612 Y87.826 E519.958
G1 X126.36 Y88.46 E520.007
G1 X127.195 Y89.027 E520.057
G1 X127.293 Y88.989 E520.063
G1 X127.572 Y89.282 E520.083
G1 X127.929 Y89.525 E520.104
G1 X127.907 Y89.635 E520.11
G1 X128.578 Y90.341 E520.159
G1 X129.367 Y91.01 E520.21
G1 X129.463 Y90.985 E520.215
G1 X129.693 Y91.287 E520.234
G1 X130.043 Y91.583 E520.257
G1 X130.007 Y91.697 E520.263
G1 X130.579 Y92.446 E520.31
G1 X131.309 Y93.214 E520.363
G1 X131.404 Y93.2 E520.368
G1 X131.594 Y93.514 E520.386
G1 X131.921 Y93.858 E520.41
G1 X131.871 Y93.972 E520.416
G1 X132.351 Y94.766 E520.462
G1 X133.003 Y95.619 E520.516
G1 X133.098 Y95.615 E520.52
G1 X133.249 Y95.941 E520.538
G1 X133.538 Y96.32 E520.562
G1 X133.476 Y96.428 E520.568
G1 X133.872 Y97.28 E520.615
G1 X134.417 Y98.181 E520.668
G1 X134.524 Y98.189 E520.673
G1 X134.652 Y98.571 E520.693
G1 X134.879 Y98.945 E520.715
G1 X134.81 Y99.039 E520.721
G1 X135.123 Y99.97 E520.77
G1 X135.558 Y100.904 E520.821
G1 X135.65 Y100.921 E520.826
G1 X135.727 Y101.269 E520.844
G1 X135.928 Y101.7 E520.868
G1 X135.844 Y101.792 E520.874
G1 X136.054 Y102.739 E520.922
G1 X136.382 Y103.712 E520.973
G1 X136.484 Y103.742 E520.979
G1 X136.529 Y104.15 E520.999
G1 X136.666 Y104.557 E521.021
G1 X136.582 Y104.631 E521.026
G1 X136.686 Y105.578 E521.074
G1 X136.915 Y106.61 E521.126
G1 X137.004 Y106.647 E521.131
G1 Y107.01 E521.149
G1 X137.106 Y107.466 E521.173
G1 X137.005 Y107.537 E521.179
G1 X137.007 Y108.498 E521.227
G1 X137.122 Y109.542 E521.279
G1 X137.206 Y109.589 E521.284
G1 X137.167 Y109.954 E521.302
G1 X137.217 Y110.41 E521.325
G1 X137.112 Y110.468 E521.331
G1 X137.012 Y111.411 E521.378
G1 X137.014 Y112.475 E521.432
G1 X137.095 Y112.532 E521.436
G1 X137.014 Y112.899 E521.455
G1 X137.015 Y113.352 E521.478
G1 X136.905 Y113.398 E521.484
G1 X136.701 Y114.333 E521.531
G1 X136.59 Y115.368 E521.583
G1 X136.668 Y115.436 E521.589
G1 X136.544 Y115.805 E521.608
G1 X136.496 Y116.257 E521.631
G1 X136.38 Y116.291 E521.637
G1 X136.07 Y117.214 E521.685
G1 X135.849 Y118.222 E521.737
G1 X135.918 Y118.297 E521.742
G1 X135.756 Y118.648 E521.761
G1 X135.662 Y119.078 E521.783
G1 X135.548 Y119.099 E521.789
G1 X135.135 Y119.994 E521.838
G1 X134.807 Y120.969 E521.889
G1 X134.869 Y121.053 E521.895
G1 X134.665 Y121.392 E521.914
G1 X134.527 Y121.802 E521.936
G1 X134.413 Y121.811 E521.942
G1 X133.911 Y122.647 E521.99
G1 X133.477 Y123.588 E522.042
G1 X133.522 Y123.666 E522.046
G1 X133.312 Y123.945 E522.064
G1 X133.109 Y124.385 E522.088
G1 X132.984 Y124.38 E522.094
G1 X132.419 Y125.131 E522.141
G1 X131.87 Y126.044 E522.194
G1 X131.912 Y126.14 E522.199
G1 X131.64 Y126.427 E522.219
G1 X131.416 Y126.8 E522.241
G1 X131.303 Y126.784 E522.247
G1 X130.561 Y127.568 E522.3
G1 X129.997 Y128.298 E522.346
G1 X130.034 Y128.415 E522.353
G1 X129.661 Y128.732 E522.377
G1 X129.448 Y129.009 E522.394
G1 X129.363 Y128.987 E522.399
G1 X128.624 Y129.616 E522.447
G1 X127.91 Y130.371 E522.499
G1 X127.929 Y130.466 E522.504
G1 X127.623 Y130.675 E522.522
G1 X127.304 Y131.012 E522.546
G1 X127.191 Y130.969 E522.552
G1 X126.41 Y131.502 E522.599
G1 X125.605 Y132.187 E522.652
G1 X125.614 Y132.287 E522.657
G1 X125.275 Y132.468 E522.676
G1 X124.936 Y132.756 E522.698
G1 X124.832 Y132.703 E522.704
G1 X123.99 Y133.152 E522.751
G1 X123.107 Y133.753 E522.805
G1 X123.105 Y133.85 E522.81
G1 X122.768 Y133.985 E522.828
G1 X122.387 Y134.244 E522.851
G1 X122.285 Y134.177 E522.857
G1 X121.385 Y134.537 E522.905
G1 X120.47 Y135.024 E522.957
G1 X120.457 Y135.125 E522.962
G1 X120.085 Y135.229 E522.981
G1 X119.684 Y135.442 E523.004
G1 X119.591 Y135.366 E523.01
G1 X118.665 Y135.624 E523.058
G1 X117.695 Y136.012 E523.11
G1 X117.672 Y136.104 E523.115
G1 X117.316 Y136.163 E523.133
G1 X116.882 Y136.336 E523.156
G1 X116.797 Y136.25 E523.162
G1 X115.856 Y136.406 E523.21
G1 X114.843 Y136.688 E523.262
G1 X114.807 Y136.787 E523.267
G1 X114.409 Y136.809 E523.287
G1 X113.993 Y136.925 E523.309
G1 X113.923 Y136.835 E523.314
G1 X112.958 Y136.888 E523.363
G1 X111.923 Y137.061 E523.415
G1 X111.878 Y137.153 E523.42
G1 X111.492 Y137.132 E523.439
G1 X111.066 Y137.203 E523.461
G1 X111.005 Y137.105 E523.467
G1 X109.999 Y137.05 E523.517
G1 X108.99 Y137.106 E523.567
G1 X108.936 Y137.192 E523.572
G1 X108.553 Y137.13 E523.592
G1 X108.114 Y137.154 E523.614
G1 X108.064 Y137.05 E523.619
;bead-raft
G1 F1500 E522.619
G1 F2400
G0 X107.274 Y136.921
G0 X108.064 Y137.05
;rapid-leaky
G1 F15000
G0 X107.929 Y137.231
G1 F1500 E523.619
;bead-raft
G1 X107.066 Y137.09 F3600 E523.663
G1 X106.161 Y137.04 E523.708
G1 X106.09 Y137.131 E523.714
G1 X105.65 Y137.012 E523.737
G1 X105.04 Y136.979 E523.767
G1 X104.989 Y136.833 E523.775
G1 X104.227 Y136.627 E523.814
G1 X103.259 Y136.47 E523.863
G1 X103.167 Y136.563 E523.87
G1 X102.704 Y136.379 E523.895
G1 X102.165 Y136.292 E523.922
G1 X102.132 Y136.152 E523.929
G1 X101.148 Y135.761 E523.982
G1 X100.475 Y135.564 E524.017
G1 X100.335 Y135.679 E524.026
G1 X99.677 Y135.329 E524.063
G1 X99.355 Y135.234 E524.08
G1 X99.344 Y135.152 E524.084
G1 X98.551 Y134.73 E524.129
G1 X97.727 Y134.403 E524.173
G1 X97.607 Y134.481 E524.18
G1 X97.164 Y134.179 E524.207
G1 X96.689 Y133.991 E524.232
G1 X96.686 Y133.854 E524.239
G1 X95.91 Y133.326 E524.286
G1 X95.173 Y132.934 E524.328
G1 X95.04 Y133.001 E524.335
G1 X94.608 Y132.633 E524.364
G1 X94.166 Y132.398 E524.388
G1 X94.178 Y132.267 E524.395
G1 X93.47 Y131.663 E524.441
G1 X92.777 Y131.192 E524.483
G1 X92.639 Y131.244 E524.491
G1 X92.251 Y130.833 E524.519
G1 X91.85 Y130.56 E524.543
G1 X91.875 Y130.436 E524.549
G1 X91.235 Y129.759 E524.596
G1 X90.586 Y129.206 E524.638
G1 X90.446 Y129.242 E524.646
G1 X90.111 Y128.802 E524.673
G1 X89.728 Y128.475 E524.698
G1 X89.768 Y128.35 E524.705
G1 X89.221 Y127.63 E524.75
G1 X88.622 Y126.996 E524.794
G1 X88.48 Y127.017 E524.801
G1 X88.199 Y126.55 E524.828
G1 X87.845 Y126.175 E524.854
G1 X87.9 Y126.051 E524.86
G1 X87.439 Y125.283 E524.905
G1 X86.914 Y124.593 E524.948
G1 X86.772 Y124.598 E524.955
G1 X86.544 Y124.105 E524.982
G1 X86.226 Y123.687 E525.009
G1 X86.295 Y123.568 E525.016
G1 X85.918 Y122.753 E525.06
G1 X85.468 Y122.003 E525.104
G1 X85.322 Y121.993 E525.111
G1 X85.145 Y121.466 E525.139
G1 X84.887 Y121.036 E525.164
G1 X84.965 Y120.929 E525.171
G1 X84.676 Y120.066 E525.216
G1 X84.312 Y119.278 E525.259
G1 X84.171 Y119.253 E525.267
G1 X84.055 Y118.722 E525.294
G1 X83.84 Y118.257 E525.319
G1 X83.931 Y118.157 E525.326
G1 X83.732 Y117.25 E525.372
G1 X83.466 Y116.457 E525.414
G1 X83.319 Y116.413 E525.422
G1 X83.257 Y115.832 E525.451
G1 X83.105 Y115.378 E525.475
G1 X83.2 Y115.295 E525.481
G1 X83.101 Y114.365 E525.528
G1 X82.921 Y113.546 E525.57
G1 X82.784 Y113.488 E525.577
G1 X82.785 Y112.92 E525.605
G1 X82.679 Y112.44 E525.63
G1 X82.786 Y112.366 E525.636
G1 X82.787 Y111.422 E525.683
G1 X82.699 Y110.597 E525.725
G1 X82.568 Y110.524 E525.732
G1 X82.631 Y109.954 E525.761
G1 X82.58 Y109.474 E525.785
G1 X82.69 Y109.413 E525.791
G1 X82.792 Y108.486 E525.838
G1 X82.793 Y107.646 E525.88
G1 X82.668 Y107.558 E525.887
G1 X82.795 Y106.988 E525.916
G1 Y106.511 E525.94
G1 X82.912 Y106.462 E525.947
G1 X83.116 Y105.545 E525.993
G1 X83.206 Y104.718 E526.035
G1 X83.094 Y104.62 E526.042
G1 X83.277 Y104.08 E526.071
G1 X83.331 Y103.586 E526.096
G1 X83.457 Y103.549 E526.102
G1 X83.757 Y102.663 E526.149
G1 X83.939 Y101.843 E526.191
G1 X83.839 Y101.733 E526.198
G1 X84.078 Y101.217 E526.227
G1 X84.183 Y100.747 E526.251
G1 X84.307 Y100.724 E526.257
G1 X84.701 Y99.875 E526.304
G1 X84.968 Y99.086 E526.345
G1 X84.876 Y98.962 E526.353
G1 X85.181 Y98.458 E526.382
G1 X85.334 Y98.007 E526.406
G1 X85.459 Y97.998 E526.412
G1 X85.945 Y97.194 E526.459
G1 X86.3 Y96.431 E526.501
G1 X86.241 Y96.329 E526.507
G1 X86.519 Y95.958 E526.53
G1 X86.773 Y95.411 E526.56
G1 X86.925 Y95.416 E526.568
G1 X87.424 Y94.749 E526.609
G1 X87.899 Y93.965 E526.655
G1 X87.835 Y93.823 E526.663
G1 X88.245 Y93.392 E526.693
G1 X88.492 Y92.984 E526.716
G1 X88.615 Y93.002 E526.722
G1 X89.304 Y92.278 E526.772
G1 X89.768 Y91.676 E526.81
G1 X89.719 Y91.522 E526.818
G1 X90.203 Y91.112 E526.85
G1 X90.472 Y90.762 E526.872
G1 X90.582 Y90.79 E526.878
G1 X91.284 Y90.195 E526.924
G1 X91.87 Y89.579 E526.966
G1 X91.841 Y89.438 E526.973
G1 X92.298 Y89.128 E527.001
G1 X92.651 Y88.757 E527.026
G1 X92.775 Y88.805 E527.033
G1 X93.518 Y88.301 E527.078
G1 X94.18 Y87.739 E527.121
G1 X94.166 Y87.593 E527.128
G1 X94.662 Y87.331 E527.156
G1 X95.042 Y87.008 E527.181
G1 X95.159 Y87.068 E527.188
G1 X95.96 Y86.644 E527.233
G1 X96.686 Y86.152 E527.277
G1 X96.689 Y86.008 E527.284
G1 X97.192 Y85.809 E527.311
G1 X97.617 Y85.52 E527.336
G1 X97.731 Y85.594 E527.343
G1 X98.586 Y85.255 E527.389
G1 X99.334 Y84.859 E527.431
G1 X99.352 Y84.712 E527.439
G1 X99.896 Y84.562 E527.467
G1 X100.347 Y84.323 E527.492
G1 X100.451 Y84.409 E527.499
G1 X101.326 Y84.167 E527.544
G1 X102.122 Y83.851 E527.587
G1 X102.155 Y83.715 E527.594
G1 X102.685 Y83.627 E527.621
G1 X103.173 Y83.434 E527.647
G1 X103.269 Y83.532 E527.654
G1 X104.155 Y83.386 E527.699
G1 X104.989 Y83.156 E527.742
G1 X105.039 Y83.014 E527.749
G1 X105.61 Y82.984 E527.778
G1 X106.086 Y82.853 E527.803
G1 X106.166 Y82.955 E527.809
G1 X107.07 Y82.907 E527.854
G1 X107.921 Y82.767 E527.897
G1 X107.983 Y82.639 E527.904
G1 X108.519 Y82.669 E527.931
G1 X109.036 Y82.584 E527.957
G1 X109.11 Y82.701 E527.964
G1 X110.018 Y82.751 E528.01
G1 X110.879 Y82.705 E528.053
G1 X110.956 Y82.582 E528.06
G1 X111.501 Y82.672 E528.087
G1 X112.011 Y82.645 E528.113
G1 X112.069 Y82.765 E528.12
G1 X112.955 Y82.911 E528.164
G1 X113.822 Y82.958 E528.208
G1 X113.895 Y82.866 E528.213
G1 X114.343 Y82.987 E528.237
G1 X114.96 Y83.021 E528.267
G1 X115.012 Y83.168 E528.275
G1 X115.781 Y83.375 E528.315
G1 X116.724 Y83.53 E528.363
G1 X116.823 Y83.429 E528.37
G1 X117.326 Y83.629 E528.397
G1 X117.836 Y83.713 E528.422
G1 X117.868 Y83.845 E528.429
G1 X118.828 Y84.227 E528.481
G1 X119.532 Y84.432 E528.517
G1 X119.659 Y84.327 E528.526
G1 X120.25 Y84.64 E528.559
G1 X120.644 Y84.755 E528.579
G1 X120.657 Y84.855 E528.585
G1 X121.423 Y85.261 E528.628
G1 X122.261 Y85.594 E528.673
G1 X122.378 Y85.517 E528.68
G1 X122.819 Y85.816 E528.706
G1 X123.311 Y86.013 E528.733
G1 X123.314 Y86.152 E528.74
G1 X124.042 Y86.646 E528.784
G1 X124.836 Y87.066 E528.828
G1 X124.954 Y87.006 E528.835
G1 X125.338 Y87.332 E528.86
G1 X125.834 Y87.594 E528.888
G1 X125.821 Y87.741 E528.896
G1 X126.481 Y88.301 E528.939
G1 X127.221 Y88.803 E528.983
G1 X127.347 Y88.755 E528.99
G1 X127.702 Y89.129 E529.016
G1 X128.151 Y89.434 E529.043
G1 X128.123 Y89.572 E529.05
G1 X128.716 Y90.195 E529.093
G1 X129.417 Y90.79 E529.139
G1 X129.541 Y90.758 E529.145
G1 X129.839 Y91.148 E529.17
G1 X130.274 Y91.517 E529.198
G1 X130.229 Y91.658 E529.205
G1 X130.731 Y92.316 E529.247
G1 X131.383 Y93.001 E529.294
G1 X131.507 Y92.983 E529.3
G1 X131.754 Y93.392 E529.324
G1 X132.158 Y93.817 E529.353
G1 X132.096 Y93.957 E529.361
G1 X132.517 Y94.653 E529.401
G1 X133.099 Y95.415 E529.449
G1 X133.223 Y95.411 E529.456
G1 X133.421 Y95.837 E529.479
G1 X133.778 Y96.304 E529.508
G1 X133.701 Y96.438 E529.516
G1 X134.049 Y97.186 E529.557
G1 X134.534 Y97.989 E529.604
G1 X134.671 Y97.998 E529.611
G1 X134.835 Y98.486 E529.636
G1 X135.119 Y98.956 E529.664
G1 X135.033 Y99.074 E529.671
G1 X135.309 Y99.895 E529.714
G1 X135.695 Y100.726 E529.76
G1 X135.816 Y100.748 E529.766
G1 X135.918 Y101.205 E529.79
G1 X136.166 Y101.737 E529.819
G1 X136.062 Y101.851 E529.827
G1 X136.247 Y102.686 E529.869
G1 X136.538 Y103.549 E529.915
G1 X136.668 Y103.588 E529.922
G1 X136.725 Y104.107 E529.948
G1 X136.898 Y104.619 E529.974
G1 X136.792 Y104.712 E529.982
G1 X136.884 Y105.546 E530.023
G1 X137.088 Y106.466 E530.07
G1 X137.204 Y106.514 E530.077
G1 Y106.988 E530.1
G1 X137.33 Y107.553 E530.129
G1 X137.206 Y107.641 E530.137
G1 X137.207 Y108.486 E530.179
G1 X137.309 Y109.417 E530.226
G1 X137.419 Y109.478 E530.232
G1 X137.368 Y109.953 E530.256
G1 X137.431 Y110.52 E530.284
G1 X137.3 Y110.592 E530.292
G1 X137.212 Y111.421 E530.333
G1 X137.214 Y112.371 E530.381
G1 X137.319 Y112.445 E530.387
G1 X137.214 Y112.921 E530.411
G1 X137.215 Y113.485 E530.44
G1 X137.078 Y113.542 E530.447
G1 X136.898 Y114.365 E530.489
G1 X136.8 Y115.286 E530.535
G1 X136.9 Y115.374 E530.542
G1 X136.74 Y115.848 E530.567
G1 X136.68 Y116.411 E530.595
G1 X136.537 Y116.454 E530.602
G1 X136.263 Y117.268 E530.645
G1 X136.067 Y118.164 E530.691
G1 X136.155 Y118.261 E530.698
G1 X135.947 Y118.712 E530.722
G1 X135.828 Y119.251 E530.75
G1 X135.686 Y119.277 E530.757
G1 X135.321 Y120.068 E530.801
G1 X135.03 Y120.934 E530.846
G1 X135.108 Y121.042 E530.853
G1 X134.847 Y121.476 E530.878
G1 X134.674 Y121.992 E530.905
G1 X134.531 Y122.003 E530.912
G1 X134.088 Y122.741 E530.955
G1 X133.702 Y123.578 E531.001
G1 X133.761 Y123.681 E531.007
G1 X133.484 Y124.048 E531.03
G1 X133.235 Y124.59 E531.06
G1 X133.081 Y124.584 E531.068
G1 X132.585 Y125.243 E531.109
G1 X132.095 Y126.059 E531.156
G1 X132.148 Y126.181 E531.163
G1 X131.8 Y126.549 E531.188
G1 X131.519 Y127.018 E531.216
G1 X131.376 Y126.997 E531.223
G1 X130.713 Y127.698 E531.271
G1 X130.219 Y128.337 E531.311
G1 X130.265 Y128.481 E531.319
G1 X129.807 Y128.871 E531.349
G1 X129.525 Y129.235 E531.372
G1 X129.413 Y129.206 E531.377
G1 X128.762 Y129.761 E531.42
G1 X128.126 Y130.433 E531.466
G1 X128.151 Y130.556 E531.473
G1 X127.753 Y130.828 E531.497
G1 X127.358 Y131.246 E531.525
G1 X127.218 Y131.193 E531.533
G1 X126.531 Y131.661 E531.574
G1 X125.814 Y132.272 E531.621
G1 X125.825 Y132.402 E531.628
G1 X125.389 Y132.634 E531.652
G1 X124.965 Y132.995 E531.68
G1 X124.834 Y132.929 E531.688
G1 X124.093 Y133.323 E531.729
G1 X123.305 Y133.861 E531.777
G1 X123.302 Y133.986 E531.783
G1 X122.862 Y134.162 E531.807
G1 X122.39 Y134.485 E531.835
G1 X122.263 Y134.402 E531.843
G1 X121.47 Y134.719 E531.886
G1 X120.655 Y135.152 E531.932
G1 X120.639 Y135.282 E531.938
G1 X120.159 Y135.416 E531.963
G1 X119.659 Y135.682 E531.991
G1 X119.544 Y135.587 E531.999
G1 X118.729 Y135.814 E532.041
G1 X117.865 Y136.159 E532.087
G1 X117.836 Y136.279 E532.094
G1 X117.37 Y136.357 E532.117
G1 X116.833 Y136.572 E532.146
G1 X116.727 Y136.464 E532.154
G1 X115.899 Y136.602 E532.195
G1 X114.996 Y136.853 E532.242
G1 X114.951 Y136.979 E532.249
G1 X114.442 Y137.007 E532.274
G1 X113.919 Y137.153 E532.301
G1 X113.83 Y137.041 E532.308
G1 X112.98 Y137.087 E532.351
G1 X112.058 Y137.241 E532.398
G1 X112 Y137.36 E532.404
G1 X111.503 Y137.333 E532.429
G1 X110.967 Y137.422 E532.456
G1 X110.89 Y137.299 E532.463
G1 X109.999 Y137.251 E532.508
G1 X109.104 Y137.3 E532.553
G1 X109.034 Y137.411 E532.559
G1 X108.542 Y137.33 E532.584
G1 X107.992 Y137.361 E532.612
G1 X107.929 Y137.231 E532.619
;bead-raft
G1 F1500 E531.619
G1 F2400
G0 X107.139 Y137.102
G0 X107.929 Y137.231
;rapid-leaky
G1 F15000
G0 X107.79 Y136.6
G1 F1500 E532.619
;bead-raft
G1 X112.254 F3600 E532.841
G1 X115.105 Y136.2 E532.985
G1 X104.945 E533.492
G1 X102.871 Y135.8 E533.597
G1 X117.147 E534.31
G1 X118.148 Y135.4 E534.363
G1 X101.864 E535.176
G1 X100.685 Y135 E535.238
G1 X119.416 E536.172
G1 X120.415 Y134.6 E536.226
G1 X99.584 E537.265
G1 X98.832 Y134.2 E537.308
G1 X121.167 E538.422
G1 X122.152 Y133.8 E538.475
G1 X97.834 E539.688
G1 X97.085 Y133.4 E539.731
G1 X122.915 E541.019
G1 X123.502 Y133 E541.055
G1 X96.498 E542.402
G1 X95.824 Y132.6 E542.441
G1 X124.175 E543.856
G1 X124.973 Y132.2 E543.9
G1 X95.025 E545.394
G1 X94.556 Y131.8 E545.425
G1 X125.442 E546.966
G1 X125.912 Y131.4 E546.997
G1 X94.086 E548.584
G1 X93.562 Y131 E548.617
G1 X126.435 E550.257
G1 X127.022 Y130.6 E550.293
G1 X92.975 E551.992
G1 X92.478 Y130.2 E552.023
G1 X127.521 E553.772
G1 X127.899 Y129.8 E553.799
G1 X92.1 E555.585
G1 X91.721 Y129.4 E555.613
G1 X128.278 E557.436
G1 X128.73 Y129 E557.466
G1 X91.269 E559.335
G1 X90.8 Y128.6 E559.366
G1 X129.2 E561.282
G1 X129.567 Y128.2 E561.309
G1 X90.408 E563.263
G1 X90.104 Y127.8 E563.288
G1 X129.876 E565.272
G1 X130.185 Y127.4 E565.297
G1 X89.8 E567.312
G1 X89.451 Y127 E567.339
G1 X130.548 E569.389
G1 X130.926 Y126.6 E569.416
G1 X89.073 E571.504
G1 X88.689 Y126.2 E571.532
G1 X131.31 E573.658
G1 X131.55 Y125.8 E573.682
G1 X88.449 E575.832
G1 X88.209 Y125.4 E575.855
G1 X131.79 E578.03
G1 X132.031 Y125 E578.053
G1 X87.968 E580.251
G1 X87.673 Y124.6 E580.276
G1 X132.318 E582.503
G1 X132.619 Y124.2 E582.528
G1 X87.369 E584.786
G1 X87.064 Y123.8 E584.811
G1 X132.938 E587.1
G1 X133.123 Y123.4 E587.122
G1 X86.879 E589.429
G1 X86.694 Y123 E589.451
G1 X133.307 E591.776
G1 X133.492 Y122.6 E591.798
G1 X86.509 E594.142
G1 X86.286 Y122.2 E594.165
G1 X133.713 E596.531
G1 X133.953 Y121.8 E596.554
G1 X86.046 E598.945
G1 X85.756 Y121.4 E598.969
G1 X134.24 E601.388
G1 X134.375 Y121 E601.409
G1 X85.622 E603.841
G1 X85.488 Y120.6 E603.862
G1 X134.509 E606.308
G1 X134.644 Y120.2 E606.329
G1 X85.354 E608.788
G1 X85.214 Y119.8 E608.809
G1 X134.784 E611.282
G1 X134.968 Y119.4 E611.304
G1 X85.029 E613.796
G1 X84.844 Y119 E613.818
G1 X135.153 E616.328
G1 X135.357 Y118.6 E616.35
G1 X84.642 E618.88
G1 X84.555 Y118.2 E618.901
G1 X135.444 E621.44
G1 X135.532 Y117.8 E621.46
G1 X84.467 E624.008
G1 X84.379 Y117.4 E624.028
G1 X135.62 E626.585
G1 X135.72 Y117 E626.605
G1 X84.281 E629.171
G1 X84.147 Y116.6 E629.193
G1 X135.854 E631.772
G1 X135.989 Y116.2 E631.793
G1 X84.013 E634.386
G1 X83.857 Y115.8 E634.408
G1 X136.142 E637.016
G1 X136.185 Y115.4 E637.036
G1 X83.815 E639.649
G1 X83.772 Y115 E639.669
G1 X136.227 E642.286
G1 X136.27 Y114.6 E642.306
G1 X83.729 E644.927
G1 X83.679 Y114.2 E644.948
G1 X136.32 E647.574
G1 X136.408 Y113.8 E647.594
G1 X83.591 E650.229
G1 X83.504 Y113.4 E650.25
G1 X136.495 E652.893
G1 X136.615 Y113 E652.914
G1 X83.384 E655.57
G1 X83.385 Y112.6 E655.59
G1 X136.614 E658.246
G1 X136.613 Y112.2 E658.266
G1 X83.386 E660.921
G1 Y111.8 E660.941
G1 X136.613 E663.596
G1 X136.612 Y111.4 E663.616
G1 X83.387 E666.272
G1 X83.346 Y111 E666.292
G1 X136.653 E668.951
G1 X136.696 Y110.6 E668.971
G1 X83.303 E671.635
G1 X83.222 Y110.2 E671.656
G1 X136.77 E674.327
G1 X136.763 Y109.8 E674.347
G1 X83.23 E677.018
G1 X83.295 Y109.4 E677.038
G1 X136.704 E679.703
G1 X136.66 Y109 E679.723
G1 X83.339 E682.383
G1 X83.383 Y108.6 E682.403
G1 X136.616 E685.059
G1 X136.606 Y108.2 E685.079
G1 X83.393 E687.734
G1 Y107.8 E687.754
G1 X136.606 E690.408
G1 X136.605 Y107.4 E690.428
G1 X83.394 E693.083
G1 X83.395 Y107 E693.103
G1 X136.604 E695.758
G1 X136.503 Y106.6 E695.778
G1 X83.496 E698.423
G1 X83.585 Y106.2 E698.443
G1 X136.414 E701.079
G1 X136.326 Y105.8 E701.099
G1 X83.674 E703.726
G1 X83.735 Y105.4 E703.746
G1 X136.264 E706.367
G1 X136.22 Y105 E706.387
G1 X83.779 E709.003
G1 X83.823 Y104.6 E709.023
G1 X136.176 E711.635
G1 X136.132 Y104.2 E711.655
G1 X83.867 E714.263
G1 X84.005 Y103.8 E714.284
G1 X135.989 E716.878
G1 X135.855 Y103.4 E716.899
G1 X84.14 E719.479
G1 X84.276 Y103 E719.5
G1 X135.72 E722.066
G1 X135.614 Y102.6 E722.087
G1 X84.385 E724.643
G1 X84.474 Y102.2 E724.663
G1 X135.525 E727.21
G1 X135.436 Y101.8 E727.231
G1 X84.563 E729.769
G1 X84.652 Y101.4 E729.789
G1 X135.347 E732.318
G1 X135.161 Y101 E732.34
G1 X84.84 E734.851
G1 X85.026 Y100.6 E734.873
G1 X134.975 E737.365
G1 X134.789 Y100.2 E737.387
G1 X85.212 E739.86
G1 X85.36 Y99.8 E739.881
G1 X134.644 E742.34
G1 X134.509 Y99.4 E742.361
G1 X85.495 E744.807
G1 X85.631 Y99 E744.828
G1 X134.375 E747.259
G1 X134.24 Y98.6 E747.281
G1 X85.766 E749.699
G1 X86.038 Y98.2 E749.723
G1 X133.961 E752.114
G1 X133.719 Y97.8 E752.137
G1 X86.28 E754.504
G1 X86.511 Y97.4 E754.527
G1 X133.487 E756.871
G1 X133.301 Y97 E756.893
G1 X86.697 E759.218
G1 X86.883 Y96.6 E759.24
G1 X133.114 E761.546
G1 X132.944 Y96.2 E761.568
G1 X87.068 E763.857
G1 X87.387 Y95.8 E763.882
G1 X132.638 E766.14
G1 X132.332 Y95.4 E766.165
G1 X87.686 E768.392
G1 X87.974 Y95 E768.417
G1 X132.027 E770.615
G1 X131.784 Y94.6 E770.638
G1 X88.215 E772.812
G1 X88.457 Y94.2 E772.835
G1 X131.542 E774.984
G1 X131.314 Y93.8 E775.007
G1 X88.685 E777.134
G1 X89.065 Y93.4 E777.162
G1 X130.934 E779.251
G1 X130.554 Y93 E779.278
G1 X89.445 E781.329
G1 X89.813 Y92.6 E781.356
G1 X130.193 E783.371
G1 X129.888 Y92.2 E783.396
G1 X90.121 E785.38
G1 X90.43 Y91.8 E785.405
G1 X129.582 E787.358
G1 X129.209 Y91.4 E787.386
G1 X90.791 E789.302
G1 X91.262 Y91 E789.333
G1 X128.737 E791.203
G1 X128.272 Y90.6 E791.233
G1 X91.727 E793.057
G1 X92.107 Y90.2 E793.084
G1 X127.892 E794.869
G1 X127.512 Y89.8 E794.897
G1 X92.487 E796.644
G1 X92.966 Y89.4 E796.676
G1 X127.033 E798.375
G1 X126.443 Y89 E798.411
G1 X93.556 E800.051
G1 X94.093 Y88.6 E800.085
G1 X125.906 E801.672
G1 X125.435 Y88.2 E801.703
G1 X94.564 E803.243
G1 X95.036 Y87.8 E803.274
G1 X124.963 E804.767
G1 X124.184 Y87.4 E804.811
G1 X95.814 E806.226
G1 X96.504 Y87 E806.266
G1 X123.495 E807.612
G1 X122.905 Y86.6 E807.648
G1 X97.094 E808.936
G1 X97.832 Y86.2 E808.977
G1 X122.16 E810.191
G1 X121.159 Y85.8 E810.245
G1 X98.839 E811.359
G1 X99.595 Y85.4 E811.401
G1 X120.403 E812.439
G1 X119.337 Y85 E812.496
G1 X100.563 E813.433
G1 X101.861 Y84.6 E813.501
G1 X118.142 E814.313
G1 X117.137 Y84.2 E814.367
G1 X102.869 E815.079
G1 X104.909 Y83.8 E815.182
G1 X115.052 E815.688
G1 X112.231 Y83.4 E815.831
G1 X107.768 E816.053
;bead-raft
G1 F1500 E815.053
G1 F2400
G0 X108.568
G0 X107.768
;Layer : 5 of 28
;rapid-dry
G1 F15000
G0 X108.898 Y89.673 Z1.7
G1 F1500 E816.053
;bead-perimeter_inner
G1 X109.171 Y89.972 F780 E816.073
G1 X109.501 Y90.154 E816.092
G1 X109.82 Y90.213 E816.108
G1 X110.174 E816.126
G1 X110.48 Y90.161 E816.142
G1 X110.827 Y89.978 E816.161
G1 X111.102 Y89.673 E816.182
G1 X111.341 Y90.001 E816.202
G1 X111.664 Y90.226 E816.221
G1 X111.962 Y90.308 E816.237
G1 X112.107 Y90.325 E816.244
G1 X112.308 Y90.346 E816.254
G1 X112.619 Y90.331 E816.27
G1 X112.989 Y90.183 E816.29
G1 X113.292 Y89.913 E816.31
G1 X113.494 Y90.265 E816.33
G1 X113.795 Y90.523 E816.35
G1 X114.089 Y90.64 E816.366
G1 X114.419 Y90.711 E816.383
G1 X114.734 Y90.73 E816.398
G1 X115.115 Y90.62 E816.418
G1 X115.447 Y90.382 E816.438
G1 X115.607 Y90.754 E816.459
G1 X115.875 Y91.046 E816.478
G1 X116.159 Y91.195 E816.494
G1 X116.478 Y91.302 E816.511
G1 X116.786 Y91.354 E816.527
G1 X117.177 Y91.288 E816.547
G1 X117.534 Y91.092 E816.567
G1 X117.656 Y91.477 E816.587
G1 X117.893 Y91.795 E816.607
G1 X118.157 Y91.972 E816.623
G1 X118.462 Y92.112 E816.639
G1 X118.764 Y92.198 E816.655
G1 X119.159 Y92.174 E816.675
G1 X119.535 Y92.016 E816.695
G1 X119.614 Y92.412 E816.715
G1 X119.807 Y92.741 E816.734
G1 X120.049 Y92.954 E816.75
G1 X120.349 Y93.133 E816.768
G1 X120.641 Y93.25 E816.784
G1 X121.033 Y93.268 E816.803
G1 X121.426 Y93.15 E816.824
G1 X121.459 Y93.55 E816.844
G1 X121.619 Y93.913 E816.863
G1 X121.841 Y94.146 E816.879
G1 X122.108 Y94.348 E816.896
G1 X122.374 Y94.492 E816.911
G1 X122.775 Y94.562 E816.932
G1 X123.177 Y94.485 E816.952
G1 X123.169 Y94.897 E816.973
G1 X123.297 Y95.27 E816.992
G1 X123.48 Y95.511 E817.007
G1 X123.584 Y95.613 E817.015
G1 X123.73 Y95.749 E817.025
G1 X123.986 Y95.927 E817.04
G1 X124.375 Y96.033 E817.06
G1 X124.777 Y96.003 E817.08
G1 X124.727 Y96.402 E817.1
G1 X124.807 Y96.791 E817.12
G1 X124.973 Y97.062 E817.136
G1 X125.192 Y97.321 E817.153
G1 X125.431 Y97.522 E817.169
G1 X125.794 Y97.667 E817.188
G1 X126.206 Y97.682 E817.209
G1 X126.108 Y98.074 E817.229
G1 X126.151 Y98.47 E817.249
G1 X126.281 Y98.753 E817.264
G1 X126.473 Y99.037 E817.281
G1 X126.689 Y99.264 E817.297
G1 X127.029 Y99.444 E817.316
G1 X127.448 Y99.503 E817.337
G1 X127.303 Y99.874 E817.357
G1 Y100.315 E817.379
G1 X127.442 Y100.656 E817.398
G1 X127.563 Y100.883 E817.41
G1 X127.752 Y101.132 E817.426
G1 X128.082 Y101.353 E817.446
G1 X128.479 Y101.451 E817.466
G1 X128.295 Y101.815 E817.486
G1 X128.252 Y102.213 E817.506
G1 X128.318 Y102.515 E817.522
G1 X128.445 Y102.834 E817.539
G1 X128.605 Y103.102 E817.555
G1 X128.91 Y103.359 E817.574
G1 X129.289 Y103.502 E817.595
G1 X129.072 Y103.846 E817.615
G1 X128.987 Y104.232 E817.635
G1 X129.02 Y104.54 E817.65
G1 X129.11 Y104.868 E817.667
G1 X129.245 Y105.161 E817.683
G1 X129.519 Y105.44 E817.703
G1 X129.879 Y105.624 E817.723
G1 X129.626 Y105.944 E817.743
G1 X129.499 Y106.316 E817.763
G1 Y106.632 E817.779
G1 X129.554 Y106.965 E817.795
G1 X129.651 Y107.26 E817.811
G1 X129.895 Y107.58 E817.831
G1 X130.238 Y107.799 E817.851
G1 X129.949 Y108.088 E817.872
G1 X129.783 Y108.449 E817.891
G1 X129.749 Y108.759 E817.907
G1 X129.767 Y109.098 E817.924
G1 X129.836 Y109.41 E817.94
G1 X130.041 Y109.742 E817.959
G1 X130.358 Y110 E817.98
G1 X130.041 Y110.256 E818
G1 X129.835 Y110.593 E818.02
G1 X129.768 Y110.901 E818.035
G1 X129.75 Y111.244 E818.053
G1 X129.783 Y111.55 E818.068
G1 X129.947 Y111.908 E818.088
G1 X130.238 Y112.201 E818.108
G1 X129.898 Y112.42 E818.128
G1 X129.653 Y112.736 E818.148
G1 X129.554 Y113.035 E818.164
G1 X129.499 Y113.368 E818.181
G1 Y113.682 E818.197
G1 X129.622 Y114.045 E818.216
G1 X129.882 Y114.376 E818.237
G1 X129.519 Y114.557 E818.257
G1 X129.255 Y114.831 E818.276
G1 X129.113 Y115.122 E818.292
G1 X129.02 Y115.46 E818.31
G1 X128.987 Y115.768 E818.325
G1 X129.072 Y116.154 E818.345
G1 X129.289 Y116.498 E818.365
G1 X128.91 Y116.641 E818.385
G1 X128.605 Y116.898 E818.405
G1 X128.444 Y117.167 E818.421
G1 X128.319 Y117.483 E818.438
G1 X128.252 Y117.787 E818.453
G1 X128.294 Y118.177 E818.473
G1 X128.476 Y118.548 E818.493
G1 X128.082 Y118.647 E818.514
G1 X127.752 Y118.868 E818.534
G1 X127.563 Y119.117 E818.549
G1 X127.403 Y119.42 E818.566
G1 X127.303 Y119.712 E818.582
G1 Y120.111 E818.602
G1 X127.444 Y120.496 E818.622
G1 X127.044 Y120.55 E818.642
G1 X126.694 Y120.732 E818.662
G1 X126.478 Y120.956 E818.677
G1 X126.281 Y121.247 E818.695
G1 X126.151 Y121.53 E818.71
G1 X126.108 Y121.926 E818.73
G1 X126.206 Y122.318 E818.75
G1 X125.8 Y122.333 E818.771
G1 X125.445 Y122.469 E818.79
G1 X125.195 Y122.676 E818.806
G1 X124.973 Y122.938 E818.823
G1 X124.807 Y123.209 E818.839
G1 X124.726 Y123.598 E818.859
G1 X124.779 Y123.998 E818.879
G1 X124.375 Y123.967 E818.899
G1 X123.986 Y124.073 E818.919
G1 X123.73 Y124.251 E818.935
G1 X123.554 Y124.415 E818.947
G1 X123.306 Y124.7 E818.965
G1 X123.169 Y125.105 E818.987
G1 X123.176 Y125.513 E819.007
G1 X122.781 Y125.44 E819.027
G1 X122.385 Y125.502 E819.047
G1 X122.109 Y125.651 E819.063
G1 X121.841 Y125.854 E819.08
G1 X121.62 Y126.086 E819.096
G1 X121.459 Y126.447 E819.115
G1 X121.426 Y126.85 E819.135
G1 X121.033 Y126.732 E819.156
G1 X120.641 Y126.75 E819.176
G1 X120.349 Y126.867 E819.191
G1 X120.054 Y127.043 E819.208
G1 X119.815 Y127.248 E819.224
G1 X119.614 Y127.585 E819.244
G1 X119.535 Y127.984 E819.264
G1 X119.162 Y127.826 E819.284
G1 X118.764 Y127.802 E819.304
G1 X118.462 Y127.888 E819.32
G1 X118.154 Y128.029 E819.337
G1 X117.896 Y128.205 E819.352
G1 X117.666 Y128.507 E819.371
G1 X117.534 Y128.908 E819.392
G1 X117.178 Y128.712 E819.412
G1 X116.789 Y128.646 E819.432
G1 X116.479 Y128.698 E819.448
G1 X116.159 Y128.805 E819.465
G1 X115.882 Y128.951 E819.48
G1 X115.615 Y129.232 E819.5
G1 X115.447 Y129.618 E819.521
G1 X115.118 Y129.38 E819.541
G1 X114.732 Y129.27 E819.561
G1 X114.419 Y129.289 E819.576
G1 X114.089 Y129.36 E819.593
G1 X113.791 Y129.479 E819.609
G1 X113.497 Y129.735 E819.629
G1 X113.292 Y130.087 E819.649
G1 X112.991 Y129.82 E819.669
G1 X112.623 Y129.669 E819.689
G1 X112.308 Y129.654 E819.705
G1 X112.11 Y129.674 E819.715
G1 X111.972 Y129.69 E819.722
G1 X111.666 Y129.773 E819.737
G1 X111.341 Y129.999 E819.757
G1 X111.102 Y130.327 E819.777
G1 X110.829 Y130.028 E819.798
G1 X110.499 Y129.846 E819.816
G1 X110.18 Y129.787 E819.833
G1 X109.826 E819.85
G1 X109.521 Y129.839 E819.866
G1 X109.173 Y130.022 E819.885
G1 X108.898 Y130.327 E819.906
G1 X108.659 Y129.999 E819.926
G1 X108.336 Y129.774 E819.946
G1 X108.038 Y129.692 E819.961
G1 X107.893 Y129.675 E819.968
G1 X107.692 Y129.654 E819.979
G1 X107.381 Y129.669 E819.994
G1 X107.011 Y129.817 E820.014
G1 X106.708 Y130.087 E820.034
G1 X106.506 Y129.735 E820.054
G1 X106.205 Y129.477 E820.074
G1 X105.911 Y129.36 E820.09
G1 X105.581 Y129.289 E820.107
G1 X105.266 Y129.27 E820.123
G1 X104.885 Y129.38 E820.142
G1 X104.553 Y129.618 E820.163
G1 X104.393 Y129.246 E820.183
G1 X104.125 Y128.954 E820.203
G1 X103.841 Y128.805 E820.219
G1 X103.522 Y128.698 E820.235
G1 X103.214 Y128.646 E820.251
G1 X102.823 Y128.712 E820.271
G1 X102.466 Y128.908 E820.291
G1 X102.343 Y128.518 E820.312
G1 X102.104 Y128.205 E820.331
G1 X101.846 Y128.029 E820.347
G1 X101.538 Y127.888 E820.364
G1 X101.236 Y127.802 E820.379
G1 X100.841 Y127.826 E820.399
G1 X100.465 Y127.984 E820.419
G1 X100.386 Y127.588 E820.44
G1 X100.193 Y127.259 E820.459
G1 X99.951 Y127.046 E820.475
G1 X99.651 Y126.866 E820.492
G1 X99.359 Y126.75 E820.508
G1 X98.967 Y126.732 E820.527
G1 X98.574 Y126.85 E820.548
G1 X98.541 Y126.447 E820.568
G1 X98.38 Y126.086 E820.588
G1 X98.159 Y125.854 E820.604
G1 X97.892 Y125.652 E820.62
G1 X97.626 Y125.508 E820.635
G1 X97.225 Y125.438 E820.656
G1 X96.823 Y125.515 E820.676
G1 X96.831 Y125.105 E820.697
G1 X96.703 Y124.727 E820.717
G1 X96.518 Y124.486 E820.732
G1 X96.416 Y124.387 E820.739
G1 X96.27 Y124.251 E820.749
G1 X96.014 Y124.073 E820.764
G1 X95.625 Y123.967 E820.784
G1 X95.223 Y123.997 E820.805
G1 X95.273 Y123.597 E820.825
G1 X95.193 Y123.209 E820.844
G1 X95.027 Y122.938 E820.86
G1 X94.808 Y122.679 E820.877
G1 X94.569 Y122.478 E820.893
G1 X94.206 Y122.333 E820.912
G1 X93.794 Y122.318 E820.933
G1 X93.892 Y121.926 E820.953
G1 X93.849 Y121.53 E820.973
G1 X93.719 Y121.247 E820.988
G1 X93.527 Y120.963 E821.006
G1 X93.311 Y120.736 E821.021
G1 X92.971 Y120.556 E821.04
G1 X92.556 Y120.496 E821.061
G1 X92.697 Y120.111 E821.082
G1 Y119.714 E821.102
G1 X92.6 Y119.426 E821.117
G1 X92.44 Y119.12 E821.134
G1 X92.248 Y118.868 E821.15
G1 X91.918 Y118.647 E821.17
G1 X91.521 Y118.549 E821.19
G1 X91.705 Y118.185 E821.21
G1 X91.748 Y117.787 E821.23
G1 X91.682 Y117.485 E821.246
G1 X91.555 Y117.166 E821.263
G1 X91.395 Y116.898 E821.278
G1 X91.091 Y116.641 E821.298
G1 X90.711 Y116.498 E821.318
G1 X90.928 Y116.154 E821.339
G1 X91.013 Y115.768 E821.359
G1 X90.98 Y115.46 E821.374
G1 X90.889 Y115.127 E821.391
G1 X90.752 Y114.839 E821.407
G1 X90.484 Y114.562 E821.426
G1 X90.121 Y114.376 E821.447
G1 X90.374 Y114.056 E821.467
G1 X90.501 Y113.684 E821.487
G1 Y113.368 E821.502
G1 X90.446 Y113.037 E821.519
G1 X90.354 Y112.754 E821.534
G1 X90.111 Y112.424 E821.554
G1 X89.762 Y112.201 E821.575
G1 X90.051 Y111.912 E821.595
G1 X90.217 Y111.551 E821.615
G1 X90.251 Y111.241 E821.631
G1 X90.233 Y110.902 E821.648
G1 X90.164 Y110.59 E821.664
G1 X89.959 Y110.259 E821.683
G1 X89.64 Y109.999 E821.704
G1 X89.951 Y109.756 E821.723
G1 X90.165 Y109.407 E821.744
G1 X90.233 Y109.098 E821.76
G1 X90.251 Y108.758 E821.777
G1 X90.217 Y108.45 E821.792
G1 X90.052 Y108.092 E821.812
G1 X89.762 Y107.799 E821.832
G1 X90.102 Y107.58 E821.852
G1 X90.347 Y107.264 E821.872
G1 X90.445 Y106.966 E821.888
G1 X90.479 Y106.768 E821.898
G1 X90.501 Y106.63 E821.905
G1 Y106.316 E821.921
G1 X90.373 Y105.941 E821.94
G1 X90.118 Y105.624 E821.961
G1 X90.481 Y105.443 E821.981
G1 X90.746 Y105.169 E822
G1 X90.887 Y104.878 E822.016
G1 X90.98 Y104.54 E822.034
G1 X91.013 Y104.232 E822.049
G1 X90.928 Y103.846 E822.069
G1 X90.711 Y103.502 E822.089
G1 X91.091 Y103.359 E822.109
G1 X91.395 Y103.102 E822.129
G1 X91.556 Y102.833 E822.145
G1 X91.681 Y102.517 E822.162
G1 X91.748 Y102.213 E822.177
G1 X91.706 Y101.823 E822.197
G1 X91.524 Y101.452 E822.217
G1 X91.918 Y101.353 E822.238
G1 X92.247 Y101.132 E822.258
G1 X92.437 Y100.883 E822.273
G1 X92.505 Y100.756 E822.28
G1 X92.597 Y100.58 E822.29
G1 X92.697 Y100.288 E822.306
G1 Y99.889 E822.326
G1 X92.556 Y99.504 E822.346
G1 X92.956 Y99.45 E822.366
G1 X93.306 Y99.268 E822.386
G1 X93.522 Y99.044 E822.401
G1 X93.719 Y98.753 E822.419
G1 X93.849 Y98.47 E822.434
G1 X93.892 Y98.074 E822.454
G1 X93.792 Y97.679 E822.475
G1 X94.201 Y97.669 E822.495
G1 X94.569 Y97.522 E822.515
G1 X94.808 Y97.321 E822.53
G1 X95.027 Y97.062 E822.547
G1 X95.193 Y96.791 E822.563
G1 X95.274 Y96.402 E822.583
G1 X95.221 Y96.002 E822.603
G1 X95.625 Y96.033 E822.623
G1 X96.014 Y95.927 E822.643
G1 X96.27 Y95.749 E822.659
G1 X96.446 Y95.585 E822.671
G1 X96.694 Y95.3 E822.69
G1 X96.831 Y94.895 E822.711
G1 X96.824 Y94.487 E822.732
G1 X97.219 Y94.56 E822.752
G1 X97.615 Y94.498 E822.772
G1 X97.891 Y94.349 E822.787
G1 X98.159 Y94.146 E822.804
G1 X98.38 Y93.914 E822.82
G1 X98.541 Y93.553 E822.84
G1 X98.574 Y93.15 E822.86
G1 X98.967 Y93.268 E822.88
G1 X99.359 Y93.25 E822.9
G1 X99.651 Y93.134 E822.916
G1 X99.945 Y92.957 E822.933
G1 X100.164 Y92.77 E822.947
G1 X100.391 Y92.419 E822.968
G1 X100.461 Y92.013 E822.988
G1 X100.836 Y92.173 E823.009
G1 X101.222 Y92.198 E823.028
G1 X101.531 Y92.115 E823.044
G1 X101.846 Y91.971 E823.061
G1 X102.104 Y91.795 E823.077
G1 X102.343 Y91.482 E823.097
G1 X102.466 Y91.092 E823.117
G1 X102.823 Y91.288 E823.137
G1 X103.211 Y91.354 E823.157
G1 X103.52 Y91.302 E823.173
G1 X103.844 Y91.194 E823.19
G1 X104.121 Y91.048 E823.205
G1 X104.393 Y90.757 E823.225
G1 X104.553 Y90.382 E823.245
G1 X104.882 Y90.62 E823.266
G1 X105.268 Y90.73 E823.286
G1 X105.581 Y90.711 E823.301
G1 X105.911 Y90.64 E823.318
G1 X106.209 Y90.521 E823.334
G1 X106.503 Y90.265 E823.354
G1 X106.708 Y89.913 E823.374
G1 X107.009 Y90.18 E823.394
G1 X107.378 Y90.331 E823.414
G1 X107.692 Y90.346 E823.43
G1 X108.028 Y90.31 E823.446
G1 X108.334 Y90.227 E823.462
G1 X108.659 Y90.001 E823.482
G1 X108.898 Y89.673 E823.502
G1 F1500 E822.502
G1 F2400
G0 X109.171 Y89.972
G0 X109.501 Y90.154
G0 X109.519 Y90.158
G0 X109.501 Y90.154
G0 X109.171 Y89.972
G0 X108.898 Y89.673
;rapid-leaky
G1 F15000
G0 X109.214 Y89.484
G1 F1500 E823.502
;bead-perimeter_inner
G1 X109.398 Y89.68 F780 E823.516
G1 X109.626 Y89.806 E823.529
G1 X109.854 Y89.848 E823.54
G1 X110.143 E823.555
G1 X110.361 Y89.811 E823.566
G1 X110.601 Y89.684 E823.579
G1 X110.787 Y89.482 E823.593
G1 X110.874 Y89.285 E823.604
G1 X110.989 Y88.892 E823.624
G1 X111.17 Y88.415 E823.65
G1 X111.299 Y88.908 E823.675
G1 X111.371 Y89.312 E823.696
G1 X111.436 Y89.518 E823.706
G1 X111.598 Y89.735 E823.72
G1 X111.822 Y89.891 E823.733
G1 X112.032 Y89.949 E823.744
G1 X112.318 Y89.98 E823.759
G1 X112.54 Y89.97 E823.77
G1 X112.795 Y89.867 E823.784
G1 X113.002 Y89.686 E823.797
G1 X113.109 Y89.5 E823.808
G1 X113.265 Y89.122 E823.828
G1 X113.498 Y88.667 E823.854
G1 X113.572 Y89.172 E823.879
G1 X113.6 Y89.579 E823.9
G1 X113.64 Y89.791 E823.91
G1 X113.779 Y90.028 E823.924
G1 X113.986 Y90.206 E823.938
G1 X114.196 Y90.289 E823.949
G1 X114.469 Y90.348 E823.963
G1 X114.693 Y90.362 E823.974
G1 X114.956 Y90.286 E823.988
G1 X115.179 Y90.131 E824.001
G1 X115.306 Y89.957 E824.012
G1 X115.504 Y89.597 E824.033
G1 X115.783 Y89.171 E824.058
G1 X115.803 Y89.68 E824.083
G1 X115.786 Y90.091 E824.104
G1 X115.806 Y90.306 E824.115
G1 X115.916 Y90.551 E824.128
G1 X116.101 Y90.752 E824.142
G1 X116.302 Y90.858 E824.153
G1 X116.567 Y90.947 E824.167
G1 X116.786 Y90.984 E824.178
G1 X117.056 Y90.939 E824.192
G1 X117.298 Y90.808 E824.206
G1 X117.443 Y90.647 E824.216
G1 X117.677 Y90.312 E824.237
G1 X118.002 Y89.918 E824.262
G1 X117.966 Y90.427 E824.288
G1 X117.905 Y90.831 E824.308
G1 X117.9 Y91.047 E824.319
G1 X117.984 Y91.307 E824.332
G1 X118.148 Y91.526 E824.346
G1 X118.336 Y91.652 E824.357
G1 X118.589 Y91.769 E824.371
G1 X118.804 Y91.83 E824.382
G1 X119.077 Y91.813 E824.396
G1 X119.33 Y91.709 E824.41
G1 X119.492 Y91.565 E824.421
G1 X119.761 Y91.257 E824.441
G1 X120.126 Y90.901 E824.466
G1 X120.035 Y91.403 E824.492
G1 X119.932 Y91.799 E824.512
G1 X119.903 Y92.012 E824.523
G1 X119.959 Y92.279 E824.537
G1 X120.092 Y92.505 E824.55
G1 X120.265 Y92.658 E824.561
G1 X120.511 Y92.805 E824.576
G1 X120.719 Y92.888 E824.587
G1 X120.99 Y92.901 E824.6
G1 X121.253 Y92.825 E824.614
G1 X121.43 Y92.7 E824.625
G1 X121.73 Y92.422 E824.645
G1 X122.132 Y92.107 E824.671
G1 X121.987 Y92.596 E824.696
G1 X121.839 Y92.981 E824.717
G1 X121.791 Y93.191 E824.727
G1 X121.816 Y93.457 E824.741
G1 X121.927 Y93.707 E824.754
G1 X122.085 Y93.873 E824.766
G1 X122.306 Y94.04 E824.78
G1 X122.495 Y94.143 E824.79
G1 X122.773 Y94.191 E824.804
G1 X123.045 Y94.141 E824.818
G1 X123.232 Y94.037 E824.829
G1 X123.561 Y93.794 E824.849
G1 X123.995 Y93.524 E824.875
G1 X123.798 Y93.995 E824.9
G1 X123.612 Y94.358 E824.921
G1 X123.538 Y94.56 E824.931
G1 X123.535 Y94.839 E824.945
G1 X123.623 Y95.096 E824.959
G1 X123.754 Y95.269 E824.97
G1 X123.837 Y95.35 E824.975
G1 X123.96 Y95.465 E824.984
G1 X124.143 Y95.592 E824.995
G1 X124.411 Y95.664 E825.009
G1 X124.685 Y95.645 E825.022
G1 X124.882 Y95.561 E825.033
G1 X125.234 Y95.355 E825.053
G1 X125.693 Y95.134 E825.079
G1 X125.448 Y95.581 E825.104
G1 X125.224 Y95.922 E825.125
G1 X125.128 Y96.115 E825.135
G1 X125.096 Y96.387 E825.149
G1 X125.152 Y96.655 E825.163
G1 X125.27 Y96.848 E825.174
G1 X125.451 Y97.061 E825.188
G1 X125.621 Y97.205 E825.199
G1 X125.872 Y97.305 E825.213
G1 X126.149 Y97.318 E825.226
G1 X126.357 Y97.254 E825.237
G1 X126.729 Y97.088 E825.258
G1 X127.21 Y96.918 E825.283
G1 X126.916 Y97.336 E825.309
G1 X126.654 Y97.653 E825.329
G1 X126.542 Y97.833 E825.34
G1 X126.478 Y98.098 E825.353
G1 X126.507 Y98.372 E825.367
G1 X126.6 Y98.573 E825.378
G1 X126.758 Y98.807 E825.392
G1 X126.912 Y98.969 E825.403
G1 X127.146 Y99.093 E825.417
G1 X127.421 Y99.137 E825.43
G1 X127.636 Y99.098 E825.441
G1 X128.026 Y98.972 E825.462
G1 X128.522 Y98.856 E825.487
G1 X128.187 Y99.239 E825.513
G1 X127.893 Y99.524 E825.533
G1 X127.772 Y99.677 E825.543
G1 X127.668 Y99.942 E825.557
G1 Y100.243 E825.572
G1 X127.773 Y100.501 E825.586
G1 X127.871 Y100.685 E825.596
G1 X128.006 Y100.863 E825.607
G1 X128.234 Y101.016 E825.621
G1 X128.498 Y101.084 E825.635
G1 X128.712 Y101.069 E825.645
G1 X129.113 Y100.986 E825.666
G1 X129.62 Y100.923 E825.691
G1 X129.244 Y101.268 E825.717
G1 X128.918 Y101.522 E825.737
G1 X128.771 Y101.674 E825.748
G1 X128.651 Y101.918 E825.761
G1 X128.621 Y102.193 E825.775
G1 X128.669 Y102.409 E825.786
G1 X128.773 Y102.671 E825.8
G1 X128.887 Y102.863 E825.812
G1 X129.097 Y103.04 E825.825
G1 X129.357 Y103.139 E825.839
G1 X129.571 Y103.144 E825.85
G1 X129.975 Y103.105 E825.87
G1 X130.486 Y103.098 E825.896
G1 X130.075 Y103.4 E825.921
G1 X129.726 Y103.616 E825.941
G1 X129.56 Y103.752 E825.952
G1 X129.415 Y103.986 E825.966
G1 X129.356 Y104.252 E825.979
G1 X129.38 Y104.472 E825.99
G1 X129.454 Y104.743 E826.005
G1 X129.55 Y104.951 E826.016
G1 X129.74 Y105.144 E826.029
G1 X129.978 Y105.269 E826.043
G1 X130.194 Y105.3 E826.054
G1 X130.603 Y105.306 E826.074
G1 X131.111 Y105.353 E826.1
G1 X130.671 Y105.609 E826.125
G1 X130.302 Y105.786 E826.145
G1 X130.121 Y105.902 E826.156
G1 X129.952 Y106.12 E826.17
G1 X129.864 Y106.377 E826.184
G1 Y106.602 E826.195
G1 X129.91 Y106.877 E826.209
G1 X129.979 Y107.088 E826.22
G1 X130.147 Y107.309 E826.234
G1 X130.378 Y107.458 E826.247
G1 X130.584 Y107.511 E826.258
G1 X130.991 Y107.561 E826.278
G1 X131.491 Y107.663 E826.304
G1 X131.025 Y107.87 E826.329
G1 X130.638 Y108.005 E826.35
G1 X130.447 Y108.102 E826.36
G1 X130.254 Y108.298 E826.374
G1 X130.139 Y108.548 E826.388
G1 X130.115 Y108.769 E826.399
G1 X130.13 Y109.049 E826.413
G1 X130.179 Y109.271 E826.424
G1 X130.321 Y109.5 E826.438
G1 X130.527 Y109.674 E826.451
G1 X130.732 Y109.752 E826.462
G1 X131.132 Y109.845 E826.483
G1 X131.618 Y110 E826.508
G1 X131.132 Y110.155 E826.534
G1 X130.732 Y110.248 E826.554
G1 X130.53 Y110.325 E826.565
G1 X130.321 Y110.498 E826.578
G1 X130.178 Y110.731 E826.592
G1 X130.13 Y110.95 E826.603
G1 X130.116 Y111.233 E826.617
G1 X130.139 Y111.452 E826.628
G1 X130.253 Y111.699 E826.642
G1 X130.445 Y111.897 E826.656
G1 X130.638 Y111.995 E826.666
G1 X131.025 Y112.13 E826.687
G1 X131.491 Y112.337 E826.712
G1 X130.991 Y112.439 E826.738
G1 X130.584 Y112.489 E826.758
G1 X130.376 Y112.543 E826.769
G1 X130.149 Y112.691 E826.783
G1 X129.98 Y112.91 E826.796
G1 X129.91 Y113.123 E826.807
G1 X129.864 Y113.398 E826.821
G1 Y113.622 E826.833
G1 X129.948 Y113.871 E826.846
G1 X130.117 Y114.093 E826.86
G1 X130.3 Y114.213 E826.87
G1 X130.671 Y114.391 E826.891
G1 X131.111 Y114.647 E826.916
G1 X130.603 Y114.694 E826.942
G1 X130.194 Y114.7 E826.962
G1 X129.981 Y114.73 E826.973
G1 X129.74 Y114.854 E826.987
G1 X129.557 Y115.043 E827
G1 X129.456 Y115.251 E827.011
G1 X129.38 Y115.528 E827.026
G1 X129.356 Y115.748 E827.037
G1 X129.415 Y116.014 E827.05
G1 X129.56 Y116.248 E827.064
G1 X129.726 Y116.384 E827.075
G1 X130.075 Y116.6 E827.095
G1 X130.486 Y116.903 E827.121
G1 X129.975 Y116.895 E827.146
G1 X129.571 Y116.856 E827.166
G1 X129.357 Y116.861 E827.177
G1 X129.097 Y116.96 E827.191
G1 X128.887 Y117.137 E827.205
G1 X128.773 Y117.329 E827.216
G1 X128.669 Y117.59 E827.23
G1 X128.621 Y117.807 E827.241
G1 X128.651 Y118.077 E827.254
G1 X128.768 Y118.325 E827.268
G1 X128.92 Y118.48 E827.279
G1 X129.245 Y118.733 E827.299
G1 X129.619 Y119.077 E827.325
G1 X129.113 Y119.014 E827.35
G1 X128.712 Y118.931 E827.371
G1 X128.498 Y118.916 E827.381
G1 X128.234 Y118.984 E827.395
G1 X128.006 Y119.137 E827.409
G1 X127.871 Y119.315 E827.42
G1 X127.739 Y119.564 E827.434
G1 X127.668 Y119.773 E827.445
G1 Y120.048 E827.459
G1 X127.76 Y120.307 E827.472
G1 X127.892 Y120.475 E827.483
G1 X128.187 Y120.761 E827.503
G1 X128.522 Y121.145 E827.529
G1 X128.026 Y121.028 E827.554
G1 X127.636 Y120.902 E827.575
G1 X127.427 Y120.864 E827.585
G1 X127.157 Y120.903 E827.599
G1 X126.915 Y121.028 E827.613
G1 X126.763 Y121.187 E827.624
G1 X126.6 Y121.427 E827.638
G1 X126.507 Y121.628 E827.649
G1 X126.478 Y121.902 E827.663
G1 X126.542 Y122.167 E827.676
G1 X126.654 Y122.347 E827.687
G1 X126.916 Y122.664 E827.708
G1 X127.21 Y123.082 E827.733
G1 X126.729 Y122.912 E827.758
G1 X126.357 Y122.746 E827.779
G1 X126.149 Y122.682 E827.79
G1 X125.875 Y122.695 E827.803
G1 X125.631 Y122.789 E827.816
G1 X125.452 Y122.936 E827.828
G1 X125.27 Y123.152 E827.842
G1 X125.152 Y123.345 E827.853
G1 X125.096 Y123.614 E827.867
G1 X125.128 Y123.883 E827.88
G1 X125.223 Y124.077 E827.891
G1 X125.448 Y124.419 E827.912
G1 X125.693 Y124.866 E827.937
G1 X125.234 Y124.645 E827.963
G1 X124.882 Y124.439 E827.983
G1 X124.685 Y124.355 E827.994
G1 X124.41 Y124.336 E828.007
G1 X124.143 Y124.408 E828.021
G1 X123.96 Y124.535 E828.032
G1 X123.817 Y124.669 E828.042
G1 X123.629 Y124.885 E828.056
G1 X123.535 Y125.162 E828.071
G1 X123.538 Y125.44 E828.085
G1 X123.612 Y125.642 E828.095
G1 X123.798 Y126.005 E828.116
G1 X123.995 Y126.477 E828.141
G1 X123.561 Y126.206 E828.167
G1 X123.233 Y125.964 E828.187
G1 X123.047 Y125.859 E828.198
G1 X122.777 Y125.81 E828.212
G1 X122.504 Y125.853 E828.225
G1 X122.307 Y125.959 E828.237
G1 X122.085 Y126.127 E828.25
G1 X121.928 Y126.292 E828.262
G1 X121.816 Y126.541 E828.275
G1 X121.791 Y126.809 E828.289
G1 X121.839 Y127.019 E828.3
G1 X121.987 Y127.404 E828.32
G1 X122.132 Y127.893 E828.346
G1 X121.73 Y127.578 E828.371
G1 X121.43 Y127.3 E828.391
G1 X121.253 Y127.175 E828.402
G1 X120.99 Y127.099 E828.416
G1 X120.719 Y127.112 E828.429
G1 X120.511 Y127.195 E828.441
G1 X120.268 Y127.34 E828.455
G1 X120.098 Y127.486 E828.466
G1 X119.959 Y127.719 E828.479
G1 X119.903 Y127.988 E828.493
G1 X119.932 Y128.201 E828.504
G1 X120.035 Y128.597 E828.524
G1 X120.126 Y129.099 E828.55
G1 X119.776 Y128.759 E828.574
G1 X119.492 Y128.434 E828.596
G1 X119.331 Y128.292 E828.606
G1 X119.079 Y128.187 E828.62
G1 X118.804 Y128.17 E828.634
G1 X118.589 Y128.231 E828.645
G1 X118.334 Y128.348 E828.659
G1 X118.15 Y128.474 E828.67
G1 X117.992 Y128.682 E828.683
G1 X117.9 Y128.948 E828.697
G1 X117.905 Y129.169 E828.708
G1 X117.966 Y129.573 E828.728
G1 X118.002 Y130.082 E828.754
G1 X117.677 Y129.688 E828.779
G1 X117.443 Y129.353 E828.8
G1 X117.298 Y129.192 E828.811
G1 X117.057 Y129.062 E828.824
G1 X116.789 Y129.016 E828.838
G1 X116.568 Y129.053 E828.849
G1 X116.302 Y129.142 E828.863
G1 X116.105 Y129.246 E828.874
G1 X115.922 Y129.439 E828.887
G1 X115.807 Y129.692 E828.901
G1 X115.786 Y129.909 E828.912
G1 X115.803 Y130.32 E828.933
G1 X115.783 Y130.829 E828.958
G1 X115.504 Y130.403 E828.983
G1 X115.306 Y130.043 E829.004
G1 X115.18 Y129.87 E829.015
G1 X114.958 Y129.714 E829.028
G1 X114.692 Y129.638 E829.042
G1 X114.469 Y129.652 E829.053
G1 X114.196 Y129.711 E829.067
G1 X113.984 Y129.795 E829.078
G1 X113.781 Y129.972 E829.092
G1 X113.641 Y130.207 E829.106
G1 X113.6 Y130.421 E829.116
G1 X113.572 Y130.828 E829.137
G1 X113.498 Y131.333 E829.162
G1 X113.265 Y130.878 E829.188
G1 X113.109 Y130.5 E829.208
G1 X113.002 Y130.313 E829.219
G1 X112.797 Y130.135 E829.232
G1 X112.542 Y130.03 E829.246
G1 X112.318 Y130.02 E829.257
G1 X112.04 Y130.049 E829.271
G1 X111.823 Y130.108 E829.283
G1 X111.598 Y130.265 E829.296
G1 X111.436 Y130.482 E829.31
G1 X111.371 Y130.688 E829.321
G1 X111.299 Y131.092 E829.341
G1 X111.17 Y131.585 E829.366
G1 X110.989 Y131.108 E829.392
G1 X110.874 Y130.715 E829.412
G1 X110.786 Y130.516 E829.423
G1 X110.602 Y130.32 E829.437
G1 X110.374 Y130.194 E829.45
G1 X110.146 Y130.152 E829.461
G1 X109.857 E829.476
G1 X109.639 Y130.189 E829.487
G1 X109.399 Y130.316 E829.5
G1 X109.213 Y130.518 E829.514
G1 X109.126 Y130.715 E829.525
G1 X109.011 Y131.108 E829.545
G1 X108.83 Y131.585 E829.571
G1 X108.701 Y131.092 E829.596
G1 X108.629 Y130.689 E829.616
G1 X108.565 Y130.482 E829.627
G1 X108.402 Y130.265 E829.641
G1 X108.178 Y130.109 E829.654
G1 X107.968 Y130.051 E829.665
G1 X107.682 Y130.02 E829.68
G1 X107.46 Y130.03 E829.691
G1 X107.205 Y130.133 E829.704
G1 X106.998 Y130.314 E829.718
G1 X106.891 Y130.5 E829.729
G1 X106.735 Y130.878 E829.749
G1 X106.502 Y131.333 E829.775
G1 X106.428 Y130.828 E829.8
G1 X106.4 Y130.421 E829.821
G1 X106.36 Y130.21 E829.831
G1 X106.221 Y129.972 E829.845
G1 X106.014 Y129.794 E829.859
G1 X105.804 Y129.711 E829.87
G1 X105.531 Y129.652 E829.884
G1 X105.307 Y129.638 E829.895
G1 X105.044 Y129.714 E829.909
G1 X104.821 Y129.869 E829.922
G1 X104.694 Y130.042 E829.933
G1 X104.496 Y130.403 E829.953
G1 X104.217 Y130.829 E829.979
G1 X104.197 Y130.32 E830.004
G1 X104.214 Y129.909 E830.025
G1 X104.194 Y129.694 E830.036
G1 X104.084 Y129.449 E830.049
G1 X103.899 Y129.248 E830.063
G1 X103.698 Y129.142 E830.074
G1 X103.433 Y129.053 E830.088
G1 X103.214 Y129.016 E830.099
G1 X102.944 Y129.061 E830.113
G1 X102.702 Y129.192 E830.126
G1 X102.557 Y129.353 E830.137
G1 X102.323 Y129.688 E830.158
G1 X101.998 Y130.082 E830.183
G1 X102.034 Y129.573 E830.208
G1 X102.095 Y129.169 E830.229
G1 X102.1 Y128.953 E830.24
G1 X102.015 Y128.69 E830.253
G1 X101.85 Y128.474 E830.267
G1 X101.666 Y128.348 E830.278
G1 X101.411 Y128.231 E830.292
G1 X101.196 Y128.17 E830.303
G1 X100.923 Y128.187 E830.317
G1 X100.67 Y128.291 E830.331
G1 X100.508 Y128.435 E830.341
G1 X100.239 Y128.743 E830.362
G1 X99.874 Y129.099 E830.387
G1 X99.965 Y128.597 E830.413
G1 X100.069 Y128.201 E830.433
G1 X100.097 Y127.988 E830.444
G1 X100.041 Y127.721 E830.457
G1 X99.908 Y127.495 E830.471
G1 X99.735 Y127.342 E830.482
G1 X99.489 Y127.195 E830.496
G1 X99.281 Y127.112 E830.508
G1 X99.01 Y127.099 E830.521
G1 X98.747 Y127.175 E830.535
G1 X98.57 Y127.3 E830.546
G1 X98.27 Y127.578 E830.566
G1 X97.868 Y127.893 E830.591
G1 X98.013 Y127.403 E830.617
G1 X98.161 Y127.019 E830.637
G1 X98.209 Y126.809 E830.648
G1 X98.184 Y126.541 E830.662
G1 X98.072 Y126.292 E830.675
G1 X97.915 Y126.127 E830.687
G1 X97.694 Y125.96 E830.7
G1 X97.505 Y125.857 E830.711
G1 X97.227 Y125.809 E830.725
G1 X96.955 Y125.859 E830.739
G1 X96.768 Y125.963 E830.75
G1 X96.439 Y126.206 E830.77
G1 X96.005 Y126.477 E830.796
G1 X96.202 Y126.005 E830.821
G1 X96.388 Y125.642 E830.841
G1 X96.462 Y125.44 E830.852
G1 X96.465 Y125.163 E830.866
G1 X96.377 Y124.902 E830.88
G1 X96.244 Y124.73 E830.891
G1 X96.04 Y124.535 E830.905
G1 X95.857 Y124.408 E830.916
G1 X95.59 Y124.336 E830.93
G1 X95.315 Y124.355 E830.943
G1 X95.118 Y124.439 E830.954
G1 X94.766 Y124.645 E830.974
G1 X94.307 Y124.866 E831
G1 X94.552 Y124.419 E831.025
G1 X94.776 Y124.078 E831.046
G1 X94.872 Y123.885 E831.056
G1 X94.904 Y123.613 E831.07
G1 X94.848 Y123.345 E831.084
G1 X94.73 Y123.152 E831.095
G1 X94.55 Y122.939 E831.109
G1 X94.379 Y122.795 E831.12
G1 X94.128 Y122.695 E831.133
G1 X93.851 Y122.682 E831.147
G1 X93.643 Y122.746 E831.158
G1 X93.271 Y122.912 E831.178
G1 X92.791 Y123.082 E831.204
G1 X93.084 Y122.664 E831.229
G1 X93.346 Y122.347 E831.25
G1 X93.458 Y122.167 E831.26
G1 X93.522 Y121.902 E831.274
G1 X93.493 Y121.628 E831.288
G1 X93.4 Y121.427 E831.299
G1 X93.242 Y121.193 E831.313
G1 X93.088 Y121.031 E831.324
G1 X92.854 Y120.907 E831.337
G1 X92.58 Y120.863 E831.351
G1 X92.364 Y120.902 E831.362
G1 X91.974 Y121.028 E831.383
G1 X91.478 Y121.145 E831.408
G1 X91.813 Y120.761 E831.433
G1 X92.108 Y120.475 E831.454
G1 X92.24 Y120.307 E831.465
G1 X92.332 Y120.048 E831.478
G1 Y119.774 E831.492
G1 X92.263 Y119.57 E831.503
G1 X92.131 Y119.317 E831.517
G1 X91.994 Y119.137 E831.528
G1 X91.766 Y118.984 E831.542
G1 X91.502 Y118.916 E831.556
G1 X91.288 Y118.931 E831.566
G1 X90.887 Y119.014 E831.587
G1 X90.38 Y119.077 E831.612
G1 X90.756 Y118.732 E831.638
G1 X91.082 Y118.478 E831.658
G1 X91.229 Y118.326 E831.669
G1 X91.349 Y118.082 E831.682
G1 X91.379 Y117.807 E831.696
G1 X91.331 Y117.591 E831.707
G1 X91.227 Y117.329 E831.721
G1 X91.113 Y117.137 E831.732
G1 X90.903 Y116.96 E831.746
G1 X90.643 Y116.861 E831.76
G1 X90.429 Y116.856 E831.771
G1 X90.025 Y116.895 E831.791
G1 X89.514 Y116.903 E831.816
G1 X89.925 Y116.6 E831.842
G1 X90.274 Y116.384 E831.862
G1 X90.44 Y116.248 E831.873
G1 X90.585 Y116.015 E831.887
G1 X90.644 Y115.748 E831.9
G1 X90.62 Y115.528 E831.911
G1 X90.545 Y115.254 E831.926
G1 X90.448 Y115.049 E831.937
G1 X90.262 Y114.857 E831.95
G1 X90.022 Y114.731 E831.964
G1 X89.806 Y114.7 E831.975
G1 X89.396 Y114.694 E831.995
G1 X88.889 Y114.647 E832.02
G1 X89.329 Y114.391 E832.046
G1 X89.698 Y114.214 E832.066
G1 X89.879 Y114.098 E832.077
G1 X90.048 Y113.88 E832.091
G1 X90.136 Y113.623 E832.104
G1 Y113.398 E832.116
G1 X90.09 Y113.124 E832.129
G1 X90.025 Y112.923 E832.14
G1 X89.857 Y112.694 E832.154
G1 X89.622 Y112.542 E832.168
G1 X89.416 Y112.489 E832.179
G1 X89.009 Y112.439 E832.199
G1 X88.509 Y112.337 E832.225
G1 X88.975 Y112.13 E832.25
G1 X89.362 Y111.995 E832.271
G1 X89.553 Y111.898 E832.281
G1 X89.746 Y111.702 E832.295
G1 X89.861 Y111.452 E832.309
G1 X89.885 Y111.231 E832.32
G1 X89.87 Y110.951 E832.334
G1 X89.821 Y110.729 E832.345
G1 X89.679 Y110.5 E832.359
G1 X89.473 Y110.326 E832.372
G1 X89.268 Y110.248 E832.383
G1 X88.868 Y110.155 E832.403
G1 X88.382 Y110 E832.429
G1 X88.868 Y109.845 E832.454
G1 X89.266 Y109.752 E832.475
G1 X89.452 Y109.683 E832.485
G1 X89.675 Y109.509 E832.499
G1 X89.822 Y109.269 E832.513
G1 X89.87 Y109.049 E832.524
G1 X89.885 Y108.768 E832.538
G1 X89.861 Y108.548 E832.549
G1 X89.747 Y108.301 E832.563
G1 X89.555 Y108.103 E832.576
G1 X89.362 Y108.005 E832.587
G1 X88.975 Y107.87 E832.608
G1 X88.509 Y107.663 E832.633
G1 X89.009 Y107.561 E832.659
G1 X89.416 Y107.511 E832.679
G1 X89.624 Y107.458 E832.69
G1 X89.851 Y107.309 E832.703
G1 X90.02 Y107.09 E832.717
G1 X90.09 Y106.878 E832.728
G1 X90.136 Y106.6 E832.742
G1 Y106.377 E832.753
G1 X90.047 Y106.118 E832.767
G1 X89.879 Y105.904 E832.781
G1 X89.7 Y105.787 E832.791
G1 X89.329 Y105.609 E832.812
G1 X88.889 Y105.353 E832.837
G1 X89.396 Y105.306 E832.863
G1 X89.806 Y105.3 E832.883
G1 X90.019 Y105.27 E832.894
G1 X90.26 Y105.146 E832.907
G1 X90.443 Y104.957 E832.921
G1 X90.544 Y104.749 E832.932
G1 X90.62 Y104.472 E832.946
G1 X90.644 Y104.252 E832.957
G1 X90.585 Y103.985 E832.971
G1 X90.44 Y103.752 E832.985
G1 X90.274 Y103.616 E832.995
G1 X89.925 Y103.4 E833.016
G1 X89.514 Y103.098 E833.041
G1 X90.025 Y103.105 E833.067
G1 X90.429 Y103.144 E833.087
G1 X90.643 Y103.139 E833.098
G1 X90.903 Y103.04 E833.112
G1 X91.113 Y102.863 E833.125
G1 X91.227 Y102.671 E833.137
G1 X91.331 Y102.41 E833.151
G1 X91.379 Y102.193 E833.162
G1 X91.349 Y101.923 E833.175
G1 X91.232 Y101.675 E833.189
G1 X91.08 Y101.52 E833.2
G1 X90.755 Y101.267 E833.22
G1 X90.381 Y100.923 E833.246
G1 X90.887 Y100.986 E833.271
G1 X91.288 Y101.069 E833.292
G1 X91.502 Y101.084 E833.302
G1 X91.766 Y101.016 E833.316
G1 X91.994 Y100.863 E833.329
G1 X92.129 Y100.685 E833.341
G1 X92.261 Y100.436 E833.355
G1 X92.332 Y100.227 E833.366
G1 Y99.952 E833.379
G1 X92.24 Y99.693 E833.393
G1 X92.108 Y99.525 E833.404
G1 X91.813 Y99.239 E833.424
G1 X91.478 Y98.856 E833.45
G1 X91.974 Y98.972 E833.475
G1 X92.364 Y99.098 E833.496
G1 X92.573 Y99.136 E833.506
G1 X92.843 Y99.097 E833.52
G1 X93.085 Y98.972 E833.533
G1 X93.237 Y98.813 E833.544
G1 X93.4 Y98.573 E833.559
G1 X93.493 Y98.372 E833.57
G1 X93.522 Y98.098 E833.584
G1 X93.458 Y97.833 E833.597
G1 X93.346 Y97.653 E833.608
G1 X93.084 Y97.336 E833.628
G1 X92.791 Y96.918 E833.654
G1 X93.271 Y97.088 E833.679
G1 X93.646 Y97.255 E833.7
G1 X93.851 Y97.316 E833.71
G1 X94.125 Y97.306 E833.724
G1 X94.379 Y97.205 E833.738
G1 X94.55 Y97.061 E833.749
G1 X94.73 Y96.848 E833.763
G1 X94.848 Y96.655 E833.774
G1 X94.904 Y96.386 E833.788
G1 X94.872 Y96.117 E833.801
G1 X94.777 Y95.923 E833.812
G1 X94.552 Y95.581 E833.832
G1 X94.307 Y95.134 E833.858
G1 X94.766 Y95.355 E833.883
G1 X95.118 Y95.561 E833.904
G1 X95.315 Y95.645 E833.914
G1 X95.589 Y95.664 E833.928
G1 X95.857 Y95.592 E833.942
G1 X96.04 Y95.465 E833.953
G1 X96.183 Y95.331 E833.963
G1 X96.371 Y95.115 E833.977
G1 X96.465 Y94.837 E833.992
G1 X96.462 Y94.56 E834.005
G1 X96.388 Y94.358 E834.016
G1 X96.202 Y93.995 E834.037
G1 X96.005 Y93.524 E834.062
G1 X96.439 Y93.794 E834.088
G1 X96.767 Y94.036 E834.108
G1 X96.953 Y94.141 E834.119
G1 X97.223 Y94.19 E834.132
G1 X97.496 Y94.147 E834.146
G1 X97.693 Y94.041 E834.157
G1 X97.915 Y93.873 E834.171
G1 X98.072 Y93.708 E834.183
G1 X98.184 Y93.459 E834.196
G1 X98.209 Y93.191 E834.21
G1 X98.161 Y92.981 E834.22
G1 X98.013 Y92.596 E834.241
G1 X97.868 Y92.107 E834.266
G1 X98.27 Y92.422 E834.292
G1 X98.57 Y92.7 E834.312
G1 X98.747 Y92.825 E834.323
G1 X99.01 Y92.901 E834.337
G1 X99.281 Y92.888 E834.35
G1 X99.489 Y92.805 E834.361
G1 X99.731 Y92.66 E834.375
G1 X99.886 Y92.527 E834.386
G1 X100.044 Y92.283 E834.4
G1 X100.095 Y91.991 E834.415
G1 X100.068 Y91.798 E834.425
G1 X99.965 Y91.403 E834.445
G1 X99.874 Y90.901 E834.47
G1 X100.224 Y91.241 E834.495
G1 X100.508 Y91.566 E834.516
G1 X100.669 Y91.708 E834.527
G1 X100.92 Y91.813 E834.541
G1 X101.186 Y91.83 E834.554
G1 X101.407 Y91.77 E834.565
G1 X101.666 Y91.652 E834.58
G1 X101.85 Y91.526 E834.591
G1 X102.015 Y91.31 E834.604
G1 X102.1 Y91.047 E834.618
G1 X102.095 Y90.831 E834.629
G1 X102.034 Y90.427 E834.649
G1 X101.998 Y89.918 E834.675
G1 X102.323 Y90.312 E834.7
G1 X102.557 Y90.647 E834.721
G1 X102.702 Y90.808 E834.731
G1 X102.943 Y90.938 E834.745
G1 X103.211 Y90.984 E834.759
G1 X103.431 Y90.947 E834.77
G1 X103.602 Y90.891 E834.779
G1 X103.699 Y90.858 E834.784
G1 X103.897 Y90.753 E834.795
G1 X104.084 Y90.553 E834.809
G1 X104.194 Y90.305 E834.822
G1 X104.214 Y90.091 E834.833
G1 X104.197 Y89.68 E834.853
G1 X104.217 Y89.171 E834.879
G1 X104.496 Y89.597 E834.904
G1 X104.694 Y89.957 E834.925
G1 X104.82 Y90.13 E834.935
G1 X105.042 Y90.286 E834.949
G1 X105.308 Y90.362 E834.963
G1 X105.531 Y90.348 E834.974
G1 X105.804 Y90.289 E834.988
G1 X106.016 Y90.205 E834.999
G1 X106.219 Y90.028 E835.013
G1 X106.359 Y89.793 E835.026
G1 X106.4 Y89.579 E835.037
G1 X106.428 Y89.172 E835.057
G1 X106.502 Y88.667 E835.083
G1 X106.735 Y89.122 E835.108
G1 X106.891 Y89.5 E835.129
G1 X106.998 Y89.687 E835.14
G1 X107.203 Y89.865 E835.153
G1 X107.458 Y89.97 E835.167
G1 X107.682 Y89.98 E835.178
G1 X107.96 Y89.951 E835.192
G1 X108.177 Y89.892 E835.203
G1 X108.402 Y89.735 E835.217
G1 X108.565 Y89.518 E835.231
G1 X108.629 Y89.311 E835.241
G1 X108.701 Y88.908 E835.262
G1 X108.83 Y88.415 E835.287
G1 X109.011 Y88.892 E835.313
G1 X109.126 Y89.285 E835.333
G1 X109.214 Y89.484 E835.344
G1 F1500 E834.344
G1 F2400
G0 X109.398 Y89.68
G0 X109.626 Y89.806
G0 X109.854 Y89.848
G0 X109.892
G0 X109.854
G0 X109.626 Y89.806
G0 X109.398 Y89.68
G0 X109.214 Y89.484
;rapid-leaky
G1 F15000
G0 X109.523 Y89.28
G1 F1500 E835.344
;bead-perimeter_outer
G1 X109.625 Y89.389 F540 E835.351
G1 X109.75 Y89.458 E835.359
G1 X109.887 Y89.483 E835.365
G1 X110.112 E835.377
G1 X110.242 Y89.461 E835.383
G1 X110.375 Y89.391 E835.391
G1 X110.478 Y89.279 E835.398
G1 X110.53 Y89.16 E835.405
G1 X110.642 Y88.778 E835.425
G1 X110.773 Y88.416 E835.444
G1 X111.042 Y87.814 E835.477
G1 X111.362 Y87.831 E835.493
G1 X111.565 Y88.459 E835.526
G1 X111.656 Y88.832 E835.545
G1 X111.726 Y89.225 E835.565
G1 X111.765 Y89.349 E835.571
G1 X111.855 Y89.47 E835.579
G1 X111.979 Y89.556 E835.586
G1 X112.187 Y89.6 E835.597
G1 X112.328 Y89.614 E835.604
G1 X112.461 Y89.608 E835.611
G1 X112.601 Y89.552 E835.618
G1 X112.716 Y89.452 E835.626
G1 X112.781 Y89.338 E835.632
G1 X112.932 Y88.971 E835.652
G1 X113.102 Y88.626 E835.671
G1 X113.435 Y88.057 E835.704
G1 X113.751 Y88.109 E835.72
G1 X113.885 Y88.754 E835.753
G1 X113.935 Y89.136 E835.772
G1 X113.962 Y89.532 E835.792
G1 X113.987 Y89.66 E835.799
G1 X114.063 Y89.791 E835.806
G1 X114.178 Y89.89 E835.814
G1 X114.303 Y89.939 E835.82
G1 X114.519 Y89.986 E835.831
G1 X114.652 Y89.994 E835.838
G1 X114.797 Y89.952 E835.846
G1 X114.92 Y89.866 E835.853
G1 X114.998 Y89.761 E835.86
G1 X115.189 Y89.412 E835.879
G1 X115.395 Y89.087 E835.899
G1 X115.788 Y88.557 E835.932
G1 X116.095 Y88.641 E835.947
G1 X116.159 Y89.299 E835.98
G1 X116.168 Y89.683 E836
G1 X116.152 Y90.081 E836.019
G1 X116.164 Y90.212 E836.026
G1 X116.225 Y90.347 E836.033
G1 X116.327 Y90.459 E836.041
G1 X116.446 Y90.522 E836.048
G1 X116.656 Y90.592 E836.059
G1 X116.787 Y90.614 E836.065
G1 X116.936 Y90.589 E836.073
G1 X117.069 Y90.517 E836.08
G1 X117.157 Y90.42 E836.087
G1 X117.384 Y90.094 E836.107
G1 X117.624 Y89.793 E836.126
G1 X118.072 Y89.308 E836.159
G1 X118.369 Y89.427 E836.175
G1 X118.361 Y90.086 E836.208
G1 X118.328 Y90.47 E836.227
G1 X118.269 Y90.863 E836.247
G1 X118.266 Y90.993 E836.253
G1 X118.313 Y91.137 E836.261
G1 X118.403 Y91.258 E836.268
