;FLAVOR:Marlin
;TIME:8512
;Filament used: 5.11465m
;Layer height: 0.2
;MINX:72.738
;MINY:84.25
;MINZ:0.2
;MAXX:162.262
;MAXY:150.75
;MAXZ:9.6
;Generated with Cura_SteamEngine master
M82 ;absolute extrusion mode
G92 E0 ; Reset Extruder
M140 S60 ; Set bed temperature
G28 ; Home all axis
M190 S60 ; Wait for bed temperature
M104 T0 S220 ; Set hotend temperature
G29 ; Auto bed leveling
M109 T0 S220 ; Wait for hotend temperature
G1 Z2.0 F3000 ; Move Z Axis up little to prevent scratching of Heat Bed
G1 X0.1 Y20 Z0.3 F5000.0 ; Move to start position
G1 X0.1 Y200.0 Z0.3 F1500.0 E15 ; Draw the first line
G1 X0.4 Y200.0 Z0.3 F5000.0 ; Move to side a little
G1 X0.4 Y20 Z0.3 F1500.0 E30 ; Draw the second line
G92 E0 ; Reset Extruder
G1 Z2.0 F3000 ; Move Z Axis up little to prevent scratching of Heat Bed
G1 X5 Y20 Z0.3 F5000.0 ; Move over to prevent blob squish
G92 E0
G92 E0 ; Reset Extruder
G28 ; Home all axes
G1 Z2.0 F3000 ; Move Z Axis up little to prevent scratching of Heat Bed
G1 X0.1 Y20 Z0.3 F5000.0 ; Move to start position
G1 X0.1 Y200.0 Z0.3 F1500.0 E15 ; Draw the first line
G1 X0.4 Y200.0 Z0.3 F5000.0 ; Move to side a little
G1 X0.4 Y20 Z0.3 F1500.0 E30 ; Draw the second line
G92 E0 ; Reset Extruder
G1 Z2.0 F3000 ; Move Z Axis up little to prevent scratching of Heat Bed
G1 X5 Y20 Z0.3 F5000.0 ; Move over to prevent blob squish
G92 E0
G1 F2700 E-5
;LAYER_COUNT:48
;LAYER:0
M107
;MESH:Rasberry_Pi-Ender3_Housing_2Rails_Bottom_cover.STL
G0 F6000 X77.344 Y86.771 Z0.2
;TYPE:WALL-INNER
G1 F2700 E0
G1 F1200 X76.794 Y87.028 E0.02019
G1 X76.295 Y87.377 E0.04044
G1 X75.865 Y87.807 E0.06067
G1 X75.516 Y88.306 E0.08092
G1 X75.259 Y88.856 E0.10112
G1 X75.102 Y89.444 E0.12136
G1 X75.048 Y90.05 E0.14159
G1 X75.102 Y90.656 E0.16183
G1 X75.259 Y91.244 E0.18207
G1 X75.516 Y91.794 E0.20226
G1 X75.865 Y92.293 E0.22252
G1 X76.295 Y92.723 E0.24274
G1 X76.794 Y93.072 E0.26299
G1 X77.344 Y93.329 E0.28319
G1 X77.932 Y93.486 E0.30343
G1 X78.538 Y93.54 E0.32366
G1 X79.144 Y93.486 E0.3439
G1 X79.731 Y93.329 E0.36411
G1 X80.283 Y93.072 E0.38436
G1 X80.78 Y92.723 E0.40456
G1 X81.211 Y92.293 E0.42481
G1 X81.56 Y91.794 E0.44506
G1 X81.817 Y91.244 E0.46525
G1 X81.974 Y90.656 E0.4855
G1 X82.028 Y90.05 E0.50573
G1 X81.974 Y89.444 E0.52597
G1 X81.817 Y88.856 E0.54621
G1 X81.56 Y88.306 E0.5664
G1 X81.211 Y87.807 E0.58665
G1 X80.78 Y87.377 E0.6069
G1 X80.283 Y87.028 E0.6271
G1 X79.731 Y86.771 E0.64735
G1 X79.144 Y86.614 E0.66756
G1 X78.538 Y86.56 E0.6878
G1 X77.932 Y86.614 E0.70804
G1 X77.344 Y86.771 E0.72828
G0 F6000 X77.482 Y87.148
;TYPE:WALL-OUTER
G1 F1200 X76.995 Y87.376 E0.74616
G1 X76.553 Y87.685 E0.7641
G1 X76.173 Y88.065 E0.78197
G1 X75.864 Y88.507 E0.79991
G1 X75.636 Y88.994 E0.8178
G1 X75.497 Y89.514 E0.8357
G1 X75.45 Y90.05 E0.85359
G1 X75.497 Y90.586 E0.87149
G1 X75.636 Y91.106 E0.88939
G1 X75.864 Y91.593 E0.90728
G1 X76.173 Y92.035 E0.92522
G1 X76.553 Y92.415 E0.94309
G1 X76.995 Y92.724 E0.96103
G1 X77.482 Y92.952 E0.97891
G1 X78.002 Y93.091 E0.99681
G1 X78.538 Y93.138 E1.01471
G1 X79.074 Y93.091 E1.03261
G1 X79.594 Y92.952 E1.05051
G1 X80.082 Y92.724 E1.06842
G1 X80.522 Y92.415 E1.08631
G1 X80.903 Y92.035 E1.1042
G1 X81.212 Y91.593 E1.12214
G1 X81.44 Y91.106 E1.14003
G1 X81.579 Y90.586 E1.15793
G1 X81.626 Y90.05 E1.17582
G1 X81.579 Y89.514 E1.19372
G1 X81.44 Y88.994 E1.21162
G1 X81.212 Y88.507 E1.22951
G1 X80.903 Y88.065 E1.24744
G1 X80.522 Y87.685 E1.26534
G1 X80.082 Y87.376 E1.28322
G1 X79.594 Y87.148 E1.30114
G1 X79.074 Y87.009 E1.31904
G1 X78.538 Y86.962 E1.33694
G1 X78.002 Y87.009 E1.35483
G1 X77.482 Y87.148 E1.37274
G0 F6000 X77.332 Y86.735
G1 F2700 E-3.62726
G0 F6000 X78.538 Y86.72
G0 X79.116 Y86.772
G0 X79.671 Y86.921
G0 X80.204 Y87.169
G0 X80.674 Y87.499
G0 X111.741 Y115.82
G0 X111.745 Y127.171
G0 X135.344 Y135.771
;TYPE:WALL-INNER
G1 F2700 E1.37274
G1 F1200 X134.794 Y136.028 E1.39293
G1 X134.295 Y136.377 E1.41318
G1 X133.865 Y136.807 E1.43341
G1 X133.516 Y137.306 E1.45366
G1 X133.259 Y137.856 E1.47385
G1 X133.102 Y138.444 E1.49409
G1 X133.048 Y139.05 E1.51433
G1 X133.102 Y139.656 E1.53457
G1 X133.259 Y140.244 E1.55481
G1 X133.516 Y140.794 E1.575
G1 X133.865 Y141.293 E1.59525
G1 X134.295 Y141.723 E1.61548
G1 X134.794 Y142.072 E1.63573
G1 X135.344 Y142.329 E1.65592
G1 X135.932 Y142.486 E1.67617
G1 X136.538 Y142.54 E1.6964
G1 X137.144 Y142.486 E1.71664
G1 X137.731 Y142.329 E1.73685
G1 X138.283 Y142.072 E1.7571
G1 X138.78 Y141.723 E1.7773
G1 X139.211 Y141.293 E1.79755
G1 X139.56 Y140.794 E1.8178
G1 X139.817 Y140.244 E1.83799
G1 X139.974 Y139.656 E1.85823
G1 X140.028 Y139.05 E1.87847
G1 X139.974 Y138.444 E1.8987
G1 X139.817 Y137.856 E1.91895
G1 X139.56 Y137.306 E1.93914
G1 X139.211 Y136.807 E1.95939
G1 X138.78 Y136.377 E1.97964
G1 X138.283 Y136.028 E1.99984
G1 X137.731 Y135.771 E2.02009
G1 X137.144 Y135.614 E2.0403
G1 X136.538 Y135.56 E2.06054
G1 X135.932 Y135.614 E2.08077
G1 X135.344 Y135.771 E2.10101
G0 F6000 X135.482 Y136.148
;TYPE:WALL-OUTER
G1 F1200 X134.995 Y136.376 E2.1189
G1 X134.553 Y136.685 E2.13684
G1 X134.173 Y137.065 E2.15471
G1 X133.864 Y137.507 E2.17265
G1 X133.636 Y137.994 E2.19053
G1 X133.497 Y138.514 E2.20844
G1 X133.45 Y139.05 E2.22633
G1 X133.497 Y139.586 E2.24423
G1 X133.636 Y140.106 E2.26213
G1 X133.864 Y140.593 E2.28001
G1 X134.173 Y141.035 E2.29795
G1 X134.553 Y141.415 E2.31583
G1 X134.995 Y141.724 E2.33376
G1 X135.482 Y141.952 E2.35165
G1 X136.002 Y142.091 E2.36955
G1 X136.538 Y142.138 E2.38745
G1 X137.074 Y142.091 E2.40534
G1 X137.594 Y141.952 E2.42324
G1 X138.082 Y141.724 E2.44116
G1 X138.522 Y141.415 E2.45904
G1 X138.903 Y141.035 E2.47694
G1 X139.212 Y140.593 E2.49488
G1 X139.44 Y140.106 E2.51276
G1 X139.579 Y139.586 E2.53066
G1 X139.626 Y139.05 E2.54856
G1 X139.579 Y138.514 E2.56646
G1 X139.44 Y137.994 E2.58436
G1 X139.212 Y137.507 E2.60224
G1 X138.903 Y137.065 E2.62018
G1 X138.522 Y136.685 E2.63808
G1 X138.082 Y136.376 E2.65596
G1 X137.594 Y136.148 E2.67388
G1 X137.074 Y136.009 E2.69178
G1 X136.538 Y135.962 E2.70967
G1 X136.002 Y136.009 E2.72757
G1 X135.482 Y136.148 E2.74547
G0 F6000 X135.332 Y135.735
G1 F2700 E-2.25453
G0 F6000 X133.208 Y90.05
G0 X133.26 Y89.472
G0 X133.41 Y88.911
G0 X133.654 Y88.389
G0 X133.988 Y87.912
G0 X134.221 Y87.679
G0 X135.344 Y86.771
;TYPE:WALL-INNER
G1 F2700 E2.74547
G1 F1200 X134.794 Y87.028 E2.76566
G1 X134.295 Y87.377 E2.78592
G1 X133.865 Y87.807 E2.80614
G1 X133.516 Y88.306 E2.8264
G1 X133.259 Y88.856 E2.84659
G1 X133.102 Y89.444 E2.86683
G1 X133.048 Y90.05 E2.88707
G1 X133.102 Y90.656 E2.9073
G1 X133.259 Y91.244 E2.92754
G1 X133.516 Y91.794 E2.94774
G1 X133.865 Y92.293 E2.96799
G1 X134.295 Y92.723 E2.98821
G1 X134.794 Y93.072 E3.00847
G1 X135.344 Y93.329 E3.02866
G1 X135.932 Y93.486 E3.0489
G1 X136.538 Y93.54 E3.06914
G1 X137.144 Y93.486 E3.08937
G1 X137.731 Y93.329 E3.10958
G1 X138.283 Y93.072 E3.12983
G1 X138.78 Y92.723 E3.15003
G1 X139.211 Y92.293 E3.17028
G1 X139.56 Y91.794 E3.19054
G1 X139.817 Y91.244 E3.21073
G1 X139.974 Y90.656 E3.23097
G1 X140.028 Y90.05 E3.25121
G1 X139.974 Y89.444 E3.27144
G1 X139.817 Y88.856 E3.29168
G1 X139.56 Y88.306 E3.31187
G1 X139.211 Y87.807 E3.33213
G1 X138.78 Y87.377 E3.35238
G1 X138.283 Y87.028 E3.37258
G1 X137.731 Y86.771 E3.39283
G1 X137.144 Y86.614 E3.41304
G1 X136.538 Y86.56 E3.43327
G1 X135.932 Y86.614 E3.45351
G1 X135.344 Y86.771 E3.47375
G0 F6000 X135.482 Y87.148
;TYPE:WALL-OUTER
G1 F1200 X134.995 Y87.376 E3.49164
G1 X134.553 Y87.685 E3.50957
G1 X134.173 Y88.065 E3.52745
G1 X133.864 Y88.507 E3.54538
G1 X133.636 Y88.994 E3.56327
G1 X133.497 Y89.514 E3.58117
G1 X133.45 Y90.05 E3.59907
G1 X133.497 Y90.586 E3.61696
G1 X133.636 Y91.106 E3.63487
G1 X133.864 Y91.593 E3.65275
G1 X134.173 Y92.035 E3.67069
G1 X134.553 Y92.415 E3.68856
G1 X134.995 Y92.724 E3.7065
G1 X135.482 Y92.952 E3.72438
G1 X136.002 Y93.091 E3.74229
G1 X136.538 Y93.138 E3.76018
G1 X137.074 Y93.091 E3.77808
G1 X137.594 Y92.952 E3.79598
G1 X138.082 Y92.724 E3.8139
G1 X138.522 Y92.415 E3.83178
G1 X138.903 Y92.035 E3.84968
G1 X139.212 Y91.593 E3.86761
G1 X139.44 Y91.106 E3.8855
G1 X139.579 Y90.586 E3.9034
G1 X139.626 Y90.05 E3.9213
G1 X139.579 Y89.514 E3.93919
G1 X139.44 Y88.994 E3.9571
G1 X139.212 Y88.507 E3.97498
G1 X138.903 Y88.065 E3.99292
G1 X138.522 Y87.685 E4.01082
G1 X138.082 Y87.376 E4.0287
G1 X137.594 Y87.148 E4.04661
G1 X137.074 Y87.009 E4.06452
G1 X136.538 Y86.962 E4.08241
G1 X136.002 Y87.009 E4.10031
G1 X135.482 Y87.148 E4.11821
G0 F6000 X135.332 Y86.735
G0 X114.228 Y92.008
;TYPE:WALL-INNER
G1 F1200 X114.082 Y92.273 E4.12827
G1 X113.964 Y92.487 E4.1364
G1 X113.954 Y92.59 E4.13984
G1 X113.922 Y92.504 E4.13989
G1 X113.768 Y92.101 E4.14915
G1 X113.272 Y91.829 E4.16796
G1 X113.014 Y91.817 E4.17655
G1 X112.357 Y91.817 E4.1984
G1 X111.86 Y92.007 E4.2161
G1 X111.589 Y92.491 E4.23455
G1 X111.573 Y92.693 E4.24129
G1 X111.573 Y105.213 E4.65771
G1 X111.763 Y105.713 E4.6755
G1 X112.259 Y105.985 E4.69431
G1 X112.517 Y105.997 E4.7029
G1 X113.174 Y105.997 E4.72475
G1 X113.671 Y105.807 E4.74245
G1 X113.821 Y105.539 E4.75266
G1 X113.942 Y105.323 E4.7609
G1 X113.95 Y105.228 E4.76407
G1 X113.98 Y105.308 E4.76412
G1 X114.134 Y105.713 E4.77335
G1 X114.63 Y105.985 E4.79216
G1 X114.888 Y105.997 E4.80075
G1 X115.546 Y105.997 E4.82264
G1 X116.044 Y105.807 E4.84037
G1 X116.192 Y105.54 E4.85052
G1 X116.31 Y105.328 E4.85859
G1 X116.32 Y105.227 E4.86197
G1 X116.352 Y105.311 E4.86201
G1 X116.505 Y105.713 E4.87125
G1 X117.001 Y105.985 E4.89006
G1 X117.259 Y105.997 E4.89865
G1 X117.917 Y105.997 E4.92054
G1 X118.417 Y105.806 E4.93834
G1 X118.554 Y105.557 E4.94779
G1 X118.563 Y105.54 E4.94843
G1 X118.681 Y105.327 E4.95653
G1 X118.691 Y105.224 E4.95997
G1 X118.724 Y105.31 E4.96005
G1 X118.877 Y105.712 E4.96931
G1 X118.894 Y105.721 E4.96993
G1 X119.372 Y105.985 E4.98809
G1 X119.631 Y105.997 E4.99671
G1 X120.288 Y105.997 E5.01856
G1 X120.785 Y105.807 E5.03626
G1 X120.935 Y105.539 E5.04647
G1 X121.056 Y105.323 E5.05471
G1 X121.064 Y105.228 E5.05788
G1 X121.094 Y105.308 E5.05793
G1 X121.248 Y105.713 E5.06716
G1 X121.744 Y105.985 E5.08597
G1 X122.002 Y105.997 E5.09456
G1 X122.659 Y105.997 E5.11642
G1 X123.156 Y105.807 E5.13411
G1 X123.306 Y105.539 E5.14433
G1 X123.427 Y105.323 E5.15256
G1 X123.435 Y105.228 E5.15573
G1 X123.465 Y105.308 E5.15578
G1 X123.619 Y105.713 E5.16501
G1 X124.115 Y105.985 E5.18383
G1 X124.373 Y105.997 E5.19242
G1 X125.031 Y105.997 E5.2143
G1 X125.531 Y105.806 E5.2321
G1 X125.795 Y105.327 E5.2503
G1 X125.815 Y105.129 E5.25691
G1 X125.815 Y92.611 E5.67326
G1 X125.658 Y92.16 E5.68915
G1 X125.219 Y91.849 E5.70704
G1 X124.886 Y91.817 E5.71817
G1 X124.213 Y91.817 E5.74055
G1 X123.713 Y92.008 E5.75835
G1 X123.576 Y92.256 E5.76778
G1 X123.55 Y92.304 E5.76959
G1 X123.449 Y92.487 E5.77655
G1 X123.438 Y92.598 E5.78026
G1 X123.405 Y92.503 E5.78034
G1 X123.287 Y92.16 E5.78743
G1 X123.243 Y92.129 E5.78905
G1 X122.848 Y91.849 E5.80515
G1 X122.514 Y91.817 E5.81631
G1 X121.842 Y91.817 E5.83866
G1 X121.345 Y92.007 E5.85636
G1 X121.204 Y92.258 E5.86593
G1 X121.178 Y92.306 E5.86775
G1 X121.074 Y92.491 E5.87481
G1 X121.066 Y92.595 E5.87828
G1 X121.035 Y92.505 E5.87836
G1 X120.916 Y92.16 E5.88543
G1 X120.872 Y92.129 E5.88705
G1 X120.477 Y91.849 E5.90315
G1 X120.143 Y91.817 E5.91431
G1 X119.471 Y91.817 E5.93666
G1 X118.974 Y92.007 E5.95436
G1 X118.833 Y92.258 E5.96393
G1 X118.807 Y92.306 E5.96575
G1 X118.703 Y92.491 E5.97281
G1 X118.695 Y92.595 E5.97628
G1 X118.664 Y92.505 E5.97636
G1 X118.545 Y92.16 E5.98343
G1 X118.501 Y92.129 E5.98504
G1 X118.106 Y91.849 E6.00115
G1 X117.772 Y91.817 E6.01231
G1 X117.099 Y91.817 E6.03469
G1 X116.599 Y92.008 E6.05249
G1 X116.462 Y92.256 E6.06192
G1 X116.436 Y92.304 E6.06373
G1 X116.335 Y92.487 E6.07069
G1 X116.324 Y92.594 E6.07426
G1 X116.292 Y92.502 E6.07435
G1 X116.173 Y92.16 E6.08143
G1 X116.129 Y92.129 E6.08304
G1 X115.734 Y91.849 E6.09915
G1 X115.401 Y91.817 E6.11028
G1 X114.728 Y91.817 E6.13266
G1 X114.228 Y92.008 E6.15046
G0 F6000 X114.508 Y92.329
;TYPE:WALL-OUTER
G1 F1200 X114.354 Y92.609 E6.16109
G1 X114.344 Y92.706 E6.16433
G1 X114.344 Y105.139 E6.57786
G1 X114.456 Y105.433 E6.58832
G1 X114.741 Y105.59 E6.59914
G1 X114.897 Y105.597 E6.60434
G1 X115.472 Y105.597 E6.62346
G1 X115.765 Y105.485 E6.63389
G1 X115.92 Y105.206 E6.64451
G1 X115.93 Y105.108 E6.64779
G1 X115.93 Y92.679 E7.06118
G1 X115.837 Y92.412 E7.07058
G1 X115.59 Y92.237 E7.08065
G1 X115.382 Y92.217 E7.0876
G1 X114.802 Y92.217 E7.10689
G1 X114.508 Y92.329 E7.11735
G0 F6000 X114.22 Y91.998
G1 F2700 E2.11735
G0 F6000 X114.552 Y91.993
G0 X116.773 Y92.049
G0 X116.879 Y92.329
G1 F2700 E7.11735
G1 F1200 X116.725 Y92.609 E7.12798
G1 X116.715 Y92.706 E7.13122
G1 X116.715 Y105.139 E7.54475
G1 X116.827 Y105.433 E7.55521
G1 X117.112 Y105.59 E7.56603
G1 X117.268 Y105.597 E7.57123
G1 X117.843 Y105.597 E7.59035
G1 X118.137 Y105.485 E7.60082
G1 X118.291 Y105.205 E7.61145
G1 X118.301 Y105.108 E7.61469
G1 X118.301 Y92.68 E8.02805
G1 X118.209 Y92.412 E8.03747
G1 X117.962 Y92.237 E8.04754
G1 X117.753 Y92.217 E8.05452
G1 X117.173 Y92.217 E8.07381
G1 X116.879 Y92.329 E8.08428
G0 F6000 X116.591 Y91.998
G1 F2700 E3.08428
G0 F6000 X121.383 Y91.982
G0 X123.887 Y92.049
G0 X123.993 Y92.329
G1 F2700 E8.08428
G1 F1200 X123.839 Y92.609 E8.0949
G1 X123.829 Y92.706 E8.09815
G1 X123.829 Y105.139 E8.51167
G1 X123.941 Y105.433 E8.52214
G1 X124.226 Y105.59 E8.53296
G1 X124.382 Y105.597 E8.53815
G1 X124.957 Y105.597 E8.55728
G1 X125.251 Y105.485 E8.56774
G1 X125.405 Y105.205 E8.57837
G1 X125.415 Y105.108 E8.58161
G1 X125.415 Y92.679 E8.995
G1 X125.322 Y92.412 E9.00441
G1 X125.075 Y92.237 E9.01447
G1 X124.867 Y92.217 E9.02142
G1 X124.287 Y92.217 E9.04071
G1 X123.993 Y92.329 E9.05118
G0 F6000 X123.705 Y91.998
G1 F2700 E4.05118
G0 F6000 X123.498 Y92.773
G0 X123.383 Y105.034
G0 X123.043 Y105.675
G0 X122.628 Y105.836
G0 X121.948 Y105.828
G0 X121.425 Y105.695
G0 X121.57 Y105.433
G1 F2700 E9.05118
G1 F1200 X121.855 Y105.59 E9.062
G1 X122.011 Y105.597 E9.06719
G1 X122.585 Y105.597 E9.08629
G1 X122.878 Y105.485 E9.09672
G1 X123.035 Y105.204 E9.10742
G1 X123.043 Y105.105 E9.11073
G1 X123.043 Y92.68 E9.52399
G1 X122.951 Y92.412 E9.53341
G1 X122.704 Y92.237 E9.54348
G1 X122.495 Y92.217 E9.55046
G1 X121.916 Y92.217 E9.56972
G1 X121.623 Y92.329 E9.58015
G1 X121.466 Y92.61 E9.59086
G1 X121.458 Y92.709 E9.59416
G1 X121.458 Y105.139 E10.00758
G1 X121.57 Y105.433 E10.01805
G0 F6000 X121.238 Y105.721
G1 F2700 E5.01805
G0 F6000 X120.257 Y105.836
G0 X119.577 Y105.828
G0 X119.054 Y105.694
G0 X119.199 Y105.433
G1 F2700 E10.01805
G1 F1200 X119.483 Y105.59 E10.02884
G1 X119.64 Y105.597 E10.03407
G1 X120.214 Y105.597 E10.05316
G1 X120.507 Y105.485 E10.06359
G1 X120.664 Y105.204 E10.0743
G1 X120.672 Y105.105 E10.0776
G1 X120.672 Y92.68 E10.49086
G1 X120.58 Y92.412 E10.50028
G1 X120.333 Y92.237 E10.51035
G1 X120.124 Y92.217 E10.51734
G1 X119.545 Y92.217 E10.53659
G1 X119.252 Y92.329 E10.54703
G1 X119.095 Y92.61 E10.55773
G1 X119.087 Y92.709 E10.56104
G1 X119.087 Y105.139 E10.97446
G1 X119.199 Y105.433 E10.98492
G0 F6000 X118.867 Y105.721
G1 F2700 E5.98492
G0 F6000 X117.886 Y105.836
G0 X112.303 Y105.825
G0 X111.94 Y105.695
G0 X112.085 Y105.433
G1 F2700 E10.98492
G1 F1200 X112.37 Y105.59 E10.99574
G1 X112.526 Y105.597 E11.00094
G1 X113.1 Y105.597 E11.02003
G1 X113.393 Y105.485 E11.03046
G1 X113.55 Y105.204 E11.04117
G1 X113.558 Y105.105 E11.04447
G1 X113.558 Y92.675 E11.4579
G1 X113.446 Y92.381 E11.46836
G1 X113.161 Y92.224 E11.47918
G1 X113.005 Y92.217 E11.48438
G1 X112.431 Y92.217 E11.50347
G1 X112.138 Y92.329 E11.5139
G1 X111.981 Y92.61 E11.52461
G1 X111.973 Y92.709 E11.52791
G1 X111.973 Y105.139 E11.94133
G1 X112.085 Y105.433 E11.9518
G0 F6000 X111.753 Y105.721
G0 X111.573 Y113.164
;TYPE:WALL-INNER
G1 F1200 X111.573 Y127.343 E12.42339
G1 X125.815 Y127.343 E12.89708
G1 X125.815 Y113.164 E13.36868
G1 X111.573 Y113.164 E13.84237
G0 F6000 X111.973 Y113.564
;TYPE:WALL-OUTER
G1 F1200 X111.973 Y126.943 E14.28736
G1 X125.415 Y126.943 E14.73444
G1 X125.415 Y113.564 E15.17943
G1 X111.973 Y113.564 E15.62651
G1 F2700 E10.62651
G0 F6000 X111.973 Y113.264
G0 X77.344 Y135.771
;TYPE:WALL-INNER
G1 F2700 E15.62651
G1 F1200 X76.794 Y136.028 E15.6467
