;FLAVOR:Marlin
;TIME:2854
;Filament used: 1.80928m
;Layer height: 0.2
;MINX:76.4
;MINY:80.7
;MINZ:0.2
;MAXX:123.6
;MAXY:154.3
;MAXZ:2
;Generated with Cura_SteamEngine master
M82 ;absolute extrusion mode
; Ender 3 Custom Start G-code
M140 S70 ; Set Heat Bed temperature
M104 S160 ; start warming extruder to 160
G28 ; Home all axes
; G29 ; Auto bed-level (BL-Touch)
G92 E0 ; Reset Extruder
M190 S70 ; Wait for Heat Bed temperature
M104 S210 ; Set Extruder temperature
G1 X0 Y0 Z0.3 F5000.0 ; Move to 0 0
M109 S210 ; Wait for Extruder temperature
G1 X3 Y20 Z0.3 F5000.0 ; Move to start position
; G1 Z2.0 F3000 ; Move Z Axis up little to prevent scratching of Heat Bed
G1 X3 Y200.0 Z0.3 F1500.0 E15 ; Draw the first line
G1 X3.3 Y200.0 Z0.3 F5000.0 ; Move to side a little
G1 X3.3 Y20 Z0.3 F1500.0 E30 ; Draw the second line
G92 E0 ; Reset Extruder
G1 Z2.0 F3000 ; Move Z Axis up little to prevent scratching of Heat Bed
G92 E0
G92 E0
G1 F2100 E-1
;LAYER_COUNT:10
;LAYER:0
M107
M204 S500
M205 X8 Y8
;MESH:Case_Top.stl
G0 F6000 X122.4 Y153.1 Z0.2
;TYPE:WALL-INNER
G1 F2100 E0
G1 F1200 X77.6 Y153.1 E1.07656
G1 X77.6 Y81.9 E2.78753
G1 X122.4 Y81.9 E3.8641
G1 X122.4 Y153.1 E5.57506
G0 F6000 X122.8 Y153.5
G1 F1200 X77.2 Y153.5 E6.67085
G1 X77.2 Y81.5 E8.40104
G1 X122.8 Y81.5 E9.49683
G1 X122.8 Y153.5 E11.22703
G0 F6000 X123.2 Y153.9
G1 F1200 X76.8 Y153.9 E12.34204
G1 X76.8 Y81.1 E14.09145
G1 X123.2 Y81.1 E15.20647
G1 X123.2 Y153.9 E16.95588
G0 F6000 X123.6 Y154.3
;TYPE:WALL-OUTER
G1 F1200 X76.4 Y154.3 E18.09012
G1 X76.4 Y80.7 E19.85876
G1 X123.6 Y80.7 E20.993
G1 X123.6 Y154.3 E22.76164
G0 F6000 X123.13 Y153.83
G0 X122.01 Y152.71
;TYPE:SKIN
G1 F1200 X77.99 Y152.71 E23.81946
G1 X77.99 Y82.29 E25.51168
G1 X122.01 Y82.29 E26.5695
G1 X122.01 Y152.71 E28.26173
G1 F2100 E27.26173
G0 F6000 X78.444 Y152.549
G1 F2100 E28.26173
G1 F1200 X78.15 Y152.254 E28.27174
G0 F6000 X78.15 Y151.689
G1 F1200 X79.009 Y152.549 E28.30095
G0 F6000 X79.575 Y152.549
G1 F1200 X78.15 Y151.123 E28.34939
G0 F6000 X78.15 Y150.557
G1 F1200 X80.141 Y152.549 E28.41707
G0 F6000 X80.707 Y152.549
G1 F1200 X78.15 Y149.992 E28.50397
G0 F6000 X78.15 Y149.426
G1 F1200 X81.272 Y152.549 E28.61008
G0 F6000 X81.838 Y152.549
G1 F1200 X78.15 Y148.86 E28.73543
G0 F6000 X78.15 Y148.295
G1 F1200 X82.404 Y152.549 E28.88
G0 F6000 X82.969 Y152.549
G1 F1200 X78.15 Y147.729 E29.04379
G0 F6000 X78.15 Y147.163
G1 F1200 X83.535 Y152.549 E29.22681
G0 F6000 X84.101 Y152.549
G1 F1200 X78.15 Y146.598 E29.42905
G0 F6000 X78.15 Y146.032
G1 F1200 X84.666 Y152.549 E29.65051
G0 F6000 X85.232 Y152.549
G1 F1200 X78.15 Y145.466 E29.8912
G0 F6000 X78.15 Y144.901
G1 F1200 X85.798 Y152.549 E30.15111
G0 F6000 X86.363 Y152.549
G1 F1200 X78.15 Y144.335 E30.43024
G0 F6000 X78.15 Y143.769
G1 F1200 X86.929 Y152.549 E30.72861
G0 F6000 X87.495 Y152.549
G1 F1200 X78.15 Y143.203 E31.04621
G0 F6000 X78.15 Y142.638
G1 F1200 X88.06 Y152.549 E31.38301
G0 F6000 X88.626 Y152.549
G1 F1200 X78.15 Y142.072 E31.73904
G0 F6000 X78.15 Y141.506
G1 F1200 X89.192 Y152.549 E32.11431
G0 F6000 X89.758 Y152.549
G1 F1200 X78.15 Y140.941 E32.5088
G0 F6000 X78.15 Y140.375
G1 F1200 X90.323 Y152.549 E32.92251
G0 F6000 X90.889 Y152.549
G1 F1200 X78.15 Y139.809 E33.35545
G0 F6000 X78.15 Y139.244
G1 F1200 X91.455 Y152.549 E33.80761
G0 F6000 X92.02 Y152.549
G1 F1200 X78.15 Y138.678 E34.27899
G0 F6000 X78.15 Y138.112
G1 F1200 X92.586 Y152.549 E34.7696
G0 F6000 X93.152 Y152.549
G1 F1200 X78.15 Y137.547 E35.27943
G0 F6000 X78.15 Y136.981
G1 F1200 X93.717 Y152.549 E35.80848
G0 F6000 X94.283 Y152.549
G1 F1200 X78.15 Y136.415 E36.35676
G0 F6000 X78.15 Y135.85
G1 F1200 X94.849 Y152.549 E36.92426
G0 F6000 X95.414 Y152.549
G1 F1200 X78.15 Y135.284 E37.51098
G0 F6000 X78.15 Y134.718
G1 F1200 X95.98 Y152.549 E38.11694
G0 F6000 X96.546 Y152.549
G1 F1200 X78.15 Y134.153 E38.74211
G0 F6000 X78.15 Y133.587
G1 F1200 X97.111 Y152.549 E39.3865
G0 F6000 X97.677 Y152.549
G1 F1200 X78.15 Y133.021 E40.05013
G0 F6000 X78.15 Y132.455
G1 F1200 X98.243 Y152.549 E40.73299
G0 F6000 X98.808 Y152.549
G1 F1200 X78.15 Y131.89 E41.43505
G0 F6000 X78.15 Y131.324
G1 F1200 X99.374 Y152.549 E42.15635
G0 F6000 X99.94 Y152.549
G1 F1200 X78.15 Y130.758 E42.89688
G0 F6000 X78.15 Y130.193
G1 F1200 X100.506 Y152.549 E43.65663
G0 F6000 X101.071 Y152.549
G1 F1200 X78.15 Y129.627 E44.4356
G0 F6000 X78.15 Y129.061
G1 F1200 X101.637 Y152.549 E45.2338
G0 F6000 X102.203 Y152.549
G1 F1200 X78.15 Y128.496 E46.05123
G0 F6000 X78.15 Y127.93
G1 F1200 X102.768 Y152.549 E46.88787
G0 F6000 X103.334 Y152.549
G1 F1200 X78.15 Y127.364 E47.74374
G0 F6000 X78.15 Y126.799
G1 F1200 X103.9 Y152.549 E48.61883
G0 F6000 X104.465 Y152.549
G1 F1200 X78.15 Y126.233 E49.51314
G0 F6000 X78.15 Y125.667
G1 F1200 X105.031 Y152.549 E50.42669
G0 F6000 X105.597 Y152.549
G1 F1200 X78.15 Y125.102 E51.35945
G0 F6000 X78.15 Y124.536
G1 F1200 X106.162 Y152.549 E52.31144
G0 F6000 X106.728 Y152.549
G1 F1200 X78.15 Y123.97 E53.28265
G0 F6000 X78.15 Y123.404
G1 F1200 X107.294 Y152.549 E54.2731
G0 F6000 X107.859 Y152.549
G1 F1200 X78.15 Y122.839 E55.28276
G0 F6000 X78.15 Y122.273
G1 F1200 X108.425 Y152.549 E56.31165
G0 F6000 X108.991 Y152.549
G1 F1200 X78.15 Y121.707 E57.35977
G0 F6000 X78.15 Y121.142
G1 F1200 X109.557 Y152.549 E58.42711
G0 F6000 X110.122 Y152.549
G1 F1200 X78.15 Y120.576 E59.51367
G0 F6000 X78.15 Y120.01
G1 F1200 X110.688 Y152.549 E60.61946
G0 F6000 X111.254 Y152.549
G1 F1200 X78.15 Y119.445 E61.74448
G0 F6000 X78.15 Y118.879
G1 F1200 X111.819 Y152.549 E62.88871
G0 F6000 X112.385 Y152.549
G1 F1200 X78.15 Y118.313 E64.05217
G0 F6000 X78.15 Y117.748
G1 F1200 X112.951 Y152.549 E65.23486
G0 F6000 X113.516 Y152.549
G1 F1200 X78.15 Y117.182 E66.43676
G0 F6000 X78.15 Y116.616
G1 F1200 X114.082 Y152.549 E67.6579
G0 F6000 X114.648 Y152.549
G1 F1200 X78.15 Y116.051 E68.89825
G0 F6000 X78.15 Y115.485
G1 F1200 X115.213 Y152.549 E70.15782
G0 F6000 X115.779 Y152.549
G1 F1200 X78.15 Y114.919 E71.43663
G0 F6000 X78.15 Y114.354
G1 F1200 X116.345 Y152.549 E72.73466
G0 F6000 X116.91 Y152.549
G1 F1200 X78.15 Y113.788 E74.0519
G0 F6000 X78.15 Y113.222
G1 F1200 X117.476 Y152.549 E75.38838
G0 F6000 X118.042 Y152.549
G1 F1200 X78.15 Y112.656 E76.74409
G0 F6000 X78.15 Y112.091
G1 F1200 X118.607 Y152.549 E78.11901
G0 F6000 X119.173 Y152.549
G1 F1200 X78.15 Y111.525 E79.51316
G0 F6000 X78.15 Y110.959
G1 F1200 X119.739 Y152.549 E80.92654
G0 F6000 X120.305 Y152.549
G1 F1200 X78.15 Y110.394 E82.35915
G0 F6000 X78.15 Y109.828
G1 F1200 X120.87 Y152.549 E83.81097
G0 F6000 X121.436 Y152.549
G1 F1200 X78.15 Y109.262 E85.28203
G0 F6000 X78.15 Y108.697
G1 F1200 X121.85 Y152.397 E86.76713
G0 F6000 X121.85 Y151.831
G1 F1200 X78.15 Y108.131 E88.25224
G0 F6000 X78.15 Y107.565
G1 F1200 X121.85 Y151.265 E89.73735
G0 F6000 X121.85 Y150.7
G1 F1200 X78.15 Y107 E91.22246
G0 F6000 X78.15 Y106.434
G1 F1200 X121.85 Y150.134 E92.70757
G0 F6000 X121.85 Y149.568
G1 F1200 X78.15 Y105.868 E94.19268
G0 F6000 X78.15 Y105.303
G1 F1200 X121.85 Y149.002 E95.67777
G0 F6000 X121.85 Y148.437
G1 F1200 X78.15 Y104.737 E97.16288
G0 F6000 X78.15 Y104.171
G1 F1200 X121.85 Y147.871 E98.64799
G0 F6000 X121.85 Y147.305
G1 F1200 X78.15 Y103.605 E100.1331
G0 F6000 X78.15 Y103.04
G1 F1200 X121.85 Y146.74 E101.61821
G0 F6000 X121.85 Y146.174
G1 F1200 X78.15 Y102.474 E103.10331
G0 F6000 X78.15 Y101.908
G1 F1200 X121.85 Y145.608 E104.58842
G0 F6000 X121.85 Y145.043
G1 F1200 X78.15 Y101.343 E106.07353
G0 F6000 X78.15 Y100.777
G1 F1200 X121.85 Y144.477 E107.55864
G0 F6000 X121.85 Y143.911
G1 F1200 X78.15 Y100.211 E109.04375
G0 F6000 X78.15 Y99.646
G1 F1200 X121.85 Y143.346 E110.52886
G0 F6000 X121.85 Y142.78
G1 F1200 X78.15 Y99.08 E112.01397
G0 F6000 X78.15 Y98.514
G1 F1200 X121.85 Y142.214 E113.49908
G0 F6000 X121.85 Y141.649
G1 F1200 X78.15 Y97.949 E114.98419
G0 F6000 X78.15 Y97.383
G1 F1200 X121.85 Y141.083 E116.46929
G0 F6000 X121.85 Y140.517
G1 F1200 X78.15 Y96.817 E117.9544
G0 F6000 X78.15 Y96.252
G1 F1200 X121.85 Y139.951 E119.4395
G0 F6000 X121.85 Y139.386
G1 F1200 X78.15 Y95.686 E120.9246
G0 F6000 X78.15 Y95.12
G1 F1200 X121.85 Y138.82 E122.40971
G0 F6000 X121.85 Y138.254
G1 F1200 X78.15 Y94.555 E123.89481
G0 F6000 X78.15 Y93.989
G1 F1200 X121.85 Y137.689 E125.37991
G0 F6000 X121.85 Y137.123
G1 F1200 X78.15 Y93.423 E126.86502
G0 F6000 X78.15 Y92.857
G1 F1200 X121.85 Y136.557 E128.35013
G0 F6000 X121.85 Y135.992
G1 F1200 X78.15 Y92.292 E129.83524
G0 F6000 X78.15 Y91.726
G1 F1200 X121.85 Y135.426 E131.32035
G0 F6000 X121.85 Y134.86
G1 F1200 X78.15 Y91.16 E132.80546
G0 F6000 X78.15 Y90.595
G1 F1200 X121.85 Y134.295 E134.29057
G0 F6000 X121.85 Y133.729
G1 F1200 X78.15 Y90.029 E135.77568
G0 F6000 X78.15 Y89.463
G1 F1200 X121.85 Y133.163 E137.26079
G0 F6000 X121.85 Y132.598
G1 F1200 X78.15 Y88.898 E138.74589
G0 F6000 X78.15 Y88.332
G1 F1200 X121.85 Y132.032 E140.231
G0 F6000 X121.85 Y131.466
G1 F1200 X78.15 Y87.766 E141.71611
G0 F6000 X78.15 Y87.201
G1 F1200 X121.85 Y130.901 E143.20122
G0 F6000 X121.85 Y130.335
G1 F1200 X78.15 Y86.635 E144.68633
G0 F6000 X78.15 Y86.069
G1 F1200 X121.85 Y129.769 E146.17144
G0 F6000 X121.85 Y129.203
G1 F1200 X78.15 Y85.504 E147.65653
G0 F6000 X78.15 Y84.938
G1 F1200 X121.85 Y128.638 E149.14164
G0 F6000 X121.85 Y128.072
G1 F1200 X78.15 Y84.372 E150.62675
G0 F6000 X78.15 Y83.807
G1 F1200 X121.85 Y127.506 E152.11184
G0 F6000 X121.85 Y126.941
G1 F1200 X78.15 Y83.241 E153.59695
G0 F6000 X78.15 Y82.675
G1 F1200 X121.85 Y126.375 E155.08206
G0 F6000 X121.85 Y125.809
G1 F1200 X78.489 Y82.449 E156.55563
G0 F6000 X79.055 Y82.449
G1 F1200 X121.85 Y125.244 E158.00998
G0 F6000 X121.85 Y124.678
G1 F1200 X79.62 Y82.449 E159.44512
G0 F6000 X80.186 Y82.449
G1 F1200 X121.85 Y124.112 E160.86102
G0 F6000 X121.85 Y123.547
G1 F1200 X80.752 Y82.449 E162.2577
G0 F6000 X81.317 Y82.449
G1 F1200 X121.85 Y122.981 E163.63516
G0 F6000 X121.85 Y122.415
G1 F1200 X81.883 Y82.449 E164.99339
G0 F6000 X82.449 Y82.449
G1 F1200 X121.85 Y121.85 E166.3324
G0 F6000 X121.85 Y121.284
G1 F1200 X83.015 Y82.449 E167.65218
G0 F6000 X83.58 Y82.449
G1 F1200 X121.85 Y120.718 E168.95274
G0 F6000 X121.85 Y120.152
G1 F1200 X84.146 Y82.449 E170.23406
G0 F6000 X84.712 Y82.449
G1 F1200 X121.85 Y119.587 E171.49616
G0 F6000 X121.85 Y119.021
G1 F1200 X85.277 Y82.449 E172.73905
G0 F6000 X85.843 Y82.449
G1 F1200 X121.85 Y118.455 E173.9627
G0 F6000 X121.85 Y117.89
G1 F1200 X86.409 Y82.449 E175.16714
G0 F6000 X86.974 Y82.449
G1 F1200 X121.85 Y117.324 E176.35235
G0 F6000 X121.85 Y116.758
G1 F1200 X87.54 Y82.449 E177.51833
G0 F6000 X88.106 Y82.449
G1 F1200 X121.85 Y116.193 E178.66509
G0 F6000 X121.85 Y115.627
G1 F1200 X88.671 Y82.449 E179.79264
G0 F6000 X89.237 Y82.449
G1 F1200 X121.85 Y115.061 E180.90095
G0 F6000 X121.85 Y114.496
G1 F1200 X89.803 Y82.449 E181.99004
G0 F6000 X90.368 Y82.449
G1 F1200 X121.85 Y113.93 E183.05991
G0 F6000 X121.85 Y113.364
G1 F1200 X90.934 Y82.449 E184.11055
G0 F6000 X91.5 Y82.449
G1 F1200 X121.85 Y112.799 E185.14197
G0 F6000 X121.85 Y112.233
G1 F1200 X92.066 Y82.449 E186.15415
G0 F6000 X92.631 Y82.449
G1 F1200 X121.85 Y111.667 E187.14712
G0 F6000 X121.85 Y111.102
G1 F1200 X93.197 Y82.449 E188.12087
G0 F6000 X93.763 Y82.449
G1 F1200 X121.85 Y110.536 E189.07538
G0 F6000 X121.85 Y109.97
G1 F1200 X94.328 Y82.449 E190.01068
G0 F6000 X94.894 Y82.449
G1 F1200 X121.85 Y109.404 E190.92674
G0 F6000 X121.85 Y108.839
G1 F1200 X95.46 Y82.449 E191.82358
G0 F6000 X96.025 Y82.449
G1 F1200 X121.85 Y108.273 E192.70121
G0 F6000 X121.85 Y107.707
G1 F1200 X96.591 Y82.449 E193.5596
G0 F6000 X97.157 Y82.449
G1 F1200 X121.85 Y107.142 E194.39877
G0 F6000 X121.85 Y106.576
G1 F1200 X97.722 Y82.449 E195.21872
G0 F6000 X98.288 Y82.449
G1 F1200 X121.85 Y106.01 E196.01944
G0 F6000 X121.85 Y105.445
G1 F1200 X98.854 Y82.449 E196.80094
G0 F6000 X99.419 Y82.449
G1 F1200 X121.85 Y104.879 E197.56322
G0 F6000 X121.85 Y104.313
G1 F1200 X99.985 Y82.449 E198.30627
G0 F6000 X100.551 Y82.449
G1 F1200 X121.85 Y103.748 E199.0301
G0 F6000 X121.85 Y103.182
G1 F1200 X101.116 Y82.449 E199.73471
G0 F6000 X101.682 Y82.449
G1 F1200 X121.85 Y102.616 E200.42009
G0 F6000 X121.85 Y102.051
G1 F1200 X102.248 Y82.449 E201.08624
G0 F6000 X102.814 Y82.449
G1 F1200 X121.85 Y101.485 E201.73317
G0 F6000 X121.85 Y100.919
G1 F1200 X103.379 Y82.449 E202.36087
G0 F6000 X103.945 Y82.449
G1 F1200 X121.85 Y100.354 E202.96936
G0 F6000 X121.85 Y99.788
G1 F1200 X104.511 Y82.449 E203.55861
G0 F6000 X105.076 Y82.449
G1 F1200 X121.85 Y99.222 E204.12865
G0 F6000 X121.85 Y98.656
G1 F1200 X105.642 Y82.449 E204.67944
G0 F6000 X106.208 Y82.449
G1 F1200 X121.85 Y98.091 E205.21102
G0 F6000 X121.85 Y97.525
G1 F1200 X106.773 Y82.449 E205.72339
G0 F6000 X107.339 Y82.449
G1 F1200 X121.85 Y96.959 E206.21651
G0 F6000 X121.85 Y96.394
G1 F1200 X107.905 Y82.449 E206.69042
G0 F6000 X108.47 Y82.449
G1 F1200 X121.85 Y95.828 E207.14512
G0 F6000 X121.85 Y95.262
G1 F1200 X109.036 Y82.449 E207.58057
G0 F6000 X109.602 Y82.449
G1 F1200 X121.85 Y94.697 E207.99681
G0 F6000 X121.85 Y94.131
G1 F1200 X110.167 Y82.449 E208.39383
G0 F6000 X110.733 Y82.449
G1 F1200 X121.85 Y93.565 E208.77162
G0 F6000 X121.85 Y93
G1 F1200 X111.299 Y82.449 E209.13018
G0 F6000 X111.864 Y82.449
G1 F1200 X121.85 Y92.434 E209.46953
G0 F6000 X121.85 Y91.868
G1 F1200 X112.43 Y82.449 E209.78965
G0 F6000 X112.996 Y82.449
G1 F1200 X121.85 Y91.303 E210.09054
G0 F6000 X121.85 Y90.737
G1 F1200 X113.562 Y82.449 E210.3722
G0 F6000 X114.127 Y82.449
G1 F1200 X121.85 Y90.171 E210.63465
G0 F6000 X121.85 Y89.605
G1 F1200 X114.693 Y82.449 E210.87785
G0 F6000 X115.259 Y82.449
G1 F1200 X121.85 Y89.04 E211.10184
G0 F6000 X121.85 Y88.474
G1 F1200 X115.824 Y82.449 E211.30661
G0 F6000 X116.39 Y82.449
G1 F1200 X121.85 Y87.908 E211.49215
G0 F6000 X121.85 Y87.343
G1 F1200 X116.956 Y82.449 E211.65847
G0 F6000 X117.521 Y82.449
G1 F1200 X121.85 Y86.777 E211.80557
G0 F6000 X121.85 Y86.211
G1 F1200 X118.087 Y82.449 E211.93344
G0 F6000 X118.653 Y82.449
G1 F1200 X121.85 Y85.646 E212.04208
G0 F6000 X121.85 Y85.08
G1 F1200 X119.218 Y82.449 E212.13151
G0 F6000 X119.784 Y82.449
G1 F1200 X121.85 Y84.514 E212.20171
G0 F6000 X121.85 Y83.949
G1 F1200 X120.35 Y82.449 E212.25268
G0 F6000 X120.915 Y82.449
G1 F1200 X121.85 Y83.383 E212.28444
G0 F6000 X121.85 Y82.817
M104 S210
G1 F1200 X121.481 Y82.449 E212.29696
G1 F2100 E211.29696
;MESH:NONMESH
G0 F300 X121.481 Y82.449 Z0.4
G0 F6000 X122.4 Y153.1
;TIME_ELAPSED:463.771599
;LAYER:1
M140 S65
M106 S85
;TYPE:WALL-INNER
;MESH:Case_Top.stl
G1 F2100 E212.29696
G1 F1350 X77.6 Y153.1 E213.56351
G1 X77.6 Y81.9 E215.57641
G1 X122.4 Y81.9 E216.84296
G1 X122.4 Y153.1 E218.85586
G0 F7500 X122.8 Y153.5
G1 F1350 X77.2 Y153.5 E220.14503
G1 X77.2 Y81.5 E222.18055
G1 X122.8 Y81.5 E223.46971
G1 X122.8 Y153.5 E225.50523
G0 F7500 X123.2 Y153.9
G1 F1350 X76.8 Y153.9 E226.81701
G1 X76.8 Y81.1 E228.87515
G1 X123.2 Y81.1 E230.18693
G1 X123.2 Y153.9 E232.24506
G0 F7500 X123.6 Y154.3
;TYPE:WALL-OUTER
G1 F1350 X76.4 Y154.3 E233.57946
G1 X76.4 Y80.7 E235.66021
G1 X123.6 Y80.7 E236.99461
G1 X123.6 Y154.3 E239.07536
G0 F7500 X123.13 Y153.83
G0 X122.01 Y152.71
;TYPE:SKIN
G1 F1350 X77.99 Y152.71 E240.31986
G1 X77.99 Y82.29 E242.31071
G1 X122.01 Y82.29 E243.55521
G1 X122.01 Y152.71 E245.54606
G0 F7500 X121.849 Y151.942
G1 F1350 X121.241 Y152.549 E245.57035
G0 F7500 X120.676 Y152.549
G1 F1350 X121.849 Y151.376 E245.61724
G0 F7500 X121.849 Y150.811
G1 F1350 X120.11 Y152.549 E245.68675
G0 F7500 X119.544 Y152.549
G1 F1350 X121.849 Y150.245 E245.77889
G0 F7500 X121.849 Y149.679
G1 F1350 X118.979 Y152.549 E245.89364
G0 F7500 X118.413 Y152.549
G1 F1350 X121.849 Y149.113 E246.03101
G0 F7500 X121.849 Y148.548
G1 F1350 X117.847 Y152.549 E246.191
G0 F7500 X117.282 Y152.549
G1 F1350 X121.849 Y147.982 E246.37359
G0 F7500 X121.849 Y147.416
G1 F1350 X116.716 Y152.549 E246.57882
G0 F7500 X116.15 Y152.549
G1 F1350 X121.849 Y146.851 E246.80665
G0 F7500 X121.849 Y146.285
G1 F1350 X115.585 Y152.549 E247.05709
G0 F7500 X115.019 Y152.549
G1 F1350 X121.849 Y145.719 E247.33017
G0 F7500 X121.849 Y145.154
G1 F1350 X114.453 Y152.549 E247.62585
G0 F7500 X113.888 Y152.549
G1 F1350 X121.849 Y144.588 E247.94414
G0 F7500 X121.849 Y144.022
