;FLAVOR:Marlin
;TIME:13359
;Filament used: 7.58808m
;Layer height: 0.2
;MINX:74.335
;MINY:79.335
;MINZ:0.2
;MAXX:125.665
;MAXY:155.665
;MAXZ:18
;Generated with Cura_SteamEngine master
M82 ;absolute extrusion mode
; Ender 3 Custom Start G-code
M140 S70 ; Set Heat Bed temperature
M104 S160 ; start warming extruder to 160
G28 ; Home all axes
; G29 ; Auto bed-level (BL-Touch)
G92 E0 ; Reset Extruder
M190 S70 ; Wait for Heat Bed temperature
M104 S210 ; Set Extruder temperature
G1 X0 Y0 Z0.3 F5000.0 ; Move to 0 0
M109 S210 ; Wait for Extruder temperature
G1 X3 Y20 Z0.3 F5000.0 ; Move to start position
; G1 Z2.0 F3000 ; Move Z Axis up little to prevent scratching of Heat Bed
G1 X3 Y200.0 Z0.3 F1500.0 E15 ; Draw the first line
G1 X3.3 Y200.0 Z0.3 F5000.0 ; Move to side a little
G1 X3.3 Y20 Z0.3 F1500.0 E30 ; Draw the second line
G92 E0 ; Reset Extruder
G1 Z2.0 F3000 ; Move Z Axis up little to prevent scratching of Heat Bed
G92 E0
G92 E0
G1 F2100 E-1
;LAYER_COUNT:90
;LAYER:0
M107
M204 S500
M205 X8 Y8
;MESH:Case_Bottom.stl
G0 F6000 X123.6 Y153.6 Z0.2
;TYPE:WALL-INNER
G1 F2100 E0
G1 F1200 X76.4 Y153.6 E1.13424
G1 X76.4 Y81.4 E2.86924
G1 X123.6 Y81.4 E4.00347
G1 X123.6 Y153.6 E5.73847
G0 F6000 X124 Y154
G1 F1200 X76 Y154 E6.89193
G1 X76 Y81 E8.64616
G1 X124 Y81 E9.79962
G1 X124 Y154 E11.55384
G0 F6000 X124.4 Y154.4
G1 F1200 X75.6 Y154.4 E12.72653
G1 X75.6 Y80.6 E14.49997
G1 X124.4 Y80.6 E15.67266
G1 X124.4 Y154.4 E17.4461
G0 F6000 X124.8 Y154.8
;TYPE:WALL-OUTER
G1 F1200 X75.2 Y154.8 E18.63802
G1 X75.2 Y80.2 E20.43069
G1 X124.8 Y80.2 E21.6226
G1 X124.8 Y154.8 E23.41527
G0 F6000 X124.33 Y154.33
G0 X123.21 Y153.21
;TYPE:SKIN
G1 F1200 X76.79 Y153.21 E24.53076
G1 X76.79 Y81.79 E26.24702
G1 X123.21 Y81.79 E27.36251
G1 X123.21 Y153.21 E29.07876
G1 F2100 E28.07876
G0 F6000 X77.247 Y153.049
G1 F2100 E29.07876
G1 F1200 X76.95 Y152.752 E29.08886
G0 F6000 X76.95 Y152.186
G1 F1200 X77.812 Y153.049 E29.11817
G0 F6000 X78.378 Y153.049
G1 F1200 X76.95 Y151.62 E29.16672
G0 F6000 X76.95 Y151.054
G1 F1200 X78.944 Y153.049 E29.2345
G0 F6000 X79.509 Y153.049
G1 F1200 X76.95 Y150.489 E29.32148
G0 F6000 X76.95 Y149.923
G1 F1200 X80.075 Y153.049 E29.4277
G0 F6000 X80.641 Y153.049
G1 F1200 X76.95 Y149.357 E29.55315
G0 F6000 X76.95 Y148.792
G1 F1200 X81.206 Y153.049 E29.6978
G0 F6000 X81.772 Y153.049
G1 F1200 X76.95 Y148.226 E29.86169
G0 F6000 X76.95 Y147.66
G1 F1200 X82.338 Y153.049 E30.04482
G0 F6000 X82.904 Y153.049
G1 F1200 X76.95 Y147.095 E30.24716
G0 F6000 X76.95 Y146.529
G1 F1200 X83.469 Y153.049 E30.46872
G0 F6000 X84.035 Y153.049
G1 F1200 X76.95 Y145.963 E30.70951
G0 F6000 X76.95 Y145.398
G1 F1200 X84.601 Y153.049 E30.96953
G0 F6000 X85.166 Y153.049
G1 F1200 X76.95 Y144.832 E31.24876
G0 F6000 X76.95 Y144.266
G1 F1200 X85.732 Y153.049 E31.54722
G0 F6000 X86.298 Y153.049
G1 F1200 X76.95 Y143.701 E31.86491
G0 F6000 X76.95 Y143.135
G1 F1200 X86.863 Y153.049 E32.20181
G0 F6000 X87.429 Y153.049
G1 F1200 X76.95 Y142.569 E32.55795
G0 F6000 X76.95 Y142.004
G1 F1200 X87.995 Y153.049 E32.9333
G0 F6000 X88.56 Y153.049
G1 F1200 X76.95 Y141.438 E33.32787
G0 F6000 X76.95 Y140.872
G1 F1200 X89.126 Y153.049 E33.74168
G0 F6000 X89.692 Y153.049
G1 F1200 X76.95 Y140.306 E34.17473
G0 F6000 X76.95 Y139.741
G1 F1200 X90.257 Y153.049 E34.62697
G0 F6000 X90.823 Y153.049
G1 F1200 X76.95 Y139.175 E35.09845
G0 F6000 X76.95 Y138.609
G1 F1200 X91.389 Y153.049 E35.58917
G0 F6000 X91.954 Y153.049
G1 F1200 X76.95 Y138.044 E36.09908
G0 F6000 X76.95 Y137.478
G1 F1200 X92.52 Y153.049 E36.62823
G0 F6000 X93.086 Y153.049
G1 F1200 X76.95 Y136.912 E37.17662
G0 F6000 X76.95 Y136.347
G1 F1200 X93.652 Y153.049 E37.74422
G0 F6000 X94.217 Y153.049
G1 F1200 X76.95 Y135.781 E38.33104
G0 F6000 X76.95 Y135.215
G1 F1200 X94.783 Y153.049 E38.9371
G0 F6000 X95.349 Y153.049
G1 F1200 X76.95 Y134.65 E39.56238
G0 F6000 X76.95 Y134.084
G1 F1200 X95.914 Y153.049 E40.20687
G0 F6000 X96.48 Y153.049
G1 F1200 X76.95 Y133.518 E40.8706
G0 F6000 X76.95 Y132.953
G1 F1200 X97.046 Y153.049 E41.55354
G0 F6000 X97.611 Y153.049
G1 F1200 X76.95 Y132.387 E42.25571
G0 F6000 X76.95 Y131.821
G1 F1200 X98.177 Y153.049 E42.97711
G0 F6000 X98.743 Y153.049
G1 F1200 X76.95 Y131.255 E43.71774
G0 F6000 X76.95 Y130.69
G1 F1200 X99.308 Y153.049 E44.47758
G0 F6000 X99.874 Y153.049
G1 F1200 X76.95 Y130.124 E45.25665
G0 F6000 X76.95 Y129.558
G1 F1200 X100.44 Y153.049 E46.05495
G0 F6000 X101.005 Y153.049
G1 F1200 X76.95 Y128.993 E46.87246
G0 F6000 X76.95 Y128.427
G1 F1200 X101.571 Y153.049 E47.7092
G0 F6000 X102.137 Y153.049
G1 F1200 X76.95 Y127.861 E48.56518
G0 F6000 X76.95 Y127.296
G1 F1200 X102.703 Y153.049 E49.44037
G0 F6000 X103.268 Y153.049
G1 F1200 X76.95 Y126.73 E50.33478
G0 F6000 X76.95 Y126.164
G1 F1200 X103.834 Y153.049 E51.24843
G0 F6000 X104.4 Y153.049
G1 F1200 X76.95 Y125.599 E52.1813
G0 F6000 X76.95 Y125.033
G1 F1200 X104.965 Y153.049 E53.13338
G0 F6000 X105.531 Y153.049
G1 F1200 X76.95 Y124.467 E54.1047
G0 F6000 X76.95 Y123.902
G1 F1200 X106.097 Y153.049 E55.09524
G0 F6000 X106.662 Y153.049
G1 F1200 X76.95 Y123.336 E56.10499
G0 F6000 X76.95 Y122.77
G1 F1200 X107.228 Y153.049 E57.13398
G0 F6000 X107.794 Y153.049
G1 F1200 X76.95 Y122.205 E58.18219
G0 F6000 X76.95 Y121.639
G1 F1200 X108.359 Y153.049 E59.24962
G0 F6000 X108.925 Y153.049
G1 F1200 X76.95 Y121.073 E60.33628
G0 F6000 X76.95 Y120.507
G1 F1200 X109.491 Y153.049 E61.44218
G0 F6000 X110.056 Y153.049
G1 F1200 X76.95 Y119.942 E62.56727
G0 F6000 X76.95 Y119.376
G1 F1200 X110.622 Y153.049 E63.71161
G0 F6000 X111.188 Y153.049
G1 F1200 X76.95 Y118.81 E64.87517
G0 F6000 X76.95 Y118.245
G1 F1200 X111.753 Y153.049 E66.05794
G0 F6000 X112.319 Y153.049
G1 F1200 X76.95 Y117.679 E67.25994
G0 F6000 X76.95 Y117.113
G1 F1200 X112.885 Y153.049 E68.48118
G0 F6000 X113.451 Y153.049
G1 F1200 X76.95 Y116.548 E69.72164
G0 F6000 X76.95 Y115.982
G1 F1200 X114.016 Y153.049 E70.98131
G0 F6000 X114.582 Y153.049
G1 F1200 X76.95 Y115.416 E72.26022
G0 F6000 X76.95 Y114.851
G1 F1200 X115.148 Y153.049 E73.55835
G0 F6000 X115.713 Y153.049
G1 F1200 X76.95 Y114.285 E74.8757
G0 F6000 X76.95 Y113.719
G1 F1200 X116.279 Y153.049 E76.21228
G0 F6000 X116.845 Y153.049
G1 F1200 X76.95 Y113.154 E77.56808
G0 F6000 X76.95 Y112.588
G1 F1200 X117.41 Y153.049 E78.9431
G0 F6000 X117.976 Y153.049
G1 F1200 X76.95 Y112.022 E80.33735
G0 F6000 X76.95 Y111.456
G1 F1200 X118.542 Y153.049 E81.75084
G0 F6000 X119.107 Y153.049
G1 F1200 X76.95 Y110.891 E83.18352
G0 F6000 X76.95 Y110.325
G1 F1200 X119.673 Y153.049 E84.63545
G0 F6000 X120.239 Y153.049
G1 F1200 X76.95 Y109.759 E86.10661
G0 F6000 X76.95 Y109.194
G1 F1200 X120.804 Y153.049 E87.59696
G0 F6000 X121.37 Y153.049
G1 F1200 X76.95 Y108.628 E89.10656
G0 F6000 X76.95 Y108.062
G1 F1200 X121.936 Y153.049 E90.63539
G0 F6000 X122.502 Y153.049
G1 F1200 X76.95 Y107.497 E92.18344
G0 F6000 X76.95 Y106.931
G1 F1200 X123.05 Y153.031 E93.75011
G0 F6000 X123.05 Y152.465
G1 F1200 X76.95 Y106.365 E95.31678
G0 F6000 X76.95 Y105.8
G1 F1200 X123.05 Y151.899 E96.88343
G0 F6000 X123.05 Y151.334
G1 F1200 X76.95 Y105.234 E98.4501
G0 F6000 X76.95 Y104.668
G1 F1200 X123.05 Y150.768 E100.01677
G0 F6000 X123.05 Y150.202
G1 F1200 X76.95 Y104.103 E101.58343
G0 F6000 X76.95 Y103.537
G1 F1200 X123.05 Y149.637 E103.1501
G0 F6000 X123.05 Y149.071
G1 F1200 X76.95 Y102.971 E104.71677
G0 F6000 X76.95 Y102.406
G1 F1200 X123.05 Y148.505 E106.28342
G0 F6000 X123.05 Y147.94
G1 F1200 X76.95 Y101.84 E107.85009
G0 F6000 X76.95 Y101.274
G1 F1200 X123.05 Y147.374 E109.41677
G0 F6000 X123.05 Y146.808
G1 F1200 X76.95 Y100.708 E110.98344
G0 F6000 X76.95 Y100.143
G1 F1200 X123.05 Y146.243 E112.55011
G0 F6000 X123.05 Y145.677
G1 F1200 X76.95 Y99.577 E114.11678
G0 F6000 X76.95 Y99.011
G1 F1200 X123.05 Y145.111 E115.68345
G0 F6000 X123.05 Y144.546
G1 F1200 X76.95 Y98.446 E117.25012
G0 F6000 X76.95 Y97.88
G1 F1200 X123.05 Y143.98 E118.81679
G0 F6000 X123.05 Y143.414
G1 F1200 X76.95 Y97.314 E120.38346
G0 F6000 X76.95 Y96.749
G1 F1200 X123.05 Y142.849 E121.95013
G0 F6000 X123.05 Y142.283
G1 F1200 X76.95 Y96.183 E123.5168
G0 F6000 X76.95 Y95.617
G1 F1200 X123.05 Y141.717 E125.08347
G0 F6000 X123.05 Y141.151
G1 F1200 X76.95 Y95.052 E126.65013
G0 F6000 X76.95 Y94.486
G1 F1200 X123.05 Y140.586 E128.2168
G0 F6000 X123.05 Y140.02
G1 F1200 X76.95 Y93.92 E129.78347
G0 F6000 X76.95 Y93.355
G1 F1200 X123.05 Y139.454 E131.35012
G0 F6000 X123.05 Y138.889
G1 F1200 X76.95 Y92.789 E132.9168
G0 F6000 X76.95 Y92.223
G1 F1200 X123.05 Y138.323 E134.48347
G0 F6000 X123.05 Y137.757
G1 F1200 X76.95 Y91.658 E136.05012
G0 F6000 X76.95 Y91.092
G1 F1200 X123.05 Y137.192 E137.61679
G0 F6000 X123.05 Y136.626
G1 F1200 X76.95 Y90.526 E139.18346
G0 F6000 X76.95 Y89.96
G1 F1200 X123.05 Y136.06 E140.75013
G0 F6000 X123.05 Y135.495
G1 F1200 X76.95 Y89.395 E142.3168
G0 F6000 X76.95 Y88.829
G1 F1200 X123.05 Y134.929 E143.88347
G0 F6000 X123.05 Y134.363
G1 F1200 X76.95 Y88.263 E145.45015
G0 F6000 X76.95 Y87.698
G1 F1200 X123.05 Y133.798 E147.01682
G0 F6000 X123.05 Y133.232
G1 F1200 X76.95 Y87.132 E148.58349
G0 F6000 X76.95 Y86.566
G1 F1200 X123.05 Y132.666 E150.15016
G0 F6000 X123.05 Y132.1
G1 F1200 X76.95 Y86.001 E151.71681
G0 F6000 X76.95 Y85.435
G1 F1200 X123.05 Y131.535 E153.28348
G0 F6000 X123.05 Y130.969
G1 F1200 X76.95 Y84.869 E154.85015
G0 F6000 X76.95 Y84.304
G1 F1200 X123.05 Y130.403 E156.41681
G0 F6000 X123.05 Y129.838
G1 F1200 X76.95 Y83.738 E157.98348
G0 F6000 X76.95 Y83.172
G1 F1200 X123.05 Y129.272 E159.55015
G0 F6000 X123.05 Y128.706
G1 F1200 X76.95 Y82.607 E161.1168
G0 F6000 X76.95 Y82.041
G1 F1200 X123.05 Y128.141 E162.68347
G0 F6000 X123.05 Y127.575
G1 F1200 X77.423 Y81.949 E164.23405
G0 F6000 X77.989 Y81.949
G1 F1200 X123.05 Y127.009 E165.7654
G0 F6000 X123.05 Y126.444
G1 F1200 X78.555 Y81.949 E167.27752
G0 F6000 X79.121 Y81.949
G1 F1200 X123.05 Y125.878 E168.77042
G0 F6000 X123.05 Y125.312
G1 F1200 X79.686 Y81.949 E170.24409
G0 F6000 X80.252 Y81.949
G1 F1200 X123.05 Y124.747 E171.69854
G0 F6000 X123.05 Y124.181
G1 F1200 X80.818 Y81.949 E173.13376
G0 F6000 X81.383 Y81.949
G1 F1200 X123.05 Y123.615 E174.54977
G0 F6000 X123.05 Y123.05
G1 F1200 X81.949 Y81.949 E175.94655
G0 F6000 X82.515 Y81.949
G1 F1200 X123.05 Y122.484 E177.3241
G0 F6000 X123.05 Y121.918
G1 F1200 X83.08 Y81.949 E178.68243
G0 F6000 X83.646 Y81.949
G1 F1200 X123.05 Y121.352 E180.02153
G0 F6000 X123.05 Y120.787
G1 F1200 X84.212 Y81.949 E181.3414
G0 F6000 X84.777 Y81.949
G1 F1200 X123.05 Y120.221 E182.64206
G0 F6000 X123.05 Y119.655
G1 F1200 X85.343 Y81.949 E183.92349
G0 F6000 X85.909 Y81.949
G1 F1200 X123.05 Y119.09 E185.18569
G0 F6000 X123.05 Y118.524
G1 F1200 X86.474 Y81.949 E186.42868
G0 F6000 X87.04 Y81.949
G1 F1200 X123.05 Y117.958 E187.65244
G0 F6000 X123.05 Y117.393
G1 F1200 X87.606 Y81.949 E188.85697
G0 F6000 X88.171 Y81.949
G1 F1200 X123.05 Y116.827 E190.04229
G0 F6000 X123.05 Y116.261
G1 F1200 X88.737 Y81.949 E191.20837
G0 F6000 X89.303 Y81.949
G1 F1200 X123.05 Y115.696 E192.35524
G0 F6000 X123.05 Y115.13
G1 F1200 X89.869 Y81.949 E193.48287
G0 F6000 X90.434 Y81.949
G1 F1200 X123.05 Y114.564 E194.59128
G0 F6000 X123.05 Y113.999
G1 F1200 X91 Y81.949 E195.68047
G0 F6000 X91.566 Y81.949
G1 F1200 X123.05 Y113.433 E196.75043
G0 F6000 X123.05 Y112.867
G1 F1200 X92.131 Y81.949 E197.80117
G0 F6000 X92.697 Y81.949
G1 F1200 X123.05 Y112.301 E198.83267
G0 F6000 X123.05 Y111.736
G1 F1200 X93.263 Y81.949 E199.84496
G0 F6000 X93.828 Y81.949
G1 F1200 X123.05 Y111.17 E200.83803
G0 F6000 X123.05 Y110.604
G1 F1200 X94.394 Y81.949 E201.81186
G0 F6000 X94.96 Y81.949
G1 F1200 X123.05 Y110.039 E202.76648
G0 F6000 X123.05 Y109.473
G1 F1200 X95.525 Y81.949 E203.70188
G0 F6000 X96.091 Y81.949
G1 F1200 X123.05 Y108.907 E204.61804
G0 F6000 X123.05 Y108.342
G1 F1200 X96.657 Y81.949 E205.51498
G0 F6000 X97.222 Y81.949
G1 F1200 X123.05 Y107.776 E206.39271
G0 F6000 X123.05 Y107.21
G1 F1200 X97.788 Y81.949 E207.2512
G0 F6000 X98.354 Y81.949
G1 F1200 X123.05 Y106.645 E208.09047
G0 F6000 X123.05 Y106.079
G1 F1200 X98.919 Y81.949 E208.91053
G0 F6000 X99.485 Y81.949
G1 F1200 X123.05 Y105.513 E209.71135
G0 F6000 X123.05 Y104.948
G1 F1200 X100.051 Y81.949 E210.49295
G0 F6000 X100.617 Y81.949
G1 F1200 X123.05 Y104.382 E211.25532
G0 F6000 X123.05 Y103.816
G1 F1200 X101.182 Y81.949 E211.99847
G0 F6000 X101.748 Y81.949
G1 F1200 X123.05 Y103.251 E212.7224
G0 F6000 X123.05 Y102.685
G1 F1200 X102.314 Y81.949 E213.4271
G0 F6000 X102.879 Y81.949
G1 F1200 X123.05 Y102.119 E214.11257
G0 F6000 X123.05 Y101.553
G1 F1200 X103.445 Y81.949 E214.77882
G0 F6000 X104.011 Y81.949
G1 F1200 X123.05 Y100.988 E215.42584
G0 F6000 X123.05 Y100.422
G1 F1200 X104.576 Y81.949 E216.05365
G0 F6000 X105.142 Y81.949
G1 F1200 X123.05 Y99.856 E216.66222
G0 F6000 X123.05 Y99.291
G1 F1200 X105.708 Y81.949 E217.25157
G0 F6000 X106.273 Y81.949
G1 F1200 X123.05 Y98.725 E217.82171
G0 F6000 X123.05 Y98.159
G1 F1200 X106.839 Y81.949 E218.37261
G0 F6000 X107.405 Y81.949
G1 F1200 X123.05 Y97.594 E218.90429
G0 F6000 X123.05 Y97.028
G1 F1200 X107.97 Y81.949 E219.41676
G0 F6000 X108.536 Y81.949
G1 F1200 X123.05 Y96.462 E219.90999
G0 F6000 X123.05 Y95.897
G1 F1200 X109.102 Y81.949 E220.384
G0 F6000 X109.668 Y81.949
G1 F1200 X123.05 Y95.331 E220.83878
G0 F6000 X123.05 Y94.765
G1 F1200 X110.233 Y81.949 E221.27433
G0 F6000 X110.799 Y81.949
G1 F1200 X123.05 Y94.2 E221.69067
G0 F6000 X123.05 Y93.634
G1 F1200 X111.365 Y81.949 E222.08778
G0 F6000 X111.93 Y81.949
G1 F1200 X123.05 Y93.068 E222.46567
G0 F6000 X123.05 Y92.503
G1 F1200 X112.496 Y81.949 E222.82434
G0 F6000 X113.062 Y81.949
G1 F1200 X123.05 Y91.937 E223.16377
G0 F6000 X123.05 Y91.371
G1 F1200 X113.627 Y81.949 E223.48399
G0 F6000 X114.193 Y81.949
G1 F1200 X123.05 Y90.805 E223.78497
G0 F6000 X123.05 Y90.24
G1 F1200 X114.759 Y81.949 E224.06673
G0 F6000 X115.324 Y81.949
G1 F1200 X123.05 Y89.674 E224.32927
G0 F6000 X123.05 Y89.108
G1 F1200 X115.89 Y81.949 E224.57258
G0 F6000 X116.456 Y81.949
G1 F1200 X123.05 Y88.543 E224.79668
G0 F6000 X123.05 Y87.977
G1 F1200 X117.021 Y81.949 E225.00155
G0 F6000 X117.587 Y81.949
G1 F1200 X123.05 Y87.411 E225.18719
G0 F6000 X123.05 Y86.846
G1 F1200 X118.153 Y81.949 E225.35361
G0 F6000 X118.718 Y81.949
G1 F1200 X123.05 Y86.28 E225.50081
G0 F6000 X123.05 Y85.714
G1 F1200 X119.284 Y81.949 E225.62878
G0 F6000 X119.85 Y81.949
G1 F1200 X123.05 Y85.149 E225.73753
G0 F6000 X123.05 Y84.583
G1 F1200 X120.416 Y81.949 E225.82704
G0 F6000 X120.981 Y81.949
G1 F1200 X123.05 Y84.017 E225.89734
G0 F6000 X123.05 Y83.452
G1 F1200 X121.547 Y81.949 E225.94842
G0 F6000 X122.113 Y81.949
G1 F1200 X123.05 Y82.886 E225.98026
G0 F6000 X123.05 Y82.32
M104 S210
G1 F1200 X122.678 Y81.949 E225.99288
G1 F2100 E224.99288
;MESH:NONMESH
G0 F300 X122.678 Y81.949 Z0.4
G0 F6000 X123.6 Y153.6
;TIME_ELAPSED:492.760758
;LAYER:1
M140 S65
M106 S85
;TYPE:WALL-INNER
;MESH:Case_Bottom.stl
G1 F2100 E225.99288
G1 F1350 X76.4 Y153.6 E227.32728
G1 X76.4 Y81.4 E229.36846
G1 X123.6 Y81.4 E230.70285
G1 X123.6 Y153.6 E232.74403
G0 F7500 X124 Y154
G1 F1350 X76 Y154 E234.10104
G1 X76 Y81 E236.16483
G1 X124 Y81 E237.52185
G1 X124 Y154 E239.58564
G0 F7500 X124.4 Y154.4
G1 F1350 X75.6 Y154.4 E240.96527
G1 X75.6 Y80.6 E243.05168
G1 X124.4 Y80.6 E244.43131
G1 X124.4 Y154.4 E246.51771
G0 F7500 X124.8 Y154.8
;TYPE:WALL-OUTER
G1 F1350 X75.2 Y154.8 E247.91996
G1 X75.2 Y80.2 E250.02899
G1 X124.8 Y80.2 E251.43123
G1 X124.8 Y154.8 E253.54026
G0 F7500 X124.33 Y154.33
G0 X123.21 Y153.21
;TYPE:SKIN
G1 F1350 X76.79 Y153.21 E254.8526
G1 X76.79 Y81.79 E256.87173
G1 X123.21 Y81.79 E258.18407
G1 X123.21 Y153.21 E260.2032
G0 F7500 X122.439 Y153.049
G1 F1350 X123.049 Y152.439 E260.22758
G0 F7500 X123.049 Y151.873
G1 F1350 X121.873 Y153.049 E260.2746
G0 F7500 X121.307 Y153.049
G1 F1350 X123.049 Y151.308 E260.34423
G0 F7500 X123.049 Y150.742
G1 F1350 X120.742 Y153.049 E260.43647
G0 F7500 X120.176 Y153.049
G1 F1350 X123.049 Y150.176 E260.55133
G0 F7500 X123.049 Y149.611
G1 F1350 X119.61 Y153.049 E260.68881
G0 F7500 X119.044 Y153.049
G1 F1350 X123.049 Y149.045 E260.84891
G0 F7500 X123.049 Y148.479
G1 F1350 X118.479 Y153.049 E261.03163
G0 F7500 X117.913 Y153.049
G1 F1350 X123.049 Y147.914 E261.23695
