;FLAVOR:Marlin
;TIME:429
;Filament used: 0.233046m
;Layer height: 0.2
;MINX:76.801
;MINY:111.2
;MINZ:0.2
;MAXX:123.199
;MAXY:123.8
;MAXZ:1.8
;Generated with Cura_SteamEngine master
M82 ;absolute extrusion mode
; Ender 3 Custom Start G-code
M140 S70 ; Set Heat Bed temperature
M104 S160 ; start warming extruder to 160
G28 ; Home all axes
; G29 ; Auto bed-level (BL-Touch)
G92 E0 ; Reset Extruder
M190 S70 ; Wait for Heat Bed temperature
M104 S210 ; Set Extruder temperature
G1 X0 Y0 Z0.3 F5000.0 ; Move to 0 0
M109 S210 ; Wait for Extruder temperature
G1 X3 Y20 Z0.3 F5000.0 ; Move to start position
; G1 Z2.0 F3000 ; Move Z Axis up little to prevent scratching of Heat Bed
G1 X3 Y200.0 Z0.3 F1500.0 E15 ; Draw the first line
G1 X3.3 Y200.0 Z0.3 F5000.0 ; Move to side a little
G1 X3.3 Y20 Z0.3 F1500.0 E30 ; Draw the second line
G92 E0 ; Reset Extruder
G1 Z2.0 F3000 ; Move Z Axis up little to prevent scratching of Heat Bed
G92 E0
G92 E0
G1 F2100 E-1
;LAYER_COUNT:9
;LAYER:0
M107
M204 S500
M205 X8 Y8
;MESH:Gaurd_Arm.stl
G0 F6000 X78.493 Y122.6 Z0.2
;TYPE:WALL-INNER
G1 F2100 E0
G1 F1200 X78.493 Y122.4 E0.00481
G1 X78.501 Y119.737 E0.0688
G1 X78.501 Y117.4 E0.12496
G1 X121.499 Y117.4 E1.15822
G1 X121.499 Y119.669 E1.21274
G1 X121.507 Y122.4 E1.27837
G1 X121.507 Y122.6 E1.28318
G1 X121.307 Y122.6 E1.28629
G1 X78.693 Y122.6 E2.31032
G1 X78.493 Y122.6 E2.31344
G0 F6000 X78.092 Y123
G1 F1200 X78.092 Y122.8 E2.31824
G1 X78.101 Y119.736 E2.39187
G1 X78.101 Y117 E2.45762
G1 X121.899 Y117 E3.5101
G1 X121.899 Y119.668 E3.57422
G1 X121.908 Y122.8 E3.64948
G1 X121.908 Y123 E3.65429
G1 X121.708 Y123 E3.6574
G1 X78.292 Y123 E4.70071
G1 X78.092 Y123 E4.70382
G0 F6000 X77.691 Y123.4
G1 F1200 X77.691 Y123.2 E4.70862
G1 X77.701 Y119.735 E4.79189
G1 X77.701 Y116.6 E4.86722
G1 X122.299 Y116.6 E5.93893
G1 X122.299 Y119.667 E6.01264
G1 X122.309 Y123.2 E6.09754
G1 X122.309 Y123.4 E6.10234
G1 X122.109 Y123.4 E6.10545
G1 X77.891 Y123.4 E7.16803
G1 X77.691 Y123.4 E7.17114
G0 F6000 X77.29 Y123.8
;TYPE:WALL-OUTER
G1 F1200 X77.301 Y119.734 E7.26885
G1 X77.301 Y115.468 E7.37137
G1 X77.293 Y111.4 E7.46912
G1 X77.706 Y111.4 E7.47905
G1 X77.711 Y116.2 E7.59439
G1 X122.285 Y116.2 E8.66553
G1 X122.301 Y115.335 E8.68632
G1 X122.293 Y111.2 E8.78568
G1 X122.706 Y111.2 E8.79561
G1 X122.707 Y111.595 E8.8051
G1 X122.699 Y115.333 E8.89492
G1 X122.699 Y119.667 E8.99907
G1 X122.71 Y123.8 E9.09839
G1 X77.29 Y123.8 E10.18985
G0 F6000 X77.561 Y123.53
G0 X78.884 Y122.21
;TYPE:SKIN
G1 F1200 X78.891 Y119.738 E10.24926
G1 X78.891 Y117.79 E10.29607
G1 X121.109 Y117.79 E11.31059
G1 X121.109 Y119.669 E11.35574
G1 X121.116 Y122.21 E11.4168
G1 X78.884 Y122.21 E12.43165
G0 F6000 X79.046 Y121.472
G1 F1200 X79.623 Y122.049 E12.45126
G0 F6000 X80.188 Y122.049
G1 F1200 X79.047 Y120.908 E12.49004
G0 F6000 X79.048 Y120.343
G1 F1200 X80.754 Y122.049 E12.54802
G0 F6000 X81.32 Y122.049
G1 F1200 X79.05 Y119.779 E12.62516
G0 F6000 X79.051 Y119.214
G1 F1200 X81.885 Y122.049 E12.72149
G0 F6000 X82.451 Y122.049
G1 F1200 X79.051 Y118.648 E12.83705
G0 F6000 X79.051 Y118.083
G1 F1200 X83.017 Y122.049 E12.97183
G0 F6000 X83.582 Y122.049
G1 F1200 X79.483 Y117.949 E13.11115
G0 F6000 X80.048 Y117.949
G1 F1200 X84.148 Y122.049 E13.25049
G0 F6000 X84.714 Y122.049
G1 F1200 X80.614 Y117.949 E13.38982
G0 F6000 X81.18 Y117.949
G1 F1200 X85.279 Y122.049 E13.52914
G0 F6000 X85.845 Y122.049
G1 F1200 X81.745 Y117.949 E13.66848
G0 F6000 X82.311 Y117.949
G1 F1200 X86.411 Y122.049 E13.80781
G0 F6000 X86.976 Y122.049
G1 F1200 X82.877 Y117.949 E13.94713
G0 F6000 X83.442 Y117.949
G1 F1200 X87.542 Y122.049 E14.08646
G0 F6000 X88.108 Y122.049
G1 F1200 X84.008 Y117.949 E14.2258
G0 F6000 X84.574 Y117.949
G1 F1200 X88.674 Y122.049 E14.36513
G0 F6000 X89.239 Y122.049
G1 F1200 X85.139 Y117.949 E14.50447
G0 F6000 X85.705 Y117.949
G1 F1200 X89.805 Y122.049 E14.6438
G0 F6000 X90.371 Y122.049
G1 F1200 X86.271 Y117.949 E14.78314
G0 F6000 X86.836 Y117.949
G1 F1200 X90.936 Y122.049 E14.92247
G0 F6000 X91.502 Y122.049
G1 F1200 X87.402 Y117.949 E15.06181
G0 F6000 X87.968 Y117.949
G1 F1200 X92.068 Y122.049 E15.20115
G0 F6000 X92.633 Y122.049
G1 F1200 X88.534 Y117.949 E15.34046
G0 F6000 X89.099 Y117.949
G1 F1200 X93.199 Y122.049 E15.4798
G0 F6000 X93.765 Y122.049
G1 F1200 X89.665 Y117.949 E15.61913
G0 F6000 X90.231 Y117.949
G1 F1200 X94.33 Y122.049 E15.75845
G0 F6000 X94.896 Y122.049
G1 F1200 X90.796 Y117.949 E15.89779
G0 F6000 X91.362 Y117.949
G1 F1200 X95.462 Y122.049 E16.03712
G0 F6000 X96.027 Y122.049
G1 F1200 X91.928 Y117.949 E16.17644
G0 F6000 X92.493 Y117.949
G1 F1200 X96.593 Y122.049 E16.31578
G0 F6000 X97.159 Y122.049
G1 F1200 X93.059 Y117.949 E16.45511
G0 F6000 X93.625 Y117.949
G1 F1200 X97.724 Y122.049 E16.59443
G0 F6000 X98.29 Y122.049
G1 F1200 X94.19 Y117.949 E16.73376
G0 F6000 X94.756 Y117.949
G1 F1200 X98.856 Y122.049 E16.8731
G0 F6000 X99.422 Y122.049
G1 F1200 X95.322 Y117.949 E17.01243
G0 F6000 X95.887 Y117.949
G1 F1200 X99.987 Y122.049 E17.15177
G0 F6000 X100.553 Y122.049
G1 F1200 X96.453 Y117.949 E17.2911
G0 F6000 X97.019 Y117.949
G1 F1200 X101.119 Y122.049 E17.43044
G0 F6000 X101.684 Y122.049
G1 F1200 X97.584 Y117.949 E17.56977
G0 F6000 X98.15 Y117.949
G1 F1200 X102.25 Y122.049 E17.70911
G0 F6000 X102.816 Y122.049
G1 F1200 X98.716 Y117.949 E17.84845
G0 F6000 X99.282 Y117.949
G1 F1200 X103.381 Y122.049 E17.98776
G0 F6000 X103.947 Y122.049
G1 F1200 X99.847 Y117.949 E18.1271
G0 F6000 X100.414 Y117.95
G1 F1200 X104.513 Y122.049 E18.2664
G0 F6000 X105.078 Y122.049
G1 F1200 X100.979 Y117.95 E18.4057
G0 F6000 X101.545 Y117.95
G1 F1200 X105.644 Y122.049 E18.545
G0 F6000 X106.21 Y122.049
G1 F1200 X102.111 Y117.95 E18.6843
G0 F6000 X102.676 Y117.95
G1 F1200 X106.775 Y122.049 E18.8236
G0 F6000 X107.341 Y122.049
G1 F1200 X103.242 Y117.95 E18.96291
G0 F6000 X103.808 Y117.95
G1 F1200 X107.907 Y122.049 E19.10221
G0 F6000 X108.473 Y122.049
G1 F1200 X104.373 Y117.95 E19.24152
G0 F6000 X104.939 Y117.95
G1 F1200 X109.038 Y122.049 E19.38083
G0 F6000 X109.604 Y122.049
G1 F1200 X105.505 Y117.95 E19.52013
G0 F6000 X106.07 Y117.95
G1 F1200 X110.17 Y122.049 E19.65945
G0 F6000 X110.735 Y122.049
G1 F1200 X106.636 Y117.95 E19.79875
G0 F6000 X107.202 Y117.95
G1 F1200 X111.301 Y122.049 E19.93805
G0 F6000 X111.867 Y122.049
G1 F1200 X107.768 Y117.95 E20.07735
G0 F6000 X108.333 Y117.95
G1 F1200 X112.432 Y122.049 E20.21665
G0 F6000 X112.998 Y122.049
G1 F1200 X108.899 Y117.95 E20.35595
G0 F6000 X109.465 Y117.95
G1 F1200 X113.564 Y122.049 E20.49525
G0 F6000 X114.129 Y122.049
G1 F1200 X110.03 Y117.95 E20.63455
G0 F6000 X110.596 Y117.95
G1 F1200 X114.695 Y122.049 E20.77385
G0 F6000 X115.261 Y122.049
G1 F1200 X111.162 Y117.95 E20.91316
G0 F6000 X111.727 Y117.95
G1 F1200 X115.826 Y122.049 E21.05246
G0 F6000 X116.392 Y122.049
G1 F1200 X112.293 Y117.95 E21.19176
G0 F6000 X112.859 Y117.95
G1 F1200 X116.958 Y122.049 E21.33106
G0 F6000 X117.523 Y122.049
G1 F1200 X113.424 Y117.95 E21.47036
G0 F6000 X113.99 Y117.95
G1 F1200 X118.089 Y122.049 E21.60966
G0 F6000 X118.655 Y122.049
G1 F1200 X114.556 Y117.95 E21.74896
G0 F6000 X115.121 Y117.95
G1 F1200 X119.221 Y122.049 E21.88828
G0 F6000 X119.786 Y122.049
G1 F1200 X115.687 Y117.95 E22.02758
G0 F6000 X116.253 Y117.95
G1 F1200 X120.352 Y122.049 E22.16688
G0 F6000 X120.918 Y122.049
G1 F1200 X116.818 Y117.95 E22.3062
G0 F6000 X117.384 Y117.95
G1 F1200 X120.953 Y121.519 E22.42749
G0 F6000 X120.952 Y120.952
G1 F1200 X117.95 Y117.95 E22.52951
G0 F6000 X118.516 Y117.95
G1 F1200 X120.95 Y120.384 E22.61223
G0 F6000 X120.949 Y119.817
G1 F1200 X119.081 Y117.95 E22.67569
G0 F6000 X119.647 Y117.95
G1 F1200 X120.948 Y119.251 E22.71991
G0 F6000 X120.948 Y118.685
G1 F1200 X120.213 Y117.95 E22.74489
G0 F6000 X120.778 Y117.95
M104 S210
G1 F1200 X120.948 Y118.12 E22.75066
G1 F2100 E21.75066
;MESH:NONMESH
G0 F300 X120.948 Y118.12 Z0.4
G0 F6000 X78.236 Y117.4
;TIME_ELAPSED:59.340652
;LAYER:1
M140 S65
M106 S85
;TYPE:WALL-INNER
;MESH:Gaurd_Arm.stl
G1 F2100 E22.75066
G1 F1350 X78.435 Y117.4 E22.75629
G1 X121.763 Y117.4 E23.98122
G1 X121.763 Y119.667 E24.04531
G1 X121.766 Y120.915 E24.08059
G1 X121.764 Y122.6 E24.12823
G1 X78.235 Y122.6 E25.35884
G1 X78.233 Y120.966 E25.40504
G1 X78.237 Y119.736 E25.43981
G1 X78.236 Y117.599 E25.50023
G1 X78.236 Y117.4 E25.50387
G0 F7500 X77.836 Y117
G1 F1350 X78.035 Y117 E25.50949
G1 X122.163 Y117 E26.75704
G1 X122.163 Y119.667 E26.83244
G1 X122.166 Y120.915 E26.86772
G1 X122.163 Y123 E26.92667
G1 X77.836 Y123 E28.17984
G1 X77.833 Y120.965 E28.23737
G1 X77.837 Y119.735 E28.27215
G1 X77.836 Y117.199 E28.34384
G1 X77.836 Y117 E28.34748
G0 F7500 X77.53 Y116.628
G0 X77.507 Y111.87
G0 X77.437 Y111.8
G1 F1350 X77.562 Y111.8 E28.35102
G1 X77.564 Y114.469 E28.42647
G1 X77.566 Y115.615 E28.45887
G1 X77.558 Y116.6 E28.48672
G1 X122.443 Y116.6 E29.75567
G1 X122.433 Y115.526 E29.78603
G1 X122.433 Y115.332 E29.79152
G1 X122.434 Y114.318 E29.82018
G1 X122.437 Y111.6 E29.89703
G1 X122.563 Y111.6 E29.90059
G1 X122.566 Y114.318 E29.92543
G1 X122.563 Y115.332 E29.93486
G1 X122.563 Y115.526 E29.93665
G1 X122.563 Y116.6 E29.94616
G1 X122.563 Y119.667 E30.03287
G1 X122.566 Y120.915 E30.06815
G1 X122.563 Y123.4 E30.1384
G1 X77.436 Y123.4 E31.4142
G1 X77.433 Y120.964 E31.48306
G1 X77.437 Y119.734 E31.51784
G1 X77.437 Y117 E31.59513
G1 X77.437 Y116.601 E31.60641
G1 X77.436 Y115.616 E31.6152
G1 X77.435 Y114.47 E31.62573
G1 X77.437 Y111.8 E31.64977
G0 F7500 X77.037 Y111.4
;TYPE:WALL-OUTER
G1 F1350 X77.962 Y111.4 E31.67592
G1 X77.966 Y115.618 E31.79517
G1 X77.961 Y116.2 E31.81162
G1 X122.039 Y116.2 E33.05776
G1 X122.033 Y115.526 E33.07681
G1 X122.037 Y111.2 E33.19911
G1 X122.962 Y111.2 E33.22526
G1 X122.966 Y114.319 E33.31344
G1 X122.963 Y115.333 E33.34211
G1 X122.963 Y119.667 E33.46464
G1 X122.966 Y120.915 E33.49992
G1 X122.963 Y123.8 E33.58148
G1 X77.037 Y123.8 E34.87986
G1 X77.033 Y120.963 E34.96006
G1 X77.037 Y119.733 E34.99484
G1 X77.035 Y114.47 E35.14363
G1 X77.037 Y111.4 E35.23042
G0 F7500 X77.507 Y111.87
G0 X77.53 Y116.628
G0 X78.626 Y117.79
;TYPE:SKIN
G1 F1350 X121.373 Y117.79 E36.43893
G1 X121.373 Y119.667 E36.49199
G1 X121.376 Y120.915 E36.52727
G1 X121.374 Y122.21 E36.56388
G1 X78.625 Y122.21 E37.77245
G1 X78.623 Y120.966 E37.80762
G1 X78.627 Y119.736 E37.84239
G1 X78.626 Y117.79 E37.89741
G0 F7500 X78.786 Y118.071
G1 F1350 X78.908 Y117.949 E37.90228
G0 F7500 X79.474 Y117.949
G1 F1350 X78.786 Y118.637 E37.92979
G0 F7500 X78.786 Y119.203
G1 F1350 X80.04 Y117.949 E37.97993
G0 F7500 X80.605 Y117.949
G1 F1350 X78.786 Y119.769 E38.05267
G0 F7500 X78.785 Y120.336
G1 F1350 X81.171 Y117.949 E38.14809
G0 F7500 X81.737 Y117.949
G1 F1350 X78.783 Y120.903 E38.26619
G0 F7500 X78.784 Y121.468
G1 F1350 X82.302 Y117.949 E38.40687
G0 F7500 X82.868 Y117.949
G1 F1350 X78.785 Y122.033 E38.57013
G0 F7500 X79.334 Y122.049
G1 F1350 X83.434 Y117.949 E38.73406
G0 F7500 X84 Y117.949
G1 F1350 X79.9 Y122.049 E38.89798
G0 F7500 X80.465 Y122.049
G1 F1350 X84.565 Y117.949 E39.0619
G0 F7500 X85.131 Y117.949
G1 F1350 X81.031 Y122.049 E39.22583
G0 F7500 X81.597 Y122.049
G1 F1350 X85.697 Y117.949 E39.38975
G0 F7500 X86.262 Y117.949
G1 F1350 X82.162 Y122.049 E39.55367
G0 F7500 X82.728 Y122.049
G1 F1350 X86.828 Y117.949 E39.7176
G0 F7500 X87.394 Y117.949
G1 F1350 X83.294 Y122.049 E39.88152
G0 F7500 X83.86 Y122.049
G1 F1350 X87.959 Y117.949 E40.04543
G0 F7500 X88.525 Y117.949
G1 F1350 X84.425 Y122.049 E40.20935
G0 F7500 X84.991 Y122.049
G1 F1350 X89.091 Y117.949 E40.37327
G0 F7500 X89.656 Y117.949
G1 F1350 X85.557 Y122.049 E40.53718
G0 F7500 X86.122 Y122.049
G1 F1350 X90.222 Y117.949 E40.7011
G0 F7500 X90.788 Y117.949
G1 F1350 X86.688 Y122.049 E40.86502
G0 F7500 X87.254 Y122.049
G1 F1350 X91.353 Y117.949 E41.02893
G0 F7500 X91.919 Y117.949
G1 F1350 X87.819 Y122.049 E41.19285
G0 F7500 X88.385 Y122.049
G1 F1350 X92.485 Y117.949 E41.35678
G0 F7500 X93.051 Y117.949
G1 F1350 X88.951 Y122.049 E41.5207
G0 F7500 X89.516 Y122.049
G1 F1350 X93.616 Y117.949 E41.68462
G0 F7500 X94.182 Y117.949
G1 F1350 X90.082 Y122.049 E41.84855
G0 F7500 X90.648 Y122.049
G1 F1350 X94.748 Y117.949 E42.01247
G0 F7500 X95.313 Y117.949
G1 F1350 X91.213 Y122.049 E42.17639
G0 F7500 X91.779 Y122.049
G1 F1350 X95.879 Y117.949 E42.34032
G0 F7500 X96.445 Y117.949
G1 F1350 X92.345 Y122.049 E42.50424
G0 F7500 X92.911 Y122.049
G1 F1350 X97.01 Y117.949 E42.66815
G0 F7500 X97.576 Y117.949
G1 F1350 X93.476 Y122.049 E42.83207
G0 F7500 X94.042 Y122.049
G1 F1350 X98.142 Y117.949 E42.99599
G0 F7500 X98.707 Y117.949
G1 F1350 X94.608 Y122.049 E43.1599
G0 F7500 X95.173 Y122.049
G1 F1350 X99.273 Y117.949 E43.32382
G0 F7500 X99.839 Y117.949
G1 F1350 X95.739 Y122.049 E43.48774
G0 F7500 X96.305 Y122.049
G1 F1350 X100.404 Y117.949 E43.65165
G0 F7500 X100.97 Y117.949
G1 F1350 X96.87 Y122.049 E43.81557
G0 F7500 X97.436 Y122.049
G1 F1350 X101.536 Y117.949 E43.97949
G0 F7500 X102.101 Y117.949
G1 F1350 X98.002 Y122.049 E44.1434
G0 F7500 X98.567 Y122.049
G1 F1350 X102.667 Y117.949 E44.30732
G0 F7500 X103.233 Y117.949
G1 F1350 X99.133 Y122.049 E44.47125
G0 F7500 X99.699 Y122.049
G1 F1350 X103.799 Y117.949 E44.63517
G0 F7500 X104.364 Y117.949
G1 F1350 X100.264 Y122.049 E44.79909
G0 F7500 X100.83 Y122.049
G1 F1350 X104.93 Y117.949 E44.96302
G0 F7500 X105.496 Y117.949
G1 F1350 X101.396 Y122.049 E45.12694
G0 F7500 X101.961 Y122.049
G1 F1350 X106.061 Y117.949 E45.29086
G0 F7500 X106.627 Y117.949
G1 F1350 X102.527 Y122.049 E45.45479
G0 F7500 X103.093 Y122.049
G1 F1350 X107.193 Y117.949 E45.61871
G0 F7500 X107.758 Y117.949
G1 F1350 X103.659 Y122.049 E45.78262
G0 F7500 X104.224 Y122.049
G1 F1350 X108.324 Y117.949 E45.94654
G0 F7500 X108.89 Y117.949
G1 F1350 X104.79 Y122.049 E46.11046
G0 F7500 X105.356 Y122.049
G1 F1350 X109.455 Y117.949 E46.27437
G0 F7500 X110.021 Y117.949
G1 F1350 X105.921 Y122.049 E46.43829
G0 F7500 X106.487 Y122.049
G1 F1350 X110.587 Y117.949 E46.60221
G0 F7500 X111.152 Y117.949
G1 F1350 X107.053 Y122.049 E46.76612
G0 F7500 X107.618 Y122.049
G1 F1350 X111.718 Y117.949 E46.93004
G0 F7500 X112.284 Y117.949
G1 F1350 X108.184 Y122.049 E47.09397
G0 F7500 X108.75 Y122.049
G1 F1350 X112.849 Y117.949 E47.25787
G0 F7500 X113.415 Y117.949
G1 F1350 X109.315 Y122.049 E47.42179
G0 F7500 X109.881 Y122.049
G1 F1350 X113.981 Y117.949 E47.58572
G0 F7500 X114.547 Y117.949
G1 F1350 X110.447 Y122.049 E47.74964
G0 F7500 X111.012 Y122.049
G1 F1350 X115.112 Y117.949 E47.91356
G0 F7500 X115.678 Y117.949
G1 F1350 X111.578 Y122.049 E48.07749
G0 F7500 X112.144 Y122.049
G1 F1350 X116.244 Y117.949 E48.24141
G0 F7500 X116.809 Y117.949
G1 F1350 X112.709 Y122.049 E48.40534
G0 F7500 X113.275 Y122.049
G1 F1350 X117.375 Y117.949 E48.56926
G0 F7500 X117.941 Y117.949
G1 F1350 X113.841 Y122.049 E48.73318
G0 F7500 X114.407 Y122.049
G1 F1350 X118.506 Y117.949 E48.89709
G0 F7500 X119.072 Y117.949
G1 F1350 X114.972 Y122.049 E49.06101
G0 F7500 X115.538 Y122.049
G1 F1350 X119.638 Y117.949 E49.22493
G0 F7500 X120.203 Y117.949
G1 F1350 X116.104 Y122.049 E49.38884
G0 F7500 X116.669 Y122.049
G1 F1350 X120.769 Y117.949 E49.55276
G0 F7500 X121.212 Y118.072
G1 F1350 X117.235 Y122.049 E49.71177
G0 F7500 X117.801 Y122.049
G1 F1350 X121.212 Y118.638 E49.84814
G0 F7500 X121.212 Y119.204
G1 F1350 X118.366 Y122.049 E49.96191
G0 F7500 X118.932 Y122.049
G1 F1350 X121.212 Y119.769 E50.05307
G0 F7500 X121.213 Y120.334
G1 F1350 X119.498 Y122.049 E50.12164
G0 F7500 X120.063 Y122.049
G1 F1350 X121.214 Y120.898 E50.16766
G0 F7500 X121.214 Y121.464
G1 F1350 X120.629 Y122.049 E50.19104
G1 F2100 E49.19104
;MESH:NONMESH
G0 F300 X120.629 Y122.049 Z0.6
G0 F7500 X78.1 Y117.4
;TIME_ELAPSED:111.506382
;LAYER:2
M106 S170
;TYPE:WALL-INNER
;MESH:Gaurd_Arm.stl
G1 F2100 E50.19104
G1 F1500 X78.299 Y117.4 E50.19667
G1 X121.899 Y117.4 E51.42929
G1 X121.899 Y119.667 E51.49338
G1 X121.903 Y121.32 E51.54011
G1 X121.901 Y122.6 E51.5763
G1 X78.098 Y122.6 E52.81466
G1 X78.096 Y121.365 E52.84958
G1 X78.101 Y119.736 E52.89563
G1 X78.1 Y117.599 E52.95604
G1 X78.1 Y117.4 E52.95968
G0 F9000 X77.7 Y117
G1 F1500 X77.899 Y117 E52.96531
G1 X122.299 Y117 E54.22055
G1 X122.299 Y119.667 E54.29595
G1 X122.303 Y121.32 E54.34268
G1 X122.301 Y123 E54.39017
G1 X77.699 Y123 E55.65112
