;FLAVOR:Marlin
;TIME:3393
;Filament used: 2.05085m
;Layer height: 0.2
;MINX:76.4
;MINY:100.339
;MINZ:0.2
;MAXX:124.465
;MAXY:134.665
;MAXZ:12.6
;Generated with Cura_SteamEngine master
M82 ;absolute extrusion mode
; Ender 3 Custom Start G-code
M140 S70 ; Set Heat Bed temperature
M104 S160 ; start warming extruder to 160
G28 ; Home all axes
; G29 ; Auto bed-level (BL-Touch)
G92 E0 ; Reset Extruder
M190 S70 ; Wait for Heat Bed temperature
M104 S210 ; Set Extruder temperature
G1 X0 Y0 Z0.3 F5000.0 ; Move to 0 0
M109 S210 ; Wait for Extruder temperature
G1 X3 Y20 Z0.3 F5000.0 ; Move to start position
; G1 Z2.0 F3000 ; Move Z Axis up little to prevent scratching of Heat Bed
G1 X3 Y200.0 Z0.3 F1500.0 E15 ; Draw the first line
G1 X3.3 Y200.0 Z0.3 F5000.0 ; Move to side a little
G1 X3.3 Y20 Z0.3 F1500.0 E30 ; Draw the second line
G92 E0 ; Reset Extruder
G1 Z2.0 F3000 ; Move Z Axis up little to prevent scratching of Heat Bed
G92 E0
G92 E0
G1 F2100 E-1
;LAYER_COUNT:63
;LAYER:0
M107
M204 S500
M205 X8 Y8
;MESH:Needle_Gaurd.stl
G0 F6000 X87.225 Y119.901 Z0.2
;TYPE:WALL-INNER
G1 F2100 E0
G1 F1200 X87.225 Y120.4 E0.01199
G1 X90.7 Y120.4 E0.0955
G1 X90.7 Y103.6 E0.49921
G1 X90.7 Y102.4 E0.52805
G1 X93.9 Y102.4 E0.60494
G1 X93.9 Y103.6 E0.63378
G1 X90.9 Y103.6 E0.70587
G1 X90.9 Y120.4 E0.90823
G1 X122.4 Y120.4 E1.66519
G1 X122.4 Y132.6 E1.95836
G1 X77.6 Y132.6 E3.03493
G1 X77.6 Y120.4 E3.3281
G1 X87.025 Y120.4 E3.55459
G1 X87.025 Y119.899 E3.56063
G1 X87.131 Y119.9 E3.56318
G1 X87.225 Y119.901 E3.56544
G0 F6000 X87.135 Y119.51
G1 F1200 X87.397 Y119.472 E3.5718
G1 X87.398 Y119.471 E3.57183
G1 X87.625 Y119.44 E3.57734
G1 X87.625 Y119.669 E3.58077
G1 X87.625 Y119.67 E3.58079
G1 X87.625 Y120 E3.58872
G1 X90.3 Y120 E3.65301
G1 X90.3 Y102 E4.08555
G1 X94.3 Y102 E4.18168
G1 X94.3 Y104 E4.22974
G1 X91.3 Y104 E4.30183
G1 X91.3 Y120 E4.68631
G1 X122.8 Y120 E5.44327
G1 X122.8 Y133 E5.75567
G1 X77.2 Y133 E6.85146
G1 X77.2 Y120 E7.16385
G1 X86.625 Y120 E7.39034
G1 X86.625 Y119.67 E7.39827
G1 X86.625 Y119.669 E7.39829
G1 X86.625 Y119.443 E7.40373
G1 X86.85 Y119.472 E7.40713
G1 X87.135 Y119.51 E7.41404
G0 F6000 X87.133 Y119.106
G1 F1200 X87.549 Y119.047 E7.42413
G1 X87.721 Y118.974 E7.42862
G1 X87.935 Y118.885 E7.43419
G1 X88.025 Y118.815 E7.43693
G1 X88.025 Y118.885
G1 X88.025 Y119.117 E7.44072
G1 X88.025 Y119.6 E7.45232
G1 X89.9 Y119.6 E7.49738
G1 X89.9 Y101.6 E7.92993
G1 X94.7 Y101.6 E8.04527
G1 X94.7 Y104.4 E8.11256
G1 X91.7 Y104.4 E8.18465
G1 X91.7 Y119.6 E8.54991
G1 X123.2 Y119.6 E9.30687
G1 X123.2 Y133.4 E9.63849
G1 X76.8 Y133.4 E10.75351
G1 X76.8 Y119.6 E11.08513
G1 X86.225 Y119.6 E11.31161
G1 X86.225 Y119.116 E11.32324
G1 X86.225 Y118.89 E11.32867
G1 X86.225 Y118.816 E11.33045
G1 X86.322 Y118.89 E11.33153
G1 X86.53 Y118.976 E11.33523
G1 X86.71 Y119.051 E11.33992
G1 X87.133 Y119.106 E11.35017
G1 F2100 E10.35017
G0 F6000 X87.851 Y118.745
G0 X88.213 Y118.445
G0 X88.366 Y117.492
G0 X88.321 Y117.173
G0 X88.196 Y116.874
G0 X87.994 Y116.616
G0 X87.759 Y116.438
G0 X87.726 Y116.459
;TYPE:WALL-OUTER
G1 F2100 E11.35017
G1 F1200 X87.436 Y116.339 E11.35771
G1 X87.119 Y116.298 E11.36539
G1 X86.808 Y116.342 E11.37294
G1 X86.519 Y116.463 E11.38047
G1 X86.272 Y116.655 E11.38799
G1 X86.084 Y116.899 E11.39539
G1 X85.964 Y117.189 E11.40293
G1 X85.923 Y117.506 E11.41061
G1 X85.967 Y117.817 E11.41816
G1 X86.088 Y118.106 E11.42569
G1 X86.28 Y118.353 E11.43321
G1 X86.524 Y118.541 E11.44061
G1 X86.814 Y118.661 E11.44815
G1 X87.131 Y118.702 E11.45583
G1 X87.442 Y118.658 E11.46338
G1 X87.731 Y118.537 E11.47091
G1 X87.978 Y118.345 E11.47843
G1 X88.166 Y118.101 E11.48583
G1 X88.286 Y117.811 E11.49337
G1 X88.327 Y117.494 E11.50105
G1 X88.283 Y117.183 E11.5086
G1 X88.162 Y116.894 E11.51613
G1 X87.97 Y116.647 E11.52365
G1 X87.726 Y116.459 E11.53105
G1 F2100 E10.53105
G0 F6000 X87.776 Y116.373
G0 X89.688 Y110.943
G0 X89.72 Y103.237
G0 X94.83 Y104.53
G0 X95.1 Y104.8
G1 F2100 E11.53105
G1 F1200 X92.1 Y104.8 E11.60314
G1 X92.1 Y119.2 E11.94918
G1 X123.6 Y119.2 E12.70614
G1 X123.6 Y133.8 E13.05698
G1 X76.4 Y133.8 E14.19122
G1 X76.4 Y119.2 E14.54206
G1 X85.825 Y119.2 E14.76855
G1 X85.825 Y117.506 E14.80926
G1 X85.855 Y117.227 E14.816
G1 X85.937 Y116.973 E14.82242
G1 X86.072 Y116.739 E14.82891
G1 X86.257 Y116.533 E14.83556
G1 X86.473 Y116.377 E14.84196
G1 X86.725 Y116.264 E14.8486
G1 X86.99 Y116.208 E14.85511
G1 X87.259 Y116.208 E14.86157
G1 X87.527 Y116.265 E14.86816
G1 X87.773 Y116.375 E14.87463
G1 X87.993 Y116.535 E14.88117
G1 X88.177 Y116.739 E14.88777
G1 X88.31 Y116.968 E14.89414
G1 X88.395 Y117.238 E14.90094
G1 X88.425 Y117.512 E14.90756
G1 X88.425 Y119.2 E14.94813
G1 X89.5 Y119.2 E14.97396
G1 X89.5 Y101.2 E15.40651
G1 X95.1 Y101.2 E15.54108
G1 X95.1 Y104.8 E15.62759
G0 F6000 X94.83 Y104.53
G0 X93.51 Y103.21
;TYPE:SKIN
G1 F1200 X91.09 Y103.21 E15.68574
G1 X91.09 Y102.79 E15.69583
G1 X93.51 Y102.79 E15.75399
G1 X93.51 Y103.21 E15.76408
G0 F6000 X92.866 Y103.048
G1 F1200 X92.767 Y102.949 E15.76744
G0 F6000 X92.3 Y103.048
G1 F1200 X92.201 Y102.949 E15.77081
G0 F6000 X91.735 Y103.048
G1 F1200 X91.636 Y102.949 E15.77417
G1 F2100 E14.77417
G0 F6000 X89.728 Y119.428
G0 X88.197 Y119.428
G0 X88.204 Y118.435
G0 X88.386 Y117.514
G0 X88.275 Y116.986
G0 X87.967 Y116.565
G0 X87.516 Y116.304
G0 X86.996 Y116.247
G0 X86.284 Y116.562
G0 X85.973 Y116.989
G0 X85.864 Y117.507
G0 X86.046 Y118.437
G0 X86.053 Y119.428
G0 X77.99 Y120.79
G1 F2100 E15.77417
G1 F1200 X122.01 Y120.79 E16.83199
G1 X122.01 Y132.21 E17.10642
G1 X77.99 Y132.21 E18.16424
G1 X77.99 Y120.79 E18.43867
G0 F6000 X78.309 Y132.049
G1 F1200 X78.149 Y131.889 E18.44411
G0 F6000 X78.149 Y131.323
G1 F1200 X78.874 Y132.049 E18.46876
G0 F6000 X79.44 Y132.049
G1 F1200 X78.149 Y130.758 E18.51263
G0 F6000 X78.149 Y130.192
G1 F1200 X80.006 Y132.049 E18.57574
G0 F6000 X80.571 Y132.049
G1 F1200 X78.149 Y129.626 E18.65807
G0 F6000 X78.149 Y129.061
G1 F1200 X81.137 Y132.049 E18.75961
G0 F6000 X81.703 Y132.049
G1 F1200 X78.149 Y128.495 E18.88039
G0 F6000 X78.149 Y127.929
G1 F1200 X82.269 Y132.049 E19.02041
G0 F6000 X82.834 Y132.049
G1 F1200 X78.149 Y127.364 E19.17963
G0 F6000 X78.149 Y126.798
G1 F1200 X83.4 Y132.049 E19.35808
G0 F6000 X83.966 Y132.049
G1 F1200 X78.149 Y126.232 E19.55576
G0 F6000 X78.149 Y125.667
G1 F1200 X84.531 Y132.049 E19.77265
G0 F6000 X85.097 Y132.049
G1 F1200 X78.149 Y125.101 E20.00877
G0 F6000 X78.149 Y124.535
G1 F1200 X85.663 Y132.049 E20.26413
G0 F6000 X86.228 Y132.049
G1 F1200 X78.149 Y123.969 E20.5387
G0 F6000 X78.149 Y123.404
G1 F1200 X86.794 Y132.049 E20.8325
G0 F6000 X87.36 Y132.049
G1 F1200 X78.149 Y122.838 E21.14553
G0 F6000 X78.149 Y122.272
G1 F1200 X87.925 Y132.049 E21.47777
G0 F6000 X88.491 Y132.049
G1 F1200 X78.149 Y121.707 E21.82924
G0 F6000 X78.149 Y121.141
G1 F1200 X89.057 Y132.049 E22.19994
G0 F6000 X89.622 Y132.049
G1 F1200 X78.523 Y120.949 E22.57714
G0 F6000 X79.089 Y120.949
G1 F1200 X90.188 Y132.049 E22.95435
G0 F6000 X90.754 Y132.049
G1 F1200 X79.654 Y120.949 E23.33158
G0 F6000 X80.22 Y120.949
G1 F1200 X91.32 Y132.049 E23.7088
G0 F6000 X91.885 Y132.049
G1 F1200 X80.786 Y120.949 E24.08601
G0 F6000 X81.351 Y120.949
G1 F1200 X92.451 Y132.049 E24.46323
G0 F6000 X93.017 Y132.049
G1 F1200 X81.917 Y120.949 E24.84046
G0 F6000 X82.483 Y120.949
G1 F1200 X93.582 Y132.049 E25.21766
G0 F6000 X94.148 Y132.049
G1 F1200 X83.048 Y120.949 E25.59489
G0 F6000 X83.614 Y120.949
G1 F1200 X94.714 Y132.049 E25.97211
G0 F6000 X95.279 Y132.049
G1 F1200 X84.18 Y120.949 E26.34932
G0 F6000 X84.746 Y120.949
G1 F1200 X95.845 Y132.049 E26.72653
G0 F6000 X96.411 Y132.049
G1 F1200 X85.311 Y120.949 E27.10375
G0 F6000 X85.877 Y120.949
G1 F1200 X96.976 Y132.049 E27.48096
G0 F6000 X97.542 Y132.049
G1 F1200 X86.443 Y120.949 E27.85817
G0 F6000 X87.008 Y120.949
G1 F1200 X98.108 Y132.049 E28.23539
G0 F6000 X98.673 Y132.049
G1 F1200 X87.574 Y120.949 E28.6126
G0 F6000 X88.14 Y120.949
G1 F1200 X99.239 Y132.049 E28.98981
G0 F6000 X99.805 Y132.049
G1 F1200 X88.705 Y120.949 E29.36703
G0 F6000 X89.271 Y120.949
G1 F1200 X100.37 Y132.049 E29.74424
G0 F6000 X100.936 Y132.049
G1 F1200 X89.837 Y120.949 E30.12145
G0 F6000 X90.402 Y120.949
G1 F1200 X101.502 Y132.049 E30.49867
G0 F6000 X102.068 Y132.049
G1 F1200 X90.968 Y120.949 E30.87589
G0 F6000 X91.534 Y120.949
G1 F1200 X102.633 Y132.049 E31.2531
G0 F6000 X103.199 Y132.049
G1 F1200 X92.099 Y120.949 E31.63033
G0 F6000 X92.665 Y120.949
G1 F1200 X103.765 Y132.049 E32.00755
G0 F6000 X104.33 Y132.049
G1 F1200 X93.231 Y120.949 E32.38476
G0 F6000 X93.797 Y120.949
G1 F1200 X104.896 Y132.049 E32.76197
G0 F6000 X105.462 Y132.049
G1 F1200 X94.362 Y120.949 E33.13919
G0 F6000 X94.928 Y120.949
G1 F1200 X106.027 Y132.049 E33.5164
G0 F6000 X106.593 Y132.049
G1 F1200 X95.494 Y120.949 E33.89361
G0 F6000 X96.059 Y120.949
G1 F1200 X107.159 Y132.049 E34.27083
G0 F6000 X107.724 Y132.049
G1 F1200 X96.625 Y120.949 E34.64804
G0 F6000 X97.191 Y120.949
G1 F1200 X108.29 Y132.049 E35.02524
G0 F6000 X108.856 Y132.049
G1 F1200 X97.756 Y120.949 E35.40247
G0 F6000 X98.322 Y120.949
G1 F1200 X109.421 Y132.049 E35.77968
G0 F6000 X109.987 Y132.049
G1 F1200 X98.888 Y120.949 E36.15688
G0 F6000 X99.453 Y120.949
G1 F1200 X110.553 Y132.049 E36.53411
G0 F6000 X111.119 Y132.049
G1 F1200 X100.019 Y120.949 E36.91133
G0 F6000 X100.585 Y120.949
G1 F1200 X111.684 Y132.049 E37.28854
G0 F6000 X112.25 Y132.049
G1 F1200 X101.15 Y120.949 E37.66576
G0 F6000 X101.716 Y120.949
G1 F1200 X112.816 Y132.049 E38.04299
G0 F6000 X113.381 Y132.049
G1 F1200 X102.282 Y120.949 E38.4202
G0 F6000 X102.847 Y120.949
G1 F1200 X113.947 Y132.049 E38.79742
G0 F6000 X114.513 Y132.049
G1 F1200 X103.413 Y120.949 E39.17465
G0 F6000 X103.979 Y120.949
G1 F1200 X115.078 Y132.049 E39.55185
G0 F6000 X115.644 Y132.049
G1 F1200 X104.545 Y120.949 E39.92906
G0 F6000 X105.11 Y120.949
G1 F1200 X116.21 Y132.049 E40.30628
G0 F6000 X116.775 Y132.049
G1 F1200 X105.676 Y120.949 E40.68349
G0 F6000 X106.242 Y120.949
G1 F1200 X117.341 Y132.049 E41.0607
G0 F6000 X117.907 Y132.049
G1 F1200 X106.807 Y120.949 E41.43792
G0 F6000 X107.373 Y120.949
G1 F1200 X118.472 Y132.049 E41.81513
G0 F6000 X119.038 Y132.049
G1 F1200 X107.939 Y120.949 E42.19234
G0 F6000 X108.504 Y120.949
G1 F1200 X119.604 Y132.049 E42.56956
G0 F6000 X120.169 Y132.049
G1 F1200 X109.07 Y120.949 E42.94677
G0 F6000 X109.636 Y120.949
G1 F1200 X120.735 Y132.049 E43.32398
G0 F6000 X121.301 Y132.049
G1 F1200 X110.201 Y120.949 E43.7012
G0 F6000 X110.767 Y120.949
G1 F1200 X121.85 Y132.032 E44.07785
G0 F6000 X121.85 Y131.466
G1 F1200 X111.333 Y120.949 E44.43526
G0 F6000 X111.898 Y120.949
G1 F1200 X121.85 Y130.901 E44.77347
G0 F6000 X121.85 Y130.335
G1 F1200 X112.464 Y120.949 E45.09245
G0 F6000 X113.03 Y120.949
G1 F1200 X121.85 Y129.769 E45.39219
G0 F6000 X121.85 Y129.203
G1 F1200 X113.595 Y120.949 E45.67271
G0 F6000 X114.161 Y120.949
G1 F1200 X121.85 Y128.638 E45.93401
G0 F6000 X121.85 Y128.072
G1 F1200 X114.727 Y120.949 E46.17608
G0 F6000 X115.293 Y120.949
G1 F1200 X121.85 Y127.506 E46.39892
G0 F6000 X121.85 Y126.941
G1 F1200 X115.858 Y120.949 E46.60255
G0 F6000 X116.424 Y120.949
G1 F1200 X121.85 Y126.375 E46.78695
G0 F6000 X121.85 Y125.809
G1 F1200 X116.99 Y120.949 E46.95211
G0 F6000 X117.555 Y120.949
G1 F1200 X121.85 Y125.244 E47.09808
G0 F6000 X121.85 Y124.678
G1 F1200 X118.121 Y120.949 E47.2248
G0 F6000 X118.687 Y120.949
G1 F1200 X121.85 Y124.112 E47.33229
G0 F6000 X121.85 Y123.547
G1 F1200 X119.252 Y120.949 E47.42059
G0 F6000 X119.818 Y120.949
G1 F1200 X121.85 Y122.981 E47.48964
G0 F6000 X121.85 Y122.415
G1 F1200 X120.384 Y120.949 E47.53946
G0 F6000 X120.949 Y120.949
G1 F1200 X121.85 Y121.85 E47.57008
G0 F6000 X121.85 Y121.284
G1 F1200 X121.515 Y120.949 E47.58147
G1 F2100 E46.58147
G0 F6000 X88.197 Y119.428
G0 X88.125 Y118.513
G0 X88.198 Y118.462
;TYPE:SKIN
G1 F2100 E47.58147
G1 F1200 X88.075 Y118.622 E47.58216
G1 X87.801 Y119.197 E47.58435
G1 X87.427 Y119.671 E47.58642
G1 X86.881 Y119.691 E47.5883
G1 X86.422 Y119.232 E47.59053
G1 X86.073 Y118.6 E47.59301
M104 S210
G0 F6000 X86.093 Y118.966
;MESH:NONMESH
G0 F300 X86.093 Y118.966 Z0.4
G0 F6000 X86.125 Y118.966
G0 X87.225 Y119.9
;TIME_ELAPSED:116.456853
;LAYER:1
M140 S65
M106 S85
;TYPE:WALL-INNER
;MESH:Needle_Gaurd.stl
G1 F1350 X87.225 Y120.4 E47.60715
G1 X90.7 Y120.4 E47.70539
G1 X90.7 Y103.6 E48.18035
G1 X90.7 Y102.4 E48.21427
G1 X93.9 Y102.4 E48.30474
G1 X93.9 Y103.6 E48.33866
G1 X90.9 Y103.6 E48.42348
G1 X90.9 Y120.4 E48.66155
G1 X122.4 Y120.4 E49.55209
G1 X122.4 Y132.6 E49.897
G1 X77.6 Y132.6 E51.16354
G1 X77.6 Y120.4 E51.50845
G1 X87.025 Y120.4 E51.77491
G1 X87.025 Y119.893 E51.78214
G1 X87.142 Y119.897 E51.78545
G1 X87.225 Y119.9 E51.7878
G0 F7500 X87.156 Y119.506
G1 F1350 X87.398 Y119.47 E51.79471
G1 X87.625 Y119.437 E51.8012
G1 X87.625 Y119.666 E51.80523
G1 X87.625 Y119.667 E51.80526
G1 X87.625 Y120 E51.81467
G1 X90.3 Y120 E51.8903
G1 X90.3 Y102 E52.39918
G1 X94.3 Y102 E52.51226
G1 X94.3 Y104 E52.5688
G1 X91.3 Y104 E52.65362
G1 X91.3 Y120 E53.10595
G1 X122.8 Y120 E53.99649
G1 X122.8 Y133 E54.36402
G1 X77.2 Y133 E55.65318
G1 X77.2 Y120 E56.02071
G1 X86.625 Y120 E56.28716
G1 X86.625 Y119.66 E56.29677
G1 X86.625 Y119.442 E56.30294
G1 X86.635 Y119.446 E56.30324
G1 X86.851 Y119.47 E56.30715
G1 X87.156 Y119.506 E56.31583
G0 F7500 X87.15 Y119.103
G1 F1350 X87.565 Y119.042 E56.32769
G1 X87.724 Y118.973 E56.33259
G1 X87.95 Y118.875 E56.33955
G1 X88.025 Y118.815 E56.34227
G1 X88.025 Y118.875
G1 X88.025 Y119.121 E56.34687
G1 X88.025 Y119.6 E56.36041
G1 X89.9 Y119.6 E56.41342
G1 X89.9 Y101.6 E56.9223
G1 X94.7 Y101.6 E57.058
G1 X94.7 Y104.4 E57.13716
G1 X91.7 Y104.4 E57.22197
G1 X91.7 Y119.6 E57.65169
G1 X123.2 Y119.6 E58.54223
G1 X123.2 Y133.4 E58.93237
G1 X76.8 Y133.4 E60.24415
G1 X76.8 Y119.6 E60.63429
G1 X86.225 Y119.6 E60.90075
G1 X86.225 Y119.105 E60.91474
G1 X86.225 Y118.9 E60.92054
G1 X86.225 Y118.81 E60.92308
G1 X86.346 Y118.9 E60.92474
G1 X86.536 Y118.976 E60.92885
G1 X86.734 Y119.055 E60.93488
G1 X87.15 Y119.103 E60.94672
G1 F2100 E59.94672
G0 F7500 X87.867 Y118.736
G0 X88.21 Y118.437
G0 X88.365 Y117.481
G0 X88.317 Y117.159
G0 X88.189 Y116.863
G0 X87.838 Y116.499
G0 X87.708 Y116.452
;TYPE:WALL-OUTER
G1 F2100 E60.94672
G1 F1350 X87.417 Y116.336 E60.95557
G1 X87.106 Y116.3 E60.96443
G1 X86.796 Y116.346 E60.97329
G1 X86.508 Y116.471 E60.98216
G1 X86.263 Y116.666 E60.99101
G1 X86.077 Y116.917 E60.99985
G1 X85.961 Y117.208 E61.0087
G1 X85.925 Y117.519 E61.01755
G1 X85.971 Y117.829 E61.02641
G1 X86.096 Y118.117 E61.03529
G1 X86.291 Y118.362 E61.04414
G1 X86.542 Y118.548 E61.05297
G1 X86.833 Y118.664 E61.06183
G1 X87.144 Y118.7 E61.07068
G1 X87.454 Y118.654 E61.07954
G1 X87.742 Y118.529 E61.08842
G1 X87.987 Y118.334 E61.09727
G1 X88.173 Y118.083 E61.1061
G1 X88.289 Y117.792 E61.11496
G1 X88.325 Y117.481 E61.12381
G1 X88.279 Y117.171 E61.13267
G1 X88.154 Y116.883 E61.14155
G1 X87.959 Y116.638 E61.1504
G1 X87.708 Y116.452 E61.15923
G1 F2100 E60.15923
G0 F7500 X87.756 Y116.365
G0 X89.689 Y110.918
G0 X89.72 Y103.232
G0 X94.83 Y104.53
G0 X95.1 Y104.8
G1 F2100 E61.15923
G1 F1350 X92.1 Y104.8 E61.24404
G1 X92.1 Y119.2 E61.65115
G1 X123.6 Y119.2 E62.54169
G1 X123.6 Y133.8 E62.95445
G1 X76.4 Y133.8 E64.28884
G1 X76.4 Y119.2 E64.7016
G1 X85.825 Y119.2 E64.96806
G1 X85.825 Y117.512 E65.01578
G1 X85.855 Y117.227 E65.02388
G1 X85.937 Y116.973 E65.03143
G1 X86.072 Y116.739 E65.03906
G1 X86.257 Y116.533 E65.04689
G1 X86.473 Y116.377 E65.05442
G1 X86.725 Y116.264 E65.06223
G1 X86.99 Y116.208 E65.06989
G1 X87.259 Y116.208 E65.07749
G1 X87.527 Y116.265 E65.08524
G1 X87.773 Y116.375 E65.09286
G1 X87.993 Y116.535 E65.10055
G1 X88.177 Y116.739 E65.10831
G1 X88.311 Y116.972 E65.11591
G1 X88.395 Y117.229 E65.12356
G1 X88.425 Y117.512 E65.1316
G1 X88.425 Y119.2 E65.17932
G1 X89.5 Y119.2 E65.20972
G1 X89.5 Y101.2 E65.7186
G1 X95.1 Y101.2 E65.87691
G1 X95.1 Y104.8 E65.97869
G0 F7500 X94.83 Y104.53
G0 X93.51 Y103.21
;TYPE:SKIN
G1 F1350 X91.09 Y103.21 E66.04711
G1 X91.09 Y102.79 E66.05898
G1 X93.51 Y102.79 E66.1274
G1 X93.51 Y103.21 E66.13927
G0 F7500 X93.343 Y102.949
G1 F1350 X93.244 Y103.048 E66.14323
G0 F7500 X92.777 Y102.949
G1 F1350 X92.678 Y103.048 E66.14719
G0 F7500 X92.211 Y102.949
