;FLAVOR:Marlin
;TIME:3042
;Filament used: 0.638822m
;Layer height: 0.2
;MINX:95.352
;MINY:112.844
;MINZ:0.2
;MAXX:104.623
;MAXY:122.152
;MAXZ:75.6
;Generated with Cura_SteamEngine master
M82 ;absolute extrusion mode
; Ender 3 Custom Start G-code
M140 S70 ; Set Heat Bed temperature
M104 S160 ; start warming extruder to 160
G28 ; Home all axes
; G29 ; Auto bed-level (BL-Touch)
G92 E0 ; Reset Extruder
M190 S70 ; Wait for Heat Bed temperature
M104 S210 ; Set Extruder temperature
G1 X0 Y0 Z0.3 F5000.0 ; Move to 0 0
M109 S210 ; Wait for Extruder temperature
G1 X3 Y20 Z0.3 F5000.0 ; Move to start position
; G1 Z2.0 F3000 ; Move Z Axis up little to prevent scratching of Heat Bed
G1 X3 Y200.0 Z0.3 F1500.0 E15 ; Draw the first line
G1 X3.3 Y200.0 Z0.3 F5000.0 ; Move to side a little
G1 X3.3 Y20 Z0.3 F1500.0 E30 ; Draw the second line
G92 E0 ; Reset Extruder
G1 Z2.0 F3000 ; Move Z Axis up little to prevent scratching of Heat Bed
G92 E0
G92 E0
G1 F2100 E-1
;LAYER_COUNT:379
;LAYER:0
M107
M204 S500
M205 X8 Y8
G0 F6000 X97.755 Y115.368 Z0.2
;TYPE:SKIRT
G1 F2100 E0
G1 F600 X98.055 Y115.256 E0.0077
G1 X98.32 Y114.924 E0.0179
G1 X98.679 Y114.749 E0.0275
G1 X98.407 Y114.91 E0.0351
G1 X98.219 Y115.084 E0.04125
G1 X97.721 Y115.799 E0.06219
G1 X97.516 Y115.728 E0.0674
G1 X97.616 Y115.514 E0.07308
G1 X97.755 Y115.368 E0.07792
G0 F6000 X97.763 Y114.955
G1 F600 X97.887 Y114.865 E0.08161
G1 X98.042 Y114.614 E0.0887
G1 X98.589 Y114.348 E0.10331
G1 X98.759 Y114.218 E0.10845
G1 X99.618 Y114.075 E0.12938
G1 X99.82 Y114 E0.13456
G1 X100.662 Y114.11 E0.15496
G1 X100.825 Y114.088 E0.15892
G1 X101.589 Y114.442 E0.17915
G1 X101.654 Y114.497 E0.1812
G1 X102.147 Y114.761 E0.19464
G1 X102.218 Y114.925 E0.19893
G1 X102.323 Y115.03 E0.2025
G1 X102.618 Y115.157 E0.21022
G1 X102.653 Y115.221 E0.21197
G1 X102.884 Y115.508 E0.22082
G1 X102.914 Y115.601 E0.22317
G1 X103.234 Y116.307 E0.2418
G1 X103.358 Y116.487 E0.24705
G1 X103.458 Y117.323 E0.26728
G1 X103.516 Y117.451 E0.27066
G1 X103.347 Y118.366 E0.29302
G1 X103.359 Y118.519 E0.29671
G1 X103.205 Y118.642 E0.30144
G1 X103.131 Y118.774 E0.30508
G1 X103.101 Y118.996 E0.31046
G1 X102.862 Y119.504 E0.32395
G1 X102.85 Y119.513 E0.32431
G1 X102.296 Y120.082 E0.3434
G1 X102.109 Y120.171 E0.34838
G1 X101.829 Y120.488 E0.35854
G1 X100.998 Y120.804 E0.3799
G1 X100.778 Y120.892 E0.3856
G1 X100.022 Y120.925 E0.40378
G1 X99.744 Y120.986 E0.41062
G1 X99.467 Y120.931 E0.41741
G1 X99.391 Y120.888 E0.41951
G1 X99.008 Y120.773 E0.42912
G1 X98.761 Y120.639 E0.43587
G1 X98.416 Y120.631 E0.44416
G1 X98.215 Y120.406 E0.45141
G1 X97.969 Y120.23 E0.45868
G1 X97.46 Y119.945 E0.4727
G1 X97.07 Y119.305 E0.49071
G1 X96.891 Y119.116 E0.49696
G1 X96.694 Y118.5 E0.5125
G1 X96.936 Y118.521 E0.51834
G1 X99.565 Y120.051 E0.59144
G1 X99.64 Y120.076 E0.59334
G1 X100.034 Y120.128 E0.60289
G1 X100.113 Y120.123 E0.60479
G1 X101.27 Y119.807 E0.63361
G1 X101.357 Y119.757 E0.63602
G1 X102.184 Y118.946 E0.66386
G1 X102.23 Y118.876 E0.66587
G1 X102.521 Y118.139 E0.68491
G1 X102.535 Y118.077 E0.68644
G1 X102.565 Y117.495 E0.70044
G1 X102.554 Y117.2 E0.70754
G1 X102.445 Y116.508 E0.72437
G1 X102.4 Y116.41 E0.72696
G1 X101.584 Y115.441 E0.7574
G1 X101.522 Y115.392 E0.7593
G1 X100.884 Y115.067 E0.77651
G1 X100.837 Y115.05 E0.77771
G1 X100.221 Y114.911 E0.79289
G1 X100.156 Y114.907 E0.79445
G1 X99.033 Y115.026 E0.82159
G1 X98.952 Y115.053 E0.82364
G1 X98.61 Y115.255 E0.83318
G1 X98.548 Y115.313 E0.83522
G1 X97.877 Y116.277 E0.86345
G1 X97.237 Y116.055 E0.87973
G1 X96.923 Y116.056 E0.88727
G1 X96.959 Y115.889 E0.89138
G1 X96.946 Y115.817 E0.89314
G1 X97.181 Y115.524 E0.90216
G1 X97.257 Y115.311 E0.9076
G1 X97.547 Y115.006 E0.91771
G1 X97.763 Y114.955 E0.92304
G0 F6000 X98.78 Y114.698
G1 F600 X98.927 Y114.595 E0.92736
G1 X99.683 Y114.47 E0.94577
G1 X99.87 Y114.411 E0.95048
G1 X100.611 Y114.507 E0.96844
G1 X100.766 Y114.501 E0.97217
G1 X101.398 Y114.794 E0.98891
G1 X101.465 Y114.85 E0.991
G1 X101.836 Y115.048 E1.00111
G1 X101.972 Y115.264 E1.00724
G1 X102.344 Y115.474 E1.01751
G1 X102.525 Y115.699 E1.02445
G1 X102.55 Y115.766 E1.02617
G1 X102.87 Y116.472 E1.04479
G1 X102.973 Y116.637 E1.04947
G1 X103.061 Y117.37 E1.06721
G1 X103.102 Y117.489 E1.07023
G1 X102.954 Y118.293 E1.08988
G1 X102.734 Y118.727 E1.10157
G1 X102.716 Y118.874 E1.10513
G1 X102.533 Y119.265 E1.1155
G1 X102.078 Y119.731 E1.13115
G1 X101.809 Y119.906 E1.13887
G1 X101.596 Y120.147 E1.14659
G1 X100.855 Y120.43 E1.16566
G1 X100.727 Y120.494 E1.16909
G1 X100.005 Y120.526 E1.18646
G1 X99.721 Y120.581 E1.19341
G1 X99.506 Y120.505 E1.19889
G1 X99.17 Y120.404 E1.20732
G1 X98.967 Y120.277 E1.21308
G1 X98.6 Y120.235 E1.22195
G1 X98.341 Y120.006 E1.23026
G1 X98.164 Y119.881 E1.23547
G1 X97.746 Y119.647 E1.24698
G1 X97.565 Y119.35 E1.25534
G1 X99.364 Y120.397 E1.30536
G1 X99.587 Y120.473 E1.31102
G1 X99.981 Y120.525 E1.32057
G1 X100.218 Y120.509 E1.32628
G1 X101.375 Y120.193 E1.3551
G1 X101.637 Y120.042 E1.36237
G1 X102.464 Y119.231 E1.3902
G1 X102.602 Y119.023 E1.3962
G1 X102.893 Y118.286 E1.41524
G1 X102.934 Y118.098 E1.41986
G1 X102.964 Y117.534 E1.43344
G1 X102.965 Y117.482 E1.43469
G1 X102.956 Y117.211 E1.4412
G1 X102.949 Y117.138 E1.44296
G1 X102.84 Y116.446 E1.4598
G1 X102.706 Y116.153 E1.46754
G1 X101.89 Y115.184 E1.49798
G1 X101.703 Y115.035 E1.50373
G1 X101.065 Y114.71 E1.52093
G1 X100.925 Y114.66 E1.52451
G1 X100.309 Y114.521 E1.53968
G1 X100.114 Y114.509 E1.54438
G1 X98.991 Y114.628 E1.57151
G1 X98.78 Y114.698 E1.57686
G1 F2100 E0.57686
;MESH:Spring.stl
G0 F6000 X97.429 Y116.477
G0 X97.146 Y117.297
G0 X97.165 Y117.3
M104 S210
;TYPE:WALL-OUTER
G1 F2100 E1.57686
G1 F600 X96.749 Y117.3 E1.58685
G1 X96.843 Y117.253 E1.58938
G1 X97.009 Y117.246 E1.59337
G1 X97.165 Y117.3 E1.59734
G1 F2100 E0.59734
;MESH:NONMESH
G0 F300 X97.165 Y117.3 Z0.4
G0 F6000 X97.03 Y117.306
G0 X97.541 Y115.011
;TIME_ELAPSED:11.716725
;LAYER:1
M140 S65
M106 S85
;TYPE:SUPPORT
G1 F2100 E1.59734
G1 F600 X97.582 Y115.001 E1.59853
G1 X97.974 Y114.725 E1.61208
G1 X98.042 Y114.614 E1.61577
G1 X98.611 Y114.337 E1.63366
G1 X98.76 Y114.217 E1.63906
G1 X99.638 Y114.072 E1.66422
G1 X99.816 Y114.001 E1.66964
G1 X100.694 Y114.115 E1.69467
G1 X100.826 Y114.088 E1.69848
G1 X101.583 Y114.438 E1.72206
G1 X101.613 Y114.477 E1.72345
G1 X102.148 Y114.762 E1.74059
G1 X102.25 Y114.998 E1.74786
G1 X102.617 Y115.157 E1.75916
G1 X102.631 Y115.196 E1.76033
G1 X102.884 Y115.51 E1.77173
G1 X102.908 Y115.59 E1.7741
G1 X103.243 Y116.325 E1.79693
G1 X103.358 Y116.487 E1.80255
G1 X103.464 Y117.364 E1.82752
G1 X103.516 Y117.45 E1.83036
G1 X103.341 Y118.398 E1.85762
G1 X103.359 Y118.519 E1.86108
G1 X103.14 Y118.694 E1.869
G1 X103.104 Y118.99 E1.87743
G1 X102.866 Y119.495 E1.89321
G1 X102.3 Y120.079 E1.91621
G1 X102.146 Y120.128 E1.92077
G1 X101.83 Y120.487 E1.9343
G1 X100.983 Y120.81 E1.95992
G1 X100.833 Y120.894 E1.96478
G1 X100.785 Y120.892 E1.96614
G1 X100.003 Y120.926 E1.98827
G1 X99.743 Y120.986 E1.99581
G1 X99.475 Y120.956 E2.00344
G1 X99.415 Y120.905 E2.00566
G1 X98.985 Y120.775 E2.01836
G1 X98.834 Y120.642 E2.02405
G1 X98.416 Y120.632 E2.03587
G1 X98.172 Y120.358 E2.04625
G1 X98.056 Y120.331 E2.04961
G1 X98.026 Y120.263 E2.05172
G1 X97.461 Y119.946 E2.07003
G1 X97.061 Y119.288 E2.0918
G1 X96.891 Y119.116 E2.09864
G1 X96.695 Y118.5 E2.11691
G1 X97.595 Y118.499 E2.14236
G1 X97.64 Y118.706 E2.14835
G1 X97.923 Y119.095 E2.16195
G1 X99.597 Y120.067 E2.21667
G1 X100.07 Y120.131 E2.23016
G1 X101.321 Y119.794 E2.26679
G1 X102.194 Y118.934 E2.30144
G1 X102.534 Y118.133 E2.32604
G1 X102.564 Y117.521 E2.34336
G1 X102.557 Y117.208 E2.35221
G1 X102.429 Y116.446 E2.37406
G1 X101.554 Y115.405 E2.4125
G1 X100.848 Y115.052 E2.43482
G1 X100.197 Y114.907 E2.45367
G1 X99.504 Y114.975 E2.47336
G1 X98.607 Y115.234 E2.49975
G1 X97.914 Y116.058 E2.53019
G1 X97.585 Y115.845 E2.54127
G1 X97.025 Y115.726 E2.55746
G1 X97.214 Y115.49 E2.56601
G1 X97.265 Y115.302 E2.57151
G1 X97.541 Y115.011 E2.58285
G0 F7500 X98 Y115.522
G1 F600 X98.447 Y114.989 E2.60252
G1 X99.451 Y114.699 E2.63206
G1 X100 Y114.646 E2.64766
G1 X100 Y114.308 E2.65721
G1 X100.704 Y114.399 E2.67728
G1 X100.79 Y114.381 E2.67976
G1 X101.404 Y114.665 E2.69889
G1 X101.429 Y114.696 E2.70002
G1 X101.93 Y114.964 E2.71608
G1 X102 Y115.126 E2.72107
G1 X102 Y115.5 E2.73164
G1 X102.692 Y116.324 E2.76206
G1 X102.837 Y117.181 E2.78663
G1 X102.844 Y117.525 E2.79636
G1 X102.811 Y118.196 E2.81535
G1 X102.43 Y119.095 E2.84296
G1 X102 Y119.518 E2.86001
G1 X102 Y119.882 E2.8703
G1 X102.148 Y119.833 E2.87471
G1 X102.634 Y119.332 E2.89444
G1 X102.831 Y118.913 E2.90753
G1 X102.876 Y118.547 E2.91796
G1 X103.058 Y118.401 E2.92455
G1 X103.057 Y118.393 E2.92478
G1 X103.221 Y117.503 E2.95037
G1 X103.194 Y117.457 E2.95187
G1 X103.088 Y116.591 E2.97654
G1 X102.999 Y116.465 E2.9809
G1 X102.645 Y115.689 E3.00501
G1 X102.63 Y115.641 E3.00644
G1 X102.416 Y115.375 E3.01609
G1 X102.037 Y115.211 E3.02776
G1 X102 Y115.126 E3.03038
G1 F2100 E2.03038
G0 F7500 X101.008 Y116.096
G0 X98.876 Y116.256
G0 X98 Y115.522
G1 F2100 E3.03038
G1 F600 X97.859 Y115.689 E3.03656
G1 X97.694 Y115.582 E3.04212
G1 X97.491 Y115.539 E3.04799
G1 X97.517 Y115.444 E3.05077
G1 X97.688 Y115.263 E3.05781
G1 X97.7 Y115.26 E3.05816
G1 X98 Y115.049 E3.06853
G1 X98 Y115.522 E3.0819
G1 F2100 E2.0819
G0 F7500 X98.876 Y116.256
G0 X98.776 Y118.591
G0 X98 Y119.927
G1 F2100 E3.0819
G1 F600 X98.244 Y120.064 E3.08981
G1 X98.256 Y120.09 E3.09062
G1 X98.322 Y120.106 E3.09254
G1 X98.544 Y120.355 E3.10197
G1 X98.943 Y120.365 E3.11326
G1 X99.124 Y120.525 E3.12009
G1 X99.552 Y120.654 E3.13273
G1 X99.591 Y120.687 E3.13417
G1 X99.729 Y120.702 E3.13809
G1 X99.965 Y120.647 E3.14495
G1 X100 Y120.646 E3.14594
G1 X100 Y120.405 E3.15275
G1 X100.088 Y120.416 E3.15526
G1 X101.465 Y120.045 E3.19557
G1 X102 Y119.518 E3.2168
G1 F2100 E2.2168
G0 F7500 X101.195 Y118.704
G0 X98.776 Y118.591
G0 X98 Y119.927
G1 F2100 E3.2168
G1 F600 X97.662 Y119.738 E3.22775
G1 X97.284 Y119.114 E3.24838
G1 X97.138 Y118.967 E3.25424
G1 X97.078 Y118.78 E3.25979
G1 X97.37 Y118.779 E3.26804
G1 X97.379 Y118.823 E3.26931
G1 X97.731 Y119.308 E3.28625
G1 X98 Y119.465 E3.29506
G1 X98 Y119.927 E3.30812
G1 F2100 E2.30812
;MESH:Spring.stl
G0 F7500 X97.478 Y117.291
G0 X97.496 Y117.299
;TYPE:WALL-OUTER
G1 F2100 E3.30812
G1 F600 X96.461 Y117.3 E3.33738
G1 X96.587 Y117.114 E3.34373
G1 X96.802 Y116.965 E3.35113
G1 X96.94 Y116.934 E3.35513
G1 X97.104 Y116.964 E3.35984
G1 X97.335 Y117.113 E3.36761
G1 X97.496 Y117.299 E3.37457
G1 F2100 E2.37457
;MESH:NONMESH
G0 F300 X97.496 Y117.299 Z0.6
G0 F7500 X97.407 Y117.199
G0 X97.097 Y116.982
G0 X97.533 Y115.018
;TIME_ELAPSED:20.051688
;LAYER:2
M106 S170
;TYPE:SUPPORT
G1 F2100 E3.37457
G1 F600 X97.578 Y115.008 E3.37587
G1 X97.973 Y114.733 E3.38948
G1 X98.049 Y114.61 E3.39356
G1 X98.614 Y114.335 E3.41133
G1 X98.761 Y114.217 E3.41666
G1 X99.638 Y114.072 E3.44179
G1 X99.813 Y114.001 E3.44713
G1 X100.698 Y114.115 E3.47235
G1 X100.827 Y114.088 E3.47608
G1 X101.581 Y114.438 E3.49958
G1 X101.61 Y114.476 E3.50093
G1 X102.149 Y114.763 E3.5182
G1 X102.251 Y114.998 E3.52544
G1 X102.617 Y115.156 E3.53671
G1 X102.631 Y115.197 E3.53793
G1 X102.885 Y115.512 E3.54937
G1 X102.907 Y115.586 E3.55156
G1 X103.242 Y116.323 E3.57444
G1 X103.358 Y116.489 E3.58017
G1 X103.464 Y117.363 E3.60506
G1 X103.516 Y117.449 E3.6079
G1 X103.341 Y118.399 E3.63521
G1 X103.359 Y118.521 E3.6387
G1 X103.142 Y118.694 E3.64654
G1 X103.107 Y118.979 E3.65466
G1 X102.865 Y119.497 E3.67082
G1 X102.301 Y120.078 E3.69372
G1 X102.147 Y120.127 E3.69828
G1 X101.831 Y120.486 E3.71181
G1 X100.98 Y120.812 E3.73757
G1 X100.833 Y120.894 E3.74233
G1 X100.782 Y120.892 E3.74377
G1 X99.999 Y120.926 E3.76593
G1 X99.74 Y120.986 E3.77344
G1 X99.467 Y120.956 E3.78121
G1 X99.41 Y120.909 E3.7833
G1 X98.986 Y120.777 E3.79585
G1 X98.835 Y120.642 E3.80158
G1 X98.416 Y120.632 E3.81343
G1 X98.171 Y120.357 E3.82384
G1 X98.054 Y120.33 E3.82723
G1 X98.025 Y120.264 E3.82927
G1 X97.462 Y119.948 E3.84752
G1 X97.06 Y119.286 E3.86942
G1 X96.891 Y119.115 E3.87622
G1 X96.695 Y118.5 E3.89447
G1 X97.595 Y118.5 E3.91991
G1 X97.64 Y118.706 E3.92587
G1 X97.923 Y119.095 E3.93947
G1 X99.611 Y120.075 E3.99465
G1 X100.086 Y120.136 E4.00819
G1 X101.328 Y119.785 E4.04468
G1 X102.193 Y118.937 E4.07892
G1 X102.533 Y118.135 E4.10355
G1 X102.564 Y117.524 E4.12085
G1 X102.557 Y117.209 E4.12975
G1 X102.429 Y116.445 E4.15165
G1 X101.547 Y115.397 E4.19038
G1 X100.861 Y115.061 E4.21197
G1 X100.213 Y114.905 E4.23082
G1 X99.502 Y114.976 E4.25102
G1 X98.604 Y115.237 E4.27746
G1 X98.094 Y115.843 E4.29985
G1 X98.077 Y115.825 E4.30055
G1 X97.583 Y115.516 E4.31702
G1 X97.227 Y115.454 E4.32724
G1 X97.268 Y115.298 E4.3318
G1 X97.533 Y115.018 E4.3427
G0 F9000 X98 Y115.446
G1 F600 X98.04 Y115.471 E4.34403
G1 X98.444 Y114.992 E4.36175
G1 X99.449 Y114.7 E4.39133
G1 X100 Y114.646 E4.40698
G1 X100 Y114.308 E4.41654
G1 X100.709 Y114.399 E4.43675
G1 X100.793 Y114.381 E4.43918
G1 X101.399 Y114.663 E4.45807
G1 X101.424 Y114.694 E4.4592
G1 X101.932 Y114.965 E4.47548
G1 X102 Y115.123 E4.48034
G1 X102 Y115.501 E4.49103
G1 X102.692 Y116.323 E4.5214
G1 X102.837 Y117.182 E4.54603
G1 X102.844 Y117.528 E4.55582
G1 X102.81 Y118.198 E4.57478
G1 X102.429 Y119.098 E4.60241
G1 X102 Y119.518 E4.61939
G1 X102 Y119.881 E4.62965
G1 X102.149 Y119.832 E4.63408
G1 X102.632 Y119.334 E4.6537
G1 X102.835 Y118.903 E4.66716
G1 X102.878 Y118.547 E4.6773
G1 X103.058 Y118.403 E4.68382
G1 X103.057 Y118.393 E4.6841
G1 X103.221 Y117.502 E4.70972
G1 X103.194 Y117.456 E4.71122
G1 X103.089 Y116.593 E4.7358
G1 X102.998 Y116.462 E4.74031
G1 X102.644 Y115.684 E4.76448
G1 X102.632 Y115.645 E4.76563
G1 X102.413 Y115.373 E4.7755
G1 X102.038 Y115.211 E4.78705
G1 X102 Y115.123 E4.78976
G1 F2100 E3.78976
G0 F9000 X101.003 Y116.092
G0 X98.913 Y116.211
G0 X98 Y115.446
G1 F2100 E4.78976
G1 F600 X97.704 Y115.262 E4.79961
G1 X98 Y115.054 E4.80984
G1 X98 Y115.446 E4.82092
G1 F2100 E3.82092
G0 F9000 X98.913 Y116.211
G0 X98.777 Y118.591
G0 X98 Y119.928
G1 F2100 E4.82092
G1 F600 X98.244 Y120.065 E4.82883
G1 X98.254 Y120.088 E4.82954
G1 X98.321 Y120.104 E4.83149
G1 X98.544 Y120.355 E4.84098
G1 X98.944 Y120.365 E4.8523
G1 X99.127 Y120.528 E4.85922
G1 X99.546 Y120.658 E4.87163
G1 X99.579 Y120.686 E4.87285
G1 X99.725 Y120.702 E4.877
G1 X99.961 Y120.647 E4.88385
G1 X100 Y120.646 E4.88496
G1 X100 Y120.408 E4.89168
G1 X100.107 Y120.421 E4.89473
G1 X101.473 Y120.035 E4.93486
G1 X102 Y119.518 E4.95573
G1 F2100 E3.95573
G0 F9000 X101.198 Y118.701
G0 X98.777 Y118.591
G0 X98 Y119.928
G1 F2100 E4.95573
G1 F600 X97.662 Y119.74 E4.96667
G1 X97.283 Y119.112 E4.9874
G1 X97.138 Y118.966 E4.99322
G1 X97.078 Y118.78 E4.99875
G1 X97.37 Y118.78 E5.007
G1 X97.38 Y118.824 E5.00828
G1 X97.731 Y119.308 E5.02518
G1 X98 Y119.465 E5.03399
G1 X98 Y119.928 E5.04708
G1 F2100 E4.04708
;MESH:Spring.stl
G0 F9000 X97.653 Y117.29
G0 X97.669 Y117.3
;TYPE:WALL-OUTER
G1 F2100 E5.04708
G1 F600 X96.317 Y117.3 E5.0853
G1 X96.349 Y117.188 E5.08859
G1 X96.488 Y116.944 E5.09653
G1 X96.755 Y116.686 E5.10703
G1 X96.953 Y116.624 E5.11289
G1 X97.133 Y116.65 E5.11803
G1 X97.295 Y116.748 E5.12339
G1 X97.449 Y116.913 E5.12977
G1 X97.587 Y117.127 E5.13697
G1 X97.669 Y117.3 E5.14238
G0 F9000 X97.167 Y116.966
;TYPE:SKIN
G1 F600 X96.922 Y117.004 E5.15042
G1 X96.708 Y117.073 E5.15771
G0 F9000 X96.814 Y116.9
G1 F2100 E4.15771
;MESH:NONMESH
G0 F300 X96.814 Y116.9 Z0.8
G0 F9000 X97.127 Y116.668
G0 X97.537 Y115.014
;TIME_ELAPSED:28.471995
;LAYER:3
M106 S255
;TYPE:SUPPORT
G1 F2100 E5.15771
G1 F600 X97.574 Y115.006 E5.15878
G1 X97.97 Y114.732 E5.17239
G1 X98.044 Y114.612 E5.17638
G1 X98.611 Y114.337 E5.19419
G1 X98.762 Y114.217 E5.19964
G1 X99.637 Y114.072 E5.22472
G1 X99.811 Y114.001 E5.23003
G1 X100.698 Y114.115 E5.25531
G1 X100.828 Y114.088 E5.25907
G1 X101.578 Y114.436 E5.28244
G1 X101.608 Y114.475 E5.28383
G1 X102.149 Y114.763 E5.30116
G1 X102.251 Y114.999 E5.30843
G1 X102.617 Y115.157 E5.3197
G1 X102.63 Y115.195 E5.32084
G1 X102.883 Y115.509 E5.33224
G1 X102.905 Y115.584 E5.33445
G1 X103.244 Y116.325 E5.35748
G1 X103.358 Y116.488 E5.36311
G1 X103.464 Y117.364 E5.38805
G1 X103.516 Y117.45 E5.39089
