;FLAVOR:Marlin
;TIME:170
;Filament used: 0.0864279m
;Layer height: 0.2
;MINX:92.052
;MINY:111.2
;MINZ:0.2
;MAXX:107.947
;MAXY:123.8
;MAXZ:1.8
;Generated with Cura_SteamEngine master
M82 ;absolute extrusion mode
; Ender 3 Custom Start G-code
M140 S70 ; Set Heat Bed temperature
M104 S160 ; start warming extruder to 160
G28 ; Home all axes
; G29 ; Auto bed-level (BL-Touch)
G92 E0 ; Reset Extruder
M190 S70 ; Wait for Heat Bed temperature
M104 S210 ; Set Extruder temperature
G1 X0 Y0 Z0.3 F5000.0 ; Move to 0 0
M109 S210 ; Wait for Extruder temperature
G1 X3 Y20 Z0.3 F5000.0 ; Move to start position
; G1 Z2.0 F3000 ; Move Z Axis up little to prevent scratching of Heat Bed
G1 X3 Y200.0 Z0.3 F1500.0 E15 ; Draw the first line
G1 X3.3 Y200.0 Z0.3 F5000.0 ; Move to side a little
G1 X3.3 Y20 Z0.3 F1500.0 E30 ; Draw the second line
G92 E0 ; Reset Extruder
G1 Z2.0 F3000 ; Move Z Axis up little to prevent scratching of Heat Bed
G92 E0
G92 E0
G1 F2100 E-1
;LAYER_COUNT:9
;LAYER:0
M107
M204 S500
M205 X8 Y8
;MESH:Syringe_Arm.stl
G0 F6000 X106.256 Y122.6 Z0.2
;TYPE:WALL-INNER
G1 F2100 E0
G1 F1200 X106.057 Y122.6 E0.00478
G1 X93.765 Y122.6 E0.30016
G1 X93.762 Y120.295 E0.35555
G1 X93.762 Y117.4 E0.42512
G1 X106.253 Y117.4 E0.72529
G1 X106.253 Y120.75 E0.80579
G1 X106.256 Y122.401 E0.84546
G1 X106.256 Y122.6 E0.84856
G0 F6000 X106.657 Y123
G1 F1200 X106.458 Y123 E0.85334
G1 X93.365 Y123 E1.16797
G1 X93.362 Y120.295 E1.23297
G1 X93.362 Y117 E1.31215
G1 X106.653 Y117 E1.63154
G1 X106.653 Y120.75 E1.72166
G1 X106.657 Y122.801 E1.77094
G1 X106.657 Y123 E1.77404
G0 F6000 X107.058 Y123.4
G1 F1200 X106.859 Y123.4 E1.77882
G1 X92.965 Y123.4 E2.1127
G1 X92.962 Y120.295 E2.18731
G1 X92.962 Y116.6 E2.2761
G1 X107.053 Y116.6 E2.61472
G1 X107.053 Y120.75 E2.71444
G1 X107.058 Y123.201 E2.77334
G1 X107.058 Y123.4 E2.77644
G0 F6000 X107.459 Y123.8
;TYPE:WALL-OUTER
G1 F1200 X92.565 Y123.8 E3.13435
G1 X92.562 Y120.295 E3.21857
G1 X92.563 Y111.2 E3.43713
G1 X92.931 Y111.2 E3.44597
G1 X92.931 Y114.25 E3.51927
G1 X92.934 Y115.204 E3.54219
G1 X92.932 Y116.2 E3.56613
G1 X107.039 Y116.2 E3.90512
G1 X107.035 Y114.835 E3.93792
G1 X107.037 Y114.251 E3.95196
G1 X107.037 Y111.2 E4.02528
G1 X107.454 Y111.2 E4.0353
G1 X107.453 Y120.75 E4.26479
G1 X107.459 Y123.8 E4.33808
G0 F6000 X107.188 Y123.53
G0 X105.866 Y122.21
;TYPE:SKIN
G1 F1200 X94.155 Y122.21 E4.6195
G1 X94.152 Y120.295 E4.66552
G1 X94.152 Y117.79 E4.72571
G1 X105.863 Y117.79 E5.00714
G1 X105.863 Y120.75 E5.07827
G1 X105.866 Y122.21 E5.11335
G0 F6000 X105.703 Y118.148
G1 F1200 X105.503 Y117.948 E5.12015
G0 F6000 X104.938 Y117.948
G1 F1200 X105.703 Y118.714 E5.14616
G0 F6000 X105.703 Y119.279
G1 F1200 X104.372 Y117.948 E5.19139
G0 F6000 X103.806 Y117.948
G1 F1200 X105.703 Y119.845 E5.25586
G0 F6000 X105.703 Y120.411
G1 F1200 X103.241 Y117.948 E5.33955
G0 F6000 X102.675 Y117.948
G1 F1200 X105.703 Y120.977 E5.44247
G0 F6000 X105.705 Y121.544
G1 F1200 X102.109 Y117.948 E5.56468
G0 F6000 X101.544 Y117.948
G1 F1200 X105.643 Y122.048 E5.704
G0 F6000 X105.078 Y122.048
G1 F1200 X100.978 Y117.948 E5.84333
G0 F6000 X100.412 Y117.948
G1 F1200 X104.512 Y122.048 E5.98267
G0 F6000 X103.946 Y122.048
G1 F1200 X99.847 Y117.948 E6.12198
G0 F6000 X99.281 Y117.948
G1 F1200 X103.381 Y122.048 E6.26132
G0 F6000 X102.815 Y122.048
G1 F1200 X98.715 Y117.948 E6.40065
G0 F6000 X98.149 Y117.948
G1 F1200 X102.249 Y122.048 E6.53999
G0 F6000 X101.684 Y122.048
G1 F1200 X97.584 Y117.948 E6.67932
G0 F6000 X97.018 Y117.948
G1 F1200 X101.118 Y122.048 E6.81866
G0 F6000 X100.552 Y122.048
G1 F1200 X96.452 Y117.948 E6.95799
G0 F6000 X95.887 Y117.948
G1 F1200 X99.987 Y122.048 E7.09733
G0 F6000 X99.421 Y122.048
G1 F1200 X95.321 Y117.948 E7.23666
G0 F6000 X94.755 Y117.948
G1 F1200 X98.855 Y122.048 E7.376
G0 F6000 X98.289 Y122.048
G1 F1200 X94.311 Y118.07 E7.51119
G0 F6000 X94.311 Y118.636
G1 F1200 X97.724 Y122.048 E7.62716
G0 F6000 X97.158 Y122.048
G1 F1200 X94.311 Y119.201 E7.72391
G0 F6000 X94.311 Y119.767
G1 F1200 X96.592 Y122.048 E7.80143
G0 F6000 X96.027 Y122.048
G1 F1200 X94.312 Y120.334 E7.8597
G0 F6000 X94.313 Y120.9
G1 F1200 X95.461 Y122.048 E7.89871
G0 F6000 X94.895 Y122.048
M104 S210
G1 F1200 X94.313 Y121.466 E7.91849
;MESH:NONMESH
G0 F300 X94.313 Y121.466 Z0.4
G0 F6000 X93.488 Y122.6
;TIME_ELAPSED:23.894135
;LAYER:1
M140 S65
M106 S85
;TYPE:WALL-INNER
;MESH:Syringe_Arm.stl
G1 F1350 X93.488 Y120.751 E7.97076
G1 X93.49 Y117.4 E8.0655
G1 X106.515 Y117.4 E8.43373
G1 X106.515 Y120.75 E8.52844
G1 X106.518 Y122.401 E8.57511
G1 X106.518 Y122.6 E8.58074
G1 X106.319 Y122.6 E8.58438
G1 X93.488 Y122.6 E8.94713
G0 F7500 X93.087 Y123
G1 F1350 X93.087 Y122.801 E8.95275
G1 X93.09 Y120.75 E9.01074
G1 X93.09 Y117 E9.11675
G1 X106.915 Y117 E9.5076
G1 X106.915 Y120.75 E9.61362
G1 X106.919 Y122.801 E9.6716
G1 X106.919 Y123 E9.67723
G1 X106.72 Y123 E9.68087
G1 X93.286 Y123 E10.06066
G1 X93.087 Y123 E10.0643
G0 F7500 X92.687 Y123.4
G1 F1350 X92.687 Y123.201 E10.06993
G1 X92.69 Y120.75 E10.13922
G1 X92.69 Y116.6 E10.25655
G1 X92.69 Y114.251 E10.32296
G1 X92.69 Y111.6 E10.3979
G1 X92.805 Y111.6 E10.40115
G1 X92.804 Y114.251 E10.42266
G1 X92.811 Y116.6 E10.44222
G1 X107.048 Y116.6 E10.84471
G1 X107.179 Y116.6 E10.84842
G1 X107.181 Y111.6 E10.98977
G1 X107.316 Y111.6 E10.99359
G1 X107.316 Y116.6 E11.04177
G1 X107.316 Y116.731 E11.04462
G1 X107.315 Y120.75 E11.15824
G1 X107.32 Y123.201 E11.22753
G1 X107.32 Y123.4 E11.23316
G1 X107.121 Y123.4 E11.2368
G1 X92.886 Y123.4 E11.63923
G1 X92.687 Y123.4 E11.64287
G0 F7500 X92.287 Y123.8
;TYPE:WALL-OUTER
G1 F1350 X92.29 Y120.75 E11.7291
G1 X92.29 Y111.2 E11.99909
G1 X93.205 Y111.2 E12.02496
G1 X93.204 Y114.25 E12.11119
G1 X93.21 Y116.2 E12.16631
G1 X106.779 Y116.2 E12.54993
G1 X106.781 Y111.2 E12.69128
G1 X107.716 Y111.2 E12.71771
G1 X107.715 Y120.75 E12.9877
G1 X107.72 Y123.277 E13.05914
G1 X107.719 Y123.8 E13.07393
G1 X92.287 Y123.8 E13.51021
G0 F7500 X92.757 Y123.33
G0 X93.878 Y122.21
;TYPE:SKIN
G1 F1350 X93.88 Y117.79 E13.63517
G1 X106.125 Y117.79 E13.98135
G1 X106.125 Y120.75 E14.06503
G1 X106.128 Y122.21 E14.10631
G1 X93.878 Y122.21 E14.45263
G0 F7500 X94.04 Y118.091
G1 F1350 X94.183 Y117.948 E14.45835
G0 F7500 X94.748 Y117.948
G1 F1350 X94.04 Y118.657 E14.48667
G0 F7500 X94.04 Y119.223
G1 F1350 X95.314 Y117.948 E14.53763
G0 F7500 X95.88 Y117.948
G1 F1350 X94.039 Y119.789 E14.61123
G0 F7500 X94.039 Y120.355
G1 F1350 X96.445 Y117.948 E14.70745
G0 F7500 X97.011 Y117.948
G1 F1350 X94.038 Y120.921 E14.82631
G0 F7500 X94.038 Y121.487
G1 F1350 X97.577 Y117.948 E14.96781
G0 F7500 X98.142 Y117.948
G1 F1350 X94.042 Y122.049 E15.13175
G0 F7500 X94.608 Y122.049
G1 F1350 X98.708 Y117.948 E15.2957
G0 F7500 X99.274 Y117.948
G1 F1350 X95.173 Y122.049 E15.45966
G0 F7500 X95.739 Y122.049
G1 F1350 X99.839 Y117.948 E15.6236
G0 F7500 X100.405 Y117.948
G1 F1350 X96.305 Y122.049 E15.78755
G0 F7500 X96.87 Y122.049
G1 F1350 X100.971 Y117.948 E15.95151
G0 F7500 X101.536 Y117.948
G1 F1350 X97.436 Y122.049 E16.11545
G0 F7500 X98.002 Y122.049
G1 F1350 X102.102 Y117.948 E16.2794
G0 F7500 X102.668 Y117.948
G1 F1350 X98.567 Y122.049 E16.44336
G0 F7500 X99.133 Y122.049
G1 F1350 X103.234 Y117.948 E16.60733
G0 F7500 X103.799 Y117.948
G1 F1350 X99.699 Y122.049 E16.77127
G0 F7500 X100.264 Y122.049
G1 F1350 X104.365 Y117.948 E16.93523
G0 F7500 X104.931 Y117.948
G1 F1350 X100.83 Y122.049 E17.0992
G0 F7500 X101.396 Y122.049
G1 F1350 X105.496 Y117.948 E17.26314
G0 F7500 X105.964 Y118.046
G1 F1350 X101.961 Y122.049 E17.42319
G0 F7500 X102.527 Y122.049
G1 F1350 X105.964 Y118.612 E17.5606
G0 F7500 X105.964 Y119.177
G1 F1350 X103.093 Y122.049 E17.67541
G0 F7500 X103.659 Y122.049
G1 F1350 X105.964 Y119.743 E17.76759
G0 F7500 X105.964 Y120.309
G1 F1350 X104.224 Y122.049 E17.83715
G0 F7500 X104.79 Y122.049
G1 F1350 X105.964 Y120.874 E17.88411
G0 F7500 X105.966 Y121.439
G1 F1350 X105.356 Y122.049 E17.9085
;MESH:NONMESH
G0 F300 X105.356 Y122.049 Z0.6
G0 F7500 X106.651 Y117.4
;TIME_ELAPSED:43.511476
;LAYER:2
M106 S170
;TYPE:WALL-INNER
;MESH:Syringe_Arm.stl
G1 F1500 X106.651 Y120.75 E18.00321
G1 X106.654 Y122.401 E18.04988
G1 X106.654 Y122.6 E18.05551
G1 X106.455 Y122.6 E18.05915
G1 X93.351 Y122.6 E18.42961
G1 X93.351 Y117.4 E18.57662
G1 X106.651 Y117.4 E18.95263
G0 F9000 X107.051 Y117
G1 F1500 X107.051 Y120.75 E19.05865
G1 X107.054 Y122.396 E19.10518
G1 X107.053 Y123 E19.12226
G1 X92.951 Y123 E19.52094
G1 X92.951 Y117 E19.69056
G1 X107.051 Y117 E20.08919
G0 F9000 X107.382 Y111.67
G0 X107.452 Y111.6
G1 F1500 X107.452 Y111.799 E20.09481
G1 X107.451 Y120.75 E20.34787
G1 X107.454 Y122.396 E20.3944
G1 X107.453 Y123.4 E20.42278
G1 X92.551 Y123.4 E20.84408
G1 X92.551 Y116.6 E21.03632
G1 X92.551 Y111.6 E21.17768
G1 X92.947 Y111.6 E21.18888
G1 X92.947 Y116.6 E21.32917
G1 X107.044 Y116.6 E21.72771
G1 X107.045 Y111.6 E21.86906
G1 X107.253 Y111.6 E21.87494
G1 X107.452 Y111.6 E21.87858
G0 F9000 X107.852 Y111.2
;TYPE:WALL-OUTER
G1 F1500 X107.851 Y120.75 E22.14857
G1 X107.854 Y122.396 E22.19511
G1 X107.853 Y123.8 E22.2348
G1 X92.151 Y123.8 E22.67871
G1 X92.151 Y111.2 E23.03493
G1 X93.347 Y111.2 E23.06874
G1 X93.347 Y116.2 E23.2101
G1 X106.644 Y116.2 E23.58602
G1 X106.645 Y111.2 E23.72737
G1 X107.852 Y111.2 E23.7615
G0 F9000 X107.382 Y111.67
G0 X107.072 Y116.628
G0 X106.261 Y117.79
;TYPE:SKIN
G1 F1500 X106.261 Y120.75 E23.84518
G1 X106.264 Y122.21 E23.88645
G1 X93.741 Y122.21 E24.24049
G1 X93.741 Y117.79 E24.36545
G1 X106.261 Y117.79 E24.71941
G0 F9000 X106.1 Y118.545
G1 F1500 X105.504 Y117.949 E24.74323
G0 F9000 X104.938 Y117.949
G1 F1500 X106.1 Y119.111 E24.78969
G0 F9000 X106.1 Y119.677
G1 F1500 X104.373 Y117.949 E24.85876
G0 F9000 X103.807 Y117.949
G1 F1500 X106.1 Y120.242 E24.95044
G0 F9000 X106.101 Y120.809
G1 F1500 X103.241 Y117.949 E25.06478
G0 F9000 X102.676 Y117.949
G1 F1500 X106.102 Y121.376 E25.20178
G0 F9000 X106.104 Y121.943
G1 F1500 X102.11 Y117.949 E25.36147
G0 F9000 X101.544 Y117.949
G1 F1500 X105.644 Y122.049 E25.52539
G0 F9000 X105.078 Y122.049
G1 F1500 X100.979 Y117.949 E25.68929
G0 F9000 X100.413 Y117.949
G1 F1500 X104.513 Y122.049 E25.85322
G0 F9000 X103.947 Y122.049
G1 F1500 X99.847 Y117.949 E26.01714
G0 F9000 X99.282 Y117.949
G1 F1500 X103.381 Y122.049 E26.18105
G0 F9000 X102.816 Y122.049
G1 F1500 X98.716 Y117.949 E26.34497
G0 F9000 X98.15 Y117.949
G1 F1500 X102.25 Y122.049 E26.50889
G0 F9000 X101.684 Y122.049
G1 F1500 X97.584 Y117.949 E26.67282
G0 F9000 X97.019 Y117.949
G1 F1500 X101.119 Y122.049 E26.83674
G0 F9000 X100.553 Y122.049
G1 F1500 X96.453 Y117.949 E27.00066
G0 F9000 X95.887 Y117.949
G1 F1500 X99.987 Y122.049 E27.16459
G0 F9000 X99.422 Y122.049
G1 F1500 X95.322 Y117.949 E27.32851
G0 F9000 X94.756 Y117.949
G1 F1500 X98.856 Y122.049 E27.49243
G0 F9000 X98.29 Y122.049
G1 F1500 X94.19 Y117.949 E27.65636
G0 F9000 X93.9 Y118.225
G1 F1500 X97.724 Y122.049 E27.80925
G0 F9000 X97.159 Y122.049
G1 F1500 X93.9 Y118.791 E27.93953
G0 F9000 X93.9 Y119.356
G1 F1500 X96.593 Y122.049 E28.0472
G0 F9000 X96.027 Y122.049
G1 F1500 X93.9 Y119.922 E28.13224
G0 F9000 X93.9 Y120.488
G1 F1500 X95.462 Y122.049 E28.19467
G0 F9000 X94.896 Y122.049
G1 F1500 X93.9 Y121.053 E28.23449
G0 F9000 X93.9 Y121.619
G1 F1500 X94.33 Y122.049 E28.25168
;MESH:NONMESH
G0 F300 X94.33 Y122.049 Z0.8
G0 F9000 X93.276 Y117.4
;TIME_ELAPSED:62.240232
;LAYER:3
M106 S255
;TYPE:WALL-INNER
;MESH:Syringe_Arm.stl
G1 F1500 X106.723 Y117.4 E28.63184
G1 X106.725 Y122.401 E28.77323
G1 X106.725 Y122.6 E28.77885
G1 X106.526 Y122.6 E28.78249
G1 X93.474 Y122.6 E29.15149
G1 X93.275 Y122.6 E29.15711
G1 X93.275 Y122.401 E29.16075
G1 X93.276 Y117.4 E29.30214
G0 F9000 X92.876 Y117
G1 F1500 X107.123 Y117 E29.70492
G1 X107.124 Y120.75 E29.81093
G1 X107.125 Y122.801 E29.86892
G1 X107.125 Y123 E29.87454
G1 X106.926 Y123 E29.87818
G1 X93.074 Y123 E30.26979
G1 X92.875 Y123 E30.27542
G1 X92.875 Y122.801 E30.27906
G1 X92.876 Y117 E30.44306
G0 F9000 X92.951 Y111.67
G0 X93.021 Y111.6
G1 F1500 X93.021 Y111.799 E30.44869
G1 X93.02 Y114.25 E30.51798
G1 X93.024 Y115.762 E30.56073
G1 X93.017 Y116.399 E30.57873
G1 X93.016 Y116.4 E30.57877
G1 X93.016 Y116.6 E30.58443
G1 X93.216 Y116.6 E30.58809
G1 X93.217 Y116.6 E30.58812
G1 X106.972 Y116.6 E30.97699
G1 X106.973 Y111.6 E31.11834
G1 X107.325 Y111.6 E31.12829
G1 X107.524 Y111.6 E31.13392
G1 X107.524 Y111.799 E31.13756
G1 X107.523 Y120.75 E31.39062
G1 X107.525 Y123.201 E31.45991
G1 X107.525 Y123.4 E31.46553
G1 X107.326 Y123.4 E31.46917
G1 X92.674 Y123.4 E31.8834
G1 X92.475 Y123.4 E31.88903
G1 X92.475 Y123.201 E31.89267
G1 X92.476 Y111.6 E32.22064
G1 X92.822 Y111.6 E32.23042
G1 X93.021 Y111.6 E32.23406
G0 F9000 X93.421 Y111.2
;TYPE:WALL-OUTER
G1 F1500 X93.42 Y114.25 E32.32029
G1 X93.424 Y115.766 E32.36315
G1 X93.42 Y116.2 E32.37542
G1 X106.572 Y116.2 E32.74724
G1 X106.573 Y111.2 E32.8886
G1 X107.924 Y111.2 E32.92679
G1 X107.923 Y120.75 E33.19678
G1 X107.926 Y123.01 E33.26067
G1 X107.924 Y123.8 E33.28301
G1 X92.075 Y123.8 E33.73108
G1 X92.076 Y111.2 E34.08729
G1 X93.421 Y111.2 E34.12532
G0 F9000 X92.951 Y111.67
G0 X92.988 Y116.628
G0 X93.666 Y117.79
;TYPE:SKIN
G1 F1500 X106.333 Y117.79 E34.48343
G1 X106.335 Y122.21 E34.60839
G1 X93.665 Y122.21 E34.96658
G1 X93.666 Y117.79 E35.09154
G0 F9000 X93.825 Y118.306
G1 F1500 X94.183 Y117.948 E35.10585
G0 F9000 X94.748 Y117.948
G1 F1500 X93.825 Y118.871 E35.14275
G0 F9000 X93.825 Y119.437
G1 F1500 X95.314 Y117.948 E35.20229
G0 F9000 X95.88 Y117.948
G1 F1500 X93.825 Y120.003 E35.28445
G0 F9000 X93.825 Y120.569
G1 F1500 X96.445 Y117.948 E35.38922
G0 F9000 X97.011 Y117.948
G1 F1500 X93.825 Y121.135 E35.51662
G0 F9000 X93.825 Y121.7
G1 F1500 X97.577 Y117.948 E35.66663
G0 F9000 X98.142 Y117.948
G1 F1500 X94.042 Y122.049 E35.83057
G0 F9000 X94.608 Y122.049
G1 F1500 X98.708 Y117.948 E35.99452
G0 F9000 X99.274 Y117.948
G1 F1500 X95.173 Y122.049 E36.15848
G0 F9000 X95.739 Y122.049
G1 F1500 X99.839 Y117.948 E36.32243
G0 F9000 X100.405 Y117.948
G1 F1500 X96.305 Y122.049 E36.48637
G0 F9000 X96.87 Y122.049
G1 F1500 X100.971 Y117.948 E36.65033
G0 F9000 X101.536 Y117.948
G1 F1500 X97.436 Y122.049 E36.81428
G0 F9000 X98.002 Y122.049
G1 F1500 X102.102 Y117.948 E36.97822
G0 F9000 X102.668 Y117.948
G1 F1500 X98.567 Y122.049 E37.14218
G0 F9000 X99.133 Y122.049
G1 F1500 X103.234 Y117.948 E37.30615
G0 F9000 X103.799 Y117.948
G1 F1500 X99.699 Y122.049 E37.47009
G0 F9000 X100.264 Y122.049
G1 F1500 X104.365 Y117.948 E37.63406
G0 F9000 X104.931 Y117.948
G1 F1500 X100.83 Y122.049 E37.79802
G0 F9000 X101.396 Y122.049
G1 F1500 X105.496 Y117.948 E37.96196
G0 F9000 X106.062 Y117.948
G1 F1500 X101.961 Y122.049 E38.12593
G0 F9000 X102.527 Y122.049
G1 F1500 X106.172 Y118.404 E38.27166
G0 F9000 X106.172 Y118.97
G1 F1500 X103.093 Y122.049 E38.39476
G0 F9000 X103.659 Y122.049
G1 F1500 X106.173 Y119.534 E38.49529
G0 F9000 X106.173 Y120.1
G1 F1500 X104.224 Y122.049 E38.57322
G0 F9000 X104.79 Y122.049
G1 F1500 X106.173 Y120.666 E38.62851
G0 F9000 X106.174 Y121.231
G1 F1500 X105.356 Y122.049 E38.66122
G0 F9000 X105.921 Y122.049
G1 F1500 X106.174 Y121.797 E38.67131
G0 F9000 X107.172 Y116.838
G0 X107.26 Y116.75
;TYPE:SKIN
G1 F1500 X107.247 Y116.48 E38.67542
G1 X107.247 Y111.954 E38.7441
G0 F9000 X107.348 Y111.854
G0 X107 Y116.628
G0 X92.988 Y116.628
G0 X92.845 Y111.932
G0 X92.748 Y112.029
G1 F1500 X92.748 Y112.312 E38.74821
G1 X92.746 Y116.556 E38.80975
G1 X92.792 Y116.792 E38.81323
G0 F9000 X92.839 Y116.746
G0 X92.651 Y111.843
G1 F1500 X92.721 Y111.773 E38.81463
G0 F9000 X92.875 Y112
;MESH:NONMESH
G0 F300 X92.875 Y112 Z1
G0 F9000 X92.965 Y115.748
G0 X93.252 Y122.6
;TIME_ELAPSED:82.836965
;LAYER:4
;TYPE:WALL-INNER
;MESH:Syringe_Arm.stl
G1 F1485 X93.252 Y117.4 E38.96164
G1 X106.548 Y117.4 E39.33754
G1 X106.747 Y117.4 E39.34316
G1 X106.747 Y117.599 E39.3468
G1 X106.745 Y122.6 E39.48819
G1 X93.252 Y122.6 E39.86965
G0 F9000 X92.852 Y123
G1 F1485 X92.852 Y117 E40.03927
G1 X106.948 Y117 E40.43778
G1 X107.147 Y117 E40.44341
G1 X107.147 Y117.199 E40.44705
G1 X107.145 Y123 E40.61105
G1 X92.852 Y123 E41.01513
G0 F9000 X92.452 Y123.4
G1 F1485 X92.452 Y111.6 E41.34873
G1 X93.048 Y111.6 E41.36558
G1 X93.048 Y114.509 E41.44782
G1 X93.045 Y116.401 E41.50131
G1 X93.045 Y116.6 E41.50693
