;FLAVOR:Marlin
;TIME:910
;Filament used: 0.252458m
;Layer height: 0.2
;MINX:94.7
;MINY:112.551
;MINZ:0.2
;MAXX:105.3
;MAXY:122.449
;MAXZ:30
;Generated with Cura_SteamEngine master
M82 ;absolute extrusion mode
; Ender 3 Custom Start G-code
M140 S70 ; Set Heat Bed temperature
M104 S160 ; start warming extruder to 160
G28 ; Home all axes
; G29 ; Auto bed-level (BL-Touch)
G92 E0 ; Reset Extruder
M190 S70 ; Wait for Heat Bed temperature
M104 S210 ; Set Extruder temperature
G1 X0 Y0 Z0.3 F5000.0 ; Move to 0 0
M109 S210 ; Wait for Extruder temperature
G1 X3 Y20 Z0.3 F5000.0 ; Move to start position
; G1 Z2.0 F3000 ; Move Z Axis up little to prevent scratching of Heat Bed
G1 X3 Y200.0 Z0.3 F1500.0 E15 ; Draw the first line
G1 X3.3 Y200.0 Z0.3 F5000.0 ; Move to side a little
G1 X3.3 Y20 Z0.3 F1500.0 E30 ; Draw the second line
G92 E0 ; Reset Extruder
G1 Z2.0 F3000 ; Move Z Axis up little to prevent scratching of Heat Bed
G92 E0
G92 E0
G1 F2100 E-1
;LAYER_COUNT:150
;LAYER:0
M107
M204 S500
M205 X8 Y8
;MESH:Syringe.stl
G0 F6000 X104.1 Y114.751 Z0.2
;TYPE:WALL-INNER
G1 F2100 E0
G1 F1200 X101.223 Y114.751 E0.06914
G1 X101.223 Y115.65 E0.09074
G1 X101.224 Y117.178 E0.12746
G1 X101.399 Y117.712 E0.14096
G1 X101.459 Y117.994 E0.14789
G1 X101.491 Y118.265 E0.15445
G1 X101.497 Y118.54 E0.16106
G1 X101.471 Y118.834 E0.16815
G1 X101.422 Y119.096 E0.17455
G1 X101.343 Y119.367 E0.18134
G1 X101.243 Y119.619 E0.18785
G1 X101.104 Y119.882 E0.195
G1 X100.952 Y120.111 E0.20161
G1 X100.791 Y120.309 E0.20774
G1 X100.576 Y120.526 E0.21508
G1 X100.373 Y120.693 E0.2214
G1 X100.126 Y120.858 E0.22853
G1 X99.899 Y120.978 E0.2347
G1 X99.621 Y121.093 E0.24193
G1 X99.369 Y121.168 E0.24825
G1 X99.081 Y121.223 E0.2553
G1 X98.826 Y121.247 E0.26145
G1 X98.544 Y121.243 E0.26823
G1 X98.249 Y121.212 E0.27536
G1 X97.986 Y121.155 E0.28182
G1 X97.716 Y121.069 E0.28863
G1 X97.456 Y120.958 E0.29543
G1 X97.209 Y120.819 E0.30224
G1 X96.997 Y120.672 E0.30844
G1 X96.782 Y120.488 E0.31524
G1 X96.574 Y120.269 E0.3225
G1 X96.418 Y120.07 E0.32857
G1 X96.26 Y119.821 E0.33566
G1 X96.139 Y119.58 E0.34214
G1 X96.036 Y119.309 E0.34911
G1 X95.968 Y119.057 E0.35538
G1 X95.92 Y118.769 E0.36239
G1 X95.903 Y118.5 E0.36887
G1 X95.914 Y118.191 E0.3763
G1 X95.945 Y117.955 E0.38202
G1 X96.015 Y117.662 E0.38926
G1 X96.101 Y117.413 E0.39559
G1 X96.223 Y117.146 E0.40265
G1 X96.367 Y116.905 E0.40939
G1 X96.524 Y116.691 E0.41577
G1 X96.711 Y116.481 E0.42253
G1 X96.927 Y116.286 E0.42952
G1 X97.145 Y116.123 E0.43606
G1 X97.384 Y115.982 E0.44273
G1 X97.627 Y115.867 E0.44919
G1 X97.911 Y115.766 E0.45643
G1 X98.17 Y115.704 E0.46283
G1 X98.438 Y115.665 E0.46934
G1 X98.81 Y115.651 E0.47829
G1 X100.938 Y115.651 E0.52942
G1 X100.938 Y114.751 E0.54487
G1 X100.938 Y113.751 E0.56891
G1 X104.1 Y113.751 E0.64489
G1 X104.1 Y114.751 E0.66892
G0 F6000 X104.5 Y115.151
G1 F1200 X101.822 Y115.151 E0.73327
G1 X101.623 Y115.151 E0.73806
G1 X101.623 Y115.35 E0.74115
G1 X101.624 Y117.114 E0.78354
G1 X101.785 Y117.605 E0.79596
G1 X101.854 Y117.929 E0.80392
G1 X101.891 Y118.241 E0.81147
G1 X101.897 Y118.557 E0.81906
G1 X101.869 Y118.881 E0.82688
G1 X101.811 Y119.192 E0.83448
G1 X101.721 Y119.501 E0.84221
G1 X101.607 Y119.787 E0.84961
G1 X101.452 Y120.08 E0.85758
G1 X101.275 Y120.347 E0.86527
G1 X101.084 Y120.582 E0.87255
G1 X100.846 Y120.822 E0.88067
G1 X100.61 Y121.016 E0.88802
G1 X100.334 Y121.2 E0.89599
G1 X100.069 Y121.341 E0.9032
G1 X99.756 Y121.47 E0.91134
G1 X99.462 Y121.558 E0.91871
G1 X99.141 Y121.619 E0.92656
G1 X98.863 Y121.644 E0.93327
G1 X98.839 Y121.647 E0.93385
G1 X98.518 Y121.643 E0.94156
G1 X98.188 Y121.608 E0.94954
G1 X97.881 Y121.542 E0.95709
G1 X97.576 Y121.444 E0.96478
G1 X97.278 Y121.317 E0.97257
G1 X96.996 Y121.159 E0.98034
G1 X96.754 Y120.991 E0.98741
G1 X96.509 Y120.781 E0.99517
G1 X96.267 Y120.526 E1.00362
G1 X96.092 Y120.303 E1.01043
G1 X95.913 Y120.021 E1.01846
G1 X95.771 Y119.739 E1.02604
G1 X95.656 Y119.435 E1.03385
G1 X95.651 Y119.413 E1.0344
G1 X95.578 Y119.145 E1.04107
G1 X95.575 Y119.124 E1.04158
G1 X95.527 Y118.836 E1.0486
G1 X95.522 Y118.812 E1.04919
G1 X95.502 Y118.502 E1.05665
G1 X95.514 Y118.165 E1.06475
G1 X95.552 Y117.88 E1.07166
G1 X95.631 Y117.547 E1.07989
G1 X95.731 Y117.259 E1.08721
G1 X95.866 Y116.965 E1.09499
G1 X96.032 Y116.685 E1.10281
G1 X96.215 Y116.436 E1.11024
G1 X96.426 Y116.2 E1.11784
G1 X96.674 Y115.975 E1.12589
G1 X96.921 Y115.791 E1.13329
G1 X97.196 Y115.628 E1.14097
G1 X97.479 Y115.495 E1.14849
G1 X97.792 Y115.383 E1.15648
G1 X98.096 Y115.31 E1.16399
G1 X98.404 Y115.266 E1.17146
G1 X98.795 Y115.251 E1.18087
G1 X100.538 Y115.251 E1.22275
G1 X100.538 Y113.351 E1.26841
G1 X104.5 Y113.351 E1.36362
G1 X104.5 Y115.151 E1.40687
G0 F6000 X104.9 Y115.551
G1 F1200 X102.222 Y115.551 E1.47123
G1 X102.023 Y115.551 E1.47601
G1 X102.023 Y115.75 E1.4791
G1 X102.024 Y117.05 E1.51034
G1 X102.172 Y117.502 E1.52177
G1 X102.249 Y117.862 E1.53062
G1 X102.291 Y118.217 E1.53921
G1 X102.297 Y118.574 E1.54779
G1 X102.267 Y118.927 E1.5563
G1 X102.2 Y119.288 E1.56513
G1 X102.1 Y119.63 E1.57369
G1 X101.968 Y119.96 E1.58223
G1 X101.8 Y120.278 E1.59087
G1 X101.594 Y120.589 E1.59984
G1 X101.383 Y120.849 E1.60788
G1 X101.117 Y121.117 E1.61696
G1 X100.847 Y121.339 E1.62536
G1 X100.546 Y121.54 E1.63405
G1 X100.231 Y121.707 E1.64262
G1 X99.897 Y121.845 E1.65131
G1 X99.871 Y121.852 E1.65195
G1 X99.552 Y121.948 E1.65996
G1 X99.202 Y122.015 E1.66852
G1 X98.876 Y122.044 E1.67639
G1 X98.851 Y122.047 E1.67699
G1 X98.491 Y122.043 E1.68564
G1 X98.128 Y122.004 E1.69442
G1 X97.777 Y121.929 E1.70304
G1 X97.431 Y121.818 E1.71177
G1 X97.107 Y121.679 E1.72025
G1 X96.787 Y121.5 E1.72906
G1 X96.769 Y121.487 E1.72959
G1 X96.527 Y121.319 E1.73667
G1 X96.505 Y121.304 E1.73731
G1 X96.231 Y121.069 E1.74598
G1 X95.968 Y120.793 E1.75514
G1 X95.763 Y120.531 E1.76314
G1 X95.566 Y120.22 E1.77199
G1 X95.557 Y120.201 E1.77249
G1 X95.415 Y119.919 E1.78008
G1 X95.404 Y119.898 E1.78065
G1 X95.276 Y119.561 E1.78931
G1 X95.271 Y119.539 E1.78985
G1 X95.185 Y119.223 E1.79772
G1 X95.125 Y118.864 E1.80647
G1 X95.124 Y118.839 E1.80707
G1 X95.101 Y118.505 E1.81512
G1 X95.114 Y118.138 E1.82394
G1 X95.159 Y117.803 E1.83206
G1 X95.247 Y117.434 E1.84118
G1 X95.358 Y117.114 E1.84932
G1 X95.511 Y116.781 E1.85812
G1 X95.7 Y116.461 E1.86706
G1 X95.906 Y116.181 E1.87541
G1 X96.141 Y115.919 E1.88387
G1 X96.42 Y115.666 E1.89292
G1 X96.698 Y115.458 E1.90126
G1 X97.009 Y115.274 E1.90994
G1 X97.328 Y115.124 E1.91841
G1 X97.679 Y114.999 E1.92737
G1 X98.02 Y114.917 E1.9358
G1 X98.37 Y114.867 E1.94429
G1 X98.779 Y114.851 E1.95413
G1 X100.138 Y114.851 E1.98679
G1 X100.138 Y112.951 E2.03244
G1 X104.9 Y112.951 E2.14688
G1 X104.9 Y115.551 E2.20936
G0 F6000 X105.3 Y115.951
;TYPE:WALL-OUTER
G1 F1200 X102.423 Y115.951 E2.27849
G1 X102.424 Y116.986 E2.30336
G1 X102.559 Y117.399 E2.3138
G1 X102.644 Y117.795 E2.32354
G1 X102.691 Y118.193 E2.33317
G1 X102.697 Y118.591 E2.34273
G1 X102.665 Y118.976 E2.35202
G1 X102.589 Y119.382 E2.36194
G1 X102.479 Y119.759 E2.37138
G1 X102.329 Y120.133 E2.38106
G1 X102.144 Y120.484 E2.3906
G1 X101.923 Y120.818 E2.40022
G1 X101.676 Y121.122 E2.40963
G1 X101.388 Y121.412 E2.41946
G1 X101.084 Y121.662 E2.42891
G1 X100.758 Y121.88 E2.43834
G1 X100.396 Y122.072 E2.44818
G1 X100.034 Y122.221 E2.45759
G1 X99.642 Y122.338 E2.46742
G1 X99.262 Y122.411 E2.47672
G1 X98.863 Y122.447 E2.48635
G1 X98.464 Y122.443 E2.49594
G1 X98.068 Y122.4 E2.50551
G1 X97.676 Y122.316 E2.51514
G1 X97.293 Y122.194 E2.5248
G1 X96.928 Y122.037 E2.53435
G1 X96.578 Y121.841 E2.54399
G1 X96.256 Y121.617 E2.55341
G1 X95.953 Y121.358 E2.56299
G1 X95.669 Y121.06 E2.57289
G1 X95.433 Y120.758 E2.5821
G1 X95.219 Y120.419 E2.59173
G1 X95.037 Y120.057 E2.60147
G1 X94.896 Y119.687 E2.61098
G1 X94.792 Y119.301 E2.62059
G1 X94.728 Y118.916 E2.62997
G1 X94.7 Y118.509 E2.63977
G1 X94.714 Y118.11 E2.64936
G1 X94.766 Y117.727 E2.65865
G1 X94.862 Y117.325 E2.66858
G1 X94.987 Y116.962 E2.67781
G1 X95.158 Y116.592 E2.6876
G1 X95.363 Y116.244 E2.69731
G1 X95.597 Y115.926 E2.7068
G1 X95.857 Y115.637 E2.71614
G1 X96.167 Y115.355 E2.72621
G1 X96.474 Y115.126 E2.73541
G1 X96.822 Y114.92 E2.74513
G1 X97.177 Y114.753 E2.75456
G1 X97.566 Y114.615 E2.76448
G1 X97.942 Y114.524 E2.77377
G1 X98.338 Y114.468 E2.78339
G1 X98.763 Y114.451 E2.79361
G1 X99.738 Y114.451 E2.81704
G1 X99.738 Y112.551 E2.86269
G1 X105.3 Y112.551 E2.99635
G1 X105.3 Y115.951 E3.07805
G0 F6000 X104.83 Y115.481
G0 X103.71 Y114.361
;TYPE:SKIN
G1 F1200 X101.328 Y114.361 E3.1353
G1 X101.328 Y114.141 E3.14058
G1 X103.71 Y114.141 E3.19782
G1 X103.71 Y114.361 E3.20311
G0 F6000 X100.833 Y116.041
G1 F1200 X100.834 Y117.24 E3.23192
G1 X101.021 Y117.811 E3.24636
G1 X101.073 Y118.056 E3.25238
G1 X101.107 Y118.532 E3.26385
G1 X101.087 Y118.762 E3.26939
G1 X101.04 Y119.013 E3.27553
G1 X100.977 Y119.23 E3.28096
G1 X100.884 Y119.463 E3.28699
G1 X100.638 Y119.879 E3.2986
G1 X100.501 Y120.048 E3.30383
G1 X100.311 Y120.239 E3.31031
G1 X100.139 Y120.38 E3.31565
G1 X99.927 Y120.522 E3.32178
G1 X99.734 Y120.624 E3.32703
G1 X99.491 Y120.725 E3.33335
G1 X99.276 Y120.789 E3.33874
G1 X99.023 Y120.837 E3.34493
G1 X98.567 Y120.853 E3.35589
G1 X98.31 Y120.827 E3.3621
G1 X98.092 Y120.779 E3.36747
G1 X97.853 Y120.703 E3.37349
G1 X97.623 Y120.605 E3.3795
G1 X97.23 Y120.359 E3.39064
G1 X97.058 Y120.212 E3.39608
G1 X96.863 Y120.006 E3.4029
G1 X96.603 Y119.634 E3.4138
G1 X96.496 Y119.42 E3.41955
G1 X96.404 Y119.179 E3.42575
G1 X96.31 Y118.74 E3.43654
G1 X96.293 Y118.489 E3.44258
G1 X96.304 Y118.205 E3.44941
G1 X96.325 Y118.045 E3.45329
G1 X96.391 Y117.767 E3.46016
G1 X96.464 Y117.558 E3.46548
G1 X96.57 Y117.327 E3.47159
G1 X96.832 Y116.931 E3.483
G1 X97.169 Y116.592 E3.49448
G1 X97.567 Y116.327 E3.50597
G1 X98.012 Y116.144 E3.51753
G1 X98.471 Y116.055 E3.52877
G1 X98.825 Y116.041 E3.53728
G1 X100.833 Y116.041 E3.58554
G0 F6000 X100.673 Y116.512
G1 F1200 X100.361 Y116.2 E3.59614
G0 F6000 X99.795 Y116.2
G1 F1200 X100.673 Y117.078 E3.62598
G0 F6000 X100.86 Y117.83
G1 F1200 X99.229 Y116.2 E3.68139
G0 F6000 X98.671 Y116.207
G1 F1200 X100.943 Y118.479 E3.7586
G0 F6000 X100.882 Y118.984
G1 F1200 X98.173 Y116.275 E3.85066
G0 F6000 X97.755 Y116.423
G1 F1200 X100.734 Y119.402 E3.9519
G0 F6000 X100.524 Y119.757
G1 F1200 X97.398 Y116.631 E4.05814
G0 F6000 X97.094 Y116.893
G1 F1200 X100.262 Y120.061 E4.1658
G0 F6000 X99.948 Y120.313
G1 F1200 X96.841 Y117.205 E4.27141
G0 F6000 X96.635 Y117.565
G1 F1200 X99.581 Y120.512 E4.37154
G0 F6000 X99.152 Y120.648
G1 F1200 X96.5 Y117.997 E4.46165
G0 F6000 X96.456 Y118.518
G1 F1200 X98.627 Y120.689 E4.53543
G0 F6000 X97.932 Y120.559
M104 S210
G1 F1200 X96.59 Y119.217 E4.58104
;MESH:NONMESH
G0 F300 X96.59 Y119.217 Z0.4
G0 F6000 X101.995 Y115.523
G0 X104.1 Y114.751
;TIME_ELAPSED:16.068500
;LAYER:1
M140 S65
M106 S85
;TYPE:WALL-INNER
;MESH:Syringe.stl
G1 F1169.4 X101.223 Y114.751 E4.66237
G1 X101.223 Y115.651 E4.68782
G1 X101.223 Y117.171 E4.73079
G1 X101.4 Y117.721 E4.74712
G1 X101.461 Y118.002 E4.75525
G1 X101.491 Y118.274 E4.76299
G1 X101.497 Y118.548 E4.77074
G1 X101.475 Y118.804 E4.778
G1 X101.419 Y119.108 E4.78674
G1 X101.345 Y119.367 E4.79435
G1 X101.241 Y119.622 E4.80214
G1 X101.113 Y119.866 E4.80993
G1 X100.962 Y120.095 E4.81768
G1 X100.768 Y120.335 E4.82641
G1 X100.582 Y120.522 E4.83387
G1 X100.361 Y120.701 E4.84191
G1 X100.135 Y120.853 E4.84961
G1 X99.886 Y120.984 E4.85756
G1 X99.64 Y121.085 E4.86508
G1 X99.345 Y121.172 E4.87377
G1 X99.072 Y121.224 E4.88163
G1 X98.821 Y121.247 E4.88876
G1 X98.544 Y121.244 E4.89659
G1 X98.254 Y121.214 E4.90483
G1 X97.977 Y121.155 E4.91284
G1 X97.73 Y121.077 E4.92016
G1 X97.462 Y120.959 E4.92844
G1 X97.202 Y120.814 E4.93685
G1 X97.001 Y120.674 E4.94378
G1 X96.785 Y120.491 E4.95178
G1 X96.576 Y120.272 E4.96034
G1 X96.401 Y120.048 E4.96838
G1 X96.264 Y119.831 E4.97563
G1 X96.138 Y119.577 E4.98365
G1 X96.035 Y119.305 E4.99187
G1 X95.967 Y119.047 E4.99941
G1 X95.919 Y118.762 E5.00758
G1 X95.903 Y118.498 E5.01506
G1 X95.914 Y118.189 E5.0238
G1 X95.947 Y117.94 E5.0309
G1 X96.009 Y117.681 E5.03843
G1 X96.111 Y117.388 E5.0472
G1 X96.225 Y117.144 E5.05482
G1 X96.361 Y116.914 E5.06237
G1 X96.535 Y116.678 E5.07066
G1 X96.715 Y116.478 E5.07827
G1 X96.924 Y116.288 E5.08625
G1 X97.144 Y116.124 E5.09401
G1 X97.391 Y115.978 E5.10212
G1 X97.646 Y115.858 E5.11009
G1 X97.903 Y115.768 E5.11779
G1 X98.179 Y115.701 E5.12582
G1 X98.435 Y115.665 E5.13313
G1 X98.841 Y115.651 E5.14461
G1 X100.938 Y115.651 E5.2039
G1 X100.938 Y114.751 E5.22207
G1 X100.938 Y113.751 E5.25034
G1 X104.1 Y113.751 E5.33974
G1 X104.1 Y114.751 E5.36801
G0 F7500 X104.5 Y115.151
G1 F1169.4 X101.623 Y115.151 E5.44934
G1 X101.623 Y117.108 E5.50467
G1 X101.787 Y117.618 E5.51981
G1 X101.857 Y117.94 E5.52913
G1 X101.891 Y118.244 E5.53778
G1 X101.897 Y118.565 E5.54685
G1 X101.872 Y118.858 E5.55517
G1 X101.81 Y119.198 E5.56494
G1 X101.726 Y119.491 E5.57356
G1 X101.603 Y119.793 E5.58278
G1 X101.458 Y120.07 E5.59161
G1 X101.283 Y120.335 E5.60059
G1 X101.065 Y120.604 E5.61038
G1 X100.856 Y120.814 E5.61876
G1 X100.595 Y121.026 E5.62826
G1 X100.34 Y121.197 E5.63694
G1 X100.055 Y121.347 E5.64605
G1 X99.771 Y121.464 E5.65473
G1 X99.441 Y121.561 E5.66446
G1 X99.132 Y121.62 E5.67335
G1 X98.857 Y121.644 E5.68115
G1 X98.833 Y121.647 E5.68184
G1 X98.52 Y121.644 E5.69069
G1 X98.193 Y121.61 E5.69998
G1 X97.876 Y121.542 E5.70915
G1 X97.588 Y121.451 E5.71769
G1 X97.285 Y121.318 E5.72704
G1 X96.994 Y121.156 E5.73646
G1 X96.751 Y120.987 E5.74482
G1 X96.508 Y120.781 E5.75383
G1 X96.273 Y120.534 E5.76347
G1 X96.078 Y120.285 E5.77241
G1 X95.927 Y120.044 E5.78045
G1 X95.911 Y120.02 E5.78127
G1 X95.772 Y119.739 E5.79013
G1 X95.653 Y119.426 E5.7996
G1 X95.577 Y119.138 E5.80802
G1 X95.521 Y118.807 E5.81751
G1 X95.502 Y118.498 E5.82626
G1 X95.514 Y118.163 E5.83574
G1 X95.553 Y117.871 E5.84407
G1 X95.626 Y117.563 E5.85301
G1 X95.737 Y117.245 E5.86254
G1 X95.875 Y116.95 E5.87174
G1 X96.027 Y116.692 E5.88021
G1 X96.223 Y116.427 E5.88953
G1 X96.434 Y116.192 E5.89846
G1 X96.661 Y115.985 E5.90714
G1 X96.925 Y115.789 E5.91644
G1 X97.204 Y115.624 E5.9256
G1 X97.493 Y115.488 E5.93463
G1 X97.792 Y115.383 E5.94359
G1 X98.104 Y115.308 E5.95266
G1 X98.123 Y115.306 E5.9532
G1 X98.403 Y115.266 E5.9612
G1 X98.827 Y115.251 E5.97319
G1 X100.538 Y115.251 E6.02156
G1 X100.538 Y113.351 E6.07528
G1 X104.5 Y113.351 E6.18729
G1 X104.5 Y115.151 E6.23818
G0 F7500 X104.9 Y115.551
G1 F1169.4 X102.023 Y115.551 E6.31951
G1 X102.023 Y117.045 E6.36175
G1 X102.173 Y117.51 E6.37556
G1 X102.251 Y117.871 E6.38601
G1 X102.253 Y117.894 E6.38666
G1 X102.291 Y118.223 E6.39602
G1 X102.297 Y118.582 E6.40617
G1 X102.269 Y118.91 E6.41548
G1 X102.2 Y119.29 E6.4264
G1 X102.107 Y119.615 E6.43595
G1 X101.963 Y119.968 E6.44673
G1 X101.803 Y120.275 E6.45652
G1 X101.608 Y120.57 E6.46652
G1 X101.368 Y120.866 E6.47729
G1 X101.124 Y121.111 E6.48707
G1 X100.834 Y121.347 E6.49764
G1 X100.541 Y121.543 E6.5076
G1 X100.222 Y121.711 E6.51779
G1 X99.901 Y121.843 E6.52761
G1 X99.537 Y121.95 E6.53833
G1 X99.193 Y122.016 E6.54824
G1 X98.869 Y122.044 E6.55743
G1 X98.844 Y122.047 E6.55814
G1 X98.495 Y122.044 E6.56801
G1 X98.132 Y122.006 E6.57833
G1 X97.775 Y121.929 E6.58865
G1 X97.446 Y121.825 E6.59841
G1 X97.104 Y121.675 E6.60896
G1 X96.783 Y121.497 E6.61934
G1 X96.506 Y121.304 E6.62889
G1 X96.237 Y121.075 E6.63887
G1 X96.22 Y121.057 E6.63957
G1 X95.985 Y120.81 E6.64921
G1 X95.97 Y120.795 E6.64981
G1 X95.959 Y120.78 E6.65034
G1 X95.752 Y120.516 E6.65982
G1 X95.741 Y120.498 E6.66042
G1 X95.561 Y120.213 E6.66995
G1 X95.554 Y120.198 E6.67042
G1 X95.404 Y119.897 E6.67992
G1 X95.274 Y119.554 E6.69029
G1 X95.268 Y119.529 E6.69102
G1 X95.183 Y119.213 E6.70027
G1 X95.124 Y118.859 E6.71042
G1 X95.123 Y118.833 E6.71115
G1 X95.101 Y118.499 E6.72062
G1 X95.115 Y118.126 E6.73117
G1 X95.158 Y117.803 E6.74038
G1 X95.243 Y117.446 E6.75076
G1 X95.366 Y117.094 E6.7613
G1 X95.518 Y116.767 E6.77149
G1 X95.693 Y116.472 E6.78119
G1 X95.914 Y116.172 E6.79172
G1 X96.149 Y115.911 E6.80165
G1 X96.404 Y115.678 E6.81142
G1 X96.706 Y115.454 E6.82205
G1 X97.017 Y115.27 E6.83226
G1 X97.34 Y115.118 E6.84236
G1 X97.681 Y114.998 E6.85258
