;FLAVOR:Marlin
;TIME:163
;Filament used: 0.0335102m
;Layer height: 0.2
;MINX:97.95
;MINY:115.2
;MINZ:0.2
;MAXX:102.05
;MAXY:119.8
;MAXZ:4.8
;Generated with Cura_SteamEngine master
M82 ;absolute extrusion mode
; Ender 3 Custom Start G-code
M140 S70 ; Set Heat Bed temperature
M104 S160 ; start warming extruder to 160
G28 ; Home all axes
; G29 ; Auto bed-level (BL-Touch)
G92 E0 ; Reset Extruder
M190 S70 ; Wait for Heat Bed temperature
M104 S210 ; Set Extruder temperature
G1 X0 Y0 Z0.3 F5000.0 ; Move to 0 0
M109 S210 ; Wait for Extruder temperature
G1 X3 Y20 Z0.3 F5000.0 ; Move to start position
; G1 Z2.0 F3000 ; Move Z Axis up little to prevent scratching of Heat Bed
G1 X3 Y200.0 Z0.3 F1500.0 E15 ; Draw the first line
G1 X3.3 Y200.0 Z0.3 F5000.0 ; Move to side a little
G1 X3.3 Y20 Z0.3 F1500.0 E30 ; Draw the second line
G92 E0 ; Reset Extruder
G1 Z2.0 F3000 ; Move Z Axis up little to prevent scratching of Heat Bed
G92 E0
G92 E0
G1 F2100 E-1
;LAYER_COUNT:24
;LAYER:0
M107
M204 S500
M205 X8 Y8
;MESH:Syringe_Latch.stl
G0 F6000 X99.432 Y119 Z0.2
;TYPE:WALL-INNER
G1 F2100 E0
G1 F600 X99.099 Y119 E0.008
G1 X98.75 Y119 E0.01639
G1 X98.75 Y118.648 E0.02485
G1 X98.75 Y118.104 E0.03792
G1 X98.75 Y117.587 E0.05034
G1 X98.831 Y118.104 E0.05172
G1 X99.099 Y118.648 E0.06008
G1 X99.432 Y119 E0.06666
G0 F6000 X99.766 Y118.771
G1 F600 X100.182 Y119.002 E0.0781
G1 X100.193 Y119.008 E0.0784
G1 X100.669 Y119.105 E0.09007
G1 X101.153 Y119.056 E0.10176
G1 X101.275 Y119.004 E0.10495
G1 X101.358 Y118.968 E0.10712
G1 X101.6 Y118.864 E0.11345
G1 X101.65 Y118.821 E0.11504
G1 X101.65 Y118.864
G1 X101.65 Y119.128 E0.11907
G1 X101.65 Y119.4 E0.1256
G1 X101.286 Y119.4 E0.13435
G1 X101.153 Y119.4 E0.13733
G1 X100.669 Y119.4 E0.14664
G1 X100.193 Y119.4 E0.15648
G1 X100.18 Y119.4 E0.15679
G1 X98.35 Y119.4 E0.20077
G1 X98.35 Y115.6 E0.29209
G1 X100.222 Y115.6 E0.33707
G1 X100.508 Y115.6 E0.34394
G1 X100.992 Y115.6 E0.35557
G1 X101.278 Y115.6 E0.36245
G1 X101.65 Y115.6 E0.37139
G1 X101.65 Y115.917 E0.379
G1 X101.65 Y116.056 E0.38234
G1 X101.65 Y116.191 E0.38559
G1 X101.456 Y116.056 E0.38824
G1 X101.324 Y116.015 E0.39088
G1 X101.265 Y115.996 E0.39237
G1 X100.992 Y115.912 E0.39849
G1 X100.508 Y115.912 E0.40758
G1 X100.235 Y115.996 E0.4137
G1 X100.044 Y116.056 E0.41852
G1 X99.642 Y116.335 E0.43027
G1 X99.345 Y116.721 E0.44198
G1 X99.18 Y117.163 E0.45332
G1 X99.145 Y117.524 E0.46203
G1 X99.217 Y117.982 E0.47317
G1 X99.431 Y118.417 E0.48482
G1 X99.766 Y118.771 E0.49653
G1 F2100 E-0.50347
G0 F6000 X100.679 Y118.942
G0 X101.503 Y118.797
G0 X101.386 Y118.521
;TYPE:WALL-OUTER
G1 F2100 E0.49653
G1 F600 X101.663 Y118.283 E0.50531
G1 X101.855 Y117.974 E0.51405
G1 X101.946 Y117.622 E0.52279
G1 X101.928 Y117.258 E0.53155
G1 X101.801 Y116.917 E0.54029
G1 X101.579 Y116.628 E0.54905
G1 X101.279 Y116.42 E0.55782
G1 X100.931 Y116.312 E0.56658
G1 X100.569 Y116.312 E0.57528
G1 X100.221 Y116.42 E0.58403
G1 X99.921 Y116.628 E0.5928
G1 X99.699 Y116.917 E0.60156
G1 X99.573 Y117.254 E0.61021
G1 X99.548 Y117.512 E0.61644
G1 X99.603 Y117.86 E0.6249
G1 X99.763 Y118.186 E0.63363
G1 X100.014 Y118.451 E0.6424
G1 X100.333 Y118.628 E0.65117
G1 X100.689 Y118.701 E0.6599
G1 X101.052 Y118.664 E0.66867
G1 X101.386 Y118.521 E0.6774
G0 F6000 X101.618 Y118.894
G0 X101.78 Y119.53
G0 X102.05 Y119.8
G1 F600 X97.95 Y119.8 E0.77592
G1 X97.95 Y115.2 E0.88646
G1 X102.05 Y115.2 E0.98499
G1 X102.05 Y119.8 E1.09553
G0 F6000 X101.78 Y119.53
G0 X99.867 Y118.642
G0 X98.75 Y117.454
;TYPE:WALL-INNER
G1 F600 X98.75 Y117.072 E1.10471
G1 X98.75 Y116.525 E1.11785
G1 X98.75 Y116.293 E1.12343
G1 X98.75 Y116 E1.13047
G1 X99 Y116 E1.13648
G1 X99.363 Y116 E1.1452
G1 X99.423 Y116 E1.14664
G1 X99.363 Y116.042 E1.14695
G1 X99.141 Y116.329 E1.15216
G1 X99.132 Y116.341 E1.15252
G1 X98.991 Y116.525 E1.15705
G1 X98.787 Y117.072 E1.16236
G1 X98.75 Y117.454 E1.16281
G0 F6000 X99.685 Y116.089
G0 X99.637 Y116.041
;TYPE:SKIN
G1 F600 X99.752 Y115.874 E1.16599
G1 X99.984 Y115.823 E1.16972
G0 F6000 X99.935 Y115.774
G0 X101.365 Y115.79
G0 X101.404 Y115.829
G1 F600 X101.766 Y116.474 E1.17403
G1 X101.859 Y116.284 E1.17526
G0 F6000 X101.75 Y116.269
G0 X101.967 Y117.25
G0 X101.981 Y117.554
G0 X101.796 Y118.34
G0 X101.812 Y118.5
G1 F600 X101.645 Y118.616 E1.17637
G1 X101.38 Y119.199 E1.17986
G0 F6000 X101.405 Y119.224
G0 X99.991 Y119.224
G0 X99.847 Y119.08
G1 F600 X99.638 Y119.154 E1.1871
M104 S210
G0 F6000 X99.708 Y119.2
;MESH:NONMESH
G0 F300 X99.708 Y119.2 Z0.4
G0 F6000 X99.432 Y119
;TIME_ELAPSED:10.984287
;LAYER:1
M140 S65
M106 S85
;TYPE:WALL-INNER
;MESH:Syringe_Latch.stl
G1 F600 X99.099 Y119 E1.19652
G1 X98.75 Y119 E1.20638
G1 X98.75 Y118.648 E1.21633
G1 X98.75 Y118.104 E1.23171
G1 X98.75 Y117.594 E1.24613
G1 X98.831 Y118.104 E1.24773
G1 X99.099 Y118.648 E1.25757
G1 X99.432 Y119 E1.26531
G0 F7500 X99.766 Y118.771
G1 F600 X100.182 Y119.002 E1.27876
G1 X100.193 Y119.008 E1.27912
G1 X100.669 Y119.105 E1.29285
G1 X101.153 Y119.056 E1.3066
G1 X101.275 Y119.004 E1.31035
G1 X101.358 Y118.968 E1.31291
G1 X101.6 Y118.864 E1.32036
G1 X101.65 Y118.821 E1.32222
G1 X101.65 Y118.864
G1 X101.65 Y119.128 E1.32696
G1 X101.65 Y119.4 E1.33465
G1 X101.286 Y119.4 E1.34494
G1 X101.153 Y119.4 E1.34845
G1 X100.669 Y119.4 E1.35941
G1 X100.193 Y119.4 E1.37098
G1 X100.18 Y119.4 E1.37135
G1 X98.35 Y119.4 E1.42308
G1 X98.35 Y115.6 E1.53051
G1 X100.222 Y115.6 E1.58344
G1 X100.508 Y115.6 E1.59152
G1 X100.992 Y115.6 E1.60521
G1 X101.278 Y115.6 E1.61329
G1 X101.65 Y115.6 E1.62381
G1 X101.65 Y115.917 E1.63277
G1 X101.65 Y116.056 E1.6367
G1 X101.65 Y116.191 E1.64052
G1 X101.456 Y116.056 E1.64364
G1 X101.324 Y116.015 E1.64674
G1 X101.265 Y115.996 E1.64849
G1 X100.992 Y115.912 E1.65569
G1 X100.508 Y115.912 E1.66639
G1 X100.235 Y115.996 E1.6736
G1 X100.044 Y116.056 E1.67926
G1 X99.642 Y116.335 E1.69309
G1 X99.345 Y116.721 E1.70686
G1 X99.179 Y117.167 E1.72031
G1 X99.147 Y117.541 E1.73092
G1 X99.217 Y117.982 E1.74355
G1 X99.431 Y118.417 E1.75725
G1 X99.766 Y118.771 E1.77103
G1 F2100 E0.77103
G0 F7500 X100.679 Y118.942
G0 X101.503 Y118.797
G0 X101.386 Y118.521
;TYPE:WALL-OUTER
G1 F2100 E1.77103
G1 F600 X101.663 Y118.283 E1.78136
G1 X101.855 Y117.974 E1.79164
G1 X101.946 Y117.622 E1.80192
G1 X101.928 Y117.258 E1.81222
G1 X101.801 Y116.917 E1.82251
G1 X101.579 Y116.628 E1.83281
G1 X101.279 Y116.42 E1.84313
G1 X100.931 Y116.312 E1.85344
G1 X100.569 Y116.312 E1.86367
G1 X100.221 Y116.42 E1.87397
G1 X99.921 Y116.628 E1.88429
G1 X99.699 Y116.917 E1.89459
G1 X99.573 Y117.255 E1.90479
G1 X99.55 Y117.526 E1.91248
G1 X99.603 Y117.86 E1.92204
G1 X99.763 Y118.186 E1.93231
G1 X100.014 Y118.451 E1.94263
G1 X100.333 Y118.628 E1.95294
G1 X100.689 Y118.701 E1.96321
G1 X101.052 Y118.664 E1.97353
G1 X101.386 Y118.521 E1.9838
G0 F7500 X101.618 Y118.894
G0 X101.78 Y119.53
G0 X102.05 Y119.8
G1 F600 X97.95 Y119.8 E2.09971
G1 X97.95 Y115.2 E2.22976
G1 X102.05 Y115.2 E2.34567
G1 X102.05 Y119.8 E2.47572
G0 F7500 X101.78 Y119.53
G0 X99.867 Y118.642
G0 X98.75 Y117.486
;TYPE:WALL-INNER
G1 F600 X98.75 Y117.079 E2.48723
G1 X98.75 Y116.525 E2.50289
G1 X98.75 Y116.293 E2.50945
G1 X98.75 Y116 E2.51773
G1 X99 Y116 E2.5248
G1 X99.363 Y116 E2.53506
G1 X99.423 Y116 E2.53676
G1 X99.363 Y116.042 E2.53712
G1 X99.141 Y116.329 E2.54325
G1 X99.132 Y116.341 E2.54368
G1 X98.991 Y116.525 E2.549
G1 X98.785 Y117.079 E2.55529
G1 X98.75 Y117.486 E2.55583
G0 F7500 X99.702 Y118.935
G0 X99.642 Y118.994
;TYPE:SKIN
G1 F600 X99.789 Y119.13 E2.55951
G1 X100.022 Y119.18 E2.56388
G0 F7500 X99.978 Y119.224
G0 X101.392 Y119.224
G0 X101.433 Y119.183
G1 F600 X101.775 Y118.558 E2.56946
G0 F7500 X101.905 Y118.393
G0 X101.96 Y117.365
G0 X101.773 Y116.591
G0 X101.821 Y116.532
G1 F600 X101.69 Y116.38 E2.57102
G1 X101.412 Y115.81 E2.57596
G0 F7500 X101.449 Y115.773
G0 X100.034 Y115.774
G0 X99.913 Y115.895
G1 F600 X99.663 Y115.861 E2.58429
G0 F7500 X99.751 Y115.8
;MESH:NONMESH
G0 F300 X99.751 Y115.8 Z0.6
G0 F7500 X99.337 Y117.203
G0 X99.432 Y119
;TIME_ELAPSED:17.745821
;LAYER:2
M106 S170
;TYPE:WALL-INNER
;MESH:Syringe_Latch.stl
G1 F600 X99.099 Y119 E2.59371
G1 X98.75 Y119 E2.60358
G1 X98.75 Y118.648 E2.61353
G1 X98.75 Y118.109 E2.62876
G1 X98.75 Y117.61 E2.64287
G1 X98.834 Y118.109 E2.64452
G1 X99.099 Y118.648 E2.65431
G1 X99.432 Y119 E2.66206
G0 F9000 X99.766 Y118.771
G1 F600 X100.182 Y119.002 E2.67551
G1 X100.193 Y119.008 E2.67586
G1 X100.669 Y119.105 E2.6896
G1 X101.153 Y119.056 E2.70335
G1 X101.275 Y119.004 E2.7071
G1 X101.358 Y118.968 E2.70966
G1 X101.6 Y118.864 E2.7171
G1 X101.65 Y118.821 E2.71897
G1 X101.65 Y118.864
G1 X101.65 Y119.128 E2.72371
G1 X101.65 Y119.4 E2.7314
G1 X101.286 Y119.4 E2.74169
G1 X101.153 Y119.4 E2.7452
G1 X100.669 Y119.4 E2.75615
G1 X100.193 Y119.4 E2.76773
G1 X100.18 Y119.4 E2.76809
G1 X98.35 Y119.4 E2.81983
G1 X98.35 Y115.6 E2.92726
G1 X100.222 Y115.6 E2.98018
G1 X100.508 Y115.6 E2.98827
G1 X100.992 Y115.6 E3.00195
G1 X101.278 Y115.6 E3.01004
G1 X101.65 Y115.6 E3.02056
G1 X101.65 Y115.917 E3.02952
G1 X101.65 Y116.056 E3.03345
G1 X101.65 Y116.191 E3.03726
G1 X101.456 Y116.056 E3.04039
G1 X101.324 Y116.015 E3.04348
G1 X101.265 Y115.996 E3.04524
G1 X100.992 Y115.912 E3.05244
G1 X100.508 Y115.912 E3.06314
G1 X100.235 Y115.996 E3.07034
G1 X100.044 Y116.056 E3.076
G1 X99.642 Y116.335 E3.08984
G1 X99.345 Y116.721 E3.1036
G1 X99.179 Y117.167 E3.11706
G1 X99.147 Y117.557 E3.12812
G1 X99.219 Y117.985 E3.14039
G1 X99.431 Y118.417 E3.154
G1 X99.766 Y118.771 E3.16777
G1 F2100 E2.16777
G0 F9000 X100.679 Y118.942
G0 X101.503 Y118.797
G0 X101.386 Y118.521
;TYPE:WALL-OUTER
G1 F2100 E3.16777
G1 F600 X101.663 Y118.283 E3.1781
G1 X101.855 Y117.974 E3.18838
G1 X101.946 Y117.622 E3.19866
G1 X101.928 Y117.258 E3.20897
G1 X101.801 Y116.917 E3.21925
G1 X101.579 Y116.628 E3.22956
G1 X101.279 Y116.42 E3.23988
G1 X100.931 Y116.312 E3.25018
G1 X100.569 Y116.312 E3.26041
G1 X100.221 Y116.42 E3.27071
G1 X99.921 Y116.628 E3.28103
G1 X99.699 Y116.917 E3.29134
G1 X99.573 Y117.255 E3.30153
G1 X99.55 Y117.54 E3.30962
G1 X99.604 Y117.861 E3.31882
G1 X99.763 Y118.186 E3.32905
G1 X100.014 Y118.451 E3.33937
G1 X100.333 Y118.628 E3.34968
G1 X100.689 Y118.701 E3.35996
G1 X101.052 Y118.664 E3.37027
G1 X101.386 Y118.521 E3.38054
G0 F9000 X101.618 Y118.894
G0 X101.78 Y119.53
G0 X102.05 Y119.8
G1 F600 X97.95 Y119.8 E3.49645
G1 X97.95 Y115.2 E3.6265
G1 X102.05 Y115.2 E3.74241
G1 X102.05 Y119.8 E3.87246
G0 F9000 X101.78 Y119.53
G0 X99.867 Y118.642
G0 X98.75 Y117.502
;TYPE:WALL-INNER
G1 F600 X98.75 Y117.079 E3.88442
G1 X98.75 Y116.525 E3.90008
G1 X98.75 Y116.293 E3.90664
G1 X98.75 Y116 E3.91492
G1 X99 Y116 E3.92199
G1 X99.363 Y116 E3.93225
G1 X99.423 Y116 E3.93395
G1 X99.363 Y116.042 E3.93431
G1 X99.141 Y116.329 E3.94045
G1 X99.132 Y116.341 E3.94087
G1 X98.991 Y116.525 E3.94619
G1 X98.785 Y117.079 E3.95249
G1 X98.75 Y117.502 E3.95304
G0 F9000 X99.685 Y116.089
G0 X99.637 Y116.041
;TYPE:SKIN
G1 F600 X99.752 Y115.874 E3.95679
G1 X99.984 Y115.823 E3.96118
G0 F9000 X99.935 Y115.774
G0 X101.365 Y115.79
G0 X101.404 Y115.829
G1 F600 X101.766 Y116.474 E3.96624
G1 X101.859 Y116.284 E3.96769
G0 F9000 X101.75 Y116.269
G0 X101.967 Y117.25
G0 X101.981 Y117.554
G0 X101.796 Y118.34
G0 X101.812 Y118.5
G1 F600 X101.645 Y118.616 E3.969
G1 X101.38 Y119.199 E3.9731
G0 F9000 X101.405 Y119.224
G0 X99.991 Y119.224
G0 X99.847 Y119.08
G1 F600 X99.638 Y119.154 E3.98162
G0 F9000 X99.708 Y119.2
;MESH:NONMESH
G0 F300 X99.708 Y119.2 Z0.8
G0 F9000 X99.432 Y119
;TIME_ELAPSED:24.441136
;LAYER:3
M106 S255
;TYPE:WALL-INNER
;MESH:Syringe_Latch.stl
G1 F600 X99.098 Y119 E3.99107
G1 X98.75 Y119 E4.0009
G1 X98.75 Y118.648 E4.01086
G1 X98.75 Y118.11 E4.02607
G1 X98.75 Y117.622 E4.03986
G1 X98.836 Y118.11 E4.04151
G1 X99.098 Y118.648 E4.05129
G1 X99.432 Y119 E4.05904
G0 F9000 X99.766 Y118.771
G1 F600 X100.182 Y119.002 E4.07249
G1 X100.193 Y119.008 E4.07284
G1 X100.669 Y119.105 E4.08658
G1 X101.153 Y119.056 E4.10033
G1 X101.275 Y119.004 E4.10408
G1 X101.358 Y118.968 E4.10664
G1 X101.6 Y118.864 E4.11408
G1 X101.65 Y118.821 E4.11595
G1 X101.65 Y118.864
G1 X101.65 Y119.128 E4.12069
G1 X101.65 Y119.4 E4.12838
G1 X101.286 Y119.4 E4.13867
G1 X101.153 Y119.4 E4.14218
G1 X100.669 Y119.4 E4.15313
G1 X100.193 Y119.4 E4.16471
G1 X100.18 Y119.4 E4.16507
G1 X98.35 Y119.4 E4.21681
G1 X98.35 Y115.6 E4.32424
G1 X100.222 Y115.6 E4.37716
G1 X100.508 Y115.6 E4.38525
G1 X100.992 Y115.6 E4.39893
G1 X101.278 Y115.6 E4.40702
G1 X101.65 Y115.6 E4.41754
G1 X101.65 Y115.917 E4.4265
G1 X101.65 Y116.056 E4.43043
G1 X101.65 Y116.191 E4.43424
G1 X101.456 Y116.056 E4.43737
G1 X101.324 Y116.015 E4.44046
G1 X101.265 Y115.996 E4.44222
G1 X100.992 Y115.912 E4.44942
G1 X100.508 Y115.912 E4.46012
G1 X100.235 Y115.996 E4.46732
G1 X100.044 Y116.056 E4.47298
G1 X99.642 Y116.335 E4.48682
G1 X99.345 Y116.721 E4.50058
G1 X99.178 Y117.17 E4.51413
G1 X99.148 Y117.574 E4.52558
G1 X99.22 Y117.985 E4.53738
G1 X99.431 Y118.417 E4.55097
G1 X99.766 Y118.771 E4.56475
G1 F2100 E3.56475
G0 F9000 X100.679 Y118.942
G0 X101.503 Y118.797
G0 X101.386 Y118.521
;TYPE:WALL-OUTER
G1 F2100 E4.56475
G1 F600 X101.663 Y118.283 E4.57507
G1 X101.855 Y117.974 E4.58536
G1 X101.946 Y117.622 E4.59564
G1 X101.928 Y117.258 E4.60594
G1 X101.801 Y116.917 E4.61623
G1 X101.579 Y116.628 E4.62653
G1 X101.279 Y116.42 E4.63685
G1 X100.931 Y116.312 E4.64715
G1 X100.569 Y116.312 E4.65739
G1 X100.221 Y116.42 E4.66769
G1 X99.921 Y116.628 E4.67801
G1 X99.699 Y116.917 E4.68831
G1 X99.573 Y117.256 E4.69853
G1 X99.551 Y117.554 E4.70698
G1 X99.604 Y117.861 E4.71579
G1 X99.763 Y118.186 E4.72602
G1 X100.014 Y118.451 E4.73634
G1 X100.333 Y118.628 E4.74665
G1 X100.689 Y118.701 E4.75692
G1 X101.052 Y118.664 E4.76724
G1 X101.386 Y118.521 E4.77751
G0 F9000 X101.618 Y118.894
G0 X101.78 Y119.53
G0 X102.05 Y119.8
G1 F600 X97.95 Y119.8 E4.89342
G1 X97.95 Y115.2 E5.02347
G1 X102.05 Y115.2 E5.13938
G1 X102.05 Y119.8 E5.26943
G0 F9000 X101.78 Y119.53
G0 X99.867 Y118.642
G0 X98.75 Y117.527
;TYPE:WALL-INNER
G1 F600 X98.75 Y117.084 E5.28195
G1 X98.75 Y116.525 E5.29776
G1 X98.75 Y116.293 E5.30432
G1 X98.75 Y116 E5.3126
G1 X99 Y116 E5.31967
G1 X99.363 Y116 E5.32993
G1 X99.423 Y116 E5.33163
G1 X99.363 Y116.042 E5.33199
G1 X99.141 Y116.329 E5.33812
G1 X99.132 Y116.341 E5.33855
G1 X98.991 Y116.525 E5.34387
G1 X98.783 Y117.084 E5.35017
G1 X98.75 Y117.527 E5.35071
G0 F9000 X99.702 Y118.935
G0 X99.642 Y118.994
;TYPE:SKIN
G1 F600 X99.789 Y119.13 E5.35439
G1 X100.022 Y119.18 E5.35877
G0 F9000 X99.978 Y119.224
G0 X101.392 Y119.224
G0 X101.433 Y119.183
G1 F600 X101.775 Y118.558 E5.36434
G0 F9000 X101.905 Y118.393
G0 X101.96 Y117.365
G0 X101.773 Y116.591
G0 X101.821 Y116.532
G1 F600 X101.69 Y116.38 E5.3659
G1 X101.412 Y115.81 E5.37084
G0 F9000 X101.449 Y115.773
G0 X100.034 Y115.774
G0 X99.913 Y115.895
G1 F600 X99.663 Y115.861 E5.37918
G0 F9000 X99.751 Y115.8
;MESH:NONMESH
G0 F300 X99.751 Y115.8 Z1
G0 F9000 X99.337 Y117.205
G0 X99.444 Y119
;TIME_ELAPSED:31.207123
;LAYER:4
;TYPE:WALL-INNER
;MESH:Syringe_Latch.stl
G1 F600 X99.167 Y119 E5.38701
G1 X99.049 Y119 E5.39035
G1 X98.75 Y119 E5.3988
G1 X98.75 Y118.7 E5.40728
G1 X98.75 Y118.209 E5.42116
G1 X98.75 Y117.649 E5.43699
G1 X98.868 Y118.209 E5.4396
G1 X99.109 Y118.637 E5.44876
G1 X99.167 Y118.739 E5.4513
G1 X99.444 Y119 E5.45623
G0 F9000 X99.84 Y118.824
G1 F600 X100.214 Y119.003 E5.46796
G1 X100.28 Y119.035 E5.47003
G1 X100.759 Y119.106 E5.48372
G1 X101.24 Y119.029 E5.49749
G1 X101.292 Y119.003 E5.49913
G1 X101.362 Y118.968 E5.50135
G1 X101.65 Y118.825 E5.51044
G1 X101.65 Y119.146 E5.51565
G1 X101.65 Y119.4 E5.52283
G1 X101.299 Y119.4 E5.53276
G1 X101.24 Y119.4 E5.53437
G1 X100.759 Y119.4 E5.54569
G1 X100.28 Y119.4 E5.55687
G1 X100.206 Y119.4 E5.55888
G1 X98.35 Y119.4 E5.61135
G1 X98.35 Y115.6 E5.71878
G1 X100.226 Y115.6 E5.77182
G1 X100.418 Y115.6 E5.77724
G1 X100.903 Y115.6 E5.79096
G1 X101.292 Y115.6 E5.80195
G1 X101.65 Y115.6 E5.81207
G1 X101.65 Y115.943 E5.82177
G1 X101.65 Y116.021 E5.82398
G1 X101.65 Y116.19 E5.82875
G1 X101.373 Y116.021 E5.83389
G1 X101.298 Y116.002 E5.83581
G1 X101.28 Y115.997 E5.83634
G1 X100.903 Y115.902 E5.846
G1 X100.418 Y115.929 E5.85686
G1 X100.239 Y115.996 E5.8618
G1 X99.963 Y116.1 E5.87014
G1 X99.579 Y116.401 E5.88393
