;FLAVOR:Marlin
;TIME:584
;Filament used: 0.316357m
;Layer height: 0.2
;MINX:91.2
;MINY:108.7
;MINZ:0.2
;MAXX:108.8
;MAXY:126.3
;MAXZ:6.4
;Generated with Cura_SteamEngine master
M82 ;absolute extrusion mode
; Ender 3 Custom Start G-code
M140 S70 ; Set Heat Bed temperature
M104 S160 ; start warming extruder to 160
G28 ; Home all axes
; G29 ; Auto bed-level (BL-Touch)
G92 E0 ; Reset Extruder
M190 S70 ; Wait for Heat Bed temperature
M104 S210 ; Set Extruder temperature
G1 X0 Y0 Z0.3 F5000.0 ; Move to 0 0
M109 S210 ; Wait for Extruder temperature
G1 X3 Y20 Z0.3 F5000.0 ; Move to start position
; G1 Z2.0 F3000 ; Move Z Axis up little to prevent scratching of Heat Bed
G1 X3 Y200.0 Z0.3 F1500.0 E15 ; Draw the first line
G1 X3.3 Y200.0 Z0.3 F5000.0 ; Move to side a little
G1 X3.3 Y20 Z0.3 F1500.0 E30 ; Draw the second line
G92 E0 ; Reset Extruder
G1 Z2.0 F3000 ; Move Z Axis up little to prevent scratching of Heat Bed
G92 E0
G92 E0
G1 F2100 E-1
;LAYER_COUNT:32
;LAYER:0
M107
M204 S500
M205 X8 Y8
;MESH:Wheel.stl
G0 F6000 X101.31 Y112.522 Z0.2
;TYPE:WALL-INNER
G1 F2100 E0
G1 F1200 X101.935 Y111.924 E0.02079
G1 X102.311 Y111.144 E0.04159
G1 X102.376 Y110.415 E0.05918
G1 X102.379 Y110.371 E0.06024
G1 X102.387 Y110.289 E0.06222
G1 X102.71 Y110.4 E0.06784
G1 X102.751 Y110.417 E0.06883
G1 X103.124 Y110.573 E0.07855
G1 X103.535 Y110.773 E0.08953
G1 X103.945 Y111.006 E0.10086
G1 X104.319 Y111.247 E0.11155
G1 X104.705 Y111.533 E0.1231
G1 X105.043 Y111.815 E0.13368
G1 X105.367 Y112.121 E0.14439
G1 X105.703 Y112.477 E0.15615
G1 X105.979 Y112.81 E0.16654
G1 X106.259 Y113.189 E0.17787
G1 X106.507 Y113.574 E0.18887
G1 X106.721 Y113.955 E0.19937
G1 X106.935 Y114.395 E0.21113
G1 X107.123 Y114.851 E0.22298
G1 X107.244 Y115.206 E0.23199
G1 X107.386 Y115.719 E0.24479
G1 X107.47 Y116.107 E0.25433
G1 X107.549 Y116.633 E0.26711
G1 X107.584 Y117.011 E0.27623
G1 X107.6 Y117.503 E0.28806
G1 X107.584 Y117.979 E0.2995
G1 X107.544 Y118.426 E0.31029
G1 X107.48 Y118.846 E0.3205
G1 X107.373 Y119.335 E0.33253
G1 X107.259 Y119.751 E0.34289
G1 X107.097 Y120.219 E0.35479
G1 X106.94 Y120.596 E0.36461
G1 X106.718 Y121.052 E0.37679
G1 X106.51 Y121.419 E0.38693
G1 X106.263 Y121.803 E0.3979
G1 X105.958 Y122.216 E0.41024
G1 X105.706 Y122.519 E0.41971
G1 X105.354 Y122.892 E0.43204
G1 X105.031 Y123.196 E0.44269
G1 X104.682 Y123.485 E0.45358
G1 X104.313 Y123.757 E0.4646
G1 X103.928 Y124.005 E0.4756
G1 X103.522 Y124.235 E0.48682
G1 X103.115 Y124.432 E0.49768
G1 X102.69 Y124.606 E0.50872
G1 X102.256 Y124.756 E0.51975
G1 X101.813 Y124.879 E0.5308
G1 X101.361 Y124.975 E0.54191
G1 X100.89 Y125.047 E0.55336
G1 X100.481 Y125.084 E0.56322
G1 X99.991 Y125.1 E0.57501
G1 X99.503 Y125.083 E0.58674
G1 X99.077 Y125.044 E0.59702
G1 X98.64 Y124.977 E0.60764
G1 X98.159 Y124.873 E0.61947
G1 X97.737 Y124.754 E0.63001
G1 X97.296 Y124.602 E0.64121
G1 X96.873 Y124.425 E0.65223
G1 X96.459 Y124.223 E0.6633
G1 X96.055 Y123.994 E0.67446
G1 X95.679 Y123.752 E0.68521
G1 X95.299 Y123.47 E0.69658
G1 X94.939 Y123.169 E0.70786
G1 X94.63 Y122.876 E0.71809
G1 X94.293 Y122.519 E0.72989
G1 X94.002 Y122.166 E0.74088
G1 X93.745 Y121.816 E0.75131
G1 X93.492 Y121.424 E0.76253
G1 X93.252 Y120.996 E0.77432
G1 X93.063 Y120.604 E0.78477
G1 X92.897 Y120.198 E0.79531
G1 X92.744 Y119.759 E0.80649
G1 X92.616 Y119.293 E0.8181
G1 X92.527 Y118.876 E0.82835
G1 X92.451 Y118.367 E0.84071
G1 X92.416 Y117.973 E0.85022
G1 X92.4 Y117.495 E0.86171
G1 X92.417 Y116.991 E0.87383
G1 X92.456 Y116.573 E0.88392
G1 X92.52 Y116.153 E0.89413
G1 X92.631 Y115.645 E0.90662
G1 X92.738 Y115.259 E0.91625
G1 X92.905 Y114.777 E0.92851
G1 X93.063 Y114.398 E0.93837
G1 X93.285 Y113.944 E0.95052
G1 X93.506 Y113.554 E0.96129
G1 X93.733 Y113.202 E0.97136
G1 X94.042 Y112.784 E0.98385
G1 X94.306 Y112.467 E0.99376
G1 X94.63 Y112.124 E1.0051
G1 X94.977 Y111.797 E1.01656
G1 X95.327 Y111.508 E1.02746
G1 X95.686 Y111.243 E1.03819
G1 X96.064 Y110.999 E1.049
G1 X96.49 Y110.759 E1.06075
G1 X96.887 Y110.567 E1.07134
G1 X97.262 Y110.413 E1.08109
G1 X97.31 Y110.394 E1.08233
G1 X97.48 Y110.336 E1.08664
G1 X97.588 Y110.298 E1.08939
G1 X97.578 Y110.417 E1.09028
G1 X97.564 Y110.577 E1.09259
G1 X97.573 Y110.628 E1.09384
G1 X97.709 Y111.355 E1.11161
G1 X98.151 Y112.094 E1.1323
G1 X98.828 Y112.634 E1.15311
G1 X99.652 Y112.901 E1.17393
G1 X100.513 Y112.861 E1.19464
G1 X101.31 Y112.522 E1.21545
G0 F6000 X101.086 Y112.183
G1 F1200 X101.606 Y111.685 E1.23276
G1 X101.919 Y111.036 E1.25007
G1 X101.983 Y110.318 E1.26739
G1 X101.899 Y110.016 E1.27493
G1 X101.83 Y109.767 E1.28114
G1 X101.815 Y109.713 E1.28248
G1 X101.933 Y109.738 E1.28377
G1 X102.182 Y109.807 E1.288
G1 X102.386 Y109.865 E1.2931
G1 X102.849 Y110.025 E1.30487
G1 X103.288 Y110.208 E1.3163
G1 X103.722 Y110.42 E1.32791
G1 X104.153 Y110.664 E1.33981
G1 X104.542 Y110.915 E1.35093
G1 X104.954 Y111.22 E1.36325
G1 X105.318 Y111.524 E1.37465
G1 X105.65 Y111.838 E1.38563
G1 X105.994 Y112.202 E1.39766
G1 X106.301 Y112.572 E1.40922
G1 X106.581 Y112.951 E1.42054
G1 X106.852 Y113.371 E1.43255
G1 X107.076 Y113.769 E1.44353
G1 X107.299 Y114.227 E1.45577
G1 X107.493 Y114.699 E1.46803
G1 X107.5 Y114.721 E1.46859
G1 X107.63 Y115.099 E1.47819
G1 X107.772 Y115.612 E1.49098
G1 X107.866 Y116.048 E1.5017
G1 X107.945 Y116.574 E1.51448
G1 X107.981 Y116.974 E1.52413
G1 X107.984 Y116.998 E1.52472
G1 X108 Y117.503 E1.53686
G1 X107.983 Y118.009 E1.54902
G1 X107.941 Y118.474 E1.56024
G1 X107.871 Y118.932 E1.57138
G1 X107.762 Y119.43 E1.58363
G1 X107.641 Y119.87 E1.59459
G1 X107.472 Y120.358 E1.607
G1 X107.3 Y120.771 E1.61775
G1 X107.075 Y121.233 E1.6301
G1 X106.847 Y121.635 E1.64121
G1 X106.592 Y122.032 E1.65255
G1 X106.28 Y122.454 E1.66516
G1 X105.997 Y122.794 E1.67579
G1 X105.645 Y123.167 E1.68811
G1 X105.294 Y123.498 E1.69971
G1 X104.92 Y123.807 E1.71136
G1 X104.546 Y124.083 E1.72253
G1 X104.136 Y124.347 E1.73425
G1 X103.708 Y124.589 E1.74607
G1 X103.281 Y124.796 E1.75747
G1 X102.821 Y124.984 E1.76941
G1 X102.382 Y125.136 E1.78058
G1 X101.906 Y125.268 E1.79245
G1 X101.436 Y125.368 E1.80399
G1 X100.951 Y125.441 E1.81578
G1 X100.937 Y125.444 E1.81612
G1 X100.495 Y125.484 E1.82679
G1 X99.991 Y125.5 E1.83891
G1 X99.487 Y125.483 E1.85102
G1 X99.029 Y125.441 E1.86208
G1 X98.56 Y125.369 E1.87348
G1 X98.067 Y125.262 E1.8856
G1 X97.614 Y125.135 E1.89691
G1 X97.151 Y124.975 E1.90868
G1 X96.707 Y124.789 E1.92025
G1 X96.278 Y124.58 E1.93171
G1 X95.847 Y124.336 E1.94362
G1 X95.456 Y124.084 E1.95479
G1 X95.042 Y123.777 E1.96718
G1 X94.682 Y123.476 E1.97846
G1 X94.339 Y123.151 E1.98981
G1 X93.998 Y122.79 E2.00174
G1 X93.693 Y122.42 E2.01327
G1 X93.415 Y122.042 E2.02454
G1 X93.147 Y121.626 E2.03643
G1 X92.903 Y121.192 E2.0484
G1 X92.893 Y121.17 E2.04898
G1 X92.699 Y120.77 E2.05966
G1 X92.519 Y120.33 E2.07109
G1 X92.363 Y119.883 E2.08246
G1 X92.228 Y119.389 E2.09477
G1 X92.226 Y119.377 E2.09506
G1 X92.132 Y118.94 E2.1058
G1 X92.055 Y118.426 E2.11829
G1 X92.016 Y117.992 E2.12876
G1 X92 Y117.495 E2.14071
G1 X92.017 Y116.978 E2.15314
G1 X92.059 Y116.527 E2.16403
G1 X92.129 Y116.068 E2.17519
G1 X92.24 Y115.56 E2.18768
G1 X92.36 Y115.128 E2.19846
G1 X92.53 Y114.638 E2.21092
G1 X92.698 Y114.234 E2.22143
G1 X92.93 Y113.759 E2.23414
G1 X93.165 Y113.345 E2.24558
G1 X93.411 Y112.964 E2.25647
G1 X93.72 Y112.546 E2.26897
G1 X94.015 Y112.192 E2.28004
G1 X94.347 Y111.841 E2.29165
G1 X94.706 Y111.502 E2.30351
G1 X95.08 Y111.193 E2.31517
G1 X95.461 Y110.912 E2.32655
G1 X95.861 Y110.654 E2.33799
G1 X96.298 Y110.408 E2.35004
G1 X96.719 Y110.204 E2.36128
G1 X97.179 Y110.016 E2.37322
G1 X97.603 Y109.869 E2.38401
G1 X97.868 Y109.795 E2.39062
G1 X97.918 Y109.782 E2.39186
G1 X98.112 Y109.728 E2.3967
G1 X98.148 Y109.72 E2.39758
G1 X98.141 Y109.738
G1 X98.006 Y110.096 E2.40327
G1 X98.002 Y110.147 E2.4044
G1 X97.967 Y110.557 E2.41429
G1 X98.089 Y111.211 E2.43028
G1 X98.457 Y111.826 E2.4475
G1 X99.021 Y112.276 E2.46484
G1 X99.706 Y112.498 E2.48214
G1 X100.423 Y112.465 E2.49939
G1 X101.086 Y112.183 E2.5167
G0 F6000 X100.862 Y111.844
G1 F1200 X101.277 Y111.446 E2.53052
G1 X101.527 Y110.928 E2.54434
G1 X101.578 Y110.355 E2.55817
G1 X101.425 Y109.802 E2.57196
G1 X101.254 Y109.566 E2.57896
G1 X101.087 Y109.336 E2.58579
G1 X100.96 Y109.252 E2.58945
G1 X100.792 Y109.141 E2.59429
G1 X101.019 Y109.162 E2.59542
G1 X101.111 Y109.176 E2.59575
G1 X101.393 Y109.219 E2.60072
G1 X101.52 Y109.239 E2.60381
G1 X102.025 Y109.349 E2.61623
G1 X102.508 Y109.484 E2.62828
G1 X102.988 Y109.65 E2.64048
G1 X103.449 Y109.842 E2.65248
G1 X103.916 Y110.07 E2.66497
G1 X104.362 Y110.323 E2.6773
G1 X104.775 Y110.59 E2.68911
G1 X105.192 Y110.898 E2.70157
G1 X105.583 Y111.224 E2.7138
G1 X105.941 Y111.563 E2.72565
G1 X106.285 Y111.927 E2.73769
G1 X106.617 Y112.326 E2.75016
G1 X106.912 Y112.726 E2.7621
G1 X107.197 Y113.168 E2.77474
G1 X107.434 Y113.589 E2.78635
G1 X107.662 Y114.059 E2.7989
G1 X107.863 Y114.547 E2.81159
G1 X107.87 Y114.569 E2.81214
G1 X108.016 Y114.992 E2.8229
G1 X108.158 Y115.505 E2.83569
G1 X108.256 Y115.964 E2.84697
G1 X108.262 Y115.989 E2.84758
G1 X108.341 Y116.515 E2.86036
G1 X108.381 Y116.961 E2.87113
G1 X108.384 Y116.986 E2.87173
G1 X108.4 Y117.504 E2.88418
G1 X108.383 Y118.029 E2.89681
G1 X108.338 Y118.519 E2.90863
G1 X108.262 Y119.017 E2.92074
G1 X108.153 Y119.517 E2.93303
G1 X108.019 Y120.001 E2.9451
G1 X107.849 Y120.491 E2.95757
G1 X107.66 Y120.946 E2.96941
G1 X107.432 Y121.414 E2.98192
G1 X107.189 Y121.843 E2.99376
G1 X106.914 Y122.27 E3.00597
G1 X106.602 Y122.692 E3.01858
G1 X106.288 Y123.069 E3.03037
G1 X105.936 Y123.442 E3.04269
G1 X105.568 Y123.788 E3.05483
G1 X105.557 Y123.799 E3.05521
G1 X105.167 Y124.122 E3.06738
G1 X104.771 Y124.414 E3.0792
G1 X104.344 Y124.689 E3.0914
G1 X103.894 Y124.943 E3.10382
G1 X103.442 Y125.162 E3.11589
G1 X102.962 Y125.359 E3.12836
G1 X102.508 Y125.516 E3.1399
G1 X101.999 Y125.657 E3.15259
G1 X101.511 Y125.761 E3.16458
G1 X100.984 Y125.841 E3.17739
G1 X100.51 Y125.884 E3.18883
G1 X99.99 Y125.9 E3.20133
G1 X99.471 Y125.883 E3.21381
G1 X98.981 Y125.838 E3.22564
G1 X98.48 Y125.761 E3.23782
G1 X97.975 Y125.651 E3.25024
G1 X97.492 Y125.516 E3.26229
G1 X97.012 Y125.35 E3.27449
G1 X96.549 Y125.157 E3.28655
G1 X96.084 Y124.93 E3.29898
G1 X95.638 Y124.677 E3.3113
G1 X95.223 Y124.409 E3.32317
G1 X94.804 Y124.099 E3.3357
G1 X94.417 Y123.776 E3.34781
G1 X94.051 Y123.429 E3.35993
G1 X93.707 Y123.065 E3.37197
G1 X93.378 Y122.667 E3.38438
G1 X93.084 Y122.267 E3.39631
G1 X92.806 Y121.836 E3.40863
G1 X92.554 Y121.388 E3.42098
G1 X92.335 Y120.936 E3.43305
G1 X92.142 Y120.464 E3.44531
G1 X91.98 Y119.998 E3.45716
G1 X91.842 Y119.495 E3.4697
G1 X91.838 Y119.473 E3.47023
G1 X91.737 Y119.005 E3.48174
G1 X91.659 Y118.485 E3.49437
G1 X91.616 Y118.009 E3.50586
G1 X91.6 Y117.495 E3.51822
G1 X91.617 Y116.965 E3.53096
G1 X91.662 Y116.481 E3.54264
G1 X91.738 Y115.983 E3.55475
G1 X91.849 Y115.475 E3.56724
G1 X91.982 Y114.997 E3.57916
G1 X92.152 Y114.507 E3.59163
G1 X92.338 Y114.059 E3.60328
G1 X92.576 Y113.571 E3.61633
G1 X92.817 Y113.147 E3.62805
G1 X93.089 Y112.726 E3.6401
G1 X93.398 Y112.308 E3.65259
G1 X93.724 Y111.917 E3.66482
G1 X94.056 Y111.566 E3.67643
G1 X94.443 Y111.201 E3.68921
G1 X94.833 Y110.878 E3.70138
G1 X95.229 Y110.586 E3.71321
G1 X95.658 Y110.309 E3.72548
G1 X96.106 Y110.057 E3.73783
G1 X96.558 Y109.838 E3.7499
G1 X97.038 Y109.641 E3.76237
G1 X97.492 Y109.484 E3.77391
G1 X98.005 Y109.342 E3.7867
G1 X98.064 Y109.33 E3.78815
G1 X98.489 Y109.239 E3.79859
G1 X98.959 Y109.168 E3.81002
G1 X99.016 Y109.159 E3.8114
G1 X99.146 Y109.147 E3.81454
G1 X99.041 Y109.203 E3.81465
G1 X98.971 Y109.241 E3.81518
G1 X98.765 Y109.478 E3.81871
G1 X98.594 Y109.674 E3.82496
G1 X98.4 Y110.186 E3.83811
G1 X98.37 Y110.537 E3.84658
G1 X98.469 Y111.067 E3.85954
G1 X98.763 Y111.559 E3.87331
G1 X99.213 Y111.918 E3.88714
G1 X99.76 Y112.095 E3.90096
G1 X100.333 Y112.069 E3.91474
G1 X100.862 Y111.844 E3.92856
G0 F6000 X100.638 Y111.505
;TYPE:WALL-OUTER
G1 F1200 X100.948 Y111.207 E3.93889
G1 X101.135 Y110.82 E3.94922
G1 X101.173 Y110.392 E3.95954
G1 X101.059 Y109.978 E3.96986
G1 X100.806 Y109.63 E3.9802
G1 X100.448 Y109.394 E3.9905
G1 X100.029 Y109.298 E4.00083
G1 X99.603 Y109.356 E4.01117
G1 X99.225 Y109.559 E4.02148
G1 X98.943 Y109.883 E4.0318
G1 X98.794 Y110.276 E4.0419
G1 X98.773 Y110.517 E4.04771
G1 X98.849 Y110.923 E4.05764
G1 X99.069 Y111.292 E4.06796
G1 X99.405 Y111.56 E4.07829
G1 X99.814 Y111.692 E4.08862
G1 X100.243 Y111.673 E4.09894
G1 X100.638 Y111.505 E4.10925
G0 F6000 X100.88 Y111.872
G0 X102.147 Y117.999
G0 X103.177 Y119.891
;TYPE:WALL-INNER
G1 F1200 X104.04 Y119.849 E4.13001
G1 X104.835 Y119.51 E4.15078
G1 X105.46 Y118.912 E4.17157
G1 X105.836 Y118.133 E4.19235
G1 X105.913 Y117.27 E4.21317
G1 X105.682 Y116.439 E4.2339
G1 X105.175 Y115.738 E4.25469
G1 X104.453 Y115.26 E4.2755
G1 X103.608 Y115.069 E4.29632
G1 X102.752 Y115.183 E4.31707
G1 X101.987 Y115.597 E4.33797
G1 X101.421 Y116.246 E4.35866
G1 X101.137 Y116.995 E4.37791
G1 X101.089 Y117.566 E4.39168
G1 X101.234 Y118.344 E4.4107
G1 X101.676 Y119.081 E4.43135
G1 X102.35 Y119.622 E4.45212
G1 X103.177 Y119.891 E4.47302
G0 F6000 X103.231 Y119.488
G1 F1200 X103.949 Y119.453 E4.49029
G1 X104.611 Y119.171 E4.50758
G1 X105.131 Y118.673 E4.52489
G1 X105.444 Y118.025 E4.54218
G1 X105.508 Y117.307 E4.5595
G1 X105.316 Y116.615 E4.57676
G1 X104.894 Y116.031 E4.59407
G1 X104.293 Y115.634 E4.61138
G1 X103.59 Y115.475 E4.6287
G1 X102.878 Y115.57 E4.64596
G1 X102.241 Y115.914 E4.66336
G1 X101.77 Y116.455 E4.6806
G1 X101.531 Y117.085 E4.69679
G1 X101.492 Y117.546 E4.70791
G1 X101.614 Y118.2 E4.72389
G1 X101.982 Y118.814 E4.7411
G1 X102.543 Y119.264 E4.75838
G1 X103.231 Y119.488 E4.77577
G0 F6000 X103.285 Y119.085
G1 F1200 X103.858 Y119.057 E4.78955
G1 X104.387 Y118.832 E4.80337
G1 X104.802 Y118.434 E4.81718
G1 X105.052 Y117.917 E4.83098
G1 X105.103 Y117.344 E4.84481
G1 X104.95 Y116.791 E4.8586
G1 X104.613 Y116.325 E4.87242
G1 X104.133 Y116.008 E4.88624
G1 X103.572 Y115.881 E4.90006
G1 X103.003 Y115.957 E4.91386
G1 X102.495 Y116.231 E4.92772
G1 X102.119 Y116.664 E4.94151
G1 X101.925 Y117.175 E4.95464
G1 X101.895 Y117.526 E4.96311
G1 X101.994 Y118.056 E4.97606
G1 X102.288 Y118.547 E4.98981
G1 X102.736 Y118.906 E5.00361
G1 X103.285 Y119.085 E5.01749
G0 F6000 X103.339 Y118.682
;TYPE:WALL-OUTER
G1 F1200 X103.767 Y118.661 E5.02778
G1 X104.163 Y118.493 E5.03812
G1 X104.473 Y118.195 E5.04845
G1 X104.66 Y117.809 E5.05876
G1 X104.698 Y117.381 E5.06909
G1 X104.584 Y116.967 E5.07941
G1 X104.332 Y116.619 E5.08973
G1 X103.973 Y116.382 E5.10007
G1 X103.554 Y116.287 E5.11039
G1 X103.128 Y116.344 E5.12072
G1 X102.749 Y116.548 E5.13106
G1 X102.468 Y116.872 E5.14137
G1 X102.319 Y117.265 E5.15147
G1 X102.298 Y117.506 E5.15728
G1 X102.374 Y117.912 E5.16721
G1 X102.594 Y118.28 E5.17751
G1 X102.929 Y118.548 E5.18782
G1 X103.339 Y118.682 E5.19819
G0 F6000 X103.281 Y119.118
G1 F2100 E4.19819
G0 F6000 X105.619 Y123.879
G0 X105.828 Y124.094
G1 F2100 E5.19819
G1 F1200 X105.414 Y124.437 E5.21111
G1 X104.996 Y124.745 E5.22358
G1 X104.544 Y125.036 E5.2365
G1 X104.086 Y125.294 E5.24913
G1 X103.603 Y125.528 E5.26203
G1 X103.108 Y125.732 E5.2749
G1 X102.615 Y125.902 E5.28743
G1 X102.102 Y126.044 E5.30022
G1 X101.573 Y126.157 E5.31322
G1 X101.044 Y126.237 E5.32607
G1 X100.525 Y126.284 E5.3386
G1 X99.989 Y126.3 E5.35148
G1 X99.454 Y126.283 E5.36435
G1 X98.935 Y126.235 E5.37687
G1 X98.398 Y126.153 E5.38992
G1 X97.89 Y126.042 E5.40242
G1 X97.366 Y125.896 E5.41549
G1 X96.873 Y125.725 E5.42803
G1 X96.378 Y125.519 E5.44092
G1 X95.896 Y125.284 E5.4538
G1 X95.44 Y125.025 E5.4664
G1 X94.992 Y124.736 E5.47921
G1 X94.566 Y124.421 E5.49195
G1 X94.152 Y124.076 E5.5049
G1 X93.767 Y123.711 E5.51764
G1 X93.406 Y123.328 E5.53029
G1 X93.063 Y122.914 E5.54321
G1 X92.753 Y122.492 E5.55579
G1 X92.461 Y122.039 E5.56875
G1 X92.205 Y121.584 E5.58129
G1 X91.969 Y121.097 E5.5943
G1 X91.767 Y120.605 E5.60708
G1 X91.597 Y120.113 E5.61959
G1 X91.456 Y119.601 E5.63235
G1 X91.342 Y119.07 E5.6454
G1 X91.263 Y118.544 E5.65818
G1 X91.216 Y118.025 E5.6707
G1 X91.2 Y117.495 E5.68345
G1 X91.217 Y116.952 E5.6965
G1 X91.265 Y116.435 E5.70898
G1 X91.347 Y115.898 E5.72203
G1 X91.458 Y115.39 E5.73453
