; generated by Slic3r 1.3.0 on 2020-09-26 at 16:06:08

; external perimeters extrusion width = 0.44mm (3.38mm^3/s)
; perimeters extrusion width = 0.48mm (7.54mm^3/s)
; infill extrusion width = 0.48mm (10.05mm^3/s)
; solid infill extrusion width = 0.48mm (2.51mm^3/s)
; top infill extrusion width = 0.15mm (0.39mm^3/s)

M107
M190 S70 ; set bed temperature and wait for it to be reached
M104 S205 ; set temperature
G28 ; home all axes
G1 Z5 F5000 ; lift nozzle

; Filament gcode

M109 S205 ; set temperature and wait for it to be reached
G21 ; set units to millimeters
G90 ; use absolute coordinates
M82 ; use absolute distances for extrusion
G92 E0
G1 Z0.350 F7800.000
G1 E-2.00000 F2400.00000
G92 E0
G1 X56.642 Y88.195 F7800.000
G1 E2.00000 F2400.00000
G1 F1800
G1 X56.948 Y88.001 E2.03291
G1 X58.025 Y87.432 E2.14363
G1 X58.799 Y87.096 E2.22040
G1 X60.007 Y86.685 E2.33637
G1 X61.377 Y86.456 E2.46274
G1 X62.445 Y86.383 E2.56005
G1 X63.181 Y86.389 E2.62697
G1 X164.604 Y92.037 E11.86362
G1 X165.703 Y92.176 E11.96435
G1 X166.382 Y92.312 E12.02728
G1 X167.501 Y92.622 E12.13290
G1 X168.142 Y92.851 E12.19475
G1 X169.766 Y93.655 E12.35954
G1 X170.409 Y94.071 E12.42917
G1 X171.178 Y94.639 E12.51612
G1 X171.481 Y94.891 E12.55196
G1 X172.255 Y95.629 E12.64920
G1 X173.013 Y96.544 E12.75723
G1 X173.574 Y97.341 E12.84588
G1 X174.336 Y98.723 E12.98939
G1 X174.647 Y99.450 E13.06123
G1 X174.896 Y100.115 E13.12585
G1 X175.181 Y101.176 E13.22573
G1 X175.361 Y102.276 E13.32713
G1 X175.428 Y103.012 E13.39430
G1 X175.460 Y103.726 E13.45929
G1 X175.460 Y105.485 E13.61921
G1 X175.304 Y107.045 E13.76182
G1 X172.303 Y121.882 E15.13821
G1 X171.423 Y124.224 E15.36572
G1 X168.891 Y126.913 E15.70160
G1 X167.271 Y127.745 E15.86713
G1 X167.032 Y127.835 E15.89040
G1 X166.131 Y128.113 E15.97609
G1 X165.581 Y128.234 E16.02735
G1 X164.545 Y128.356 E16.12220
G1 X63.490 Y133.572 E25.32327
G1 X62.738 Y133.575 E25.39166
G1 X61.446 Y133.517 E25.50931
G1 X59.499 Y133.165 E25.68919
G1 X58.693 Y132.875 E25.76709
G1 X58.282 Y132.701 E25.80767
G1 X57.152 Y132.113 E25.92350
G1 X56.543 Y131.729 E25.98898
G1 X55.989 Y131.347 E26.05011
G1 X55.652 Y131.080 E26.08925
G1 X55.144 Y130.652 E26.14967
G1 X54.511 Y130.057 E26.22866
G1 X53.577 Y129.078 E26.35167
G1 X52.999 Y128.399 E26.43278
G1 X51.943 Y126.978 E26.59374
G1 X50.376 Y124.540 E26.85731
G1 X49.222 Y122.530 E27.06804
G1 X48.905 Y121.924 E27.13018
G1 X46.627 Y117.304 E27.59861
G1 X44.814 Y113.155 E28.01029
G1 X44.191 Y110.732 E28.23779
G1 X44.361 Y108.236 E28.46529
G1 X44.750 Y107.015 E28.58181
G1 X46.301 Y103.429 E28.93705
G1 X46.696 Y102.554 E29.02436
G1 X48.144 Y99.538 E29.32857
G1 X49.320 Y97.292 E29.55910
G1 X50.685 Y94.920 E29.80799
G1 X50.981 Y94.448 E29.85866
G1 X52.231 Y92.607 E30.06099
G1 X52.817 Y91.834 E30.14916
G1 X54.007 Y90.444 E30.31555
G1 X54.613 Y89.832 E30.39386
G1 X55.664 Y88.918 E30.52051
G1 X56.592 Y88.227 E30.62572
G1 X56.977 Y88.723 F7800.000
G1 F1800
G1 X57.282 Y88.529 E30.65863
G1 X58.273 Y88.005 E30.76056
G1 X59.048 Y87.669 E30.83733
G1 X60.159 Y87.291 E30.94409
G1 X61.425 Y87.079 E31.06082
G1 X62.386 Y87.010 E31.14834
G1 X63.146 Y87.013 E31.21751
G1 X164.569 Y92.661 E40.45416
G1 X165.581 Y92.789 E40.54690
G1 X166.260 Y92.924 E40.60983
G1 X167.290 Y93.210 E40.70706
G1 X167.931 Y93.439 E40.76891
G1 X169.426 Y94.179 E40.92063
G1 X170.069 Y94.595 E40.99025
G1 X170.777 Y95.118 E41.07030
G1 X171.080 Y95.371 E41.10615
G1 X171.650 Y95.902 E41.17700
G1 X171.805 Y96.063 E41.19730
G1 X172.503 Y96.905 E41.29676
G1 X173.060 Y97.696 E41.38474
G1 X173.762 Y98.968 E41.51686
G1 X174.072 Y99.695 E41.58871
G1 X174.301 Y100.308 E41.64820
G1 X174.487 Y100.958 E41.70972
G1 X174.573 Y101.320 E41.74352
G1 X174.738 Y102.333 E41.83687
G1 X174.805 Y103.069 E41.90403
G1 X174.835 Y103.726 E41.96387
G1 X174.835 Y105.485 E42.12379
G1 X174.691 Y106.922 E42.25508
G1 X171.690 Y121.758 E43.63147
G1 X170.831 Y123.999 E43.84970
G1 X168.549 Y126.390 E44.15027
G1 X167.052 Y127.160 E44.30336
G1 X166.812 Y127.250 E44.32663
G1 X165.983 Y127.506 E44.40552
G1 X165.467 Y127.619 E44.45354
G1 X164.513 Y127.732 E44.54096
G1 X63.458 Y132.948 E53.74203
G1 X62.766 Y132.951 E53.80499
G1 X61.479 Y132.893 E53.92214
G1 X59.686 Y132.569 E54.08775
G1 X58.936 Y132.299 E54.16027
G1 X58.525 Y132.126 E54.20084
G1 X57.485 Y131.584 E54.30748
G1 X56.875 Y131.200 E54.37296
G1 X56.366 Y130.849 E54.42925
G1 X56.054 Y130.601 E54.46542
G1 X55.546 Y130.174 E54.52584
G1 X54.963 Y129.626 E54.59856
G1 X54.030 Y128.647 E54.72157
G1 X53.498 Y128.021 E54.79624
G1 X52.454 Y126.619 E54.95518
G1 X50.902 Y124.203 E55.21625
G1 X49.766 Y122.221 E55.42401
G1 X49.465 Y121.648 E55.48287
G1 X47.193 Y117.040 E55.95001
G1 X45.387 Y112.906 E56.36028
G1 X44.805 Y110.577 E56.57850
G1 X45.328 Y107.253 E56.88452
G1 X46.874 Y103.678 E57.23867
G1 X47.260 Y102.824 E57.32387
G1 X48.699 Y99.825 E57.62636
G1 X50.020 Y97.315 E57.88431
G1 X51.226 Y95.233 E58.10304
G1 X51.499 Y94.798 E58.14970
G1 X52.741 Y92.968 E58.35082
G1 X53.293 Y92.239 E58.43394
G1 X54.475 Y90.859 E58.59925
G1 X55.033 Y90.295 E58.67135
G1 X56.072 Y89.391 E58.79663
G1 X56.926 Y88.755 E58.89340
G1 X57.311 Y89.251 F7800.000
G1 F1800
G1 X57.616 Y89.057 E58.92631
G1 X58.522 Y88.578 E59.01946
G1 X59.296 Y88.242 E59.09623
G1 X60.312 Y87.897 E59.19379
G1 X61.474 Y87.702 E59.30087
G1 X62.409 Y87.635 E59.38616
G1 X63.111 Y87.637 E59.45002
G1 X164.535 Y93.285 E68.68667
G1 X165.459 Y93.402 E68.77141
G1 X166.138 Y93.537 E68.83434
G1 X167.080 Y93.798 E68.92320
G1 X167.720 Y94.028 E68.98504
G1 X169.087 Y94.704 E69.12368
G1 X169.729 Y95.120 E69.19331
G1 X170.377 Y95.597 E69.26646
G1 X170.679 Y95.850 E69.30231
G1 X171.200 Y96.336 E69.36705
G1 X171.355 Y96.496 E69.38735
G1 X171.992 Y97.266 E69.47824
G1 X172.546 Y98.051 E69.56555
G1 X173.187 Y99.214 E69.68628
G1 X173.497 Y99.940 E69.75813
G1 X173.707 Y100.500 E69.81249
G1 X173.879 Y101.102 E69.86943
G1 X173.965 Y101.464 E69.90323
G1 X174.116 Y102.390 E69.98853
G1 X174.183 Y103.125 E70.05570
G1 X174.210 Y103.726 E70.11038
G1 X174.210 Y105.485 E70.27029
G1 X174.079 Y106.798 E70.39027
G1 X171.078 Y121.634 E71.76665
G1 X170.241 Y123.769 E71.97519
G1 X168.207 Y125.867 E72.24084
G1 X166.832 Y126.575 E72.38147
G1 X166.593 Y126.665 E72.40474
G1 X165.835 Y126.898 E72.47683
G1 X165.354 Y127.005 E72.52162
G1 X164.480 Y127.108 E72.60162
G1 X63.426 Y132.324 E81.80269
G1 X62.793 Y132.327 E81.86022
G1 X61.512 Y132.269 E81.97688
G1 X59.874 Y131.973 E82.12821
G1 X59.179 Y131.724 E82.19534
G1 X58.768 Y131.550 E82.23592
G1 X57.818 Y131.055 E82.33336
G1 X57.208 Y130.671 E82.39884
G1 X56.742 Y130.350 E82.45028
G1 X56.456 Y130.123 E82.48348
G1 X55.948 Y129.695 E82.54390
G1 X55.415 Y129.195 E82.61035
G1 X54.482 Y128.216 E82.73337
G1 X53.996 Y127.644 E82.80160
G1 X52.965 Y126.260 E82.95851
G1 X51.429 Y123.867 E83.21709
G1 X50.309 Y121.913 E83.42188
G1 X50.026 Y121.371 E83.47746
G1 X47.760 Y116.777 E83.94329
G1 X45.959 Y112.656 E84.35216
G1 X45.421 Y110.427 E84.56070
G1 X45.906 Y107.490 E84.83133
G1 X47.824 Y103.094 E85.26747
G1 X49.254 Y100.112 E85.56824
G1 X50.561 Y97.628 E85.82345
G1 X51.767 Y95.546 E86.04218
G1 X52.016 Y95.149 E86.08482
G1 X53.251 Y93.330 E86.28475
G1 X53.768 Y92.645 E86.36282
G1 X54.943 Y91.273 E86.52704
G1 X55.452 Y90.758 E86.59292
G1 X56.481 Y89.863 E86.71684
G1 X57.260 Y89.283 E86.80518
G1 E84.80518 F2400.00000
G92 E0
G1 X64.404 Y120.806 F7800.000
G1 E2.00000 F2400.00000
G1 F1800
G1 X63.580 Y121.158 E2.08147
G1 X62.695 Y121.279 E2.16274
G1 X61.759 Y121.138 E2.24881
G1 X60.988 Y120.806 E2.32511
G1 X60.286 Y120.249 E2.40662
G1 X59.742 Y119.521 E2.48922
G1 X59.410 Y118.675 E2.57182
G1 X59.290 Y117.775 E2.65442
G1 X59.410 Y116.870 E2.73742
G1 X59.743 Y116.031 E2.81953
G1 X60.286 Y115.303 E2.90205
G1 X60.988 Y114.744 E2.98374
G1 X61.813 Y114.393 E3.06525
G1 X62.573 Y114.288 E3.13500
G1 X62.698 Y114.272 E3.14651
G1 X63.581 Y114.393 E3.22751
G1 X64.404 Y114.744 E3.30889
G1 X65.105 Y115.304 E3.39046
G1 X65.645 Y116.030 E3.47274
G1 X65.985 Y116.870 E3.55513
G1 X66.098 Y117.775 E3.63806
G1 X65.985 Y118.675 E3.72049
G1 X65.642 Y119.525 E3.80386
G1 X65.105 Y120.248 E3.88581
G1 X64.451 Y120.769 E3.96176
G1 X64.404 Y120.806 F7800.000
G1 E1.96176 F2400.00000
G92 E0
G1 X62.696 Y105.422 F7800.000
G1 E2.00000 F2400.00000
G1 F1800
G1 X61.814 Y105.299 E2.08102
G1 X60.989 Y104.953 E2.16233
G1 X60.286 Y104.395 E2.24398
G1 X59.742 Y103.667 E2.32658
G1 X59.410 Y102.821 E2.40920
G1 X59.290 Y101.917 E2.49215
G1 X59.410 Y101.012 E2.57511
G1 X59.743 Y100.169 E2.65758
G1 X60.286 Y99.443 E2.74002
G1 X60.989 Y98.885 E2.82161
G1 X61.813 Y98.537 E2.90298
G1 X62.695 Y98.411 E2.98401
G1 X63.581 Y98.537 E3.06540
G1 X64.404 Y98.885 E3.14660
G1 X65.104 Y99.443 E3.22806
G1 X65.645 Y100.168 E3.31023
G1 X65.912 Y100.829 E3.37509
G1 X65.985 Y101.014 E3.39313
G1 X66.098 Y101.919 E3.47608
G1 X65.968 Y102.871 E3.56343
G1 X65.763 Y103.386 E3.61383
G1 X65.643 Y103.670 E3.64187
G1 X65.105 Y104.394 E3.72395
G1 X64.403 Y104.953 E3.80548
G1 X63.656 Y105.267 E3.87919
G1 X63.248 Y105.348 E3.91699
G1 X62.755 Y105.414 E3.96221
G1 X62.696 Y105.422 F7800.000
G1 E1.96221 F2400.00000
G92 E0
G1 X60.294 Y121.868 F7800.000
G1 E2.00000 F2400.00000
G1 F1800
G1 X61.413 Y122.350 E2.11077
G1 X62.686 Y122.541 E2.22785
G1 X63.913 Y122.373 E2.34043
G1 X64.256 Y122.229 E2.37426
G1 X64.433 Y122.448 E2.39988
G1 X63.823 Y123.307 E2.49568
G1 X63.054 Y123.989 E2.58915
G1 X62.815 Y124.095 E2.61291
G1 X62.203 Y124.067 E2.66857
G1 X62.075 Y124.016 E2.68114
G1 X61.666 Y123.757 E2.72517
G1 X61.308 Y123.456 E2.76768
G1 X60.502 Y122.611 E2.87392
G1 X60.116 Y122.094 E2.93255
G1 X60.257 Y121.915 E2.95327
G1 E0.95327 F2400.00000
G92 E0
G1 X60.684 Y97.657 F7800.000
G1 E2.00000 F2400.00000
G1 F1800
G1 X60.509 Y97.418 E2.02699
G1 X61.041 Y96.795 E2.10143
G1 X61.771 Y96.162 E2.18929
G1 X61.910 Y96.074 E2.20432
G1 X62.321 Y95.896 E2.24497
G1 X62.619 Y95.874 E2.27217
G1 X62.943 Y95.961 E2.30272
G1 X63.650 Y96.495 E2.38327
G1 X64.332 Y97.381 E2.48494
G1 X62.689 Y97.148 E2.63587
G1 X61.477 Y97.322 E2.74717
G1 X60.739 Y97.634 E2.82001
G1 E0.82001 F2400.00000
G92 E0
G1 X70.767 Y108.237 F7800.000
G1 E2.00000 F2400.00000
G1 F1800
G1 X70.767 Y118.893 E2.96900
G1 X67.217 Y118.893 E3.29183
G1 X67.357 Y117.775 E3.39426
G1 X67.204 Y116.553 E3.50630
G1 X66.743 Y115.413 E3.61811
G1 X66.012 Y114.429 E3.72963
G1 X65.051 Y113.661 E3.84140
G1 X63.917 Y113.177 E3.95357
G1 X62.704 Y113.011 E4.06490
G1 X61.477 Y113.177 E4.17744
G1 X60.342 Y113.660 E4.28959
G1 X59.380 Y114.427 E4.40143
G1 X58.642 Y115.416 E4.51368
G1 X58.191 Y116.553 E4.62490
G1 X58.029 Y117.776 E4.73704
G1 X58.109 Y118.379 E4.79240
G1 X57.816 Y118.477 E4.82050
G1 X57.485 Y117.893 E4.88160
G1 X55.217 Y113.306 E5.34688
G1 X53.778 Y110.010 E5.67395
G1 X55.255 Y106.619 E6.01022
G1 X56.572 Y103.868 E6.28756
G1 X57.759 Y101.599 E6.52045
G1 X58.059 Y101.694 E6.54904
G1 X58.029 Y101.917 E6.56954
G1 X58.191 Y103.137 E6.68143
G1 X58.641 Y104.280 E6.79315
G1 X59.381 Y105.273 E6.90575
G1 X60.347 Y106.039 E7.01781
G1 X61.480 Y106.515 E7.12956
G1 X62.693 Y106.684 E7.24090
G1 X63.453 Y106.582 E7.31069
G1 X64.024 Y106.468 E7.36362
G1 X65.047 Y106.038 E7.46452
G1 X66.011 Y105.271 E7.57653
G1 X66.736 Y104.294 E7.68714
G1 X67.186 Y103.191 E7.79544
G1 X67.358 Y101.926 E7.91154
G1 X67.304 Y101.492 E7.95129
G1 X164.009 Y101.499 E16.74458
G1 X164.417 Y101.581 E16.78242
G1 X164.771 Y101.708 E16.81665
G1 X165.177 Y101.970 E16.86058
G1 X165.345 Y102.111 E16.88055
G1 X165.689 Y102.599 E16.93483
G1 X165.884 Y103.055 E16.97996
G1 X165.937 Y103.261 E16.99930
G1 X165.986 Y103.799 E17.04837
G1 X165.986 Y105.325 E17.18711
G1 X165.418 Y108.129 E17.44729
G1 X156.116 Y108.129 E18.29318
G1 X156.116 Y108.356 E18.31379
G1 X145.458 Y108.353 E19.28284
G1 X145.423 Y108.384 E19.28712
G1 X128.906 Y108.348 E20.78901
G1 X128.906 Y108.418 E20.79535
G1 X91.342 Y108.325 E24.21104
G1 X86.202 Y108.325 E24.67841
G1 X86.202 Y108.374 E24.68285
G1 X82.322 Y108.342 E25.03563
G1 X82.322 Y108.356 E25.03690
G1 X78.440 Y108.348 E25.38992
G1 X78.440 Y108.364 E25.39138
G1 X74.546 Y108.366 E25.74546
G1 X70.827 Y108.239 E26.08381
G1 X71.392 Y108.883 F7800.000
G1 F1800
G1 X71.392 Y119.518 E27.05083
G1 X66.323 Y119.518 E27.51174
G1 X66.595 Y118.831 E27.57894
G1 X66.728 Y117.775 E27.67567
G1 X66.595 Y116.711 E27.77315
G1 X66.194 Y115.722 E27.87025
G1 X65.558 Y114.866 E27.96716
G1 X64.728 Y114.202 E28.06382
G1 X63.749 Y113.785 E28.16059
G1 X62.701 Y113.642 E28.25676
G1 X61.645 Y113.785 E28.35366
G1 X60.665 Y114.202 E28.45049
G1 X59.833 Y114.865 E28.54726
G1 X59.192 Y115.723 E28.64464
G1 X58.800 Y116.712 E28.74131
G1 X58.660 Y117.775 E28.83888
G1 X58.800 Y118.833 E28.93594
G1 X59.192 Y119.827 E29.03308
G1 X59.834 Y120.688 E29.13068
G1 X60.664 Y121.347 E29.22714
G1 X61.586 Y121.744 E29.31835
G1 X62.690 Y121.910 E29.41993
G1 X63.747 Y121.765 E29.51685
G1 X64.728 Y121.347 E29.61386
G1 X65.558 Y120.687 E29.71029
G1 X66.031 Y120.050 E29.78242
G1 X66.324 Y120.232 E29.81378
G1 X65.184 Y122.464 E30.04169
G1 X64.402 Y123.585 E30.16598
G1 X64.275 Y123.741 E30.18420
G1 X63.396 Y124.522 E30.29118
G1 X62.933 Y124.725 E30.33715
G1 X62.069 Y124.687 E30.41575
G1 X61.790 Y124.575 E30.44316
G1 X61.296 Y124.263 E30.49625
G1 X60.879 Y123.913 E30.54575
G1 X60.023 Y123.015 E30.65855
G1 X59.188 Y121.897 E30.78544
G1 X57.846 Y119.796 E31.01206
G1 X56.933 Y118.186 E31.18042
G1 X54.650 Y113.570 E31.64867
G1 X53.096 Y110.010 E32.00187
G1 X54.686 Y106.359 E32.36393
G1 X56.013 Y103.588 E32.64330
G1 X57.148 Y101.418 E32.86598
G1 X58.326 Y99.384 E33.07968
G1 X59.581 Y97.541 E33.28248
G1 X60.596 Y96.354 E33.42449
G1 X61.396 Y95.660 E33.52079
G1 X61.616 Y95.520 E33.54451
G1 X62.169 Y95.280 E33.59927
G1 X62.678 Y95.243 E33.64572
G1 X63.223 Y95.389 E33.69700
G1 X64.094 Y96.047 E33.79627
G1 X64.868 Y97.052 E33.91161
G1 X65.627 Y98.307 E34.04500
G1 X66.015 Y99.041 E34.12044
G1 X65.722 Y99.226 E34.15200
G1 X65.557 Y99.005 E34.17708
G1 X64.726 Y98.343 E34.27367
G1 X63.750 Y97.930 E34.37006
G1 X62.692 Y97.780 E34.46724
G1 X61.645 Y97.929 E34.56341
G1 X60.667 Y98.343 E34.65996
G1 X59.834 Y99.004 E34.75664
G1 X59.192 Y99.861 E34.85406
G1 X58.800 Y100.854 E34.95112
G1 X58.660 Y101.917 E35.04859
G1 X58.800 Y102.979 E35.14601
G1 X59.192 Y103.973 E35.24318
G1 X59.834 Y104.834 E35.34078
G1 X60.668 Y105.496 E35.43763
G1 X61.647 Y105.907 E35.53416
G1 X62.694 Y106.053 E35.63034
G1 X63.351 Y105.965 E35.69057
G1 X63.840 Y105.868 E35.73593
G1 X64.725 Y105.495 E35.82324
G1 X65.558 Y104.833 E35.92001
G1 X66.190 Y103.982 E36.01636
G1 X66.577 Y103.031 E36.10973
G1 X66.728 Y101.923 E36.21145
G1 X66.596 Y100.868 E36.30813
G1 X164.070 Y100.875 E45.17139
G1 X164.584 Y100.977 E45.21903
G1 X165.050 Y101.144 E45.26405
G1 X165.548 Y101.466 E45.31801
G1 X165.832 Y101.717 E45.35242
G1 X166.238 Y102.293 E45.41648
G1 X166.478 Y102.855 E45.47205
G1 X166.554 Y103.156 E45.50029
G1 X166.610 Y103.770 E45.55643
G1 X166.610 Y105.387 E45.70344
G1 X164.899 Y113.846 E46.48816
G1 X164.562 Y113.812 E46.51901
G1 X164.562 Y108.754 E46.97892
G1 X156.740 Y108.754 E47.69014
G1 X156.740 Y108.982 E47.71087
G1 X145.694 Y108.978 E48.71526
G1 X145.062 Y109.536 E48.79193
G1 X145.062 Y109.008 E48.83990
G1 X129.531 Y108.974 E50.25218
G1 X129.531 Y109.043 E50.25846
G1 X125.649 Y109.040 E50.61144
G1 X121.767 Y109.016 E50.96444
G1 X86.827 Y108.950 E54.14152
G1 X86.827 Y109.004 E54.14643
G1 X82.947 Y108.972 E54.49922
G1 X79.064 Y108.974 E54.85231
G1 X79.064 Y108.990 E54.85377
G1 X75.171 Y108.982 E55.20777
G1 X75.171 Y109.013 E55.21056
G1 X71.452 Y108.885 E55.54888
G1 X72.017 Y109.530 F7800.000
G1 F1800
G1 X72.017 Y120.143 E56.51392
G1 X67.071 Y120.143 E56.96368
G1 X65.721 Y122.786 E57.23357
G1 X64.901 Y123.962 E57.36385
G1 X64.728 Y124.174 E57.38879
G1 X63.737 Y125.054 E57.50928
G1 X63.039 Y125.356 E57.57847
G1 X61.936 Y125.306 E57.67887
G1 X61.504 Y125.134 E57.72112
G1 X60.926 Y124.768 E57.78328
G1 X60.451 Y124.369 E57.83978
G1 X59.545 Y123.419 E57.95912
G1 X58.674 Y122.252 E58.09149
G1 X57.311 Y120.119 E58.32168
G1 X56.380 Y118.479 E58.49315
G1 X54.083 Y113.833 E58.96438
G1 X52.415 Y110.010 E59.34370
G1 X54.118 Y106.100 E59.73154
G1 X55.454 Y103.308 E60.01295
