; generated by Slic3r 1.3.0 on 2020-09-29 at 14:16:57

; external perimeters extrusion width = 0.44mm (2.38mm^3/s)
; perimeters extrusion width = 0.56mm (6.20mm^3/s)
; infill extrusion width = 0.50mm (7.31mm^3/s)
; solid infill extrusion width = 0.56mm (2.07mm^3/s)
; top infill extrusion width = 0.10mm (0.17mm^3/s)
; support material extrusion width = 0.44mm (4.76mm^3/s)

M107
M190 S65 ; set bed temperature and wait for it to be reached
M104 S205 ; set temperature
G28 ; home all axes
G1 Z5 F5000 ; lift nozzle

; Filament gcode

M109 S205 ; set temperature and wait for it to be reached
G21 ; set units to millimeters
G90 ; use absolute coordinates
M82 ; use absolute distances for extrusion
G92 E0
G1 Z0.200 F7800.000
G1 E-2.00000 F2400.00000
G92 E0
G1 X48.231 Y97.065 F7800.000
G1 E2.00000 F2400.00000
G1 F1800
G1 X50.347 Y96.448 E2.06544
G1 X50.983 Y96.367 E2.08447
G1 X51.747 Y96.312 E2.10720
G1 X73.603 Y95.907 E2.75625
G1 X161.821 Y96.194 E5.37558
G1 X163.785 Y96.254 E5.43390
G1 X165.034 Y96.405 E5.47127
G1 X172.999 Y98.100 E5.71306
G1 X173.649 Y98.271 E5.73301
G1 X174.219 Y98.453 E5.75078
G1 X176.864 Y100.009 E5.84191
G1 X178.683 Y102.743 E5.93938
G1 X178.799 Y103.062 E5.94945
G1 X179.202 Y105.417 E6.02042
G1 X179.201 Y114.587 E6.29269
G1 X178.811 Y116.901 E6.36234
G1 X178.692 Y117.234 E6.37287
G1 X176.880 Y119.977 E6.47046
G1 X174.364 Y121.500 E6.55781
G1 X173.614 Y121.743 E6.58121
G1 X172.996 Y121.904 E6.60017
G1 X165.031 Y123.595 E6.84194
G1 X163.647 Y123.749 E6.88328
G1 X74.377 Y124.823 E9.53400
G1 X73.936 Y124.815 E9.54710
G1 X51.528 Y123.685 E10.21328
G1 X50.175 Y123.484 E10.25389
G1 X49.730 Y123.374 E10.26750
G1 X47.559 Y122.423 E10.33787
G1 X45.823 Y120.809 E10.40824
G1 X44.551 Y118.110 E10.49686
G1 X43.314 Y112.779 E10.65933
G1 X43.131 Y111.188 E10.70689
G1 X43.132 Y108.816 E10.77731
G1 X43.245 Y107.558 E10.81481
G1 X44.178 Y102.417 E10.96994
G1 X44.791 Y100.557 E11.02810
G1 X44.898 Y100.340 E11.03528
G1 X46.286 Y98.419 E11.10565
G1 X48.182 Y97.099 E11.17424
G1 X48.491 Y97.338 F7800.000
G1 F1800
G1 X50.393 Y96.803 E11.23288
G1 X51.028 Y96.721 E11.25191
G1 X51.753 Y96.669 E11.27350
G1 X73.602 Y96.264 E11.92231
G1 X161.820 Y96.552 E14.54164
G1 X163.773 Y96.610 E14.59966
G1 X164.960 Y96.754 E14.63514
G1 X172.925 Y98.449 E14.87693
G1 X173.541 Y98.612 E14.89587
G1 X174.109 Y98.793 E14.91356
G1 X176.621 Y100.271 E15.00009
G1 X178.348 Y102.866 E15.09265
G1 X178.462 Y103.180 E15.10258
G1 X178.845 Y105.417 E15.16996
G1 X178.844 Y114.587 E15.44223
G1 X178.474 Y116.784 E15.50836
G1 X178.356 Y117.112 E15.51873
G1 X176.636 Y119.717 E15.61140
G1 X174.246 Y121.163 E15.69434
G1 X173.508 Y121.402 E15.71737
G1 X172.922 Y121.555 E15.73538
G1 X164.956 Y123.246 E15.97714
G1 X163.643 Y123.392 E16.01639
G1 X74.373 Y124.466 E18.66712
G1 X73.954 Y124.458 E18.67956
G1 X51.546 Y123.328 E19.34573
G1 X50.261 Y123.138 E19.38429
G1 X49.816 Y123.027 E19.39790
G1 X47.705 Y122.092 E19.46646
G1 X46.036 Y120.497 E19.53502
G1 X44.898 Y118.029 E19.61570
G1 X43.662 Y112.698 E19.77817
G1 X43.489 Y111.188 E19.82333
G1 X43.489 Y108.816 E19.89374
G1 X43.597 Y107.622 E19.92934
G1 X44.529 Y102.481 E20.08447
G1 X45.112 Y100.714 E20.13970
G1 X45.218 Y100.498 E20.14688
G1 X46.579 Y98.632 E20.21543
G1 X48.442 Y97.372 E20.28221
G1 X48.749 Y97.615 F7800.000
G1 F1800
G1 X50.438 Y97.157 E20.33415
G1 X51.073 Y97.076 E20.35318
G1 X51.760 Y97.026 E20.37361
G1 X73.601 Y96.621 E21.02220
G1 X161.819 Y96.909 E23.64153
G1 X163.762 Y96.967 E23.69925
G1 X164.885 Y97.103 E23.73284
G1 X172.850 Y98.799 E23.97463
G1 X173.434 Y98.952 E23.99257
G1 X173.999 Y99.133 E24.01017
G1 X176.378 Y100.532 E24.09211
G1 X178.012 Y102.990 E24.17974
G1 X178.126 Y103.299 E24.18953
G1 X178.488 Y105.417 E24.25333
G1 X178.487 Y114.587 E24.52560
G1 X178.137 Y116.667 E24.58821
G1 X178.021 Y116.990 E24.59841
G1 X176.392 Y119.456 E24.68615
G1 X174.129 Y120.826 E24.76470
G1 X173.403 Y121.061 E24.78736
G1 X172.847 Y121.206 E24.80440
G1 X164.882 Y122.897 E25.04617
G1 X163.638 Y123.035 E25.08333
G1 X74.369 Y124.109 E27.73406
G1 X51.564 Y122.972 E28.41201
G1 X50.347 Y122.791 E28.44852
G1 X49.903 Y122.681 E28.46213
G1 X47.853 Y121.761 E28.52882
G1 X46.251 Y120.186 E28.59551
G1 X45.246 Y117.948 E28.66836
G1 X44.010 Y112.618 E28.83083
G1 X43.846 Y111.187 E28.87358
G1 X43.846 Y108.816 E28.94398
G1 X43.948 Y107.686 E28.97768
G1 X44.881 Y102.545 E29.13282
G1 X45.432 Y100.872 E29.18511
G1 X45.539 Y100.655 E29.19228
G1 X46.871 Y98.847 E29.25898
G1 X48.699 Y97.648 E29.32389
G1 E27.32389 F2400.00000
G92 E0
G1 X109.125 Y112.577 F7800.000
G1 E2.00000 F2400.00000
G1 F1800
G1 X109.125 Y107.425 E2.15297
G1 X171.020 Y107.425 E3.99072
G1 X171.020 Y112.577 E4.14370
G1 X109.185 Y112.577 E5.97966
G1 X109.482 Y112.220 F7800.000
G1 F1800
G1 X109.482 Y107.782 E6.11143
G1 X170.663 Y107.782 E7.92798
G1 X170.663 Y112.220 E8.05975
G1 X109.542 Y112.220 E9.87451
G1 X109.082 Y112.230 F7800.000
G1 X108.768 Y112.934 F7800.000
G1 F1800
G1 X171.216 Y112.934 E11.72866
G1 X171.216 Y114.073 E11.76247
G1 X149.484 Y114.060 E12.40770
G1 X149.205 Y113.760 E12.41986
G1 X147.941 Y113.461 E12.45842
G1 X147.409 Y113.414 E12.47428
G1 X146.866 Y113.462 E12.49048
G1 X146.335 Y113.604 E12.50680
G1 X145.868 Y113.826 E12.52215
G1 X145.483 Y114.049 E12.53533
G1 X145.285 Y114.052 E12.54121
G1 X141.453 Y114.056 E12.65501
G1 X140.480 Y113.602 E12.68687
G1 X139.954 Y113.462 E12.70304
G1 X139.409 Y113.414 E12.71928
G1 X138.863 Y113.462 E12.73556
G1 X138.342 Y113.603 E12.75159
G1 X137.371 Y114.043 E12.78323
G1 X137.284 Y114.045 E12.78581
G1 X133.476 Y114.048 E12.89890
G1 X133.256 Y113.809 E12.90853
G1 X131.954 Y113.462 E12.94854
G1 X131.409 Y113.414 E12.96479
G1 X130.879 Y113.461 E12.98059
G1 X129.617 Y113.760 E13.01909
G1 X129.367 Y114.027 E13.02995
G1 X52.467 Y113.967 E15.31322
G1 X52.467 Y112.934 E15.34390
G1 X103.428 Y112.934 E16.85701
G1 X103.428 Y107.068 E17.03118
G1 X52.467 Y107.068 E18.54429
G1 X52.467 Y106.036 E18.57494
G1 X129.346 Y106.011 E20.85758
G1 X130.203 Y106.400 E20.88552
G1 X130.721 Y106.538 E20.90146
G1 X131.269 Y106.593 E20.91781
G1 X131.819 Y106.538 E20.93421
G1 X132.341 Y106.400 E20.95024
G1 X133.280 Y105.972 E20.98089
G1 X137.352 Y105.934 E21.10179
G1 X137.419 Y105.987 E21.10433
G1 X138.805 Y106.533 E21.14857
G1 X139.409 Y106.593 E21.16659
G1 X139.946 Y106.540 E21.18261
G1 X141.200 Y106.243 E21.22085
G1 X141.432 Y105.997 E21.23090
G1 X145.351 Y105.960 E21.34728
G1 X145.619 Y106.243 E21.35884
G1 X146.875 Y106.540 E21.39716
G1 X147.409 Y106.593 E21.41310
G1 X147.959 Y106.538 E21.42952
G1 X148.483 Y106.398 E21.44561
G1 X148.955 Y106.178 E21.46108
G1 X149.295 Y105.981 E21.47274
G1 X171.217 Y105.931 E22.12364
G1 X171.217 Y107.068 E22.15738
G1 X108.768 Y107.068 E24.01156
G1 X108.768 Y112.874 E24.18396
G1 E22.18396 F2400.00000
G92 E0
G1 X103.071 Y112.577 F7800.000
G1 E2.00000 F2400.00000
G1 F1800
G1 X103.071 Y107.425 E2.15297
G1 X52.110 Y107.425 E3.66608
G1 X52.109 Y105.679 E3.71793
G1 X129.423 Y105.654 E6.01346
G1 X130.323 Y106.062 E6.04282
G1 X130.785 Y106.186 E6.05703
G1 X131.269 Y106.234 E6.07146
G1 X131.755 Y106.186 E6.08595
G1 X132.220 Y106.062 E6.10024
G1 X133.092 Y105.665 E6.12871
G1 X133.169 Y105.604 E6.13162
G1 X133.353 Y105.619 E6.13709
G1 X137.474 Y105.576 E6.25945
G1 X137.599 Y105.674 E6.26417
G1 X138.890 Y106.183 E6.30538
G1 X139.409 Y106.234 E6.32087
G1 X139.887 Y106.187 E6.33513
G1 X141.013 Y105.920 E6.36948
G1 X141.282 Y105.635 E6.38111
G1 X145.504 Y105.601 E6.50647
G1 X145.805 Y105.920 E6.51948
G1 X146.934 Y106.187 E6.55393
G1 X147.409 Y106.234 E6.56811
G1 X147.895 Y106.186 E6.58261
G1 X148.361 Y106.062 E6.59691
G1 X148.790 Y105.861 E6.61098
G1 X149.199 Y105.624 E6.62500
G1 X171.441 Y105.574 E7.28540
G1 X171.574 Y105.616 E7.28956
G1 X171.573 Y114.387 E7.54997
G1 X171.439 Y114.430 E7.55413
G1 X149.329 Y114.417 E8.21061
G1 X149.018 Y114.083 E8.22418
G1 X147.884 Y113.815 E8.25875
G1 X147.409 Y113.773 E8.27292
G1 X146.928 Y113.815 E8.28726
G1 X146.458 Y113.941 E8.30169
G1 X146.034 Y114.143 E8.31564
G1 X145.582 Y114.404 E8.33115
G1 X145.289 Y114.409 E8.33986
G1 X141.329 Y114.414 E8.45743
G1 X141.232 Y114.337 E8.46110
G1 X140.360 Y113.940 E8.48956
G1 X139.892 Y113.815 E8.50392
G1 X139.409 Y113.773 E8.51831
G1 X138.926 Y113.815 E8.53272
G1 X138.463 Y113.940 E8.54696
G1 X137.587 Y114.337 E8.57551
G1 X137.512 Y114.396 E8.57834
G1 X137.289 Y114.402 E8.58497
G1 X133.319 Y114.405 E8.70285
G1 X133.064 Y114.127 E8.71406
G1 X131.892 Y113.815 E8.75006
G1 X131.409 Y113.773 E8.76445
G1 X130.936 Y113.815 E8.77855
G1 X129.804 Y114.083 E8.81310
G1 X129.521 Y114.384 E8.82536
G1 X52.109 Y114.324 E11.12382
G1 X52.110 Y112.577 E11.17570
G1 X103.011 Y112.577 E12.68702
G1 X102.714 Y112.220 F7800.000
G1 F1800
G1 X102.714 Y107.782 E12.81879
G1 X51.753 Y107.782 E14.33189
G1 X51.752 Y105.481 E14.40019
G1 X51.852 Y105.346 E14.40519
G1 X51.904 Y105.322 E14.40690
G1 X129.557 Y105.297 E16.71252
G1 X129.635 Y105.358 E16.71547
G1 X130.444 Y105.725 E16.74183
G1 X130.850 Y105.833 E16.75430
G1 X131.269 Y105.875 E16.76683
G1 X131.691 Y105.833 E16.77941
G1 X132.099 Y105.725 E16.79195
G1 X132.905 Y105.358 E16.81823
G1 X133.058 Y105.236 E16.82405
G1 X133.366 Y105.262 E16.83323
G1 X137.596 Y105.217 E16.95881
G1 X137.778 Y105.361 E16.96571
G1 X138.975 Y105.832 E17.00389
G1 X139.409 Y105.875 E17.01686
G1 X139.828 Y105.834 E17.02936
G1 X140.827 Y105.597 E17.05982
G1 X141.151 Y105.274 E17.07342
G1 X145.627 Y105.243 E17.20632
G1 X145.742 Y105.333 E17.21065
G1 X145.991 Y105.597 E17.22141
G1 X146.993 Y105.834 E17.25199
G1 X147.409 Y105.875 E17.26441
G1 X147.831 Y105.833 E17.27700
G1 X148.238 Y105.725 E17.28950
G1 X148.624 Y105.544 E17.30216
G1 X149.125 Y105.267 E17.31916
G1 X171.496 Y105.217 E17.98337
G1 X171.889 Y105.342 E17.99562
G1 X171.931 Y105.453 E17.99914
G1 X171.930 Y114.550 E18.26923
G1 X171.888 Y114.660 E18.27275
G1 X171.495 Y114.787 E18.28500
G1 X149.210 Y114.774 E18.94668
G1 X149.075 Y114.668 E18.95177
G1 X148.830 Y114.405 E18.96244
G1 X147.827 Y114.168 E18.99304
G1 X147.409 Y114.131 E19.00549
G1 X146.990 Y114.168 E19.01798
G1 X146.582 Y114.277 E19.03053
G1 X146.200 Y114.459 E19.04308
G1 X145.667 Y114.760 E19.06126
G1 X145.292 Y114.766 E19.07240
G1 X141.205 Y114.771 E19.19374
G1 X141.045 Y114.644 E19.19982
G1 X140.239 Y114.277 E19.22610
G1 X139.830 Y114.168 E19.23866
G1 X139.409 Y114.131 E19.25120
G1 X138.988 Y114.168 E19.26375
G1 X138.584 Y114.277 E19.27619
G1 X137.775 Y114.644 E19.30257
G1 X137.641 Y114.750 E19.30763
G1 X137.294 Y114.759 E19.31793
G1 X133.195 Y114.763 E19.43965
G1 X133.076 Y114.669 E19.44414
G1 X132.871 Y114.446 E19.45314
G1 X131.830 Y114.168 E19.48513
G1 X131.409 Y114.131 E19.49767
G1 X130.993 Y114.168 E19.51007
G1 X129.991 Y114.405 E19.54066
G1 X129.744 Y114.668 E19.55138
G1 X129.652 Y114.741 E19.55484
G1 X51.904 Y114.681 E21.86328
G1 X51.852 Y114.657 E21.86500
G1 X51.752 Y114.521 E21.87001
G1 X51.753 Y112.220 E21.93831
G1 X102.654 Y112.220 E23.44963
G1 X103.114 Y112.214 F7800.000
G1 X103.233 Y113.788 F7800.000
G1 F1800
G1 X103.869 Y113.152 E23.47645
G1 X103.362 Y113.152 E23.49156
G1 X102.726 Y113.788 E23.51836
G1 X102.220 Y113.788 E23.53347
G1 X102.855 Y113.152 E23.56025
G1 X102.348 Y113.152 E23.57537
G1 X101.713 Y113.787 E23.60213
G1 X101.206 Y113.787 E23.61724
G1 X101.841 Y113.152 E23.64399
G1 X101.334 Y113.152 E23.65911
G1 X100.700 Y113.786 E23.68584
G1 X100.193 Y113.786 E23.70094
G1 X100.827 Y113.152 E23.72766
G1 X100.320 Y113.152 E23.74278
G1 X99.686 Y113.786 E23.76948
G1 X99.180 Y113.785 E23.78458
G1 X99.813 Y113.152 E23.81127
G1 X99.306 Y113.152 E23.82639
G1 X98.673 Y113.785 E23.85305
G1 X98.166 Y113.784 E23.86816
G1 X98.798 Y113.152 E23.89481
G1 X98.291 Y113.152 E23.90993
G1 X97.660 Y113.784 E23.93656
G1 X97.153 Y113.784 E23.95167
G1 X97.784 Y113.152 E23.97828
G1 X97.277 Y113.152 E23.99340
G1 X96.646 Y113.783 E24.02000
G1 X96.140 Y113.783 E24.03511
G1 X96.770 Y113.152 E24.06169
G1 X96.263 Y113.152 E24.07681
G1 X95.633 Y113.782 E24.10338
G1 X95.126 Y113.782 E24.11849
G1 X95.756 Y113.152 E24.14504
G1 X95.249 Y113.152 E24.16015
G1 X94.620 Y113.782 E24.18669
G1 X94.113 Y113.781 E24.20180
G1 X94.742 Y113.152 E24.22831
G1 X94.235 Y113.152 E24.24343
G1 X93.606 Y113.781 E24.26993
G1 X93.100 Y113.781 E24.28504
G1 X93.728 Y113.152 E24.31153
G1 X93.221 Y113.152 E24.32664
G1 X92.593 Y113.780 E24.35311
G1 X92.086 Y113.780 E24.36822
G1 X92.714 Y113.152 E24.39467
G1 X92.207 Y113.152 E24.40979
G1 X91.580 Y113.779 E24.43623
G1 X91.073 Y113.779 E24.45133
G1 X91.700 Y113.152 E24.47775
G1 X91.193 Y113.152 E24.49287
G1 X90.566 Y113.779 E24.51927
G1 X90.060 Y113.778 E24.53438
G1 X90.685 Y113.152 E24.56077
G1 X90.178 Y113.152 E24.57588
G1 X89.553 Y113.778 E24.60226
G1 X89.046 Y113.777 E24.61736
G1 X89.671 Y113.152 E24.64372
G1 X89.164 Y113.152 E24.65883
G1 X88.540 Y113.777 E24.68517
G1 X88.033 Y113.777 E24.70028
G1 X88.657 Y113.152 E24.72660
G1 X88.150 Y113.152 E24.74171
G1 X87.526 Y113.776 E24.76802
G1 X87.020 Y113.776 E24.78313
G1 X87.643 Y113.152 E24.80941
G1 X87.136 Y113.152 E24.82453
G1 X86.513 Y113.775 E24.85080
G1 X86.006 Y113.775 E24.86591
G1 X86.629 Y113.152 E24.89216
G1 X86.122 Y113.152 E24.90728
G1 X85.500 Y113.775 E24.93352
G1 X84.993 Y113.774 E24.94863
G1 X85.615 Y113.152 E24.97485
G1 X85.108 Y113.152 E24.98997
G1 X84.486 Y113.774 E25.01617
G1 X83.980 Y113.774 E25.03128
G1 X84.601 Y113.152 E25.05747
G1 X84.094 Y113.152 E25.07259
G1 X83.473 Y113.773 E25.09876
G1 X82.966 Y113.773 E25.11386
G1 X83.587 Y113.152 E25.14002
G1 X83.080 Y113.152 E25.15514
G1 X82.460 Y113.772 E25.18128
G1 X81.953 Y113.772 E25.19638
G1 X82.573 Y113.152 E25.22251
G1 X82.065 Y113.152 E25.23763
G1 X81.446 Y113.772 E25.26373
G1 X80.940 Y113.771 E25.27884
G1 X81.558 Y113.152 E25.30493
G1 X81.051 Y113.152 E25.32005
G1 X80.433 Y113.771 E25.34612
G1 X79.926 Y113.770 E25.36123
G1 X80.544 Y113.152 E25.38729
G1 X80.037 Y113.152 E25.40240
G1 X79.420 Y113.770 E25.42845
G1 X78.913 Y113.770 E25.44355
G1 X79.530 Y113.152 E25.46958
G1 X79.023 Y113.152 E25.48469
G1 X78.406 Y113.769 E25.51070
G1 X77.900 Y113.769 E25.52581
G1 X78.516 Y113.152 E25.55180
G1 X78.009 Y113.152 E25.56692
G1 X77.393 Y113.768 E25.59289
G1 X76.886 Y113.768 E25.60800
G1 X77.502 Y113.152 E25.63396
G1 X76.995 Y113.152 E25.64907
G1 X76.380 Y113.768 E25.67502
G1 X75.873 Y113.767 E25.69012
G1 X76.488 Y113.152 E25.71605
G1 X75.981 Y113.152 E25.73117
G1 X75.366 Y113.767 E25.75708
G1 X74.860 Y113.766 E25.77218
G1 X75.474 Y113.152 E25.79808
G1 X74.967 Y113.152 E25.81319
G1 X74.353 Y113.766 E25.83907
G1 X73.846 Y113.766 E25.85418
G1 X74.460 Y113.152 E25.88004
G1 X73.952 Y113.152 E25.89515
G1 X73.340 Y113.765 E25.92100
G1 X72.833 Y113.765 E25.93610
G1 X73.445 Y113.152 E25.96193
G1 X72.938 Y113.152 E25.97705
G1 X72.326 Y113.765 E26.00286
G1 X71.820 Y113.764 E26.01797
G1 X72.431 Y113.152 E26.04376
G1 X71.924 Y113.152 E26.05888
G1 X71.313 Y113.764 E26.08466
G1 X70.806 Y113.763 E26.09976
G1 X71.417 Y113.152 E26.12552
G1 X70.910 Y113.152 E26.14064
G1 X70.299 Y113.763 E26.16639
G1 X69.793 Y113.763 E26.18149
G1 X70.403 Y113.152 E26.20722
G1 X69.896 Y113.152 E26.22234
G1 X69.286 Y113.762 E26.24805
G1 X68.779 Y113.762 E26.26316
G1 X69.389 Y113.152 E26.28885
G1 X68.882 Y113.152 E26.30397
G1 X68.273 Y113.761 E26.32965
G1 X67.766 Y113.761 E26.34475
G1 X68.375 Y113.152 E26.37042
G1 X67.868 Y113.152 E26.38553
G1 X67.259 Y113.761 E26.41118
G1 X66.753 Y113.760 E26.42629
G1 X67.361 Y113.152 E26.45192
G1 X66.854 Y113.152 E26.46703
G1 X66.246 Y113.760 E26.49265
G1 X65.739 Y113.759 E26.50775
G1 X66.347 Y113.152 E26.53335
G1 X65.840 Y113.152 E26.54847
G1 X65.233 Y113.759 E26.57405
G1 X64.726 Y113.759 E26.58915
G1 X65.332 Y113.152 E26.61472
G1 X64.825 Y113.152 E26.62983
G1 X64.219 Y113.758 E26.65538
G1 X63.713 Y113.758 E26.67049
G1 X64.318 Y113.152 E26.69602
G1 X63.811 Y113.152 E26.71114
G1 X63.206 Y113.758 E26.73665
G1 X62.699 Y113.757 E26.75176
G1 X63.304 Y113.152 E26.77726
G1 X62.797 Y113.152 E26.79237
G1 X62.193 Y113.757 E26.81785
G1 X61.686 Y113.756 E26.83296
G1 X62.290 Y113.152 E26.85843
G1 X61.783 Y113.152 E26.87354
G1 X61.179 Y113.756 E26.89899
G1 X60.673 Y113.756 E26.91410
G1 X61.276 Y113.152 E26.93953
