; generated by Slic3r 1.3.0 on 2020-10-01 at 17:18:40

; external perimeters extrusion width = 0.44mm (2.38mm^3/s)
; perimeters extrusion width = 0.56mm (6.20mm^3/s)
; infill extrusion width = 0.50mm (7.31mm^3/s)
; solid infill extrusion width = 0.56mm (2.07mm^3/s)
; top infill extrusion width = 0.10mm (0.17mm^3/s)
; support material extrusion width = 0.44mm (4.76mm^3/s)

M107
M190 S70 ; set bed temperature and wait for it to be reached
M104 S205 ; set temperature
G28 ; home all axes
G1 Z5 F5000 ; lift nozzle

; Filament gcode

M109 S205 ; set temperature and wait for it to be reached
G21 ; set units to millimeters
G90 ; use absolute coordinates
M82 ; use absolute distances for extrusion
G92 E0
G1 Z0.200 F7800.000
G1 E-2.00000 F2400.00000
G92 E0
G1 X91.498 Y103.194 F7800.000
G1 E2.00000 F2400.00000
G1 F1800
G1 X93.266 Y101.616 E2.07037
G1 X95.456 Y100.710 E2.14074
G1 X97.025 Y100.534 E2.18763
G1 X122.975 Y100.534 E2.95811
G1 X125.312 Y100.931 E3.02848
G1 X127.386 Y102.078 E3.09885
G1 X128.964 Y103.846 E3.16922
G1 X129.870 Y106.036 E3.23959
G1 X130.046 Y107.605 E3.28648
G1 X130.046 Y112.395 E3.42870
G1 X129.649 Y114.732 E3.49907
G1 X128.502 Y116.806 E3.56944
G1 X126.734 Y118.384 E3.63981
G1 X124.544 Y119.290 E3.71018
G1 X122.975 Y119.466 E3.75707
G1 X97.025 Y119.466 E4.52755
G1 X94.688 Y119.069 E4.59792
G1 X92.614 Y117.922 E4.66829
G1 X91.036 Y116.154 E4.73866
G1 X90.130 Y113.964 E4.80903
G1 X89.954 Y112.395 E4.85592
G1 X89.954 Y107.605 E4.99814
G1 X90.351 Y105.268 E5.06851
G1 X91.469 Y103.247 E5.13710
G1 X91.852 Y103.325 F7800.000
G1 F1800
G1 X93.608 Y101.825 E5.20566
G1 X95.768 Y101.010 E5.27421
G1 X97.025 Y100.891 E5.31170
G1 X122.975 Y100.891 E6.08219
G1 X125.250 Y101.288 E6.15075
G1 X127.255 Y102.432 E6.21930
G1 X128.755 Y104.188 E6.28786
G1 X129.570 Y106.348 E6.35642
G1 X129.689 Y107.605 E6.39391
G1 X129.689 Y112.395 E6.53613
G1 X129.292 Y114.670 E6.60469
G1 X128.148 Y116.675 E6.67325
G1 X126.392 Y118.175 E6.74180
G1 X124.232 Y118.990 E6.81036
G1 X122.975 Y119.109 E6.84785
G1 X97.025 Y119.109 E7.61834
G1 X94.750 Y118.712 E7.68690
G1 X92.745 Y117.568 E7.75545
G1 X91.245 Y115.812 E7.82401
G1 X90.430 Y113.652 E7.89256
G1 X90.311 Y112.395 E7.93006
G1 X90.311 Y107.605 E8.07228
G1 X90.708 Y105.330 E8.14084
G1 X91.822 Y103.377 E8.20761
G1 X92.206 Y103.459 F7800.000
G1 F1800
G1 X93.948 Y102.042 E8.27431
G1 X97.025 Y101.248 E8.36864
G1 X122.975 Y101.248 E9.13913
G1 X125.186 Y101.645 E9.20583
G1 X127.121 Y102.786 E9.27252
G1 X128.538 Y104.528 E9.33922
G1 X129.332 Y107.605 E9.43356
G1 X129.332 Y112.395 E9.57578
G1 X128.935 Y114.606 E9.64247
G1 X127.794 Y116.541 E9.70917
G1 X126.052 Y117.958 E9.77586
G1 X122.975 Y118.752 E9.87020
G1 X97.025 Y118.752 E10.64069
G1 X94.814 Y118.355 E10.70739
G1 X92.879 Y117.214 E10.77408
G1 X91.462 Y115.472 E10.84077
G1 X90.668 Y112.395 E10.93511
G1 X90.668 Y107.605 E11.07734
G1 X91.065 Y105.394 E11.14403
G1 X92.175 Y103.511 E11.20894
G1 E9.20894 F2400.00000
G92 E0
G1 X106.561 Y111.481 F7800.000
G1 E2.00000 F2400.00000
G1 F1800
G1 X97.939 Y111.481 E2.25599
G1 X97.939 Y108.519 E2.34393
G1 X106.561 Y108.519 E2.59992
G1 X106.561 Y111.421 E2.68608
G1 X106.918 Y111.838 F7800.000
G1 F1800
G1 X97.582 Y111.838 E2.96327
G1 X97.582 Y108.162 E3.07241
G1 X106.918 Y108.162 E3.34961
G1 X106.918 Y111.778 E3.45697
G1 X107.275 Y112.195 F7800.000
G1 F1800
G1 X97.225 Y112.195 E3.75537
G1 X97.225 Y107.805 E3.88572
G1 X107.275 Y107.805 E4.18411
G1 X107.275 Y112.135 E4.31268
G1 X106.879 Y112.140 F7800.000
G1 X106.065 Y111.263 F7800.000
G1 F1800
G1 X106.343 Y110.985 E4.32441
G1 X106.343 Y110.477 E4.33957
G1 X105.557 Y111.263 E4.37274
G1 X105.049 Y111.263 E4.38790
G1 X106.343 Y109.969 E4.44251
G1 X106.343 Y109.462 E4.45766
G1 X104.542 Y111.263 E4.53371
G1 X104.034 Y111.263 E4.54886
G1 X106.343 Y108.954 E4.64634
G1 X106.343 Y108.737 E4.65281
G1 X106.051 Y108.737 E4.66150
G1 X103.526 Y111.263 E4.76813
G1 X103.018 Y111.263 E4.78328
G1 X105.544 Y108.737 E4.88991
G1 X105.036 Y108.737 E4.90507
G1 X102.511 Y111.263 E5.01169
G1 X102.003 Y111.263 E5.02685
G1 X104.528 Y108.737 E5.13347
G1 X104.020 Y108.737 E5.14863
G1 X101.495 Y111.263 E5.25525
G1 X100.987 Y111.263 E5.27041
G1 X103.513 Y108.737 E5.37703
G1 X103.005 Y108.737 E5.39219
G1 X100.480 Y111.263 E5.49881
G1 X99.972 Y111.263 E5.51397
G1 X102.497 Y108.737 E5.62060
G1 X101.989 Y108.737 E5.63575
G1 X99.464 Y111.263 E5.74238
G1 X98.956 Y111.263 E5.75753
G1 X101.482 Y108.737 E5.86416
G1 X100.974 Y108.737 E5.87932
G1 X98.449 Y111.263 E5.98594
G1 X98.157 Y111.263 E5.99463
G1 X98.157 Y111.046 E6.00110
G1 X100.466 Y108.737 E6.09858
G1 X99.958 Y108.737 E6.11374
G1 X98.157 Y110.538 E6.18978
G1 X98.157 Y110.031 E6.20494
G1 X99.451 Y108.737 E6.25954
G1 X98.943 Y108.737 E6.27470
G1 X98.157 Y109.523 E6.30787
G1 X98.157 Y109.015 E6.32303
G1 X98.435 Y108.737 E6.33476
G1 Z0.200 F7800.000
G1 Z0.200 F7800.000
G1 E4.33476 F2400.00000
G92 E0
G1 X113.439 Y108.519 F7800.000
G1 E2.00000 F2400.00000
G1 F1800
G1 X122.061 Y108.519 E2.25599
G1 X122.061 Y111.481 E2.34393
G1 X113.439 Y111.481 E2.59992
G1 X113.439 Y108.579 E2.68608
G1 X113.082 Y108.162 F7800.000
G1 F1800
G1 X122.418 Y108.162 E2.96327
G1 X122.418 Y111.838 E3.07241
G1 X113.082 Y111.838 E3.34961
G1 X113.082 Y108.222 E3.45697
G1 X112.725 Y107.805 F7800.000
G1 F1800
G1 X122.775 Y107.805 E3.75537
G1 X122.775 Y112.195 E3.88572
G1 X112.725 Y112.195 E4.18411
G1 X112.725 Y107.865 E4.31268
G1 X113.121 Y107.860 F7800.000
G1 X113.935 Y108.737 F7800.000
G1 F1800
G1 X113.657 Y109.015 E4.32441
G1 X113.657 Y109.523 E4.33957
G1 X114.443 Y108.737 E4.37274
G1 X114.951 Y108.737 E4.38790
G1 X113.657 Y110.031 E4.44251
G1 X113.657 Y110.538 E4.45766
G1 X115.458 Y108.737 E4.53371
G1 X115.966 Y108.737 E4.54886
G1 X113.657 Y111.046 E4.64634
G1 X113.657 Y111.263 E4.65281
G1 X113.949 Y111.263 E4.66150
G1 X116.474 Y108.737 E4.76813
G1 X116.982 Y108.737 E4.78328
G1 X114.456 Y111.263 E4.88991
G1 X114.964 Y111.263 E4.90507
G1 X117.489 Y108.737 E5.01169
G1 X117.997 Y108.737 E5.02685
G1 X115.472 Y111.263 E5.13347
G1 X115.980 Y111.263 E5.14863
G1 X118.505 Y108.737 E5.25525
G1 X119.013 Y108.737 E5.27041
G1 X116.487 Y111.263 E5.37703
G1 X116.995 Y111.263 E5.39219
G1 X119.520 Y108.737 E5.49881
G1 X120.028 Y108.737 E5.51397
G1 X117.503 Y111.263 E5.62059
G1 X118.011 Y111.263 E5.63575
G1 X120.536 Y108.737 E5.74238
G1 X121.044 Y108.737 E5.75753
G1 X118.518 Y111.263 E5.86416
G1 X119.026 Y111.263 E5.87932
G1 X121.551 Y108.737 E5.98594
G1 X121.843 Y108.737 E5.99463
G1 X121.843 Y108.954 E6.00110
G1 X119.534 Y111.263 E6.09858
G1 X120.042 Y111.263 E6.11374
G1 X121.843 Y109.462 E6.18978
G1 X121.843 Y109.969 E6.20494
G1 X120.549 Y111.263 E6.25954
G1 X121.057 Y111.263 E6.27470
G1 X121.843 Y110.477 E6.30787
G1 X121.843 Y110.985 E6.32303
G1 X121.565 Y111.263 E6.33476
G1 Z0.200 F7800.000
M104 S200 ; set temperature
M140 S65 ; set bed temperature
G1 Z0.400 F7800.000
G1 E4.33476 F2400.00000
G92 E0
G1 X106.281 Y111.347 F7800.000
G1 E2.00000 F2400.00000
G1 F900
G1 X98.219 Y111.347 E2.34661
G1 X98.219 Y108.653 E2.46246
G1 X106.281 Y108.653 E2.80908
G1 X106.281 Y111.287 E2.92234
G1 X106.798 Y111.864 F7800.000
G1 F900
G1 X97.702 Y111.864 E3.31342
G1 X97.702 Y108.136 E3.47373
G1 X106.798 Y108.136 E3.86481
G1 X106.798 Y111.804 E4.02254
G1 X107.255 Y112.321 F7800.000
G1 F900
G1 X97.245 Y112.321 E4.35305
G1 X97.245 Y107.679 E4.50634
G1 X107.255 Y107.679 E4.83684
G1 X107.255 Y112.261 E4.98815
G1 X106.859 Y112.264 F7800.000
G1 X105.965 Y109.371 F7800.000
G1 F1200
G1 X105.563 Y108.969 E5.01457
G1 X104.773 Y108.969 E5.05124
G1 X105.965 Y110.161 E5.12953
G1 X105.965 Y110.951 E5.16620
G1 X103.983 Y108.969 E5.29635
G1 X103.193 Y108.969 E5.33303
G1 X105.256 Y111.031 E5.46847
G1 X104.466 Y111.031 E5.50515
G1 X102.403 Y108.969 E5.64059
G1 X101.614 Y108.969 E5.67726
G1 X103.676 Y111.031 E5.81271
G1 X102.886 Y111.031 E5.84938
G1 X100.824 Y108.969 E5.98482
G1 X100.034 Y108.969 E6.02150
G1 X102.097 Y111.031 E6.15694
G1 X101.307 Y111.031 E6.19361
G1 X99.244 Y108.969 E6.32906
G1 X98.535 Y108.969 E6.36199
G1 X98.535 Y109.049 E6.36573
G1 X100.517 Y111.031 E6.49588
G1 X99.727 Y111.031 E6.53256
G1 X98.535 Y109.839 E6.61084
G1 X98.535 Y110.629 E6.64752
G1 X98.937 Y111.031 E6.67393
G1 Z0.400 F7800.000
G1 E4.67393 F2400.00000
G92 E0
G1 X113.719 Y108.653 F7800.000
G1 E2.00000 F2400.00000
G1 F900
G1 X121.781 Y108.653 E2.34661
G1 X121.781 Y111.347 E2.46246
G1 X113.719 Y111.347 E2.80908
G1 X113.719 Y108.713 E2.92234
G1 X113.202 Y108.136 F7800.000
G1 F900
G1 X122.298 Y108.136 E3.31342
G1 X122.298 Y111.864 E3.47373
G1 X113.202 Y111.864 E3.86481
G1 X113.202 Y108.196 E4.02254
G1 X112.745 Y107.679 F7800.000
G1 F900
G1 X122.755 Y107.679 E4.35305
G1 X122.755 Y112.321 E4.50634
G1 X112.745 Y112.321 E4.83684
G1 X112.745 Y107.739 E4.98815
G1 X113.141 Y107.736 F7800.000
G1 X114.437 Y111.031 F7800.000
G1 F1200
G1 X114.035 Y110.629 E5.01456
G1 X114.035 Y109.839 E5.05123
G1 X115.227 Y111.031 E5.12952
G1 X116.017 Y111.031 E5.16619
G1 X114.035 Y109.049 E5.29635
G1 X114.035 Y108.969 E5.30009
G1 X114.744 Y108.969 E5.33302
G1 X116.807 Y111.031 E5.46846
G1 X117.597 Y111.031 E5.50514
G1 X115.534 Y108.969 E5.64058
G1 X116.324 Y108.969 E5.67726
G1 X118.386 Y111.031 E5.81270
G1 X119.176 Y111.031 E5.84937
G1 X117.114 Y108.969 E5.98482
G1 X117.903 Y108.969 E6.02149
G1 X119.966 Y111.031 E6.15693
G1 X120.756 Y111.031 E6.19361
G1 X118.693 Y108.969 E6.32905
G1 X119.483 Y108.969 E6.36572
G1 X121.465 Y110.951 E6.49587
G1 X121.465 Y110.161 E6.53255
G1 X120.273 Y108.969 E6.61084
G1 X121.063 Y108.969 E6.64751
G1 X121.465 Y109.371 E6.67393
G1 Z0.600 F7800.000
G1 E4.67393 F2400.00000
G92 E0
G1 X106.281 Y111.493 F7800.000
G1 E2.00000 F2400.00000
G1 F900
G1 X98.219 Y111.493 E2.34661
G1 X98.219 Y108.507 E2.47504
G1 X106.281 Y108.507 E2.82166
G1 X106.281 Y111.433 E2.94750
G1 X106.798 Y112.011 F7800.000
G1 F900
G1 X97.702 Y112.011 E3.33858
G1 X97.702 Y107.989 E3.51147
G1 X106.798 Y107.989 E3.90255
G1 X106.798 Y111.951 E4.07286
G1 X107.255 Y112.468 F7800.000
G1 F900
G1 X97.245 Y112.468 E4.40336
G1 X97.245 Y107.532 E4.56631
G1 X107.255 Y107.532 E4.89682
G1 X107.255 Y112.408 E5.05778
G1 X106.860 Y112.407 F7800.000
G1 X105.563 Y111.178 F7800.000
G1 F1200
G1 X105.965 Y110.775 E5.08282
G1 X105.965 Y110.027 E5.11575
G1 X104.814 Y111.178 E5.18735
G1 X104.066 Y111.178 E5.22028
G1 X105.965 Y109.278 E5.33844
G1 X105.965 Y108.822 E5.35851
G1 X105.673 Y108.822 E5.37137
G1 X103.318 Y111.178 E5.51791
G1 X102.569 Y111.178 E5.55084
G1 X104.924 Y108.822 E5.69738
G1 X104.176 Y108.822 E5.73030
G1 X101.821 Y111.178 E5.87684
G1 X101.072 Y111.178 E5.90977
G1 X103.428 Y108.822 E6.05631
G1 X102.679 Y108.822 E6.08924
G1 X100.324 Y111.178 E6.23578
G1 X99.576 Y111.178 E6.26871
G1 X101.931 Y108.822 E6.41525
G1 X101.182 Y108.822 E6.44817
G1 X98.827 Y111.178 E6.59472
G1 X98.535 Y111.178 E6.60758
G1 X98.535 Y110.722 E6.62764
G1 X100.434 Y108.822 E6.74581
G1 X99.686 Y108.822 E6.77874
G1 X98.535 Y109.973 E6.85034
G1 X98.535 Y109.225 E6.88326
G1 X98.937 Y108.822 E6.90830
G1 Z0.600 F7800.000
G1 E4.90830 F2400.00000
G92 E0
G1 X113.719 Y108.507 F7800.000
G1 E2.00000 F2400.00000
G1 F900
G1 X121.781 Y108.507 E2.34661
G1 X121.781 Y111.493 E2.47504
G1 X113.719 Y111.493 E2.82166
G1 X113.719 Y108.567 E2.94750
G1 X113.202 Y107.989 F7800.000
G1 F900
G1 X122.298 Y107.989 E3.33858
G1 X122.298 Y112.011 E3.51147
G1 X113.202 Y112.011 E3.90255
G1 X113.202 Y108.049 E4.07286
G1 X112.745 Y107.532 F7800.000
G1 F900
G1 X122.755 Y107.532 E4.40336
G1 X122.755 Y112.468 E4.56631
G1 X112.745 Y112.468 E4.89682
G1 X112.745 Y107.592 E5.05778
G1 X113.140 Y107.593 F7800.000
G1 X114.437 Y108.822 F7800.000
G1 F1200
G1 X114.035 Y109.225 E5.08282
G1 X114.035 Y109.973 E5.11575
G1 X115.186 Y108.822 E5.18735
G1 X115.934 Y108.822 E5.22028
G1 X114.035 Y110.722 E5.33844
G1 X114.035 Y111.178 E5.35851
G1 X114.327 Y111.178 E5.37137
G1 X116.682 Y108.822 E5.51791
G1 X117.431 Y108.822 E5.55084
G1 X115.076 Y111.178 E5.69738
G1 X115.824 Y111.178 E5.73030
G1 X118.179 Y108.822 E5.87685
G1 X118.928 Y108.822 E5.90977
G1 X116.572 Y111.178 E6.05631
G1 X117.321 Y111.178 E6.08924
G1 X119.676 Y108.822 E6.23578
G1 X120.424 Y108.822 E6.26871
G1 X118.069 Y111.178 E6.41525
G1 X118.818 Y111.178 E6.44818
G1 X121.173 Y108.822 E6.59472
G1 X121.465 Y108.822 E6.60758
G1 X121.465 Y109.278 E6.62764
G1 X119.566 Y111.178 E6.74581
G1 X120.314 Y111.178 E6.77874
G1 X121.465 Y110.027 E6.85034
G1 X121.465 Y110.775 E6.88327
G1 X121.063 Y111.178 E6.90830
M106 S224.4
G1 Z0.800 F7800.000
G1 E4.90830 F2400.00000
G92 E0
G1 X106.281 Y111.589 F7800.000
G1 E2.00000 F2400.00000
G1 F900
G1 X98.219 Y111.589 E2.34661
G1 X98.219 Y108.411 E2.48328
G1 X106.281 Y108.411 E2.82989
G1 X106.281 Y111.529 E2.96398
G1 X106.798 Y112.106 F7800.000
G1 F900
G1 X97.702 Y112.106 E3.35506
G1 X97.702 Y107.894 E3.53618
G1 X106.798 Y107.894 E3.92726
G1 X106.798 Y112.046 E4.10581
G1 X107.255 Y112.563 F7800.000
G1 F900
G1 X97.245 Y112.563 E4.43631
G1 X97.245 Y107.437 E4.60559
G1 X107.255 Y107.437 E4.93609
G1 X107.255 Y112.503 E5.10339
G1 X106.860 Y112.501 F7800.000
G1 X105.965 Y109.129 F7800.000
G1 F1200
G1 X105.563 Y108.727 E5.12896
G1 X104.798 Y108.727 E5.16330
G1 X105.965 Y109.893 E5.23745
G1 X105.965 Y110.658 E5.27179
G1 X104.034 Y108.727 E5.39451
G1 X103.270 Y108.727 E5.42886
G1 X105.816 Y111.273 E5.59070
G1 X105.052 Y111.273 E5.62505
G1 X102.505 Y108.727 E5.78689
G1 X101.741 Y108.727 E5.82124
G1 X104.288 Y111.273 E5.98308
G1 X103.523 Y111.273 E6.01743
G1 X100.977 Y108.727 E6.17927
G1 X100.212 Y108.727 E6.21362
G1 X102.759 Y111.273 E6.37546
G1 X101.995 Y111.273 E6.40981
G1 X99.448 Y108.727 E6.57166
G1 X98.684 Y108.727 E6.60600
G1 X101.230 Y111.273 E6.76785
G1 X100.466 Y111.273 E6.80219
G1 X98.535 Y109.342 E6.92491
G1 X98.535 Y110.107 E6.95926
G1 X99.702 Y111.273 E7.03340
G1 X98.937 Y111.273 E7.06775
G1 X98.535 Y110.871 E7.09332
G1 Z0.800 F7800.000
G1 E5.09332 F2400.00000
G92 E0
G1 X113.719 Y108.411 F7800.000
G1 E2.00000 F2400.00000
G1 F900
G1 X121.781 Y108.411 E2.34661
G1 X121.781 Y111.589 E2.48328
G1 X113.719 Y111.589 E2.82989
G1 X113.719 Y108.471 E2.96398
G1 X113.202 Y107.894 F7800.000
G1 F900
G1 X122.298 Y107.894 E3.35506
G1 X122.298 Y112.106 E3.53618
G1 X113.202 Y112.106 E3.92726
G1 X113.202 Y107.954 E4.10581
G1 X112.745 Y107.437 F7800.000
G1 F900
G1 X122.755 Y107.437 E4.43631
G1 X122.755 Y112.563 E4.60559
G1 X112.745 Y112.563 E4.93609
G1 X112.745 Y107.497 E5.10339
G1 X113.140 Y107.499 F7800.000
G1 X114.035 Y110.871 F7800.000
G1 F1200
G1 X114.437 Y111.273 E5.12896
G1 X115.202 Y111.273 E5.16330
G1 X114.035 Y110.107 E5.23745
G1 X114.035 Y109.342 E5.27179
G1 X115.966 Y111.273 E5.39451
G1 X116.730 Y111.273 E5.42886
G1 X114.184 Y108.727 E5.59070
G1 X114.948 Y108.727 E5.62505
G1 X117.495 Y111.273 E5.78689
G1 X118.259 Y111.273 E5.82124
G1 X115.712 Y108.727 E5.98308
G1 X116.477 Y108.727 E6.01743
G1 X119.023 Y111.273 E6.17927
G1 X119.788 Y111.273 E6.21362
G1 X117.241 Y108.727 E6.37547
G1 X118.005 Y108.727 E6.40981
G1 X120.552 Y111.273 E6.57166
G1 X121.316 Y111.273 E6.60600
G1 X118.770 Y108.727 E6.76785
G1 X119.534 Y108.727 E6.80219
G1 X121.465 Y110.658 E6.92491
G1 X121.465 Y109.893 E6.95926
G1 X120.298 Y108.727 E7.03340
G1 X121.063 Y108.727 E7.06775
G1 X121.465 Y109.129 E7.09332
M106 S221.85
G1 Z1.000 F7800.000
G1 E5.09332 F2400.00000
G92 E0
G1 X106.281 Y111.668 F7800.000
G1 E2.00000 F2400.00000
G1 F900
G1 X98.219 Y111.668 E2.34661
G1 X98.219 Y108.332 E2.49007
G1 X106.281 Y108.332 E2.83668
G1 X106.281 Y111.608 E2.97756
G1 X106.798 Y112.185 F7800.000
G1 F900
G1 X97.702 Y112.185 E3.36864
G1 X97.702 Y107.815 E3.55656
G1 X106.798 Y107.815 E3.94763
G1 X106.798 Y112.125 E4.13297
G1 X107.255 Y112.642 F7800.000
G1 F900
G1 X97.245 Y112.642 E4.46348
G1 X97.245 Y107.358 E4.63797
G1 X107.255 Y107.358 E4.96847
G1 X107.255 Y112.582 E5.14098
G1 X106.860 Y112.578 F7800.000
G1 X105.563 Y111.352 F7800.000
G1 F1200
G1 X105.965 Y110.950 E5.16699
G1 X105.965 Y110.172 E5.20253
G1 X104.785 Y111.352 E5.27880
G1 X104.008 Y111.352 E5.31434
G1 X105.965 Y109.395 E5.44087
G1 X105.965 Y108.648 E5.47503
G1 X105.935 Y108.648 E5.47641
G1 X103.230 Y111.352 E5.65125
G1 X102.453 Y111.352 E5.68679
