; generated by Slic3r 1.3.0 on 2020-12-12 at 04:23:36

; external perimeters extrusion width = 0.44mm (2.38mm^3/s)
; perimeters extrusion width = 0.56mm (6.20mm^3/s)
; infill extrusion width = 0.50mm (7.31mm^3/s)
; solid infill extrusion width = 0.56mm (2.07mm^3/s)
; top infill extrusion width = 0.56mm (1.55mm^3/s)
; support material extrusion width = 0.44mm (4.76mm^3/s)

M107
M140 S65
M104 S150 T0
G28 ; home all axes
G29; ABL
G1 X0 Y0 Z5 F{Z_TRAVEL_SPEED}
M107 ; Turn off fan
G90 ; Absolute positioning
G1 X0 Y0 F2400 ; move to the X=0 Y=0 position on the bed at a speed of 2400 mm/min
M190 S65  ; Wait for bed to reach temperature
M109 S205 T0 ; Wait for all used extruders to reach temperature
G92 E0 ; Reset extruder position
G1 X5 Y15 Z0.25 F1000.0 ; go intro start pos
G1 X60.0 E9.0 F600.0 ; intro line to prime extruder
G1 X100.0 E16 F800.0 ; intro line
G92 E0.0 ; reset extruder distance position
; Filament gcode

G21 ; set units to millimeters
G90 ; use absolute coordinates
M82 ; use absolute distances for extrusion
G92 E0
G1 Z0.200 F7800.000
G1 E-2.00000 F2400.00000
G92 E0
G1 X97.077 Y97.166 F7800.000
G1 E2.00000 F2400.00000
G1 F1800
G1 X97.721 Y96.546 E2.02653
G1 X98.465 Y95.905 E2.05569
G1 X98.825 Y95.619 E2.06935
G1 X99.769 Y94.932 E2.10402
G1 X100.556 Y94.424 E2.13183
G1 X101.581 Y93.847 E2.16675
G1 X102.645 Y93.336 E2.20181
G1 X103.495 Y92.988 E2.22906
G1 X104.872 Y92.522 E2.27224
G1 X106.010 Y92.228 E2.30712
G1 X106.868 Y92.058 E2.33308
G1 X108.350 Y91.860 E2.37748
G1 X109.525 Y91.792 E2.41242
G1 X110.356 Y91.791 E2.43710
G1 X110.815 Y91.805 E2.45075
G1 X111.885 Y91.884 E2.48261
G1 X113.056 Y92.044 E2.51770
G1 X113.831 Y92.194 E2.54112
G1 X114.279 Y92.297 E2.55478
G1 X115.355 Y92.591 E2.58790
G1 X116.472 Y92.975 E2.62297
G1 X117.164 Y93.255 E2.64514
G1 X117.585 Y93.442 E2.65879
G1 X118.622 Y93.957 E2.69318
G1 X119.635 Y94.544 E2.72794
G1 X120.244 Y94.941 E2.74953
G1 X121.173 Y95.617 E2.78363
G1 X121.532 Y95.903 E2.79729
G1 X122.108 Y96.393 E2.81973
G1 X122.965 Y97.207 E2.85481
G1 X123.716 Y98.018 E2.88765
G1 X124.015 Y98.368 E2.90131
G1 X124.511 Y98.992 E2.92498
G1 X125.195 Y99.957 E2.96009
G1 X125.754 Y100.862 E2.99167
G1 X125.980 Y101.262 E3.00533
G1 X126.367 Y102.007 E3.03026
G1 X126.852 Y103.086 E3.06536
G1 X127.356 Y104.479 E3.10934
G1 X127.605 Y105.326 E3.13556
G1 X127.872 Y106.480 E3.17074
G1 X128.091 Y107.899 E3.21336
G1 X128.177 Y108.821 E3.24085
G1 X128.215 Y110.003 E3.27598
G1 X128.177 Y111.180 E3.31095
G1 X128.091 Y112.101 E3.33841
G1 X127.871 Y113.522 E3.38110
G1 X127.605 Y114.674 E3.41621
G1 X127.356 Y115.521 E3.44243
G1 X126.852 Y116.914 E3.48639
G1 X126.367 Y117.993 E3.52151
G1 X125.980 Y118.738 E3.54644
G1 X125.754 Y119.138 E3.56010
G1 X125.195 Y120.044 E3.59169
G1 X124.511 Y121.008 E3.62678
G1 X124.015 Y121.632 E3.65046
G1 X123.716 Y121.982 E3.66412
G1 X122.964 Y122.794 E3.69698
G1 X122.108 Y123.606 E3.73203
G1 X121.532 Y124.097 E3.75448
G1 X121.173 Y124.383 E3.76814
G1 X120.245 Y125.059 E3.80222
G1 X119.635 Y125.456 E3.82383
G1 X118.623 Y126.042 E3.85855
G1 X117.585 Y126.558 E3.89297
G1 X117.164 Y126.745 E3.90663
G1 X116.473 Y127.024 E3.92876
G1 X115.354 Y127.409 E3.96390
G1 X114.279 Y127.703 E3.99699
G1 X113.830 Y127.806 E4.01065
G1 X113.057 Y127.956 E4.03405
G1 X111.886 Y128.116 E4.06913
G1 X110.815 Y128.195 E4.10102
G1 X110.356 Y128.209 E4.11467
G1 X109.522 Y128.208 E4.13941
G1 X108.352 Y128.140 E4.17422
G1 X107.322 Y128.015 E4.20504
G1 X106.868 Y127.942 E4.21869
G1 X106.008 Y127.772 E4.24469
G1 X104.873 Y127.479 E4.27950
G1 X103.495 Y127.012 E4.32271
G1 X102.646 Y126.664 E4.34995
G1 X101.581 Y126.153 E4.38504
G1 X100.556 Y125.576 E4.41996
G1 X99.769 Y125.068 E4.44776
G1 X98.825 Y124.381 E4.48243
G1 X98.465 Y124.095 E4.49608
G1 X97.720 Y123.453 E4.52528
G1 X97.077 Y122.834 E4.55178
G1 X96.078 Y121.746 E4.59564
G1 X95.349 Y120.823 E4.63056
G1 X94.862 Y120.126 E4.65579
G1 X94.611 Y119.741 E4.66945
G1 X94.069 Y118.830 E4.70092
G1 X93.532 Y117.783 E4.73585
G1 X93.205 Y117.045 E4.75982
G1 X93.033 Y116.619 E4.77347
G1 X92.664 Y115.586 E4.80603
G1 X92.338 Y114.450 E4.84111
G1 X92.168 Y113.704 E4.86384
G1 X92.080 Y113.253 E4.87749
G1 X91.911 Y112.126 E4.91131
G1 X91.812 Y110.948 E4.94642
G1 X91.789 Y110.227 E4.96785
G1 X91.811 Y109.066 E5.00233
G1 X91.840 Y108.607 E5.01598
G1 X91.911 Y107.875 E5.03783
G1 X92.087 Y106.704 E5.07296
G1 X92.325 Y105.605 E5.10635
G1 X92.442 Y105.161 E5.12000
G1 X92.664 Y104.413 E5.14315
G1 X93.062 Y103.302 E5.17820
G1 X93.492 Y102.307 E5.21037
G1 X93.691 Y101.893 E5.22402
G1 X94.072 Y101.165 E5.24841
G1 X94.678 Y100.150 E5.28352
G1 X95.350 Y99.176 E5.31864
G1 X95.983 Y98.371 E5.34906
G1 X96.281 Y98.021 E5.36272
G1 X97.035 Y97.209 E5.39561
G1 X97.326 Y97.423 F7800.000
G1 F1800
G1 X97.963 Y96.809 E5.42188
G1 X98.697 Y96.177 E5.45062
G1 X99.038 Y95.905 E5.46360
G1 X99.964 Y95.231 E5.49759
G1 X100.742 Y94.729 E5.52507
G1 X101.746 Y94.164 E5.55929
G1 X102.789 Y93.663 E5.59364
G1 X103.629 Y93.319 E5.62060
G1 X104.711 Y92.945 E5.65459
G1 X105.130 Y92.821 E5.66756
G1 X106.086 Y92.576 E5.69686
G1 X106.936 Y92.409 E5.72258
G1 X108.379 Y92.216 E5.76582
G1 X109.530 Y92.149 E5.80005
G1 X110.356 Y92.148 E5.82456
G1 X110.792 Y92.162 E5.83753
G1 X111.851 Y92.239 E5.86904
G1 X112.992 Y92.395 E5.90323
G1 X113.762 Y92.545 E5.92654
G1 X114.188 Y92.642 E5.93951
G1 X115.245 Y92.931 E5.97203
G1 X116.340 Y93.307 E6.00640
G1 X117.030 Y93.586 E6.02852
G1 X117.430 Y93.763 E6.04149
G1 X118.447 Y94.268 E6.07520
G1 X119.440 Y94.843 E6.10928
G1 X120.049 Y95.240 E6.13085
G1 X120.959 Y95.903 E6.16429
G1 X121.301 Y96.175 E6.17727
G1 X121.875 Y96.664 E6.19965
G1 X122.714 Y97.461 E6.23403
G1 X123.452 Y98.258 E6.26627
G1 X123.736 Y98.591 E6.27925
G1 X124.230 Y99.211 E6.30280
G1 X124.900 Y100.157 E6.33721
G1 X125.663 Y101.427 E6.38122
G1 X126.048 Y102.167 E6.40597
G1 X126.522 Y103.224 E6.44037
G1 X127.014 Y104.580 E6.48320
G1 X127.260 Y105.419 E6.50916
G1 X127.522 Y106.550 E6.54364
G1 X127.736 Y107.933 E6.58518
G1 X127.821 Y108.844 E6.61236
G1 X127.858 Y110.003 E6.64678
G1 X127.820 Y111.157 E6.68104
G1 X127.736 Y112.067 E6.70819
G1 X127.521 Y113.452 E6.74980
G1 X127.260 Y114.581 E6.78421
G1 X127.014 Y115.420 E6.81017
G1 X126.522 Y116.776 E6.85299
G1 X126.048 Y117.833 E6.88740
G1 X125.663 Y118.573 E6.91215
G1 X124.899 Y119.843 E6.95617
G1 X124.230 Y120.789 E6.99057
G1 X123.735 Y121.409 E7.01412
G1 X123.452 Y121.742 E7.02710
G1 X122.714 Y122.539 E7.05936
G1 X121.875 Y123.336 E7.09371
G1 X121.301 Y123.825 E7.11610
G1 X120.959 Y124.097 E7.12908
G1 X120.049 Y124.760 E7.16250
G1 X119.440 Y125.157 E7.18409
G1 X118.448 Y125.731 E7.21812
G1 X117.430 Y126.237 E7.25188
G1 X117.030 Y126.414 E7.26485
G1 X116.341 Y126.693 E7.28694
G1 X115.244 Y127.069 E7.32137
G1 X114.188 Y127.358 E7.35386
G1 X113.762 Y127.455 E7.36683
G1 X112.992 Y127.605 E7.39012
G1 X111.852 Y127.761 E7.42430
G1 X110.792 Y127.838 E7.45584
G1 X110.356 Y127.852 E7.46881
G1 X109.528 Y127.851 E7.49338
G1 X108.381 Y127.784 E7.52749
G1 X106.936 Y127.591 E7.57079
G1 X106.085 Y127.423 E7.59655
G1 X104.972 Y127.136 E7.63066
G1 X103.629 Y126.681 E7.67277
G1 X102.789 Y126.337 E7.69971
G1 X101.745 Y125.836 E7.73410
G1 X100.741 Y125.270 E7.76831
G1 X99.964 Y124.769 E7.79578
G1 X99.038 Y124.095 E7.82977
G1 X98.697 Y123.823 E7.84274
G1 X97.962 Y123.190 E7.87153
G1 X97.326 Y122.577 E7.89776
G1 X96.353 Y121.517 E7.94049
G1 X95.638 Y120.613 E7.97470
G1 X95.155 Y119.922 E7.99974
G1 X94.383 Y118.660 E8.04366
G1 X93.857 Y117.634 E8.07788
G1 X93.531 Y116.901 E8.10171
G1 X93.368 Y116.496 E8.11469
G1 X93.005 Y115.481 E8.14667
G1 X92.686 Y114.368 E8.18105
G1 X92.516 Y113.625 E8.20369
G1 X92.433 Y113.196 E8.21667
G1 X92.267 Y112.091 E8.24984
G1 X92.169 Y110.936 E8.28425
G1 X92.145 Y110.215 E8.30567
G1 X92.168 Y109.077 E8.33947
G1 X92.196 Y108.641 E8.35244
G1 X92.266 Y107.910 E8.37425
G1 X92.439 Y106.763 E8.40869
G1 X92.673 Y105.685 E8.44145
G1 X92.784 Y105.262 E8.45442
G1 X93.005 Y104.518 E8.47747
G1 X93.396 Y103.429 E8.51183
G1 X93.818 Y102.452 E8.54343
G1 X94.008 Y102.058 E8.55641
G1 X94.386 Y101.335 E8.58063
G1 X94.981 Y100.340 E8.61504
G1 X95.639 Y99.386 E8.64946
G1 X96.262 Y98.593 E8.67941
G1 X96.546 Y98.261 E8.69238
G1 X97.283 Y97.465 E8.72460
G1 X97.574 Y97.679 F7800.000
G1 F1800
G1 X98.205 Y97.072 E8.75059
G1 X98.928 Y96.449 E8.77893
G1 X99.252 Y96.191 E8.79123
G1 X100.159 Y95.531 E8.82454
G1 X100.927 Y95.035 E8.85168
G1 X101.911 Y94.481 E8.88520
G1 X102.932 Y93.990 E8.91886
G1 X103.763 Y93.650 E8.94550
G1 X104.824 Y93.284 E8.97882
G1 X105.221 Y93.166 E8.99111
G1 X106.162 Y92.925 E9.01997
G1 X107.004 Y92.759 E9.04545
G1 X108.409 Y92.572 E9.08753
G1 X109.536 Y92.506 E9.12106
G1 X110.356 Y92.505 E9.14539
G1 X111.809 Y92.594 E9.18863
G1 X112.927 Y92.747 E9.22212
G1 X113.694 Y92.895 E9.24532
G1 X115.134 Y93.271 E9.28952
G1 X116.207 Y93.638 E9.32319
G1 X116.896 Y93.917 E9.34526
G1 X117.275 Y94.085 E9.35755
G1 X118.272 Y94.579 E9.39059
G1 X119.245 Y95.143 E9.42398
G1 X119.853 Y95.539 E9.44553
G1 X120.745 Y96.189 E9.47831
G1 X121.069 Y96.447 E9.49061
G1 X121.642 Y96.935 E9.51293
G1 X122.464 Y97.716 E9.54661
G1 X123.456 Y98.813 E9.59054
G1 X123.948 Y99.431 E9.61397
G1 X124.604 Y100.357 E9.64767
G1 X125.347 Y101.593 E9.69048
G1 X125.728 Y102.326 E9.71503
G1 X126.193 Y103.362 E9.74874
G1 X126.671 Y104.682 E9.79042
G1 X126.916 Y105.513 E9.81613
G1 X127.171 Y106.621 E9.84990
G1 X127.380 Y107.967 E9.89036
G1 X127.464 Y108.868 E9.91722
G1 X127.501 Y109.997 E9.95075
G1 X127.464 Y111.133 E9.98450
G1 X127.380 Y112.033 E10.01133
G1 X127.171 Y113.381 E10.05185
G1 X126.916 Y114.487 E10.08556
G1 X126.671 Y115.318 E10.11127
G1 X126.193 Y116.638 E10.15294
G1 X125.728 Y117.674 E10.18665
G1 X125.347 Y118.407 E10.21121
G1 X124.604 Y119.643 E10.25402
G1 X123.948 Y120.569 E10.28772
G1 X123.456 Y121.187 E10.31115
G1 X122.463 Y122.284 E10.35510
G1 X121.642 Y123.065 E10.38875
G1 X121.069 Y123.553 E10.41108
G1 X120.745 Y123.811 E10.42338
G1 X119.854 Y124.461 E10.45614
G1 X119.245 Y124.857 E10.47771
G1 X118.273 Y125.420 E10.51106
G1 X117.275 Y125.915 E10.54414
G1 X116.896 Y126.083 E10.55643
G1 X116.208 Y126.361 E10.57847
G1 X115.134 Y126.730 E10.61220
G1 X113.694 Y127.105 E10.65637
G1 X112.928 Y127.253 E10.67954
G1 X111.810 Y127.406 E10.71303
G1 X110.356 Y127.495 E10.75630
G1 X109.534 Y127.494 E10.78069
G1 X108.411 Y127.428 E10.81410
G1 X107.004 Y127.241 E10.85624
G1 X106.161 Y127.074 E10.88176
G1 X105.221 Y126.834 E10.91058
G1 X104.824 Y126.716 E10.92287
G1 X103.763 Y126.350 E10.95618
G1 X102.933 Y126.010 E10.98282
G1 X101.910 Y125.519 E11.01650
G1 X100.927 Y124.965 E11.05002
G1 X100.159 Y124.469 E11.07715
G1 X99.252 Y123.809 E11.11046
G1 X98.928 Y123.551 E11.12276
G1 X98.204 Y122.928 E11.15113
G1 X97.574 Y122.321 E11.17709
G1 X96.627 Y121.289 E11.21869
G1 X95.927 Y120.403 E11.25220
G1 X95.448 Y119.718 E11.27703
G1 X94.697 Y118.490 E11.31976
G1 X94.182 Y117.486 E11.35328
G1 X93.858 Y116.756 E11.37697
G1 X93.347 Y115.377 E11.42066
G1 X93.033 Y114.286 E11.45434
G1 X92.864 Y113.545 E11.47691
G1 X92.785 Y113.139 E11.48920
G1 X92.622 Y112.056 E11.52173
G1 X92.525 Y110.925 E11.55543
G1 X92.502 Y110.204 E11.57685
G1 X92.525 Y109.089 E11.60996
G1 X92.551 Y108.675 E11.62226
G1 X92.622 Y107.945 E11.64404
G1 X92.791 Y106.822 E11.67777
G1 X93.022 Y105.764 E11.70990
G1 X93.126 Y105.364 E11.72220
G1 X93.347 Y104.623 E11.74515
G1 X93.730 Y103.556 E11.77881
G1 X94.324 Y102.223 E11.82214
G1 X94.700 Y101.505 E11.84620
G1 X95.283 Y100.531 E11.87991
G1 X95.928 Y99.596 E11.91362
G1 X96.542 Y98.816 E11.94310
G1 X96.810 Y98.501 E11.95540
G1 X97.532 Y97.722 E11.98693
G1 E9.98693 F2400.00000
G92 E0
G1 X114.606 Y114.817 F7800.000
G1 E2.00000 F2400.00000
G1 F1800
G1 X114.156 Y115.211 E2.01776
G1 X113.672 Y115.562 E2.03551
G1 X113.158 Y115.869 E2.05327
G1 X112.620 Y116.129 E2.07103
G1 X112.060 Y116.339 E2.08879
G1 X111.483 Y116.498 E2.10654
G1 X110.895 Y116.605 E2.12430
G1 X110.299 Y116.658 E2.14206
G1 X109.701 Y116.658 E2.15981
G1 X109.080 Y116.603 E2.17831
G1 X108.515 Y116.497 E2.19539
G1 X107.940 Y116.339 E2.21309
G1 X107.380 Y116.129 E2.23084
G1 X106.842 Y115.869 E2.24860
G1 X106.328 Y115.562 E2.26636
G1 X105.844 Y115.211 E2.28412
G1 X105.394 Y114.817 E2.30187
G1 X104.981 Y114.385 E2.31963
G1 X104.608 Y113.918 E2.33739
G1 X104.278 Y113.419 E2.35514
G1 X103.995 Y112.892 E2.37290
G1 X103.760 Y112.342 E2.39066
G1 X103.575 Y111.773 E2.40841
G1 X103.442 Y111.190 E2.42617
G1 X103.362 Y110.597 E2.44393
G1 X103.335 Y110.000 E2.46169
G1 X103.362 Y109.403 E2.47944
G1 X103.442 Y108.810 E2.49720
G1 X103.575 Y108.227 E2.51496
G1 X103.752 Y107.681 E2.53200
G1 X103.994 Y107.110 E2.55042
G1 X104.278 Y106.581 E2.56823
G1 X104.608 Y106.082 E2.58598
G1 X104.981 Y105.615 E2.60374
G1 X105.394 Y105.183 E2.62150
G1 X105.844 Y104.789 E2.63925
G1 X106.328 Y104.438 E2.65701
G1 X106.842 Y104.131 E2.67477
G1 X107.380 Y103.871 E2.69252
G1 X107.940 Y103.661 E2.71028
G1 X108.517 Y103.502 E2.72804
G1 X109.105 Y103.395 E2.74580
G1 X109.701 Y103.342 E2.76355
G1 X110.299 Y103.342 E2.78131
G1 X110.895 Y103.395 E2.79907
G1 X111.483 Y103.502 E2.81682
G1 X112.060 Y103.661 E2.83458
G1 X112.620 Y103.871 E2.85234
G1 X113.158 Y104.131 E2.87010
G1 X113.672 Y104.438 E2.88785
G1 X114.156 Y104.789 E2.90561
G1 X114.606 Y105.183 E2.92337
G1 X115.019 Y105.615 E2.94112
G1 X115.392 Y106.082 E2.95888
G1 X115.722 Y106.581 E2.97664
G1 X116.005 Y107.108 E2.99439
G1 X116.240 Y107.658 E3.01215
G1 X116.425 Y108.227 E3.02991
G1 X116.558 Y108.810 E3.04767
G1 X116.638 Y109.403 E3.06542
G1 X116.665 Y110.000 E3.08318
G1 X116.638 Y110.597 E3.10094
G1 X116.558 Y111.190 E3.11869
G1 X116.425 Y111.773 E3.13645
G1 X116.240 Y112.342 E3.15421
G1 X116.005 Y112.892 E3.17196
G1 X115.722 Y113.419 E3.18972
G1 X115.392 Y113.918 E3.20748
G1 X115.019 Y114.385 E3.22524
G1 X114.647 Y114.774 E3.24121
G1 X114.359 Y114.559 F7800.000
G1 F1800
G1 X113.933 Y114.932 E3.25802
G1 X113.475 Y115.264 E3.27482
G1 X112.989 Y115.554 E3.29163
G1 X112.479 Y115.800 E3.30843
G1 X111.949 Y115.999 E3.32524
G1 X111.404 Y116.149 E3.34204
G1 X110.847 Y116.251 E3.35884
G1 X110.283 Y116.301 E3.37565
G1 X109.717 Y116.301 E3.39245
G1 X109.129 Y116.248 E3.40998
G1 X108.595 Y116.149 E3.42610
G1 X108.051 Y115.999 E3.44287
G1 X107.521 Y115.800 E3.45968
G1 X107.011 Y115.554 E3.47648
G1 X106.525 Y115.264 E3.49329
G1 X106.067 Y114.932 E3.51009
G1 X105.641 Y114.559 E3.52690
G1 X105.250 Y114.150 E3.54370
G1 X104.897 Y113.708 E3.56050
G1 X104.585 Y113.235 E3.57731
G1 X104.317 Y112.737 E3.59411
G1 X104.095 Y112.216 E3.61092
G1 X103.920 Y111.678 E3.62772
G1 X103.794 Y111.126 E3.64453
G1 X103.718 Y110.565 E3.66133
G1 X103.692 Y110.000 E3.67814
G1 X103.718 Y109.435 E3.69494
G1 X103.794 Y108.874 E3.71175
G1 X103.920 Y108.322 E3.72855
G1 X104.087 Y107.806 E3.74466
G1 X104.317 Y107.264 E3.76213
G1 X104.585 Y106.765 E3.77896
G1 X104.897 Y106.292 E3.79577
G1 X105.250 Y105.850 E3.81257
G1 X105.641 Y105.441 E3.82938
G1 X106.067 Y105.068 E3.84618
G1 X106.525 Y104.736 E3.86299
G1 X107.011 Y104.446 E3.87979
G1 X107.521 Y104.200 E3.89660
G1 X108.051 Y104.001 E3.91340
G1 X108.596 Y103.851 E3.93021
G1 X109.153 Y103.749 E3.94701
G1 X109.717 Y103.699 E3.96382
G1 X110.283 Y103.699 E3.98062
G1 X110.847 Y103.749 E3.99743
G1 X111.404 Y103.851 E4.01423
G1 X111.949 Y104.001 E4.03104
G1 X112.479 Y104.200 E4.04784
G1 X112.989 Y104.446 E4.06464
G1 X113.475 Y104.736 E4.08145
G1 X113.933 Y105.068 E4.09825
G1 X114.359 Y105.441 E4.11506
G1 X114.750 Y105.850 E4.13186
G1 X115.103 Y106.292 E4.14867
G1 X115.415 Y106.765 E4.16547
G1 X115.683 Y107.263 E4.18228
G1 X115.905 Y107.784 E4.19908
G1 X116.080 Y108.322 E4.21589
G1 X116.206 Y108.874 E4.23269
G1 X116.282 Y109.435 E4.24950
G1 X116.308 Y110.000 E4.26630
G1 X116.282 Y110.565 E4.28311
G1 X116.206 Y111.126 E4.29991
G1 X116.080 Y111.678 E4.31672
G1 X115.905 Y112.216 E4.33352
G1 X115.683 Y112.737 E4.35033
G1 X115.415 Y113.235 E4.36713
G1 X115.103 Y113.708 E4.38394
G1 X114.750 Y114.150 E4.40074
G1 X114.400 Y114.516 E4.41576
G1 X114.112 Y114.301 F7800.000
G1 F1800
G1 X113.710 Y114.652 E4.43162
G1 X113.278 Y114.966 E4.44747
G1 X112.820 Y115.240 E4.46332
G1 X112.339 Y115.471 E4.47917
