;FLAVOR:Marlin
;TIME:717
;Filament used: 0.365644m
;Layer height: 0.2
;MINX:79.892
;MINY:105.066
;MINZ:0.2
;MAXX:120.11
;MAXY:129.99
;MAXZ:4
;Generated with Cura_SteamEngine master
M82 ;absolute extrusion mode
; Ender 3 Custom Start G-code
M140 S70 ; Set Heat Bed temperature
M104 S160 ; start warming extruder to 160
G28 ; Home all axes
; G29 ; Auto bed-level (BL-Touch)
G92 E0 ; Reset Extruder
M190 S70 ; Wait for Heat Bed temperature
M104 S210 ; Set Extruder temperature
G1 X0 Y0 Z0.3 F5000.0 ; Move to 0 0
M109 S210 ; Wait for Extruder temperature
G1 X3 Y20 Z0.3 F5000.0 ; Move to start position
; G1 Z2.0 F3000 ; Move Z Axis up little to prevent scratching of Heat Bed
G1 X3 Y200.0 Z0.3 F1500.0 E15 ; Draw the first line
G1 X3.3 Y200.0 Z0.3 F5000.0 ; Move to side a little
G1 X3.3 Y20 Z0.3 F1500.0 E30 ; Draw the second line
G92 E0 ; Reset Extruder
G1 Z2.0 F3000 ; Move Z Axis up little to prevent scratching of Heat Bed
G92 E0
G92 E0
G1 F2100 E-1
;LAYER_COUNT:20
;LAYER:0
M107
M204 S500
M205 X8 Y8
;MESH:Carabiner.stl
G0 F6000 X98.83 Y107.457 Z0.2
;TYPE:WALL-INNER
G1 F2100 E0
G1 F1200 X98.389 Y106.946 E0.01622
G1 X98.357 Y106.879 E0.018
G1 X98.091 Y106.332 E0.03262
G1 X98.088 Y106.315 E0.03304
G1 X98.437 Y106.159 E0.04222
G1 X98.436 Y106.318 E0.04286
G1 X98.435 Y106.337
G1 X98.426 Y106.845 E0.04889
G1 X98.44 Y106.853
G1 X98.994 Y107.162 E0.05776
G1 X99.587 Y107.493 E0.07408
G1 X99.626 Y107.515 E0.07516
G1 X99.631 Y107.518 E0.0753
G1 X102.938 Y109.368 E0.16635
G1 X99.454 Y107.875 E0.21196
G1 X99.45 Y107.873 E0.21207
G1 X99.412 Y107.856 E0.21307
G1 X99.391 Y107.841 E0.21369
G1 X98.83 Y107.457 E0.22876
G0 F6000 X103.918 Y109.353
G1 F1200 X104.025 Y109.161 E0.23404
G1 X104.026 Y109.16 E0.23408
G1 X104.201 Y108.848 E0.24267
G1 X105.683 Y109.677 E0.28348
G1 X107.705 Y110.808 E0.33915
G1 X110.502 Y112.373 E0.41617
G1 X107.629 Y110.945 E0.43129
G1 X105.5 Y110.032 E0.47003
G1 X104.121 Y109.44 E0.50609
G1 X103.918 Y109.353 E0.50943
G1 F2100 E-0.49057
G0 F6000 X115.566 Y115.963
G0 X116.649 Y116.785
G0 X117.498 Y117.86
G0 X118.051 Y119.112
G0 X118.274 Y120.467
G0 X118.156 Y121.827
G0 X117.696 Y123.12
G0 X116.928 Y124.259
G0 X115.906 Y125.166
G0 X114.682 Y125.789
G0 X113.375 Y126.082
G0 X91.773 Y128.116
G0 X90.106 Y128.12
G0 X88.456 Y127.817
G0 X86.878 Y127.215
G0 X85.446 Y126.342
G0 X84.19 Y125.216
G0 X83.163 Y123.88
G0 X82.397 Y122.382
G0 X81.918 Y120.772
G0 X81.739 Y119.096
G0 X81.869 Y117.414
G0 X82.304 Y115.795
G0 X83.026 Y114.273
G0 X84.016 Y112.91
G0 X85.241 Y111.747
G0 X86.649 Y110.831
G0 X87.906 Y110.311
G0 X93.616 Y108.714
G1 F2100 E0.50943
G1 F1200 X93.387 Y108.816 E0.51545
G1 X92.894 Y109.038 E0.52844
G1 X91.971 Y108.892 E0.5509
G1 X91.736 Y108.854 E0.55662
G1 X91.983 Y108.814 E0.5574
G1 X92.867 Y108.738 E0.56732
G1 X93.333 Y108.697 E0.57305
G1 X93.616 Y108.714 E0.57464
G0 F6000 X95.001 Y109.149
G0 X97.386 Y110.279
G0 X97.951 Y110.691
G1 F1200 X97.957 Y109.922 E0.59312
G1 X97.572 Y109.74 E0.60335
G1 X96.785 Y109.368 E0.62427
G1 X95.918 Y108.959 E0.64731
G1 X95.008 Y108.529 E0.67149
G1 X94.808 Y108.618 E0.67675
G1 X94.553 Y108.732 E0.68346
G1 X92.949 Y109.451 E0.7257
G1 X91.569 Y109.233 E0.75928
G1 X89.784 Y109.28 E0.80219
G1 X88.036 Y109.65 E0.84512
G1 X86.386 Y110.335 E0.88805
G1 X84.888 Y111.308 E0.93098
G1 X83.593 Y112.538 E0.9739
G1 X82.544 Y113.984 E1.01683
G1 X82.529 Y114.017 E1.0177
G1 X81.776 Y115.597 E1.05976
G1 X81.314 Y117.322 E1.10267
G1 X81.175 Y119.105 E1.14565
G1 X81.365 Y120.88 E1.18855
G1 X81.875 Y122.592 E1.23147
G1 X82.688 Y124.183 E1.27441
G1 X83.777 Y125.599 E1.31733
G1 X85.106 Y126.791 E1.36023
G1 X86.632 Y127.723 E1.4032
G1 X88.301 Y128.359 E1.44612
G1 X90.058 Y128.681 E1.48905
G1 X91.798 Y128.677 E1.53086
G1 X113.462 Y126.637 E2.05376
G1 X114.876 Y126.32 E2.08858
G1 X116.223 Y125.632 E2.12493
G1 X117.355 Y124.629 E2.16127
G1 X118.201 Y123.376 E2.1976
G1 X118.707 Y121.95 E2.23396
G1 X118.84 Y120.443 E2.27032
G1 X118.593 Y118.951 E2.30666
G1 X117.982 Y117.568 E2.34299
G1 X117.044 Y116.38 E2.37937
G1 X115.866 Y115.486 E2.4149
G1 X115.832 Y115.47 E2.41581
G1 X107.461 Y111.308 E2.64046
G1 X103.555 Y109.633 E2.74259
G1 X103.554 Y109.632 E2.74262
G1 X103.352 Y109.546 E2.7479
G1 X103.459 Y109.354 E2.75121
G1 X104.047 Y108.304 E2.78013
G1 X115.97 Y114.974 E3.10843
G1 X117.042 Y115.72 E3.13982
G1 X117.929 Y116.638 E3.17049
G1 X118.61 Y117.692 E3.20065
G1 X119.082 Y118.88 E3.23137
G1 X119.31 Y120.115 E3.26155
G1 X119.293 Y121.386 E3.29209
G1 X119.031 Y122.619 E3.32238
G1 X118.532 Y123.791 E3.35299
G1 X117.819 Y124.836 E3.38339
G1 X116.921 Y125.719 E3.41366
G1 X115.858 Y126.418 E3.44423
G1 X114.694 Y126.894 E3.47445
G1 X113.389 Y127.146 E3.50639
G1 X91.939 Y129.166 E4.02412
G1 X90.24 Y129.19 E4.06495
G1 X88.59 Y128.943 E4.10504
G1 X87.021 Y128.439 E4.14465
G1 X85.547 Y127.686 E4.18442
G1 X84.215 Y126.707 E4.22415
G1 X83.051 Y125.516 E4.26416
G1 X82.1 Y124.165 E4.30387
G1 X81.379 Y122.678 E4.34358
G1 X80.904 Y121.089 E4.38343
G1 X80.694 Y119.449 E4.42316
G1 X80.752 Y117.783 E4.46322
G1 X81.07 Y116.173 E4.50266
G1 X81.653 Y114.613 E4.54268
G1 X82.471 Y113.182 E4.58229
G1 X83.518 Y111.891 E4.62223
G1 X84.747 Y110.795 E4.6618
G1 X86.154 Y109.901 E4.70186
G1 X87.68 Y109.249 E4.74174
G1 X89.312 Y108.844 E4.78215
G1 X91.938 Y108.416 E4.84608
G1 X93.322 Y108.296 E4.87947
G1 X94.421 Y108.363 E4.90592
G1 X94.7 Y108.38 E4.91151
G1 X95.024 Y108.449 E4.91587
G1 X96.054 Y108.669 E4.92896
G1 X96.952 Y109.006 E4.94973
G1 X97.331 Y109.148 E4.95945
G1 X97.765 Y109.391 E4.9714
G1 X98.137 Y109.598 E4.98126
G1 X98.419 Y109.755 E4.98902
G1 X98.167 Y110.746 E5.01359
G1 X97.951 Y110.691 E5.01895
G0 F6000 X97.464 Y110.98
G1 F1200 X97.549 Y110.942 E5.02118
G1 X97.555 Y110.174 E5.03964
G1 X95.004 Y108.969 E5.10744
G1 X93.003 Y109.865 E5.16012
G1 X91.543 Y109.634 E5.19564
G1 X89.831 Y109.679 E5.2368
G1 X88.155 Y110.034 E5.27797
G1 X86.573 Y110.69 E5.31912
G1 X85.137 Y111.623 E5.36027
G1 X83.895 Y112.803 E5.40144
G1 X82.889 Y114.189 E5.4426
G1 X82.153 Y115.736 E5.48376
G1 X81.71 Y117.39 E5.52491
G1 X81.577 Y119.099 E5.5661
G1 X81.759 Y120.801 E5.60724
G1 X82.248 Y122.443 E5.64841
G1 X83.027 Y123.968 E5.68956
G1 X84.072 Y125.326 E5.73073
G1 X85.346 Y126.469 E5.77186
G1 X86.809 Y127.362 E5.81305
G1 X88.409 Y127.972 E5.8542
G1 X90.094 Y128.281 E5.89537
G1 X91.779 Y128.277 E5.93586
G1 X113.399 Y126.241 E6.4577
G1 X114.739 Y125.941 E6.49069
G1 X115.996 Y125.299 E6.52461
G1 X117.052 Y124.363 E6.55852
G1 X117.841 Y123.194 E6.59241
G1 X118.313 Y121.864 E6.62633
G1 X118.437 Y120.458 E6.66024
G1 X118.207 Y119.066 E6.69415
G1 X117.637 Y117.776 E6.72804
G1 X116.762 Y116.668 E6.76197
G1 X115.654 Y115.827 E6.79539
G1 X107.293 Y111.671 E7.01976
G1 X99.221 Y108.21 E7.23082
G1 X98.561 Y107.758 E7.25004
G1 X98.051 Y107.167 E7.2688
G1 X97.71 Y106.465 E7.28755
G1 X97.708 Y106.46 E7.28768
G1 X97.635 Y106.08 E7.29698
G1 X97.64 Y106.078 E7.29711
G1 X98.656 Y105.623 E7.32386
G1 X98.71 Y105.599 E7.32528
G1 X98.902 Y105.513 E7.33034
G1 X99.017 Y105.577 E7.3335
G1 X99.23 Y105.696 E7.33936
G1 X99.044 Y105.79 E7.34085
G1 X98.842 Y105.893 E7.34487
G1 X98.841 Y105.953 E7.34619
G1 X98.83 Y106.613 E7.36206
G1 X103.175 Y109.043 E7.48169
G1 X103.893 Y107.76 E7.51702
G1 X116.185 Y114.636 E7.85547
G1 X117.304 Y115.415 E7.88824
G1 X118.243 Y116.387 E7.92072
G1 X118.968 Y117.51 E7.95284
G1 X119.467 Y118.766 E7.98531
G1 X119.474 Y118.807 E7.98631
G1 X119.702 Y120.042 E8.01649
G1 X119.71 Y120.083 E8.0175
G1 X119.692 Y121.429 E8.04984
G1 X119.414 Y122.742 E8.0821
G1 X118.886 Y123.981 E8.11446
G1 X118.127 Y125.094 E8.14683
G1 X117.172 Y126.033 E8.17902
G1 X116.047 Y126.773 E8.21138
G1 X114.845 Y127.263 E8.24257
G1 X114.805 Y127.28 E8.24361
G1 X113.451 Y127.542 E8.27675
G1 X91.958 Y129.566 E8.79553
G1 X90.211 Y129.59 E8.83751
G1 X88.5 Y129.334 E8.87908
G1 X86.869 Y128.81 E8.92025
G1 X85.336 Y128.027 E8.96162
G1 X83.95 Y127.008 E9.00296
G1 X82.744 Y125.775 E9.0444
G1 X81.754 Y124.368 E9.08574
G1 X81.005 Y122.823 E9.127
G1 X80.511 Y121.17 E9.16846
G1 X80.293 Y119.468 E9.2097
G1 X80.353 Y117.74 E9.25125
G1 X80.685 Y116.06 E9.2924
G1 X81.288 Y114.447 E9.33378
G1 X82.143 Y112.951 E9.37519
G1 X83.227 Y111.614 E9.41655
G1 X84.507 Y110.473 E9.45775
G1 X85.964 Y109.547 E9.49924
G1 X87.55 Y108.869 E9.54069
G1 X89.215 Y108.457 E9.5819
G1 X89.237 Y108.451 E9.58245
G1 X91.88 Y108.02 E9.6468
G1 X93.318 Y107.895 E9.68149
G1 X94.756 Y107.983 E9.71611
G1 X96.165 Y108.284 E9.75073
G1 X97.5 Y108.785 E9.785
G1 X98.775 Y109.496 E9.82008
G1 X98.88 Y109.565 E9.8231
G1 X98.456 Y111.232 E9.86443
G1 X97.535 Y110.998 E9.88727
G1 X97.464 Y110.98 E9.88727
G0 F6000 X96.352 Y111.077
G0 X96.253 Y111.085
;TYPE:WALL-OUTER
G1 F1200 X97.151 Y110.682 E9.91092
G1 X97.153 Y110.426 E9.91707
G1 X95 Y109.409 E9.97429
G1 X93.058 Y110.279 E10.02543
G1 X91.517 Y110.035 E10.06292
G1 X89.878 Y110.078 E10.10232
G1 X88.274 Y110.418 E10.14172
G1 X86.76 Y111.045 E10.1811
G1 X85.386 Y111.938 E10.22048
G1 X84.197 Y113.068 E10.2599
G1 X83.234 Y114.394 E10.29928
G1 X82.53 Y115.875 E10.33868
G1 X82.106 Y117.458 E10.37807
G1 X81.979 Y119.093 E10.41747
G1 X82.153 Y120.722 E10.45684
G1 X82.621 Y122.294 E10.49626
G1 X83.366 Y123.753 E10.53562
G1 X84.367 Y125.053 E10.57505
G1 X85.586 Y126.147 E10.61441
G1 X86.986 Y127.001 E10.65382
G1 X88.517 Y127.585 E10.69319
G1 X90.13 Y127.881 E10.7326
G1 X91.76 Y127.877 E10.77177
G1 X113.336 Y125.845 E11.29255
G1 X114.602 Y125.562 E11.32372
G1 X115.769 Y124.966 E11.35521
G1 X116.749 Y124.097 E11.38669
G1 X117.481 Y123.012 E11.41814
G1 X117.919 Y121.778 E11.4496
G1 X118.034 Y120.473 E11.48108
G1 X117.821 Y119.181 E11.51255
G1 X117.292 Y117.984 E11.544
G1 X116.48 Y116.956 E11.57548
G1 X115.442 Y116.168 E11.6068
G1 X107.125 Y112.034 E11.82999
G1 X99.03 Y108.564 E12.04163
G1 X98.292 Y108.059 E12.06312
G1 X97.713 Y107.387 E12.08444
G1 X97.325 Y106.587 E12.1058
G1 X97.182 Y105.845 E12.12396
G1 X98.922 Y105.066 E12.16977
G1 X100.08 Y105.714 E12.20166
G1 X99.238 Y106.141 E12.22435
G1 X99.234 Y106.381 E12.23011
G1 X103.021 Y108.499 E12.33438
G1 X103.739 Y107.216 E12.36971
G1 X116.4 Y114.298 E12.71833
G1 X117.566 Y115.11 E12.75247
G1 X118.557 Y116.136 E12.78675
G1 X119.326 Y117.328 E12.82084
G1 X119.852 Y118.651 E12.85505
G1 X120.11 Y120.052 E12.88928
G1 X120.091 Y121.472 E12.92341
G1 X119.797 Y122.865 E12.95762
G1 X119.238 Y124.175 E12.99185
G1 X118.438 Y125.349 E13.02599
G1 X117.423 Y126.347 E13.06019
G1 X116.236 Y127.128 E13.09434
G1 X114.916 Y127.666 E13.12859
G1 X113.514 Y127.938 E13.16291
G1 X91.976 Y129.966 E13.68277
G1 X90.182 Y129.99 E13.72588
G1 X88.41 Y129.725 E13.76894
G1 X86.717 Y129.181 E13.81167
G1 X85.125 Y128.368 E13.85463
G1 X83.685 Y127.309 E13.89758
G1 X82.437 Y126.034 E13.94045
G1 X81.408 Y124.571 E13.98343
G1 X80.631 Y122.968 E14.02624
G1 X80.118 Y121.251 E14.0693
G1 X79.892 Y119.487 E14.11204
G1 X79.954 Y117.697 E14.15508
G1 X80.3 Y115.947 E14.19795
G1 X80.924 Y114.278 E14.24077
G1 X81.813 Y112.723 E14.28381
G1 X82.936 Y111.337 E14.32668
G1 X84.267 Y110.151 E14.36952
G1 X85.774 Y109.193 E14.41243
G1 X87.42 Y108.489 E14.45545
G1 X89.162 Y108.058 E14.49857
G1 X91.822 Y107.624 E14.56334
G1 X93.315 Y107.494 E14.59935
G1 X94.81 Y107.586 E14.63534
G1 X96.278 Y107.899 E14.67141
G1 X97.669 Y108.422 E14.70712
G1 X98.984 Y109.155 E14.7433
G1 X99.338 Y109.388 E14.75349
G1 X98.745 Y111.719 E14.81129
G1 X96.253 Y111.085 E14.87308
G0 F6000 X96.897 Y111.04
;TYPE:SKIN
G1 F1200 X97.185 Y111.045 E14.87687
G1 X97.273 Y110.85 E14.87969
G0 F6000 X97.252 Y110.829
G0 X97.386 Y110.612
G0 X97.213 Y109.375
G1 F1200 X97.175 Y109.337 E14.88034
G0 F6000 X94.25 Y108.675
G0 X94.171 Y108.596
G1 F1200 X93.923 Y108.63 E14.88523
G1 X93.825 Y108.815 E14.88932
G0 F6000 X93.859 Y108.849
G0 X91.575 Y108.829
G0 X91.499 Y108.752
G1 F1200 X91.351 Y108.887 E14.89129
G1 X89.548 Y109.064 E14.9091
G1 X87.725 Y109.504 E14.92753
G1 X86.15 Y110.192 E14.94442
G1 X84.631 Y111.218 E14.96244
G1 X83.472 Y112.322 E14.97817
G1 X82.503 Y113.616 E14.99406
G1 X81.815 Y114.907 E15.00844
G1 X81.295 Y116.368 E15.02369
G1 X81.019 Y117.788 E15.0379
G1 X80.957 Y119.424 E15.054
G1 X81.16 Y121.041 E15.07001
G1 X81.65 Y122.662 E15.08666
G1 X82.196 Y123.774 E15.09884
G1 X82.646 Y124.507 E15.10729
G0 F6000 X83.008 Y125.152
G1 F1200 X84.709 Y126.853 E15.13619
G0 F6000 X85.446 Y127.306
G1 F1200 X86.098 Y127.676 E15.14311
G1 X86.737 Y128.032 E15.14986
G1 X88.493 Y128.656 E15.16706
G1 X90.184 Y128.934 E15.18288
G1 X92.126 Y128.895 E15.20081
G1 X98.33 Y128.311 E15.25833
G1 X104.534 Y127.727 E15.31584
G1 X110.738 Y127.143 E15.37336
G1 X113.569 Y126.862 E15.39961
G1 X114.942 Y126.539 E15.41263
G1 X116.257 Y125.874 E15.42623
G1 X117.187 Y125.107 E15.43736
G1 X117.845 Y124.35 E15.44662
G1 X118.483 Y123.291 E15.45803
G1 X118.922 Y122.033 E15.47033
G1 X119.072 Y120.486 E15.48467
G1 X118.882 Y119.165 E15.49699
G1 X118.571 Y118.288 E15.50558
G1 X118.365 Y117.8 E15.51047
G0 F6000 X118.144 Y117.296
G1 F1200 X117.41 Y116.562 E15.52294
G0 F6000 X116.897 Y116.048
G1 F1200 X116.186 Y115.338 E15.53501
G0 F6000 X115.648 Y115.082
G1 F1200 X115.045 Y114.763 E15.54708
G1 X113.238 Y113.804 E15.58326
G0 F6000 X112.471 Y113.603
G1 F1200 X111.595 Y112.726 E15.59815
G0 F6000 X111.012 Y112.709
G1 F1200 X110.683 Y112.663 E15.61292
G0 F6000 X110.952 Y112.367
G1 F1200 X111.908 Y113.323 E15.62916
G0 F6000 X112.238 Y113.086
G1 F1200 X113.033 Y113.882 E15.64268
G0 F6000 X105.175 Y109.701
G0 X105.053 Y109.579
G1 F1200 X104.484 Y109.292 E15.65345
G0 F6000 X104.289 Y109.097
G0 X103.223 Y109.445
G0 X103.174 Y109.396
G1 F1200 X103.077 Y109.582 E15.65664
G0 F6000 X103.122 Y109.627
G0 X98.998 Y106.516
G0 X99.007 Y105.997
G0 X99.503 Y105.668
G0 X99.559 Y105.781
G1 F1200 X99.39 Y105.613 E15.65951
M104 S210
G0 F6000 X99.04 Y105.568
;MESH:NONMESH
G0 F300 X99.04 Y105.568 Z0.4
G0 F6000 X98.83 Y107.457
;TIME_ELAPSED:44.595716
;LAYER:1
M140 S65
M106 S85
;TYPE:WALL-INNER
;MESH:Carabiner.stl
G1 F1350 X98.389 Y106.946 E15.67859
G1 X98.357 Y106.879 E15.68069
G1 X98.091 Y106.332 E15.69788
G1 X98.088 Y106.315 E15.69837
G1 X98.437 Y106.159 E15.70918
G1 X98.436 Y106.318 E15.70993
G1 X98.435 Y106.337
G1 X98.426 Y106.845 E15.71703
G1 X98.44 Y106.853
G1 X98.994 Y107.162 E15.72746
G1 X99.587 Y107.493 E15.74666
G1 X99.626 Y107.515 E15.74793
G1 X99.631 Y107.518 E15.74809
G1 X102.938 Y109.368 E15.85522
G1 X99.454 Y107.875 E15.90888
G1 X99.45 Y107.873 E15.909
G1 X99.412 Y107.856 E15.91018
G1 X99.391 Y107.841 E15.91091
G1 X98.83 Y107.457 E15.92864
G0 F7500 X103.918 Y109.353
G1 F1350 X104.025 Y109.161 E15.93485
G1 X104.026 Y109.16 E15.93489
G1 X104.201 Y108.848 E15.945
G1 X105.683 Y109.677 E15.99301
G1 X107.705 Y110.808 E16.05851
G1 X110.502 Y112.373 E16.14912
G1 X107.629 Y110.945 E16.16691
G1 X105.5 Y110.032 E16.21248
G1 X104.121 Y109.44 E16.25491
G1 X103.918 Y109.353 E16.25883
G1 F2100 E15.25883
G0 F7500 X115.566 Y115.963
G0 X116.649 Y116.785
G0 X117.498 Y117.86
G0 X118.051 Y119.112
G0 X118.274 Y120.467
G0 X118.156 Y121.827
G0 X117.696 Y123.12
G0 X116.928 Y124.259
G0 X115.906 Y125.166
G0 X114.682 Y125.789
G0 X113.375 Y126.082
G0 X91.773 Y128.116
G0 X90.106 Y128.12
G0 X88.456 Y127.817
G0 X86.878 Y127.215
G0 X85.446 Y126.342
G0 X84.19 Y125.216
G0 X83.163 Y123.88
G0 X82.397 Y122.382
G0 X81.918 Y120.772
G0 X81.739 Y119.096
G0 X81.869 Y117.414
G0 X82.304 Y115.795
G0 X83.026 Y114.273
G0 X84.016 Y112.91
G0 X85.241 Y111.747
G0 X86.649 Y110.831
G0 X87.906 Y110.311
G0 X93.616 Y108.714
G1 F2100 E16.25883
G1 F1350 X93.387 Y108.816 E16.26592
G1 X92.894 Y109.038 E16.28121
G1 X91.971 Y108.892 E16.30762
G1 X91.736 Y108.854 E16.31435
G1 X91.983 Y108.814 E16.31528
G1 X92.867 Y108.738 E16.32694
G1 X93.333 Y108.697 E16.33369
G1 X93.616 Y108.714 E16.33555
G0 F7500 X95.001 Y109.149
G0 X97.386 Y110.279
G0 X97.951 Y110.691
G1 F1350 X97.957 Y109.922 E16.35729
G1 X97.572 Y109.74 E16.36933
G1 X96.785 Y109.368 E16.39394
G1 X95.918 Y108.959 E16.42104
G1 X95.008 Y108.529 E16.4495
G1 X94.808 Y108.618 E16.45569
G1 X94.553 Y108.732 E16.46358
G1 X92.949 Y109.451 E16.51328
G1 X91.569 Y109.233 E16.55278
G1 X89.784 Y109.28 E16.60326
G1 X88.036 Y109.65 E16.65377
G1 X86.386 Y110.335 E16.70428
G1 X84.888 Y111.308 E16.75478
