;FLAVOR:Marlin
;TIME:8997
;Filament used: 5.33731m
;Layer height: 0.2
;MINX:48.962
;MINY:66.456
;MINZ:0.2
;MAXX:151.039
;MAXY:168.544
;MAXZ:14
;Generated with Cura_SteamEngine master
M82 ;absolute extrusion mode
; Ender 3 Custom Start G-code
M140 S70 ; Set Heat Bed temperature
M104 S160 ; start warming extruder to 160
G28 ; Home all axes
; G29 ; Auto bed-level (BL-Touch)
G92 E0 ; Reset Extruder
M190 S70 ; Wait for Heat Bed temperature
M104 S210 ; Set Extruder temperature
G1 X0 Y0 Z0.3 F5000.0 ; Move to 0 0
M109 S210 ; Wait for Extruder temperature
G1 X3 Y20 Z0.3 F5000.0 ; Move to start position
; G1 Z2.0 F3000 ; Move Z Axis up little to prevent scratching of Heat Bed
G1 X3 Y200.0 Z0.3 F1500.0 E15 ; Draw the first line
G1 X3.3 Y200.0 Z0.3 F5000.0 ; Move to side a little
G1 X3.3 Y20 Z0.3 F1500.0 E30 ; Draw the second line
G92 E0 ; Reset Extruder
G1 Z2.0 F3000 ; Move Z Axis up little to prevent scratching of Heat Bed
G92 E0
G92 E0
G1 F2100 E-1
;LAYER_COUNT:70
;LAYER:0
M107
M204 S500
M205 X8 Y8
G0 F6000 X70.608 Y82.399 Z0.2
;TYPE:SKIRT
G1 F2100 E0
G1 F1200 X68.443 Y84.323 E0.0696
G1 X68.358 Y84.404 E0.07242
G1 X66.32 Y86.47 E0.14216
G1 X66.237 Y86.559 E0.14508
G1 X64.522 Y88.55 E0.20823
G1 X64.451 Y88.638 E0.21095
G1 X62.609 Y91.069 E0.28424
G1 X62.54 Y91.168 E0.28714
G1 X61.083 Y93.386 E0.35091
G1 X61.025 Y93.48 E0.35357
G1 X59.498 Y96.148 E0.42744
G1 X59.441 Y96.254 E0.43033
G1 X58.239 Y98.724 E0.49634
G1 X58.192 Y98.83 E0.49913
G1 X57.095 Y101.51 E0.56872
G1 X57.055 Y101.618 E0.57148
G1 X56.184 Y104.205 E0.63708
G1 X56.151 Y104.316 E0.63986
G1 X55.376 Y107.229 E0.7123
G1 X55.35 Y107.339 E0.71501
G1 X54.805 Y110.064 E0.78179
G1 X54.785 Y110.186 E0.78476
G1 X54.435 Y112.889 E0.85026
G1 X54.424 Y113.008 E0.85313
G1 X54.239 Y115.967 E0.92438
G1 X54.235 Y116.079 E0.92707
G1 X54.235 Y118.909 E0.99508
G1 X54.239 Y119.022 E0.99779
G1 X54.424 Y121.959 E1.06851
G1 X54.435 Y122.08 E1.07143
G1 X54.801 Y124.876 E1.13919
G1 X54.82 Y124.991 E1.14199
G1 X55.35 Y127.67 E1.20762
G1 X55.377 Y127.785 E1.21046
G1 X56.12 Y130.572 E1.27977
G1 X56.153 Y130.681 E1.28251
G1 X57.037 Y133.313 E1.34923
G1 X57.077 Y133.422 E1.35202
G1 X58.237 Y136.255 E1.42558
G1 X58.284 Y136.359 E1.42832
G1 X59.499 Y138.861 E1.49516
G1 X59.553 Y138.965 E1.49798
G1 X60.904 Y141.34 E1.56364
G1 X60.966 Y141.441 E1.56649
G1 X62.583 Y143.894 E1.63709
G1 X62.65 Y143.988 E1.63986
G1 X64.383 Y146.283 E1.70897
G1 X64.456 Y146.374 E1.71177
G1 X66.296 Y148.506 E1.77945
G1 X66.377 Y148.594 E1.78232
G1 X68.363 Y150.608 E1.85029
G1 X68.447 Y150.687 E1.85306
G1 X70.581 Y152.59 E1.92177
G1 X70.667 Y152.662 E1.92447
G1 X72.898 Y154.415 E1.99265
G1 X72.997 Y154.488 E1.9956
G1 X75.413 Y156.134 E2.06586
G1 X75.511 Y156.196 E2.06864
G1 X77.956 Y157.64 E2.13688
G1 X78.053 Y157.693 E2.13953
G1 X80.505 Y158.944 E2.20568
G1 X80.614 Y158.995 E2.20857
G1 X83.301 Y160.147 E2.27883
G1 X83.411 Y160.191 E2.28168
G1 X86.068 Y161.128 E2.34938
G1 X86.179 Y161.163 E2.35218
G1 X88.904 Y161.931 E2.42021
G1 X89.019 Y161.959 E2.42305
G1 X91.864 Y162.562 E2.49294
G1 X91.972 Y162.581 E2.49557
G1 X94.919 Y163.019 E2.56717
G1 X95.034 Y163.033 E2.56995
G1 X97.54 Y163.242 E2.63038
G1 X97.665 Y163.248 E2.63339
G1 X100.878 Y163.293 E2.71061
G1 X100.997 Y163.291 E2.71347
G1 X103.695 Y163.15 E2.77839
G1 X103.802 Y163.141 E2.78097
G1 X106.52 Y162.835 E2.8467
G1 X106.633 Y162.818 E2.84944
G1 X109.566 Y162.298 E2.92102
G1 X109.689 Y162.272 E2.92405
G1 X112.342 Y161.608 E2.98976
G1 X112.452 Y161.577 E2.99251
G1 X115.23 Y160.69 E3.06259
G1 X115.335 Y160.653 E3.06526
G1 X118.004 Y159.615 E3.13408
G1 X118.112 Y159.569 E3.1369
G1 X120.727 Y158.351 E3.20622
G1 X120.833 Y158.297 E3.20908
G1 X123.258 Y156.966 E3.27556
G1 X123.362 Y156.904 E3.27847
G1 X125.791 Y155.349 E3.34777
G1 X125.885 Y155.285 E3.3505
G1 X128.218 Y153.575 E3.42001
G1 X128.306 Y153.506 E3.4227
G1 X130.474 Y151.7 E3.49051
G1 X130.565 Y151.619 E3.49344
G1 X132.607 Y149.67 E3.56127
G1 X132.686 Y149.59 E3.56397
G1 X134.627 Y147.491 E3.63267
G1 X134.706 Y147.399 E3.63559
G1 X136.507 Y145.167 E3.7045
G1 X136.577 Y145.075 E3.70728
G1 X138.221 Y142.746 E3.77579
G1 X138.283 Y142.651 E3.77851
G1 X139.783 Y140.213 E3.8473
G1 X139.842 Y140.109 E3.85017
G1 X141.141 Y137.644 E3.91713
G1 X141.191 Y137.542 E3.91986
G1 X142.379 Y134.896 E3.98956
G1 X142.426 Y134.782 E3.99252
G1 X143.389 Y132.17 E4.05942
G1 X143.423 Y132.066 E4.06205
G1 X144.272 Y129.248 E4.13278
G1 X144.303 Y129.132 E4.13566
G1 X144.911 Y126.483 E4.20097
G1 X144.933 Y126.373 E4.20367
G1 X145.422 Y123.409 E4.27586
G1 X145.437 Y123.294 E4.27864
G1 X145.71 Y120.552 E4.34486
G1 X145.718 Y120.432 E4.34775
G1 X145.811 Y117.531 E4.4175
G1 X145.811 Y117.415 E4.42029
G1 X145.718 Y114.522 E4.48984
G1 X145.71 Y114.401 E4.49276
G1 X145.446 Y111.754 E4.55668
G1 X145.431 Y111.64 E4.55944
G1 X144.949 Y108.717 E4.63063
G1 X144.927 Y108.607 E4.63333
G1 X144.263 Y105.714 E4.70466
G1 X144.233 Y105.6 E4.70749
G1 X143.444 Y102.967 E4.77354
G1 X143.408 Y102.858 E4.7763
G1 X142.41 Y100.169 E4.84523
G1 X142.364 Y100.057 E4.84813
G1 X141.222 Y97.518 E4.91504
G1 X141.171 Y97.414 E4.91782
G1 X139.813 Y94.847 E4.98761
G1 X139.758 Y94.751 E4.99026
G1 X138.271 Y92.315 E5.05885
G1 X138.203 Y92.212 E5.06181
G1 X136.595 Y89.945 E5.1286
G1 X136.525 Y89.852 E5.1314
G1 X134.709 Y87.612 E5.20069
G1 X134.636 Y87.528 E5.20337
G1 X132.7 Y85.423 E5.27209
G1 X132.618 Y85.339 E5.27492
G1 X130.54 Y83.356 E5.34394
G1 X130.453 Y83.278 E5.34675
G1 X128.254 Y81.435 E5.41569
G1 X128.157 Y81.36 E5.41864
G1 X125.876 Y79.7 E5.48643
G1 X125.783 Y79.636 E5.48915
G1 X123.471 Y78.165 E5.555
G1 X123.372 Y78.106 E5.55777
G1 X120.767 Y76.675 E5.62919
G1 X120.662 Y76.622 E5.63201
G1 X118.081 Y75.416 E5.70047
G1 X117.976 Y75.371 E5.70322
G1 X115.293 Y74.319 E5.77247
G1 X115.183 Y74.28 E5.77528
G1 X112.605 Y73.457 E5.84031
G1 X112.49 Y73.425 E5.84318
G1 X109.5 Y72.686 E5.91719
G1 X109.388 Y72.662 E5.91994
G1 X106.809 Y72.196 E5.98292
G1 X106.694 Y72.179 E5.98571
G1 X103.884 Y71.857 E6.05368
G1 X103.763 Y71.847 E6.0566
G1 X100.777 Y71.708 E6.12843
G1 X100.666 Y71.706 E6.1311
G1 X97.647 Y71.752 E6.20365
G1 X97.524 Y71.758 E6.20661
G1 X95.009 Y71.968 E6.26726
G1 X94.895 Y71.982 E6.27002
G1 X92.061 Y72.403 E6.33887
G1 X91.948 Y72.423 E6.34163
G1 X88.924 Y73.071 E6.41595
G1 X88.809 Y73.1 E6.4188
G1 X86.166 Y73.851 E6.48482
G1 X86.062 Y73.884 E6.48744
G1 X83.415 Y74.813 E6.55486
G1 X83.304 Y74.856 E6.55772
G1 X80.612 Y76.006 E6.62806
G1 X80.501 Y76.058 E6.63101
G1 X78.101 Y77.283 E6.69576
G1 X78.003 Y77.337 E6.69845
G1 X75.455 Y78.844 E6.76959
G1 X75.358 Y78.905 E6.77234
G1 X73.054 Y80.474 E6.83932
G1 X72.953 Y80.548 E6.84233
G1 X70.69 Y82.33 E6.91155
G1 X70.608 Y82.399 E6.91413
G0 F6000 X70.874 Y82.698
G1 F1200 X68.709 Y84.622 E6.98373
G1 X68.642 Y84.685 E6.98594
G1 X66.604 Y86.751 E7.05567
G1 X66.54 Y86.82 E7.05794
G1 X64.825 Y88.811 E7.12108
G1 X64.77 Y88.88 E7.1232
G1 X62.928 Y91.311 E7.1965
G1 X62.874 Y91.387 E7.19874
G1 X61.417 Y93.605 E7.26251
G1 X61.372 Y93.679 E7.26459
G1 X59.845 Y96.347 E7.33846
G1 X59.801 Y96.429 E7.3407
G1 X58.599 Y98.899 E7.40671
G1 X58.562 Y98.982 E7.40889
G1 X57.465 Y101.662 E7.47848
G1 X57.434 Y101.745 E7.48061
G1 X56.563 Y104.332 E7.5462
G1 X56.537 Y104.419 E7.54839
G1 X55.762 Y107.332 E7.62082
G1 X55.742 Y107.417 E7.62292
G1 X55.197 Y110.142 E7.6897
G1 X55.182 Y110.237 E7.69201
G1 X54.832 Y112.94 E7.75751
G1 X54.823 Y113.033 E7.75975
G1 X54.638 Y115.992 E7.831
G1 X54.635 Y116.079 E7.83309
G1 X54.635 Y118.909 E7.9011
G1 X54.638 Y118.997 E7.90321
G1 X54.823 Y121.934 E7.97393
G1 X54.832 Y122.028 E7.9762
G1 X55.198 Y124.824 E8.04396
G1 X55.213 Y124.914 E8.04615
G1 X55.743 Y127.593 E8.11178
G1 X55.763 Y127.682 E8.11397
G1 X56.506 Y130.469 E8.18328
G1 X56.532 Y130.554 E8.18542
G1 X57.416 Y133.186 E8.25214
G1 X57.447 Y133.27 E8.25429
G1 X58.607 Y136.103 E8.32785
G1 X58.644 Y136.185 E8.33002
G1 X59.859 Y138.687 E8.39686
G1 X59.901 Y138.767 E8.39903
G1 X61.252 Y141.142 E8.46469
G1 X61.3 Y141.221 E8.46691
G1 X62.917 Y143.674 E8.53751
G1 X62.969 Y143.747 E8.53966
G1 X64.702 Y146.042 E8.60877
G1 X64.759 Y146.113 E8.61096
G1 X66.599 Y148.245 E8.67863
G1 X66.662 Y148.313 E8.68086
G1 X68.648 Y150.327 E8.74883
G1 X68.713 Y150.389 E8.75099
G1 X70.847 Y152.292 E8.8197
G1 X70.914 Y152.348 E8.8218
G1 X73.145 Y154.101 E8.88998
G1 X73.222 Y154.157 E8.89227
G1 X75.638 Y155.803 E8.96252
G1 X75.714 Y155.851 E8.96468
G1 X78.159 Y157.295 E9.03291
G1 X78.235 Y157.337 E9.035
G1 X80.687 Y158.588 E9.10115
G1 X80.771 Y158.628 E9.10338
G1 X83.458 Y159.78 E9.17364
G1 X83.544 Y159.813 E9.17585
G1 X86.201 Y160.75 E9.24356
G1 X86.287 Y160.778 E9.24573
G1 X89.012 Y161.546 E9.31376
G1 X89.102 Y161.568 E9.31599
G1 X91.947 Y162.171 E9.38587
G1 X92.031 Y162.186 E9.38792
G1 X94.978 Y162.624 E9.45952
G1 X95.068 Y162.634 E9.4617
G1 X97.574 Y162.843 E9.52213
G1 X97.67 Y162.848 E9.52444
G1 X100.883 Y162.893 E9.60165
G1 X100.976 Y162.891 E9.60389
G1 X103.674 Y162.75 E9.66881
G1 X103.758 Y162.743 E9.67084
G1 X106.476 Y162.437 E9.73656
G1 X106.563 Y162.425 E9.73867
G1 X109.496 Y161.905 E9.81026
G1 X109.592 Y161.884 E9.81262
G1 X112.245 Y161.22 E9.87834
G1 X112.331 Y161.196 E9.88048
G1 X115.109 Y160.309 E9.95056
G1 X115.19 Y160.28 E9.95263
G1 X117.859 Y159.242 E10.02144
G1 X117.943 Y159.206 E10.02364
G1 X120.558 Y157.988 E10.09296
G1 X120.641 Y157.946 E10.0952
G1 X123.066 Y156.615 E10.16167
G1 X123.147 Y156.567 E10.16393
G1 X125.576 Y155.012 E10.23324
G1 X125.649 Y154.962 E10.23537
G1 X127.982 Y153.252 E10.30488
G1 X128.05 Y153.199 E10.30695
G1 X130.218 Y151.393 E10.37475
G1 X130.289 Y151.33 E10.37703
G1 X132.331 Y149.381 E10.44487
G1 X132.392 Y149.319 E10.44696
G1 X134.333 Y147.22 E10.51566
G1 X134.395 Y147.148 E10.51794
G1 X136.196 Y144.916 E10.58686
G1 X136.25 Y144.844 E10.58902
G1 X137.894 Y142.515 E10.65753
G1 X137.942 Y142.442 E10.65963
G1 X139.442 Y140.004 E10.72842
G1 X139.489 Y139.923 E10.73067
G1 X140.788 Y137.458 E10.79762
G1 X140.826 Y137.378 E10.79975
G1 X142.014 Y134.732 E10.86945
G1 X142.051 Y134.643 E10.87177
G1 X143.014 Y132.031 E10.93866
G1 X143.04 Y131.951 E10.94069
G1 X143.889 Y129.133 E11.01141
G1 X143.914 Y129.042 E11.01368
G1 X144.522 Y126.393 E11.07899
G1 X144.538 Y126.308 E11.08107
G1 X145.027 Y123.344 E11.15326
G1 X145.039 Y123.255 E11.15542
G1 X145.312 Y120.513 E11.22163
G1 X145.318 Y120.419 E11.2239
G1 X145.411 Y117.518 E11.29364
G1 X145.411 Y117.428 E11.29581
G1 X145.318 Y114.535 E11.36536
G1 X145.312 Y114.441 E11.36763
G1 X145.048 Y111.794 E11.43155
G1 X145.036 Y111.705 E11.43371
G1 X144.554 Y108.782 E11.5049
G1 X144.538 Y108.697 E11.50698
G1 X143.874 Y105.804 E11.5783
G1 X143.85 Y105.715 E11.58052
G1 X143.061 Y103.082 E11.64657
G1 X143.033 Y102.997 E11.64872
G1 X142.035 Y100.308 E11.71765
G1 X141.999 Y100.221 E11.71991
G1 X140.857 Y97.682 E11.78681
G1 X140.818 Y97.601 E11.78897
G1 X139.46 Y95.034 E11.85876
G1 X139.417 Y94.96 E11.86081
G1 X137.93 Y92.524 E11.9294
G1 X137.877 Y92.443 E11.93172
G1 X136.269 Y90.176 E11.99851
G1 X136.215 Y90.104 E12.00067
G1 X134.399 Y87.864 E12.06997
G1 X134.341 Y87.798 E12.07208
G1 X132.405 Y85.693 E12.14081
G1 X132.342 Y85.628 E12.14298
G1 X130.264 Y83.645 E12.21201
G1 X130.196 Y83.585 E12.21419
G1 X127.997 Y81.742 E12.28313
G1 X127.922 Y81.683 E12.28543
G1 X125.641 Y80.023 E12.35322
G1 X125.569 Y79.974 E12.35531
G1 X123.257 Y78.503 E12.42116
G1 X123.179 Y78.457 E12.42334
G1 X120.574 Y77.026 E12.49476
G1 X120.493 Y76.985 E12.49694
G1 X117.912 Y75.779 E12.5654
G1 X117.83 Y75.744 E12.56754
G1 X115.147 Y74.692 E12.6368
G1 X115.062 Y74.661 E12.63897
G1 X112.484 Y73.838 E12.704
G1 X112.394 Y73.813 E12.70625
G1 X109.404 Y73.074 E12.78026
G1 X109.317 Y73.055 E12.7824
G1 X106.738 Y72.589 E12.84538
G1 X106.648 Y72.576 E12.84756
G1 X103.838 Y72.254 E12.91553
G1 X103.744 Y72.247 E12.91779
G1 X100.758 Y72.108 E12.98963
G1 X100.672 Y72.106 E12.99169
G1 X97.653 Y72.152 E13.06425
G1 X97.558 Y72.157 E13.06654
G1 X95.043 Y72.367 E13.12718
G1 X94.953 Y72.377 E13.12936
G1 X92.119 Y72.798 E13.19821
G1 X92.032 Y72.814 E13.20034
G1 X89.008 Y73.462 E13.27465
G1 X88.918 Y73.484 E13.27688
G1 X86.275 Y74.235 E13.34291
G1 X86.194 Y74.261 E13.34495
G1 X83.547 Y75.19 E13.41236
G1 X83.461 Y75.224 E13.41458
G1 X80.769 Y76.374 E13.48493
G1 X80.683 Y76.414 E13.48721
G1 X78.283 Y77.639 E13.55196
G1 X78.206 Y77.681 E13.55407
G1 X75.658 Y79.188 E13.62521
G1 X75.583 Y79.236 E13.62735
G1 X73.279 Y80.805 E13.69433
G1 X73.201 Y80.862 E13.69665
G1 X70.938 Y82.644 E13.76587
G1 X70.874 Y82.698 E13.76788
G0 F6000 X71.185 Y82.958
G1 F1200 X68.975 Y84.921 E13.83891
G1 X68.927 Y84.966 E13.84049
G1 X66.889 Y87.032 E13.91023
G1 X66.843 Y87.081 E13.91185
G1 X65.128 Y89.072 E13.97499
G1 X65.089 Y89.121 E13.9765
G1 X63.247 Y91.552 E14.04979
G1 X63.208 Y91.607 E14.05141
G1 X61.751 Y93.825 E14.11518
G1 X61.719 Y93.877 E14.11665
G1 X60.192 Y96.545 E14.19052
G1 X60.161 Y96.604 E14.19212
G1 X58.959 Y99.074 E14.25813
G1 X58.933 Y99.133 E14.25968
G1 X57.813 Y101.873 E14.33082
G1 X56.942 Y104.46 E14.39641
G1 X56.924 Y104.522 E14.39796
G1 X56.134 Y107.496 E14.47191
G1 X55.589 Y110.221 E14.53869
G1 X55.578 Y110.289 E14.54034
G1 X55.228 Y112.992 E14.60584
G1 X55.222 Y113.058 E14.60743
G1 X55.037 Y116.017 E14.67868
G1 X55.035 Y116.079 E14.68017
G1 X55.035 Y118.909 E14.74817
G1 X55.037 Y118.972 E14.74969
G1 X55.222 Y121.909 E14.82041
G1 X55.228 Y121.976 E14.82202
G1 X55.594 Y124.772 E14.88978
G1 X55.605 Y124.836 E14.89134
G1 X56.135 Y127.515 E14.95697
G1 X56.15 Y127.579 E14.95855
G1 X56.893 Y130.366 E15.02786
G1 X56.911 Y130.426 E15.02937
G1 X57.795 Y133.058 E15.09609
G1 X57.818 Y133.119 E15.09765
G1 X59.003 Y136.01 E15.17274
G1 X60.218 Y138.512 E15.23957
G1 X61.6 Y140.944 E15.30679
G1 X61.634 Y141 E15.30837
G1 X63.251 Y143.453 E15.37897
G1 X63.288 Y143.506 E15.38052
G1 X65.021 Y145.801 E15.44963
G1 X65.062 Y145.851 E15.45118
G1 X66.902 Y147.983 E15.51886
G1 X66.947 Y148.032 E15.52046
G1 X68.933 Y150.046 E15.58843
G1 X68.979 Y150.09 E15.58996
G1 X71.113 Y151.993 E15.65867
G1 X71.161 Y152.033 E15.66017
G1 X73.392 Y153.786 E15.72835
G1 X73.447 Y153.826 E15.72998
G1 X75.863 Y155.472 E15.80023
G1 X75.917 Y155.507 E15.80178
G1 X78.362 Y156.951 E15.87002
G1 X78.417 Y156.981 E15.87152
G1 X80.869 Y158.232 E15.93767
G1 X80.929 Y158.26 E15.93926
G1 X83.616 Y159.412 E16.00952
G1 X83.677 Y159.436 E16.01109
G1 X86.334 Y160.373 E16.07879
G1 X86.396 Y160.393 E16.08036
G1 X89.121 Y161.161 E16.14839
G1 X92.03 Y161.779 E16.21986
G1 X92.09 Y161.79 E16.22132
G1 X95.037 Y162.228 E16.29292
G1 X95.101 Y162.236 E16.29447
G1 X97.607 Y162.445 E16.3549
G1 X97.676 Y162.448 E16.35656
G1 X100.889 Y162.493 E16.43378
G1 X100.955 Y162.492 E16.43536
G1 X103.653 Y162.351 E16.50028
G1 X103.713 Y162.346 E16.50173
G1 X106.431 Y162.04 E16.56746
G1 X106.494 Y162.031 E16.56899
G1 X109.427 Y161.511 E16.64057
G1 X109.495 Y161.496 E16.64224
G1 X112.148 Y160.832 E16.70796
G1 X112.209 Y160.815 E16.70948
G1 X114.987 Y159.928 E16.77956
G1 X115.045 Y159.907 E16.78104
G1 X117.714 Y158.869 E16.84986
G1 X117.774 Y158.843 E16.85143
G1 X120.448 Y157.596 E16.92233
G1 X122.873 Y156.265 E16.98881
G1 X122.931 Y156.23 E16.99043
G1 X125.412 Y154.64 E17.06125
G1 X127.745 Y152.93 E17.13076
G1 X129.962 Y151.085 E17.20007
G1 X130.012 Y151.04 E17.20168
G1 X132.054 Y149.091 E17.26952
G1 X132.098 Y149.047 E17.27101
G1 X134.039 Y146.948 E17.33971
G1 X134.083 Y146.897 E17.34133
G1 X135.884 Y144.665 E17.41025
G1 X135.923 Y144.614 E17.41179
G1 X137.567 Y142.285 E17.4803
G1 X137.602 Y142.232 E17.48183
G1 X139.102 Y139.794 E17.55061
G1 X139.135 Y139.736 E17.55222
G1 X140.434 Y137.271 E17.61917
G1 X140.461 Y137.215 E17.62067
G1 X141.649 Y134.569 E17.69037
G1 X141.675 Y134.505 E17.69203
G1 X142.638 Y131.893 E17.75892
G1 X142.657 Y131.835 E17.76039
G1 X143.524 Y128.953 E17.83271
G1 X144.132 Y126.304 E17.89802
G1 X144.144 Y126.243 E17.89952
G1 X144.633 Y123.279 E17.97171
G1 X144.641 Y123.215 E17.97326
G1 X144.914 Y120.473 E18.03947
G1 X144.918 Y120.406 E18.04109
G1 X145.011 Y117.505 E18.11083
G1 X145.011 Y117.441 E18.11237
G1 X144.918 Y114.548 E18.18193
G1 X144.914 Y114.481 E18.18354
G1 X144.65 Y111.834 E18.24747
