;FLAVOR:Marlin
;TIME:3482
;Filament used: 2.03291m
;Layer height: 0.2
;MINX:86.704
;MINY:100.724
;MINZ:0.2
;MAXX:148.297
;MAXY:134.273
;MAXZ:7.4
;Generated with Cura_SteamEngine master
M82 ;absolute extrusion mode
; Ender 3 Custom Start G-code
M140 S75 ; Set Heat Bed temperature
M104 S160 ; start warming extruder to 160
G28 ; Home all axes
G29 ; Auto bed-level (BL-Touch)
G92 E0 ; Reset Extruder
M190 S75 ; Wait for Heat Bed temperature
M104 S210 ; Set Extruder temperature
G1 X0 Y0 Z0.3 F5000.0 ; Move to 0 0
M109 S210 ; Wait for Extruder temperature
G1 X1 Y20 Z0.3 F5000.0 ; Move to start position
; G1 Z2.0 F3000 ; Move Z Axis up little to prevent scratching of Heat Bed
G1 X3 Y200.0 Z0.3 F1500.0 E15 ; Draw the first line
G1 X3.3 Y200.0 Z0.3 F5000.0 ; Move to side a little
G1 X3.3 Y20 Z0.3 F1500.0 E30 ; Draw the second line
G92 E0 ; Reset Extruder
G1 Z2.0 F3000 ; Move Z Axis up little to prevent scratching of Heat Bed
G92 E0
G92 E0
G1 F2700 E-5
;LAYER_COUNT:37
;LAYER:0
M107
M204 S500
M205 X8 Y8
;MESH:Anti_Z-Wobble_18mm_nut.stl
G0 F6000 X89.768 Y112.093 Z0.2
M204 S1000
;TYPE:WALL-INNER
G1 F2700 E0
G1 F1200 X89.638 Y112.582 E0.01519
G1 X89.591 Y113.086 E0.03038
G1 X89.638 Y113.591 E0.04561
G1 X89.768 Y114.079 E0.06077
G1 X89.984 Y114.54 E0.07605
G1 X90.274 Y114.953 E0.0912
G1 X90.631 Y115.31 E0.10635
G1 X90.659 Y115.329 E0.10737
G1 X91.015 Y115.579 E0.12042
G1 X91.044 Y115.6 E0.1215
G1 X91.505 Y115.816 E0.13678
G1 X91.993 Y115.946 E0.15194
G1 X92.498 Y115.993 E0.16716
G1 X93.002 Y115.946 E0.18236
G1 X93.491 Y115.816 E0.19755
G1 X93.952 Y115.601 E0.21282
G1 X94.365 Y115.312 E0.22795
G1 X94.723 Y114.953 E0.24317
G1 X95.015 Y114.539 E0.25837
G1 X95.227 Y114.08 E0.27355
G1 X95.235 Y114.047 E0.27457
G1 X95.358 Y113.593 E0.28869
G1 X95.405 Y113.086 E0.30397
G1 X95.358 Y112.58 E0.31923
G1 X95.227 Y112.093 E0.33436
G1 X95.015 Y111.635 E0.34951
G1 X94.725 Y111.219 E0.36474
G1 X94.365 Y110.859 E0.38002
G1 X93.949 Y110.569 E0.39524
G1 X93.491 Y110.357 E0.41039
G1 X93.458 Y110.349 E0.41141
G1 X93.004 Y110.226 E0.42553
G1 X92.498 Y110.179 E0.44078
G1 X91.991 Y110.226 E0.45607
G1 X91.504 Y110.357 E0.4712
G1 X91.045 Y110.569 E0.48638
G1 X90.631 Y110.861 E0.50159
G1 X90.272 Y111.219 E0.51681
G1 X89.983 Y111.632 E0.53194
G1 X89.768 Y112.093 E0.54721
M204 S500
G0 F6000 X90.145 Y112.23
M204 S1000
G1 F1200 X90.033 Y112.652 E0.56031
G1 X89.993 Y113.086 E0.57339
G1 X90.033 Y113.521 E0.58651
G1 X90.145 Y113.942 E0.59958
G1 X90.331 Y114.339 E0.61274
G1 X90.581 Y114.695 E0.6258
G1 X90.889 Y115.003 E0.63888
G1 X90.917 Y115.022 E0.63989
G1 X91.216 Y115.232 E0.65086
G1 X91.245 Y115.253 E0.65193
G1 X91.642 Y115.439 E0.66509
G1 X92.063 Y115.551 E0.67817
G1 X92.498 Y115.591 E0.69128
G1 X92.932 Y115.551 E0.70437
G1 X93.354 Y115.439 E0.71747
G1 X93.751 Y115.253 E0.73063
G1 X94.107 Y115.004 E0.74367
G1 X94.416 Y114.695 E0.75679
G1 X94.435 Y114.667 E0.75781
G1 X94.667 Y114.338 E0.76989
G1 X94.85 Y113.943 E0.78296
G1 X94.858 Y113.91 E0.78398
G1 X94.963 Y113.522 E0.79604
G1 X95.003 Y113.086 E0.80918
G1 X94.963 Y112.651 E0.8223
G1 X94.85 Y112.23 E0.83538
G1 X94.667 Y111.835 E0.84845
G1 X94.417 Y111.477 E0.86156
G1 X94.107 Y111.167 E0.87472
G1 X93.749 Y110.917 E0.88782
G1 X93.354 Y110.734 E0.90089
G1 X93.321 Y110.726 E0.90191
G1 X92.933 Y110.621 E0.91398
G1 X92.498 Y110.581 E0.92709
G1 X92.062 Y110.621 E0.94023
G1 X91.641 Y110.734 E0.95332
G1 X91.246 Y110.917 E0.96638
G1 X90.889 Y111.168 E0.97948
G1 X90.58 Y111.477 E0.9926
G1 X90.331 Y111.833 E1.00564
G1 X90.145 Y112.23 E1.0188
M204 S500
G0 F6000 X90.522 Y112.367
M204 S1000
G1 F1200 X90.428 Y112.722 E1.02982
G1 X90.395 Y113.086 E1.04079
G1 X90.428 Y113.451 E1.0518
G1 X90.522 Y113.805 E1.06279
G1 X90.678 Y114.138 E1.07383
G1 X90.888 Y114.437 E1.0848
G1 X91.147 Y114.696 E1.09579
G1 X91.446 Y114.906 E1.10676
G1 X91.779 Y115.062 E1.1178
G1 X92.133 Y115.156 E1.12879
G1 X92.498 Y115.189 E1.13979
G1 X92.862 Y115.156 E1.15076
G1 X93.217 Y115.062 E1.16179
G1 X93.55 Y114.906 E1.17282
G1 X93.849 Y114.696 E1.18379
G1 X94.109 Y114.437 E1.19481
G1 X94.319 Y114.137 E1.2058
G1 X94.473 Y113.806 E1.21676
G1 X94.568 Y113.452 E1.22776
G1 X94.601 Y113.086 E1.23879
G1 X94.568 Y112.721 E1.24979
G1 X94.473 Y112.367 E1.2608
G1 X94.319 Y112.035 E1.27178
G1 X94.109 Y111.735 E1.28277
G1 X93.849 Y111.475 E1.29381
G1 X93.549 Y111.265 E1.3048
G1 X93.217 Y111.111 E1.31579
G1 X92.863 Y111.016 E1.32679
G1 X92.498 Y110.983 E1.33779
G1 X92.132 Y111.016 E1.34882
G1 X91.778 Y111.111 E1.35982
G1 X91.447 Y111.265 E1.37078
G1 X91.147 Y111.475 E1.38177
G1 X90.888 Y111.735 E1.39279
G1 X90.678 Y112.034 E1.40376
G1 X90.522 Y112.367 E1.4148
M204 S500
G0 F6000 X90.899 Y112.504
M204 S1000
;TYPE:WALL-OUTER
G1 F1200 X90.823 Y112.791 E1.42371
G1 X90.797 Y113.086 E1.4326
G1 X90.823 Y113.382 E1.44152
G1 X90.899 Y113.668 E1.4504
G1 X91.025 Y113.937 E1.45932
G1 X91.195 Y114.179 E1.46819
G1 X91.405 Y114.389 E1.47711
G1 X91.647 Y114.559 E1.48599
G1 X91.916 Y114.685 E1.4949
G1 X92.202 Y114.761 E1.50379
G1 X92.498 Y114.787 E1.51271
G1 X92.793 Y114.761 E1.52159
G1 X93.08 Y114.685 E1.53051
G1 X93.349 Y114.559 E1.53942
G1 X93.591 Y114.389 E1.5483
G1 X93.801 Y114.179 E1.55722
G1 X93.971 Y113.936 E1.56612
G1 X94.096 Y113.668 E1.57499
G1 X94.173 Y113.382 E1.58388
G1 X94.199 Y113.086 E1.5928
G1 X94.173 Y112.791 E1.60169
G1 X94.096 Y112.504 E1.61061
G1 X93.971 Y112.236 E1.61949
G1 X93.801 Y111.993 E1.62839
G1 X93.591 Y111.783 E1.63731
G1 X93.348 Y111.613 E1.64621
G1 X93.08 Y111.488 E1.65508
G1 X92.793 Y111.411 E1.664
G1 X92.498 Y111.385 E1.67289
G1 X92.202 Y111.411 E1.68181
G1 X91.916 Y111.488 E1.6907
G1 X91.648 Y111.613 E1.69958
G1 X91.405 Y111.783 E1.70848
G1 X91.195 Y111.993 E1.7174
G1 X91.025 Y112.235 E1.72627
G1 X90.899 Y112.504 E1.73519
M204 S500
G0 F6000 X90.486 Y112.354
G0 X90.429 Y112.333
G0 X90.355 Y113.086
G0 X90.485 Y113.818
G0 X90.858 Y114.462
G0 X91.317 Y114.849
G0 X114.768 Y128.093
M204 S1000
;TYPE:WALL-INNER
G1 F1200 X114.638 Y128.582 E1.75038
G1 X114.591 Y129.086 E1.76557
G1 X114.638 Y129.591 E1.7808
G1 X114.768 Y130.079 E1.79596
G1 X114.984 Y130.54 E1.81124
G1 X115.274 Y130.953 E1.82639
G1 X115.631 Y131.31 E1.84154
G1 X115.659 Y131.329 E1.84256
G1 X116.015 Y131.579 E1.85562
G1 X116.044 Y131.6 E1.85669
G1 X116.505 Y131.816 E1.87197
G1 X116.993 Y131.946 E1.88713
G1 X117.498 Y131.993 E1.90236
G1 X118.002 Y131.946 E1.91755
G1 X118.491 Y131.816 E1.93274
G1 X118.952 Y131.601 E1.94801
G1 X119.365 Y131.312 E1.96314
G1 X119.723 Y130.953 E1.97836
G1 X120.015 Y130.539 E1.99356
G1 X120.227 Y130.08 E2.00874
G1 X120.235 Y130.047 E2.00976
G1 X120.358 Y129.593 E2.02388
G1 X120.405 Y129.086 E2.03916
G1 X120.358 Y128.58 E2.05442
G1 X120.227 Y128.093 E2.06955
G1 X120.015 Y127.635 E2.0847
G1 X119.725 Y127.219 E2.09993
G1 X119.365 Y126.859 E2.11521
G1 X118.949 Y126.569 E2.13043
G1 X118.491 Y126.357 E2.14558
G1 X118.458 Y126.349 E2.1466
G1 X118.004 Y126.226 E2.16072
G1 X117.498 Y126.179 E2.17597
G1 X116.991 Y126.226 E2.19126
G1 X116.504 Y126.357 E2.20639
G1 X116.045 Y126.569 E2.22157
G1 X115.631 Y126.861 E2.23678
G1 X115.272 Y127.219 E2.252
G1 X114.983 Y127.632 E2.26713
G1 X114.768 Y128.093 E2.2824
M204 S500
G0 F6000 X115.145 Y128.23
M204 S1000
G1 F1200 X115.033 Y128.652 E2.2955
G1 X114.993 Y129.086 E2.30858
G1 X115.033 Y129.521 E2.3217
G1 X115.145 Y129.942 E2.33477
G1 X115.331 Y130.339 E2.34793
G1 X115.581 Y130.695 E2.36099
G1 X115.889 Y131.003 E2.37407
G1 X115.917 Y131.022 E2.37508
G1 X116.216 Y131.232 E2.38605
G1 X116.245 Y131.253 E2.38713
G1 X116.642 Y131.439 E2.40028
G1 X117.063 Y131.551 E2.41336
G1 X117.498 Y131.591 E2.42647
G1 X117.932 Y131.551 E2.43956
G1 X118.354 Y131.439 E2.45266
G1 X118.751 Y131.253 E2.46582
G1 X119.107 Y131.004 E2.47886
G1 X119.416 Y130.695 E2.49198
G1 X119.435 Y130.667 E2.493
G1 X119.667 Y130.338 E2.50508
G1 X119.85 Y129.943 E2.51815
G1 X119.858 Y129.91 E2.51917
G1 X119.963 Y129.522 E2.53123
G1 X120.003 Y129.086 E2.54438
G1 X119.963 Y128.651 E2.55749
G1 X119.85 Y128.23 E2.57057
G1 X119.667 Y127.835 E2.58364
G1 X119.417 Y127.477 E2.59675
G1 X119.107 Y127.167 E2.60991
G1 X118.749 Y126.917 E2.62301
G1 X118.354 Y126.734 E2.63608
G1 X118.321 Y126.726 E2.6371
G1 X117.933 Y126.621 E2.64917
G1 X117.498 Y126.581 E2.66228
G1 X117.062 Y126.621 E2.67542
G1 X116.641 Y126.734 E2.68851
G1 X116.246 Y126.917 E2.70157
G1 X115.889 Y127.168 E2.71467
G1 X115.58 Y127.477 E2.72779
G1 X115.331 Y127.833 E2.74083
G1 X115.145 Y128.23 E2.75399
M204 S500
G0 F6000 X115.522 Y128.367
M204 S1000
G1 F1200 X115.428 Y128.722 E2.76501
G1 X115.395 Y129.086 E2.77599
G1 X115.428 Y129.451 E2.78699
G1 X115.522 Y129.805 E2.79798
G1 X115.678 Y130.138 E2.80902
G1 X115.888 Y130.437 E2.81999
G1 X116.147 Y130.696 E2.83098
G1 X116.446 Y130.906 E2.84195
G1 X116.779 Y131.062 E2.85299
G1 X117.133 Y131.156 E2.86398
G1 X117.498 Y131.189 E2.87498
G1 X117.862 Y131.156 E2.88595
G1 X118.217 Y131.062 E2.89698
G1 X118.55 Y130.906 E2.90802
G1 X118.849 Y130.696 E2.91898
G1 X119.109 Y130.437 E2.93
G1 X119.319 Y130.137 E2.94099
G1 X119.473 Y129.806 E2.95195
G1 X119.568 Y129.452 E2.96295
G1 X119.601 Y129.086 E2.97398
G1 X119.568 Y128.721 E2.98498
G1 X119.473 Y128.367 E2.99599
G1 X119.319 Y128.035 E3.00697
G1 X119.109 Y127.735 E3.01796
G1 X118.849 Y127.475 E3.029
G1 X118.549 Y127.265 E3.03999
G1 X118.217 Y127.111 E3.05098
G1 X117.863 Y127.016 E3.06198
G1 X117.498 Y126.983 E3.07298
G1 X117.132 Y127.016 E3.08401
G1 X116.778 Y127.111 E3.09502
G1 X116.447 Y127.265 E3.10597
G1 X116.147 Y127.475 E3.11697
G1 X115.888 Y127.735 E3.12798
G1 X115.678 Y128.034 E3.13895
G1 X115.522 Y128.367 E3.14999
M204 S500
G0 F6000 X115.899 Y128.504
M204 S1000
;TYPE:WALL-OUTER
G1 F1200 X115.823 Y128.791 E3.1589
G1 X115.797 Y129.086 E3.16779
G1 X115.823 Y129.382 E3.17671
G1 X115.899 Y129.668 E3.18559
G1 X116.025 Y129.937 E3.19451
G1 X116.195 Y130.179 E3.20339
G1 X116.405 Y130.389 E3.2123
G1 X116.647 Y130.559 E3.22118
G1 X116.916 Y130.685 E3.23009
G1 X117.202 Y130.761 E3.23898
G1 X117.498 Y130.787 E3.2479
G1 X117.793 Y130.761 E3.25679
G1 X118.08 Y130.685 E3.2657
G1 X118.349 Y130.559 E3.27461
G1 X118.591 Y130.389 E3.28349
G1 X118.801 Y130.179 E3.29241
G1 X118.971 Y129.936 E3.30131
G1 X119.096 Y129.668 E3.31018
G1 X119.173 Y129.382 E3.31908
G1 X119.199 Y129.086 E3.32799
G1 X119.173 Y128.791 E3.33688
G1 X119.096 Y128.504 E3.3458
G1 X118.971 Y128.236 E3.35468
G1 X118.801 Y127.993 E3.36358
G1 X118.591 Y127.783 E3.3725
G1 X118.348 Y127.613 E3.3814
G1 X118.08 Y127.488 E3.39028
G1 X117.793 Y127.411 E3.3992
G1 X117.498 Y127.385 E3.40808
G1 X117.202 Y127.411 E3.417
G1 X116.916 Y127.488 E3.42589
G1 X116.648 Y127.613 E3.43477
G1 X116.405 Y127.783 E3.44367
G1 X116.195 Y127.993 E3.45259
G1 X116.025 Y128.235 E3.46147
G1 X115.899 Y128.504 E3.47038
M204 S500
G0 F6000 X115.486 Y128.354
G0 X115.429 Y128.333
G0 X115.145 Y121.23
M204 S1000
;TYPE:WALL-INNER
G1 F1200 X115.033 Y121.652 E3.48349
G1 X114.993 Y122.086 E3.49657
G1 X115.033 Y122.521 E3.50968
G1 X115.145 Y122.942 E3.52276
G1 X115.331 Y123.339 E3.53592
G1 X115.581 Y123.695 E3.54898
G1 X115.889 Y124.003 E3.56205
G1 X115.917 Y124.022 E3.56307
G1 X116.216 Y124.232 E3.57404
G1 X116.245 Y124.253 E3.57511
G1 X116.642 Y124.439 E3.58827
G1 X117.063 Y124.551 E3.60135
G1 X117.498 Y124.591 E3.61446
G1 X117.932 Y124.551 E3.62754
G1 X118.354 Y124.439 E3.64065
G1 X118.751 Y124.253 E3.65381
G1 X119.107 Y124.004 E3.66685
G1 X119.416 Y123.695 E3.67997
G1 X119.435 Y123.667 E3.68098
G1 X119.667 Y123.338 E3.69307
G1 X119.85 Y122.943 E3.70613
G1 X119.858 Y122.91 E3.70715
G1 X119.963 Y122.522 E3.71922
G1 X120.003 Y122.086 E3.73236
G1 X119.963 Y121.651 E3.74547
G1 X119.85 Y121.23 E3.75856
G1 X119.667 Y120.835 E3.77163
G1 X119.417 Y120.477 E3.78473
G1 X119.107 Y120.167 E3.79789
G1 X118.749 Y119.917 E3.811
G1 X118.354 Y119.734 E3.82407
G1 X118.321 Y119.726 E3.82509
G1 X117.933 Y119.621 E3.83715
G1 X117.537 Y119.584 E3.84909
G1 X117.498 Y119.581 E3.85026
G1 X117.459 Y119.584 E3.85144
G1 X117.062 Y119.621 E3.86341
G1 X116.641 Y119.734 E3.87649
G1 X116.246 Y119.917 E3.88956
G1 X115.889 Y120.168 E3.90266
G1 X115.58 Y120.477 E3.91578
G1 X115.331 Y120.833 E3.92882
G1 X115.145 Y121.23 E3.94198
M204 S500
G0 F6000 X115.522 Y121.367
M204 S1000
G1 F1200 X115.428 Y121.722 E3.953
G1 X115.395 Y122.086 E3.96397
G1 X115.428 Y122.451 E3.97497
G1 X115.522 Y122.805 E3.98597
G1 X115.678 Y123.138 E3.99701
G1 X115.888 Y123.437 E4.00797
G1 X116.147 Y123.696 E4.01897
G1 X116.446 Y123.906 E4.02994
G1 X116.779 Y124.062 E4.04097
G1 X117.133 Y124.156 E4.05197
G1 X117.498 Y124.189 E4.06297
G1 X117.862 Y124.156 E4.07394
G1 X118.217 Y124.062 E4.08496
G1 X118.55 Y123.906 E4.096
G1 X118.849 Y123.696 E4.10697
G1 X119.109 Y123.437 E4.11799
G1 X119.319 Y123.137 E4.12898
G1 X119.473 Y122.806 E4.13994
G1 X119.568 Y122.452 E4.15094
G1 X119.601 Y122.086 E4.16197
G1 X119.568 Y121.721 E4.17297
G1 X119.473 Y121.367 E4.18397
G1 X119.319 Y121.035 E4.19496
G1 X119.109 Y120.735 E4.20595
G1 X118.849 Y120.475 E4.21699
G1 X118.549 Y120.265 E4.22798
G1 X118.217 Y120.111 E4.23896
G1 X117.863 Y120.016 E4.24997
G1 X117.498 Y119.983 E4.26097
G1 X117.132 Y120.016 E4.272
G1 X116.778 Y120.111 E4.283
G1 X116.447 Y120.265 E4.29396
G1 X116.147 Y120.475 E4.30495
G1 X115.888 Y120.735 E4.31597
G1 X115.678 Y121.034 E4.32694
G1 X115.522 Y121.367 E4.33797
M204 S500
G0 F6000 X115.899 Y121.504
M204 S1000
;TYPE:WALL-OUTER
G1 F1200 X115.823 Y121.791 E4.34689
G1 X115.797 Y122.086 E4.35577
G1 X115.823 Y122.382 E4.36469
G1 X115.899 Y122.668 E4.37358
G1 X116.025 Y122.937 E4.38249
G1 X116.195 Y123.179 E4.39137
G1 X116.405 Y123.389 E4.40029
G1 X116.647 Y123.559 E4.40916
G1 X116.916 Y123.685 E4.41808
G1 X117.202 Y123.761 E4.42696
G1 X117.498 Y123.787 E4.43588
G1 X117.793 Y123.761 E4.44477
G1 X118.08 Y123.685 E4.45368
G1 X118.349 Y123.559 E4.4626
G1 X118.591 Y123.389 E4.47148
G1 X118.801 Y123.179 E4.48039
G1 X118.971 Y122.936 E4.48929
G1 X119.096 Y122.668 E4.49817
G1 X119.173 Y122.382 E4.50706
G1 X119.199 Y122.086 E4.51598
G1 X119.173 Y121.791 E4.52487
G1 X119.096 Y121.504 E4.53379
G1 X118.971 Y121.236 E4.54267
G1 X118.801 Y120.993 E4.55157
G1 X118.591 Y120.783 E4.56048
G1 X118.348 Y120.613 E4.56938
G1 X118.08 Y120.488 E4.57826
G1 X117.793 Y120.411 E4.58718
G1 X117.498 Y120.385 E4.59607
G1 X117.202 Y120.411 E4.60499
G1 X116.916 Y120.488 E4.61388
G1 X116.648 Y120.613 E4.62276
G1 X116.405 Y120.783 E4.63166
G1 X116.195 Y120.993 E4.64057
G1 X116.025 Y121.235 E4.64945
G1 X115.899 Y121.504 E4.65837
M204 S500
G0 F6000 X115.486 Y121.354
G0 X115.429 Y121.333
G0 X115.858 Y120.71
G0 X116.428 Y120.231
G0 X139.768 Y112.093
M204 S1000
;TYPE:WALL-INNER
G1 F1200 X139.638 Y112.582 E4.67356
G1 X139.591 Y113.086 E4.68875
G1 X139.638 Y113.591 E4.70397
G1 X139.768 Y114.079 E4.71913
G1 X139.984 Y114.54 E4.73442
G1 X140.274 Y114.953 E4.74956
G1 X140.631 Y115.31 E4.76472
G1 X140.659 Y115.329 E4.76573
G1 X141.015 Y115.579 E4.77879
G1 X141.044 Y115.6 E4.77987
G1 X141.505 Y115.816 E4.79515
G1 X141.993 Y115.946 E4.81031
G1 X142.498 Y115.993 E4.82553
G1 X143.002 Y115.946 E4.84073
G1 X143.491 Y115.816 E4.85591
G1 X143.952 Y115.6 E4.8712
G1 X144.365 Y115.31 E4.88634
G1 X144.722 Y114.953 E4.9015
G1 X145.012 Y114.542 E4.9166
G1 X145.228 Y114.082 E4.93185
G1 X145.362 Y113.589 E4.94719
G1 X145.402 Y113.086 E4.96233
G1 X145.362 Y112.584 E4.97745
G1 X145.228 Y112.09 E4.99282
G1 X145.012 Y111.631 E5.00804
G1 X144.723 Y111.219 E5.02315
G1 X144.365 Y110.86 E5.03837
G1 X143.949 Y110.569 E5.05361
G1 X143.491 Y110.357 E5.06876
G1 X143.458 Y110.349 E5.06978
G1 X143.004 Y110.226 E5.08389
G1 X142.498 Y110.179 E5.09915
G1 X141.991 Y110.226 E5.11443
G1 X141.504 Y110.357 E5.12957
G1 X141.045 Y110.569 E5.14475
G1 X140.631 Y110.861 E5.15995
G1 X140.272 Y111.219 E5.17517
G1 X139.983 Y111.632 E5.1903
G1 X139.768 Y112.093 E5.20557
M204 S500
G0 F6000 X140.145 Y112.23
M204 S1000
G1 F1200 X140.033 Y112.652 E5.21868
G1 X139.993 Y113.086 E5.23176
G1 X140.033 Y113.521 E5.24487
G1 X140.145 Y113.942 E5.25795
G1 X140.331 Y114.339 E5.27111
G1 X140.581 Y114.695 E5.28417
G1 X140.889 Y115.003 E5.29724
G1 X140.917 Y115.022 E5.29826
G1 X141.216 Y115.232 E5.30923
G1 X141.245 Y115.253 E5.3103
G1 X141.642 Y115.439 E5.32346
G1 X142.063 Y115.551 E5.33654
