;FLAVOR:Marlin
;TIME:6249
;Filament used: 3.19965m
;Layer height: 0.2
;MINX:93.2
;MINY:98.2
;MINZ:0.2
;MAXX:106.8
;MAXY:136.8
;MAXZ:42.2
;Generated with Cura_SteamEngine master
M82 ;absolute extrusion mode
; Ender 3 Custom Start G-code
M140 S70 ; Set Heat Bed temperature
M104 S160 ; start warming extruder to 160
G28 ; Home all axes
; G29 ; Auto bed-level (BL-Touch)
G92 E0 ; Reset Extruder
M190 S70 ; Wait for Heat Bed temperature
M104 S210 ; Set Extruder temperature
G1 X0 Y0 Z0.3 F5000.0 ; Move to 0 0
M109 S210 ; Wait for Extruder temperature
G1 X3 Y20 Z0.3 F5000.0 ; Move to start position
; G1 Z2.0 F3000 ; Move Z Axis up little to prevent scratching of Heat Bed
G1 X3 Y200.0 Z0.3 F1500.0 E15 ; Draw the first line
G1 X3.3 Y200.0 Z0.3 F5000.0 ; Move to side a little
G1 X3.3 Y20 Z0.3 F1500.0 E30 ; Draw the second line
G92 E0 ; Reset Extruder
G1 Z2.0 F3000 ; Move Z Axis up little to prevent scratching of Heat Bed
G92 E0
G92 E0
G1 F2700 E-1
;LAYER_COUNT:211
;LAYER:0
M107
M204 S500
M205 X8 Y8
G0 F6000 X98.6 Y103.6 Z0.2
;TYPE:SKIRT
G1 F2700 E0
G1 F1200 X101.4 Y103.6 E0.06729
G1 X101.4 Y125.545 E0.59463
G1 X100.952 Y125.469 E0.60555
G1 X100.543 Y125.422 E0.61545
G1 X100.231 Y125.41 E0.62295
G1 X99.722 Y125.41 E0.63518
G1 X99.1 Y125.461 E0.65018
G1 X98.6 Y125.544 E0.66236
G1 X98.6 Y103.6 E1.18968
G0 F6000 X98.2 Y103.2
G1 F1200 X101.8 Y103.2 E1.27619
G1 X101.8 Y126.055 E1.82541
G1 X101.396 Y125.95 E1.83544
G1 X100.885 Y125.863 E1.84789
G1 X100.518 Y125.821 E1.85677
G1 X100.231 Y125.81 E1.86367
G1 X99.722 Y125.81 E1.8759
G1 X99.165 Y125.856 E1.88933
G1 X98.629 Y125.945 E1.90239
G1 X98.2 Y126.054 E1.91303
G1 X98.2 Y103.2 E2.46222
G0 F6000 X97.8 Y102.8
G1 F1200 X102.2 Y102.8 E2.56795
G1 X102.2 Y126.605 E3.14
G1 X101.818 Y126.471 E3.14973
G1 X101.329 Y126.345 E3.16186
G1 X100.818 Y126.258 E3.17432
G1 X100.494 Y126.22 E3.18216
G1 X100.231 Y126.21 E3.18848
G1 X99.722 Y126.21 E3.20071
G1 X99.231 Y126.251 E3.21255
G1 X98.695 Y126.34 E3.22561
G1 X98.203 Y126.465 E3.23781
G1 X97.8 Y126.605 E3.24806
G1 X97.8 Y102.8 E3.8201
G0 F6000 X97.4 Y102.4
G1 F1200 X102.6 Y102.4 E3.94506
G1 X102.6 Y127.208 E4.54121
G1 X102.582 Y127.198 E4.54171
G1 X102.202 Y127.03 E4.55169
G1 X101.686 Y126.849 E4.56483
G1 X101.261 Y126.739 E4.57538
G1 X100.75 Y126.652 E4.58784
G1 X100.47 Y126.62 E4.59461
G1 X100.231 Y126.61 E4.60036
G1 X99.722 Y126.61 E4.61259
G1 X99.296 Y126.645 E4.62286
G1 X98.76 Y126.734 E4.63592
G1 X98.334 Y126.842 E4.64648
G1 X97.812 Y127.023 E4.65975
G1 X97.4 Y127.207 E4.6706
G1 X97.4 Y102.4 E5.26672
G0 F6000 X97 Y102
G1 F1200 X103 Y102 E5.4109
G1 X103 Y127.897 E6.03322
G1 X102.857 Y127.803 E6.03733
G1 X102.391 Y127.55 E6.05007
G1 X102.069 Y127.407 E6.05854
G1 X101.553 Y127.226 E6.07168
G1 X101.194 Y127.133 E6.08059
G1 X100.683 Y127.046 E6.09305
G1 X100.363 Y127.014 E6.10078
G1 X100.231 Y127.01 E6.10395
G1 X99.722 Y127.01 E6.11618
G1 X99.362 Y127.04 E6.12486
G1 X98.826 Y127.129 E6.13792
G1 X98.465 Y127.22 E6.14687
G1 X97.943 Y127.401 E6.16014
G1 X97.611 Y127.549 E6.16888
G1 X97.138 Y127.807 E6.18182
G1 X97 Y127.897 E6.18578
G1 X97 Y102 E6.8081
G0 F6000 X96.6 Y101.6
G1 F1200 X103.4 Y101.6 E6.97151
G1 X103.4 Y128.706 E7.62288
G1 X103.338 Y128.649 E7.6249
G1 X102.917 Y128.319 E7.63775
G1 X102.666 Y128.154 E7.64497
G1 X102.2 Y127.901 E7.65771
G1 X101.937 Y127.784 E7.66463
G1 X101.421 Y127.603 E7.67777
G1 X101.127 Y127.528 E7.68506
G1 X100.616 Y127.441 E7.69752
G1 X100.339 Y127.413 E7.70421
G1 X100.231 Y127.41 E7.70681
G1 X99.722 Y127.41 E7.71904
G1 X99.427 Y127.434 E7.72615
G1 X98.891 Y127.523 E7.73921
G1 X98.596 Y127.598 E7.74652
G1 X98.074 Y127.779 E7.7598
G1 X97.802 Y127.9 E7.76695
G1 X97.329 Y128.158 E7.7799
G1 X97.082 Y128.32 E7.787
G1 X96.65 Y128.658 E7.80018
G1 X96.6 Y128.704 E7.80181
G1 X96.6 Y101.6 E8.45313
G0 F6000 X96.2 Y101.2
G1 F1200 X103.8 Y101.2 E8.63576
G1 X103.8 Y129.739 E9.32157
G1 X103.625 Y129.51 E9.32849
G1 X103.251 Y129.11 E9.34165
G1 X103.092 Y128.964 E9.34684
G1 X102.671 Y128.634 E9.3597
G1 X102.475 Y128.506 E9.36532
G1 X102.009 Y128.253 E9.37806
G1 X101.804 Y128.162 E9.38345
G1 X101.288 Y127.981 E9.39659
G1 X101.06 Y127.922 E9.40225
G1 X100.549 Y127.835 E9.41471
G1 X100.231 Y127.81 E9.42237
G1 X99.722 Y127.81 E9.43461
G1 X99.493 Y127.829 E9.44013
G1 X98.957 Y127.918 E9.45318
G1 X98.727 Y127.976 E9.45888
G1 X98.205 Y128.157 E9.47216
G1 X97.994 Y128.251 E9.47771
G1 X97.521 Y128.509 E9.49066
G1 X97.328 Y128.635 E9.4962
G1 X96.896 Y128.973 E9.50938
G1 X96.732 Y129.124 E9.51474
G1 X96.364 Y129.521 E9.52774
G1 X96.2 Y129.736 E9.53424
G1 X96.2 Y101.2 E10.21998
G0 F6000 X95.8 Y100.8
G1 F1200 X104.2 Y100.8 E10.42183
G1 X104.2 Y131.603 E11.16204
G1 X104.09 Y131.174 E11.17268
G1 X104.036 Y131.019 E11.17663
G1 X103.819 Y130.526 E11.18957
G1 X103.742 Y130.383 E11.19347
G1 X103.44 Y129.92 E11.20676
G1 X103.332 Y129.783 E11.21095
G1 X102.958 Y129.383 E11.22411
G1 X102.845 Y129.279 E11.2278
G1 X102.424 Y128.949 E11.24065
G1 X102.284 Y128.857 E11.24468
G1 X101.818 Y128.604 E11.25742
G1 X101.672 Y128.539 E11.26126
G1 X101.156 Y128.358 E11.2744
G1 X100.993 Y128.316 E11.27845
G1 X100.482 Y128.229 E11.2909
G1 X100.231 Y128.21 E11.29695
G1 X99.722 Y128.21 E11.30918
G1 X99.558 Y128.224 E11.31314
G1 X99.022 Y128.313 E11.3262
G1 X98.858 Y128.354 E11.33026
G1 X98.336 Y128.535 E11.34354
G1 X98.185 Y128.602 E11.34751
G1 X97.712 Y128.86 E11.36045
G1 X97.575 Y128.95 E11.36439
G1 X97.143 Y129.288 E11.37757
G1 X97.026 Y129.396 E11.3814
G1 X96.658 Y129.793 E11.39441
G1 X96.553 Y129.927 E11.3985
G1 X96.283 Y130.341 E11.41038
G1 X96.166 Y130.56 E11.41634
G1 X95.96 Y131.03 E11.42867
G1 X95.907 Y131.185 E11.43261
G1 X95.8 Y131.606 E11.44305
G1 X95.8 Y100.8 E12.18333
G0 F6000 X95.4 Y100.4
G1 F1200 X104.6 Y100.4 E12.40441
G1 X104.6 Y134.6 E13.22625
G1 X103.9 Y134.6 E13.24307
G1 X103.9 Y132.455 E13.29462
G1 X103.898 Y132.406 E13.2958
G1 X103.86 Y131.944 E13.30694
G1 X103.827 Y131.761 E13.31141
G1 X103.702 Y131.273 E13.32351
G1 X103.67 Y131.18 E13.32587
G1 X103.453 Y130.687 E13.33882
G1 X103.407 Y130.601 E13.34116
G1 X103.105 Y130.138 E13.35445
G1 X103.04 Y130.056 E13.35696
G1 X102.666 Y129.656 E13.37012
G1 X102.598 Y129.594 E13.37233
G1 X102.177 Y129.264 E13.38518
G1 X102.093 Y129.209 E13.3876
G1 X101.627 Y128.956 E13.40034
G1 X101.54 Y128.917 E13.40263
G1 X101.024 Y128.736 E13.41577
G1 X100.926 Y128.711 E13.4182
G1 X100.415 Y128.624 E13.43066
G1 X100.231 Y128.61 E13.43509
G1 X99.722 Y128.61 E13.44732
G1 X99.624 Y128.618 E13.44969
G1 X99.088 Y128.707 E13.46274
G1 X98.989 Y128.732 E13.4652
G1 X98.467 Y128.913 E13.47847
G1 X98.377 Y128.953 E13.48084
G1 X97.904 Y129.211 E13.49379
G1 X97.821 Y129.265 E13.49617
G1 X97.389 Y129.603 E13.50935
G1 X97.319 Y129.668 E13.51164
G1 X96.951 Y130.065 E13.52465
G1 X96.888 Y130.145 E13.5271
G1 X96.618 Y130.559 E13.53898
G1 X96.532 Y130.72 E13.54336
G1 X96.326 Y131.19 E13.55569
G1 X96.294 Y131.283 E13.55806
G1 X96.159 Y131.814 E13.57122
G1 X96.143 Y131.912 E13.57361
G1 X96.102 Y132.398 E13.58533
G1 X96.1 Y132.448 E13.58653
G1 X96.1 Y134.6 E13.63825
G1 X95.4 Y134.6 E13.65507
G1 X95.4 Y100.4 E14.47691
G0 F6000 X95 Y100
G1 F1200 X105 Y100 E14.71721
G1 X105 Y135 E15.55828
G1 X103.5 Y135 E15.59432
G1 X103.499 Y132.439 E15.65587
G1 X103.458 Y131.955 E15.66754
G1 X103.44 Y131.86 E15.66986
G1 X103.315 Y131.372 E15.68197
G1 X103.304 Y131.341 E15.68276
G1 X103.087 Y130.848 E15.6957
G1 X103.072 Y130.82 E15.69647
G1 X102.77 Y130.357 E15.70975
G1 X102.748 Y130.329 E15.7106
G1 X102.374 Y129.929 E15.72376
G1 X102.351 Y129.909 E15.7245
G1 X101.93 Y129.579 E15.73735
G1 X101.902 Y129.56 E15.73816
G1 X101.436 Y129.307 E15.75091
G1 X101.407 Y129.294 E15.75167
G1 X100.891 Y129.113 E15.76481
G1 X100.859 Y129.105 E15.7656
G1 X100.326 Y129.015 E15.77859
G1 X100.243 Y129.01 E15.78059
G1 X99.722 Y129.01 E15.79311
G1 X99.689 Y129.013 E15.79391
G1 X99.153 Y129.102 E15.80696
G1 X99.12 Y129.11 E15.80778
G1 X98.598 Y129.291 E15.82106
G1 X98.568 Y129.304 E15.82184
G1 X98.095 Y129.562 E15.83479
G1 X98.068 Y129.58 E15.83557
G1 X97.636 Y129.918 E15.84875
G1 X97.612 Y129.94 E15.84953
G1 X97.244 Y130.337 E15.86254
G1 X97.223 Y130.364 E15.86336
G1 X96.944 Y130.794 E15.87568
G1 X96.899 Y130.881 E15.87803
G1 X96.693 Y131.351 E15.89037
G1 X96.682 Y131.382 E15.89116
G1 X96.547 Y131.913 E15.90432
G1 X96.542 Y131.945 E15.9051
G1 X96.5 Y132.448 E15.91723
G1 X96.5 Y135 E15.97856
G1 X95 Y135 E16.0146
G1 X95 Y100 E16.85567
G1 F2700 E15.85567
G0 F6000 X99 Y104
;TYPE:SUPPORT
G1 F2700 E16.85567
G1 F1200 X101 Y104 E16.90373
G1 X101 Y125.071 E17.41007
G1 X100.794 Y125.036 E17.41509
G1 X100.357 Y125.01 E17.42561
G1 X99.375 Y125.01 E17.44921
G1 X99 Y125.073 E17.45835
G1 X99 Y104 E17.96474
G0 F6000 X99.4 Y104.4
G1 F1200 X100.6 Y104.4 E17.99358
G1 X100.6 Y124.624 E18.47957
G1 X100.369 Y124.61 E18.48513
G1 X99.4 Y124.61 E18.50842
G1 X99.4 Y104.4 E18.99407
G0 F6000 X100 Y104.48
G1 F1200 X100 Y124.53 E19.47588
G0 F6000 X100.519 Y124
G1 F1200 X99.479 Y124 E19.50088
G1 F2700 E18.50088
G0 F6000 X99.479 Y122
G1 F2700 E19.50088
G1 F1200 X100.519 Y122 E19.52587
G1 F2700 E18.52587
G0 F6000 X100.519 Y120
G1 F2700 E19.52587
G1 F1200 X99.479 Y120 E19.55086
G1 F2700 E18.55086
G0 F6000 X99.48 Y118
G1 F2700 E19.55086
G1 F1200 X100.52 Y118 E19.57585
G1 F2700 E18.57585
G0 F6000 X100.52 Y116
G1 F2700 E19.57585
G1 F1200 X99.48 Y116 E19.60084
G1 F2700 E18.60084
G0 F6000 X99.48 Y114
G1 F2700 E19.60084
G1 F1200 X100.52 Y114 E19.62583
G1 F2700 E18.62583
G0 F6000 X100.52 Y112
G1 F2700 E19.62583
G1 F1200 X99.48 Y112 E19.65083
G1 F2700 E18.65083
G0 F6000 X99.48 Y110
G1 F2700 E19.65083
G1 F1200 X100.52 Y110 E19.67582
G1 F2700 E18.67582
G0 F6000 X100.52 Y108
G1 F2700 E19.67582
G1 F1200 X99.48 Y108 E19.70081
G1 F2700 E18.70081
G0 F6000 X99.48 Y106
G1 F2700 E19.70081
G1 F1200 X100.52 Y106 E19.7258
G1 F2700 E18.7258
;MESH:Zippo_Insert.stl
G0 F6000 X98.5 Y135.1
;TYPE:WALL-INNER
G1 F2700 E19.7258
G1 F1200 X98.696 Y135.233 E19.73149
G1 X98.838 Y135.295 E19.73522
G1 X99.13 Y135.423 E19.74288
G1 X99.313 Y135.477 E19.74746
G1 X99.338 Y135.48 E19.74807
G1 X99.796 Y135.552 E19.75921
G1 X100.327 Y135.541 E19.77197
G1 X100.779 Y135.452 E19.78304
G1 X100.948 Y135.4 E19.78729
G1 X101.17 Y135.288 E19.79327
G1 X101.35 Y135.197 E19.79811
G1 X101.37 Y135.184 E19.79869
G1 X101.443 Y135.139 E19.80075
G1 X101.5 Y135.103 E19.80237
G1 X101.5 Y135.197 E19.8031
G1 X101.5 Y135.399 E19.80667
G1 X101.5 Y136 E19.82111
G1 X98.5 Y136 E19.89321
G1 X98.5 Y135.388 E19.90791
G1 X98.5 Y135.233 E19.90997
G1 X98.5 Y135.1 E19.91018
G0 F6000 X98.89 Y134.881
G1 F1200 X99.268 Y135.047 E19.9201
G1 X99.4 Y135.086 E19.9234
G1 X99.823 Y135.151 E19.93369
G1 X100.284 Y135.142 E19.94477
G1 X100.681 Y135.064 E19.95449
G1 X100.798 Y135.028 E19.95743
G1 X101.159 Y134.846 E19.96715
G1 X101.234 Y134.802 E19.96924
G1 X101.505 Y134.602 E19.97733
G1 X101.513 Y134.596 E19.97757
G1 X101.608 Y134.516 E19.98056
G1 X101.834 Y134.272 E19.98855
G1 X101.9 Y134.179 E19.99129
G1 X101.9 Y134.272 E19.99135
G1 X101.9 Y134.516 E19.99366
G1 X101.9 Y134.596 E19.99413
G1 X101.9 Y134.607 E19.99439
G1 X101.9 Y136.4 E20.03748
G1 X98.1 Y136.4 E20.12879
G1 X98.1 Y134.614 E20.17171
G1 X98.1 Y134.582 E20.17248
G1 X98.1 Y134.26 E20.18022
G1 X98.1 Y134.184 E20.18204
G1 X98.154 Y134.26 E20.18225
G1 X98.469 Y134.582 E20.18903
G1 X98.493 Y134.602 E20.18976
G1 X98.554 Y134.654 E20.19168
G1 X98.89 Y134.881 E20.20143
G1 F2700 E19.20143
G0 F6000 X93.8 Y98.8
;TYPE:WALL-OUTER
G1 F2700 E20.20143
G1 F1200 X93.8 Y136.2 E21.10016
G1 X97.7 Y136.2 E21.19388
G1 X97.7 Y132.495 E21.28292
G1 X97.732 Y132.12 E21.29196
G1 X97.827 Y131.749 E21.30116
G1 X97.982 Y131.398 E21.31038
G1 X98.187 Y131.084 E21.31939
G1 X98.443 Y130.809 E21.32842
G1 X98.748 Y130.572 E21.33771
G1 X99.077 Y130.394 E21.34669
G1 X99.441 Y130.269 E21.35594
G1 X99.812 Y130.209 E21.36497
G1 X100.197 Y130.21 E21.37423
G1 X100.566 Y130.271 E21.38321
G1 X100.928 Y130.397 E21.39242
G1 X101.264 Y130.579 E21.40161
G1 X101.556 Y130.809 E21.41054
G1 X101.817 Y131.091 E21.41977
G1 X102.026 Y131.413 E21.429
G1 X102.175 Y131.756 E21.43798
G1 X102.269 Y132.125 E21.44713
G1 X102.3 Y132.5 E21.45618
G1 X102.3 Y136.2 E21.54509
G1 X106.2 Y136.2 E21.63881
G1 X106.2 Y98.8 E22.53755
G1 X93.8 Y98.8 E22.83552
G1 F2700 E21.83552
G0 F6000 X101.99 Y132.424
G1 F2700 E22.83552
G1 F1200 X101.85 Y131.888 E22.84884
G1 X101.723 Y131.59 E22.85662
G1 X101.545 Y131.312 E22.86455
G1 X101.321 Y131.066 E22.87255
G1 X101.057 Y130.863 E22.88055
G1 X100.763 Y130.706 E22.88856
G1 X100.411 Y130.596 E22.89742
G1 X100.047 Y130.552 E22.90623
G1 X99.683 Y130.577 E22.915
G1 X99.336 Y130.669 E22.92363
G1 X99.018 Y130.82 E22.93209
G1 X98.739 Y131.021 E22.94035
G1 X98.511 Y131.254 E22.94818
G1 X98.371 Y131.431 E22.95361
G1 X98.211 Y131.727 E22.96169
G1 X98.103 Y132.026 E22.96933
G1 X98.027 Y132.302 E22.97621
G1 X97.993 Y132.609 E22.98363
G1 X98.005 Y132.924 E22.99121
G1 X98.068 Y133.238 E22.9989
G1 X98.179 Y133.541 E23.00666
G1 X98.272 Y133.733 E23.01179
G1 X98.462 Y134.003 E23.01972
G1 X98.742 Y134.289 E23.02934
G1 X98.796 Y134.335 E23.03104
G1 X99.084 Y134.529 E23.03939
G1 X99.406 Y134.671 E23.04784
G1 X99.487 Y134.695 E23.04987
G1 X99.85 Y134.75 E23.0587
G1 X100.242 Y134.743 E23.06812
G1 X100.583 Y134.676 E23.07647
G1 X100.648 Y134.656 E23.0781
G1 X100.967 Y134.495 E23.08669
G1 X101.013 Y134.468 E23.08797
G1 X101.265 Y134.282 E23.0955
G1 X101.331 Y134.226 E23.09758
G1 X101.523 Y134.019 E23.10436
G1 X101.723 Y133.736 E23.11269
G1 X101.871 Y133.43 E23.12086
G1 X101.969 Y133.091 E23.12934
G1 X102.007 Y132.752 E23.13754
G1 X101.99 Y132.424 E23.14543
G1 F2700 E22.14543
G0 F6000 X106.8 Y136.8
G1 F2700 E23.14543
G1 F1200 X93.2 Y136.8 E23.47224
G1 X93.2 Y98.2 E24.39982
G1 X106.8 Y98.2 E24.72663
G1 X106.8 Y136.8 E25.65421
G0 F6000 X106.499 Y136.48
;TYPE:SKIN
G1 F1200 X106.499 Y136.197 E25.65845
G1 X106.499 Y98.862 E26.21883
G1 X106.136 Y98.499 E26.22653
G1 X93.691 Y98.499 E26.41333
G1 X93.499 Y98.591 E26.41652
G1 X93.499 Y136.209 E26.98114
G1 X93.789 Y136.499 E26.9873
G1 X97.749 Y136.499 E27.04674
G1 X97.923 Y136.39 E27.04982
G0 F6000 X98.723 Y135.775
G1 F1200 X98.864 Y135.634 E27.05162
G1 X99.854 Y135.775 E27.06065
G1 X101.179 Y135.686 E27.07264
G1 X101.534 Y134.909 E27.08036
G1 X101.678 Y134.77 E27.08216
G1 X102.043 Y133.722 E27.09219
G1 X102.086 Y133.481 E27.0944
G1 F2700 E26.0944
G0 F6000 X102.275 Y136.499
G1 F2700 E27.0944
G1 F1200 X102.558 Y136.499 E27.09908
G1 X106.235 Y136.499 E27.15987
G1 F2700 E26.15987
G0 F6000 X102.117 Y136.624
G1 F2700 E27.15987
G1 F1200 X102.059 Y136.566 E27.16086
G1 F2700 E26.16086
G0 F6000 X98.454 Y134.941
G1 F2700 E27.16086
G1 F1200 X98.274 Y134.761 E27.16391
G0 F6000 X97.984 Y133.905
G1 F1200 X97.968 Y133.607 E27.17085
G1 F2700 E26.17085
G0 F6000 X93.632 Y136.624
G1 F2700 E27.17085
G1 F1200 X93.374 Y136.366 E27.17523
G1 F2700 E26.17523
G0 F6000 X106.624 Y98.705
G1 F2700 E27.17523
G1 F1200 X106.294 Y98.374 E27.18084
G0 F6000 X106.577 Y98.374
M104 S210
G1 F1200 X106.624 Y98.422 E27.18165
G1 F2700 E26.18165
;MESH:NONMESH
G0 F300 X106.624 Y98.422 Z0.4
G0 F6000 X95 Y100
;TIME_ELAPSED:73.236345
;LAYER:1
M140 S65
M106 S85
;TYPE:SUPPORT
G1 F2700 E27.18165
G1 F1350 X105 Y100 E27.46436
G1 X105 Y135 E28.45385
G1 X103.5 Y135 E28.49626
G1 X103.5 Y132.447 E28.56844
G1 X103.458 Y131.937 E28.5829
G1 X103.317 Y131.371 E28.59939
G1 X103.097 Y130.865 E28.61499
G1 X103.046 Y130.779 E28.61782
G1 X102.761 Y130.343 E28.63254
G1 X102.376 Y129.928 E28.64855
G1 X101.91 Y129.563 E28.66528
G1 X101.415 Y129.296 E28.68118
G1 X100.87 Y129.106 E28.6975
G1 X100.331 Y129.015 E28.71295
G1 X100.23 Y129.009 E28.71581
G1 X99.699 Y129.01 E28.73083
G1 X99.13 Y129.106 E28.74714
G1 X98.584 Y129.297 E28.76349
G1 X98.078 Y129.571 E28.77976
G1 X97.646 Y129.908 E28.79525
G1 X97.274 Y130.305 E28.81063
G1 X97.207 Y130.389 E28.81367
G1 X96.914 Y130.841 E28.8289
G1 X96.683 Y131.37 E28.84522
G1 X96.542 Y131.935 E28.86168
G1 X96.501 Y132.431 E28.87575
G1 X96.5 Y135 E28.94838
G1 X95 Y135 E28.99079
G1 X95 Y100 E29.98027
G0 F7500 X96 Y100.28
G1 F1350 X95.28 Y100.28 E30.00063
G1 X95.28 Y134.72 E30.97429
G1 X96 Y134.72 E30.99464
G1 X96 Y100.28 E31.9683
G1 X98 Y100.28 E32.02484
G1 X98 Y129.296 E32.84516
