;FLAVOR:Marlin
;TIME:151
;Filament used: 0.0312616m
;Layer height: 0.2
;MINX:96.95
;MINY:114.454
;MINZ:0.2
;MAXX:103.05
;MAXY:120.549
;MAXZ:6.4
;Generated with Cura_SteamEngine master
M82 ;absolute extrusion mode
; Ender 3 Custom Start G-code
M140 S70 ; Set Heat Bed temperature
M104 S160 ; start warming extruder to 160
G28 ; Home all axes
; G29 ; Auto bed-level (BL-Touch)
G92 E0 ; Reset Extruder
M190 S70 ; Wait for Heat Bed temperature
M104 S210 ; Set Extruder temperature
G1 X0 Y0 Z0.3 F5000.0 ; Move to 0 0
M109 S210 ; Wait for Extruder temperature
G1 X3 Y20 Z0.3 F5000.0 ; Move to start position
; G1 Z2.0 F3000 ; Move Z Axis up little to prevent scratching of Heat Bed
G1 X3 Y200.0 Z0.3 F1500.0 E15 ; Draw the first line
G1 X3.3 Y200.0 Z0.3 F5000.0 ; Move to side a little
G1 X3.3 Y20 Z0.3 F1500.0 E30 ; Draw the second line
G92 E0 ; Reset Extruder
G1 Z2.0 F3000 ; Move Z Axis up little to prevent scratching of Heat Bed
G92 E0
G92 E0
G1 F2700 E-1
;LAYER_COUNT:32
;LAYER:0
M107
M204 S500
M205 X8 Y8
;MESH:Zippo_Screw.stl
G0 F6000 X98.25 Y116.097 Z0.2
;TYPE:WALL-INNER
G1 F2700 E0
G1 F600 X98.25 Y116.196 E0.00238
G1 X98.25 Y116.456 E0.00863
G1 X98.25 Y116.714 E0.01483
G1 X98.25 Y116.863 E0.01841
G1 X98.25 Y118.149 E0.04931
G1 X98.25 Y118.439 E0.05628
G1 X98.25 Y118.694 E0.06241
G1 X98.25 Y118.907 E0.06753
G1 X98.096 Y118.694 E0.06944
G1 X97.958 Y118.439 E0.0736
G1 X97.855 Y118.168 E0.07965
G1 X97.85 Y118.156 E0.07996
G1 X97.785 Y117.878 E0.08682
G1 X97.755 Y117.583 E0.09395
G1 X97.761 Y117.284 E0.10114
G1 X97.807 Y117.006 E0.10791
G1 X97.852 Y116.857 E0.11165
G1 X97.895 Y116.714 E0.11504
G1 X98.01 Y116.456 E0.12021
G1 X98.17 Y116.196 E0.12363
G1 X98.25 Y116.097 E0.12438
G0 F6000 X98.65 Y115.226
G1 F600 X98.65 Y115.255 E0.12508
G1 X98.65 Y115.471 E0.13027
G1 X98.65 Y115.526 E0.13159
G1 X98.65 Y119.436 E0.22555
G1 X98.65 Y119.654 E0.23079
G1 X98.65 Y119.773 E0.23365
G1 X98.46 Y119.654 E0.23625
G1 X98.291 Y119.517 E0.24024
G1 X98.193 Y119.438 E0.24326
G1 X97.959 Y119.187 E0.25151
G1 X97.755 Y118.905 E0.25987
G1 X97.592 Y118.603 E0.26812
G1 X97.468 Y118.278 E0.27648
G1 X97.389 Y117.942 E0.28477
G1 X97.354 Y117.598 E0.29308
G1 X97.362 Y117.247 E0.30152
G1 X97.416 Y116.915 E0.3096
G1 X97.518 Y116.577 E0.31808
G1 X97.658 Y116.264 E0.32632
G1 X97.842 Y115.965 E0.33476
G1 X98.057 Y115.7 E0.34296
G1 X98.26 Y115.508 E0.34968
G1 X98.299 Y115.471 E0.35089
G1 X98.596 Y115.255 E0.35662
G1 X98.65 Y115.226 E0.3572
G0 F6000 X99.05 Y114.607
;TYPE:WALL-OUTER
G1 F600 X99.05 Y120.393 E0.49624
G1 X98.92 Y120.354 E0.4995
G1 X98.57 Y120.194 E0.50875
G1 X98.226 Y119.98 E0.51849
G1 X97.923 Y119.734 E0.52786
G1 X97.647 Y119.439 E0.53757
G1 X97.416 Y119.12 E0.54704
G1 X97.227 Y118.769 E0.55662
G1 X97.086 Y118.398 E0.56615
G1 X96.993 Y118.006 E0.57584
G1 X96.953 Y117.613 E0.58533
G1 X96.963 Y117.21 E0.59502
G1 X97.025 Y116.827 E0.60434
G1 X97.143 Y116.435 E0.61418
G1 X97.303 Y116.078 E0.62358
G1 X97.513 Y115.736 E0.63322
G1 X97.764 Y115.427 E0.64279
G1 X98.046 Y115.16 E0.65212
G1 X98.378 Y114.919 E0.66198
G1 X98.722 Y114.732 E0.67139
G1 X99.05 Y114.607 E0.67982
G0 F6000 X98.428 Y115.681
;TYPE:SKIN
G1 F600 X98.351 Y115.887 E0.68538
G0 F6000 X98.039 Y116.99
G1 F600 X98.014 Y117.247 E0.68788
G1 X98.011 Y117.809 E0.6933
G0 F6000 X98.429 Y119.076
G1 F600 X98.313 Y119.244 E0.6951
G1 X98.791 Y120.004 E0.703
G1 F2700 E-0.297
G0 F6000 X101.75 Y118.905
;TYPE:WALL-INNER
G1 F2700 E0.703
G1 F600 X101.75 Y118.806 E0.70538
G1 X101.75 Y118.551 E0.7115
G1 X101.75 Y118.297 E0.71761
G1 X101.75 Y118.141 E0.72136
G1 X101.75 Y116.841 E0.7526
G1 X101.75 Y116.574 E0.75901
G1 X101.75 Y116.308 E0.76541
G1 X101.75 Y116.092 E0.7706
G1 X101.905 Y116.308 E0.77254
G1 X102.047 Y116.574 E0.77691
G1 X102.149 Y116.841 E0.78294
G1 X102.217 Y117.136 E0.79022
G1 X102.245 Y117.422 E0.79712
G1 X102.237 Y117.722 E0.80434
G1 X102.191 Y118.005 E0.81123
G1 X102.148 Y118.148 E0.81481
G1 X102.103 Y118.297 E0.81834
G1 X101.988 Y118.551 E0.82341
G1 X101.831 Y118.806 E0.82676
G1 X101.75 Y118.905 E0.82752
G0 F6000 X101.35 Y119.777
G1 F600 X101.35 Y119.746 E0.82826
G1 X101.35 Y119.549 E0.833
G1 X101.35 Y119.468 E0.83494
G1 X101.35 Y115.565 E0.92873
G1 X101.35 Y115.35 E0.9339
G1 X101.35 Y115.227 E0.93686
G1 X101.546 Y115.35 E0.93957
G1 X101.712 Y115.486 E0.94353
G1 X101.808 Y115.566 E0.94654
G1 X102.048 Y115.821 E0.95495
G1 X102.248 Y116.1 E0.9632
G1 X102.411 Y116.405 E0.97151
G1 X102.533 Y116.726 E0.97976
G1 X102.612 Y117.069 E0.98822
G1 X102.646 Y117.409 E0.99643
G1 X102.636 Y117.76 E1.00487
G1 X102.582 Y118.093 E1.01298
G1 X102.479 Y118.436 E1.02158
G1 X102.342 Y118.739 E1.02957
G1 X102.155 Y119.042 E1.03813
G1 X101.946 Y119.298 E1.04607
G1 X101.737 Y119.494 E1.05296
G1 X101.678 Y119.549 E1.05463
G1 X101.409 Y119.746 E1.05969
G1 X101.35 Y119.777 E1.06034
G0 F6000 X100.95 Y120.395
;TYPE:WALL-OUTER
G1 F600 X100.95 Y114.609 E1.19938
G1 X101.076 Y114.647 E1.20254
G1 X101.435 Y114.809 E1.212
G1 X101.781 Y115.025 E1.22181
G1 X102.081 Y115.272 E1.23114
G1 X102.358 Y115.568 E1.24089
G1 X102.59 Y115.891 E1.25044
G1 X102.775 Y116.236 E1.25985
G1 X102.917 Y116.611 E1.26949
G1 X103.007 Y117.002 E1.27913
G1 X103.047 Y117.396 E1.28864
G1 X103.035 Y117.798 E1.29831
G1 X102.973 Y118.181 E1.30763
G1 X102.855 Y118.575 E1.31751
G1 X102.694 Y118.931 E1.3269
G1 X102.484 Y119.27 E1.33649
G1 X102.235 Y119.576 E1.34597
G1 X101.94 Y119.853 E1.35569
G1 X101.621 Y120.085 E1.36517
G1 X101.269 Y120.274 E1.37477
G1 X100.95 Y120.395 E1.38297
G0 F6000 X101.552 Y119.371
;TYPE:SKIN
G1 F600 X101.624 Y119.161 E1.38732
G0 F6000 X101.98 Y117.819
G1 F600 X101.994 Y117.55 E1.38973
G1 X101.987 Y116.978 E1.39484
G0 F6000 X101.541 Y115.966
G1 F600 X101.648 Y115.791 E1.39964
G0 F6000 X101.242 Y115.102
M104 S210
G1 F600 X101.124 Y114.984 E1.40164
G1 F2700 E0.40164
;MESH:NONMESH
G0 F300 X101.124 Y114.984 Z0.4
G0 F6000 X98.25 Y118.906
;TIME_ELAPSED:12.115863
;LAYER:1
M140 S65
M106 S85
;TYPE:WALL-INNER
;MESH:Zippo_Screw.stl
G1 F2700 E1.40164
G1 F600 X98.088 Y118.688 E1.40932
G1 X97.96 Y118.446 E1.41706
G1 X97.893 Y118.289 E1.42189
G1 X97.815 Y118.035 E1.4294
G1 X97.782 Y117.87 E1.43415
G1 X97.755 Y117.591 E1.44208
G1 X97.752 Y117.42 E1.44691
G1 X97.778 Y117.156 E1.45441
G1 X97.809 Y116.995 E1.45905
G1 X97.853 Y116.851 E1.46331
G1 X97.892 Y116.718 E1.46722
G1 X97.948 Y116.581 E1.47141
G1 X98.085 Y116.322 E1.47969
G1 X98.25 Y116.094 E1.48765
G1 X98.25 Y116.322 E1.48867
G1 X98.25 Y116.581 E1.49285
G1 X98.25 Y116.718 E1.49554
G1 X98.25 Y116.857 E1.49927
G1 X98.25 Y118.289 E1.53942
G1 X98.25 Y118.446 E1.54281
G1 X98.25 Y118.688 E1.54658
G1 X98.25 Y118.906 E1.54751
G0 F7500 X98.65 Y119.778
G1 F600 X98.447 Y119.646 E1.55435
G1 X98.21 Y119.453 E1.56299
G1 X98.069 Y119.315 E1.56857
G1 X97.942 Y119.159 E1.57426
G1 X97.856 Y119.055 E1.57807
G1 X97.76 Y118.915 E1.58287
G1 X97.745 Y118.894 E1.5836
G1 X97.598 Y118.617 E1.59247
G1 X97.518 Y118.429 E1.59824
G1 X97.512 Y118.407 E1.59889
G1 X97.427 Y118.133 E1.607
G1 X97.424 Y118.114 E1.60754
G1 X97.386 Y117.929 E1.61288
G1 X97.385 Y117.909 E1.61345
G1 X97.355 Y117.612 E1.62189
G1 X97.352 Y117.405 E1.62774
G1 X97.382 Y117.095 E1.63654
G1 X97.419 Y116.903 E1.64207
G1 X97.515 Y116.583 E1.65152
G1 X97.585 Y116.412 E1.65674
G1 X97.74 Y116.12 E1.66609
G1 X97.856 Y115.945 E1.67202
G1 X98.042 Y115.716 E1.68036
G1 X98.198 Y115.559 E1.68662
G1 X98.283 Y115.489 E1.68973
G1 X98.425 Y115.372 E1.69494
G1 X98.65 Y115.225 E1.70253
G1 X98.65 Y115.372 E1.70293
G1 X98.65 Y115.556 E1.70711
G1 X98.65 Y119.646 E1.82076
G1 X98.65 Y119.778 E1.82098
G0 F7500 X99.05 Y120.396
;TYPE:WALL-OUTER
G1 F600 X98.726 Y120.272 E1.83079
G1 X98.422 Y120.11 E1.84053
G1 X98.216 Y119.973 E1.84752
G1 X97.943 Y119.751 E1.85747
G1 X97.771 Y119.582 E1.86428
G1 X97.536 Y119.296 E1.87475
G1 X97.403 Y119.102 E1.8814
G1 X97.238 Y118.792 E1.89133
G1 X97.143 Y118.568 E1.89821
G1 X97.038 Y118.226 E1.90832
G1 X96.99 Y117.99 E1.91513
G1 X96.955 Y117.633 E1.92527
G1 X96.952 Y117.391 E1.93211
G1 X96.986 Y117.033 E1.94228
G1 X97.029 Y116.811 E1.94867
G1 X97.138 Y116.448 E1.95939
G1 X97.224 Y116.239 E1.96578
G1 X97.396 Y115.914 E1.97617
G1 X97.527 Y115.716 E1.98288
G1 X97.749 Y115.443 E1.99283
G1 X97.925 Y115.266 E1.99989
G1 X98.19 Y115.047 E2.00961
G1 X98.399 Y114.906 E2.01673
G1 X98.709 Y114.738 E2.0267
G1 X99.05 Y114.608 E2.03702
G1 X99.05 Y120.396 E2.20065
G0 F7500 X98.839 Y120.079
;TYPE:SKIN
G1 F600 X98.669 Y119.967 E2.20232
G1 X98.363 Y119.141 E2.20952
G0 F7500 X98.054 Y118.036
G1 F600 X98.016 Y117.792 E2.21222
G1 X98.007 Y117.236 E2.2183
G0 F7500 X98.445 Y115.949
G1 F600 X98.338 Y115.773 E2.22014
G1 X98.806 Y115.022 E2.22802
G1 F2700 E1.22802
G0 F7500 X101.75 Y118.904
;TYPE:WALL-INNER
G1 F2700 E2.22802
G1 F600 X101.75 Y118.683 E2.23427
G1 X101.75 Y118.444 E2.24102
G1 X101.75 Y118.288 E2.24543
G1 X101.75 Y118.147 E2.24942
G1 X101.75 Y116.857 E2.28589
G1 X101.75 Y116.717 E2.28985
G1 X101.75 Y116.576 E2.29384
G1 X101.75 Y116.32 E2.30107
G1 X101.75 Y116.096 E2.30741
G1 X101.913 Y116.32 E2.30988
G1 X102.049 Y116.576 E2.31492
G1 X102.108 Y116.717 E2.31852
G1 X102.148 Y116.851 E2.32227
G1 X102.19 Y116.992 E2.32643
G1 X102.221 Y117.154 E2.33109
G1 X102.247 Y117.421 E2.33868
G1 X102.246 Y117.592 E2.34351
G1 X102.219 Y117.864 E2.35124
G1 X102.186 Y118.028 E2.35597
G1 X102.148 Y118.153 E2.35966
G1 X102.107 Y118.288 E2.36344
G1 X102.04 Y118.444 E2.36738
G1 X101.912 Y118.683 E2.37202
G1 X101.75 Y118.904 E2.37447
G0 F7500 X101.35 Y119.778
G1 F600 X101.35 Y119.646 E2.3782
G1 X101.35 Y119.44 E2.38403
G1 X101.35 Y115.561 E2.49369
G1 X101.35 Y115.359 E2.4994
G1 X101.35 Y115.224 E2.50322
G1 X101.558 Y115.359 E2.50666
G1 X101.713 Y115.487 E2.51111
G1 X101.811 Y115.568 E2.51471
G1 X101.947 Y115.704 E2.52014
G1 X102.15 Y115.953 E2.52923
G1 X102.255 Y116.112 E2.53461
G1 X102.401 Y116.389 E2.54347
G1 X102.414 Y116.412 E2.54421
G1 X102.484 Y116.579 E2.54933
G1 X102.58 Y116.9 E2.5588
G1 X102.617 Y117.092 E2.56433
G1 X102.644 Y117.382 E2.57257
G1 X102.647 Y117.405 E2.57322
G1 X102.646 Y117.612 E2.57907
G1 X102.615 Y117.925 E2.58797
G1 X102.574 Y118.127 E2.59379
G1 X102.483 Y118.428 E2.60268
G1 X102.404 Y118.612 E2.60835
G1 X102.254 Y118.893 E2.61735
G1 X102.144 Y119.055 E2.62289
G1 X101.937 Y119.307 E2.63211
G1 X101.789 Y119.453 E2.63798
G1 X101.712 Y119.516 E2.6408
G1 X101.553 Y119.646 E2.64531
G1 X101.35 Y119.778 E2.64865
G0 F7500 X100.95 Y120.394
;TYPE:WALL-OUTER
G1 F600 X100.95 Y114.609 E2.81219
G1 X101.288 Y114.737 E2.82241
G1 X101.596 Y114.902 E2.83229
G1 X101.8 Y115.04 E2.83925
G1 X102.083 Y115.274 E2.84963
G1 X102.244 Y115.435 E2.85607
G1 X102.472 Y115.714 E2.86626
G1 X102.602 Y115.911 E2.87293
G1 X102.774 Y116.236 E2.88333
G1 X102.861 Y116.445 E2.88973
G1 X102.97 Y116.808 E2.90044
G1 X103.013 Y117.03 E2.90683
G1 X103.047 Y117.389 E2.91703
G1 X103.046 Y117.631 E2.92387
G1 X103.011 Y117.987 E2.93398
G1 X102.962 Y118.226 E2.94088
G1 X102.86 Y118.564 E2.95086
G1 X102.764 Y118.789 E2.95778
G1 X102.598 Y119.099 E2.96772
G1 X102.466 Y119.293 E2.97435
G1 X102.231 Y119.579 E2.98482
G1 X102.064 Y119.744 E2.99146
G1 X101.782 Y119.975 E3.00176
G1 X101.581 Y120.108 E3.00858
G1 X101.272 Y120.272 E3.01847
G1 X100.95 Y120.394 E3.0282
G0 F7500 X101.196 Y119.986
;TYPE:SKIN
G1 F600 X101.667 Y119.232 E3.03631
G1 X101.56 Y119.055 E3.0382
G0 F7500 X101.991 Y117.776
G1 F600 X101.997 Y117.487 E3.04157
G1 X101.949 Y116.97 E3.04762
G0 F7500 X101.637 Y115.867
G1 F600 X101.563 Y115.659 E3.04988
G1 X101.342 Y115.031 E3.05671
G0 F7500 X101.201 Y114.89
G1 F600 X101.125 Y114.966 E3.05822
;MESH:NONMESH
G0 F300 X101.125 Y114.966 Z0.6
G0 F7500 X101.75 Y116.095
;TIME_ELAPSED:20.018725
;LAYER:2
M106 S170
;TYPE:WALL-INNER
;MESH:Zippo_Screw.stl
G1 F600 X101.923 Y116.336 E3.06661
G1 X102.043 Y116.563 E3.07387
G1 X102.145 Y116.86 E3.08275
G1 X102.187 Y116.98 E3.08634
G1 X102.247 Y117.411 E3.09865
G1 X102.221 Y117.861 E3.11139
G1 X102.184 Y118.036 E3.11645
G1 X102.147 Y118.154 E3.11994
G1 X102.108 Y118.284 E3.12378
G1 X101.914 Y118.683 E3.13632
G1 X101.75 Y118.909 E3.14422
G1 X101.75 Y118.683 E3.14521
G1 X101.75 Y118.284 E3.15248
G1 X101.75 Y118.148 E3.15613
G1 X101.75 Y116.878 E3.19204
G1 X101.75 Y116.563 E3.19978
G1 X101.75 Y116.336 E3.20344
G1 X101.75 Y116.095 E3.20458
G0 F9000 X101.35 Y115.224
G1 F600 X101.578 Y115.374 E3.2123
G1 X101.717 Y115.489 E3.2174
G1 X101.8 Y115.558 E3.22045
G1 X101.958 Y115.717 E3.22679
G1 X102.137 Y115.936 E3.23478
G1 X102.255 Y116.115 E3.24084
G1 X102.271 Y116.138 E3.24163
G1 X102.404 Y116.39 E3.24969
G1 X102.492 Y116.605 E3.25626
G1 X102.569 Y116.865 E3.26392
G1 X102.577 Y116.89 E3.26467
G1 X102.62 Y117.114 E3.27111
G1 X102.644 Y117.372 E3.27844
G1 X102.647 Y117.396 E3.27912
G1 X102.645 Y117.633 E3.28582
G1 X102.617 Y117.918 E3.29392
G1 X102.569 Y118.146 E3.30051
G1 X102.486 Y118.418 E3.30855
G1 X102.39 Y118.643 E3.31546
G1 X102.259 Y118.886 E3.32327
G1 X102.124 Y119.084 E3.33004
G1 X101.944 Y119.302 E3.33804
G1 X101.779 Y119.463 E3.34455
G1 X101.712 Y119.517 E3.34699
G1 X101.556 Y119.644 E3.35267
G1 X101.35 Y119.778 E3.35962
G1 X101.35 Y119.644 E3.35986
G1 X101.35 Y119.442 E3.36433
G1 X101.35 Y115.555 E3.47422
G1 X101.35 Y115.374 E3.47731
G1 X101.35 Y115.224 E3.47776
G0 F9000 X100.95 Y114.608
;TYPE:WALL-OUTER
G1 F600 X101.049 Y114.638 E3.48068
G1 X101.302 Y114.744 E3.48844
G1 X101.586 Y114.896 E3.49754
G1 X101.813 Y115.049 E3.50528
G1 X102.068 Y115.26 E3.51464
G1 X102.26 Y115.454 E3.52236
G1 X102.459 Y115.698 E3.53126
G1 X102.617 Y115.936 E3.53933
G1 X102.767 Y116.222 E3.54846
G1 X102.869 Y116.47 E3.55605
G1 X102.967 Y116.798 E3.56572
G1 X103.016 Y117.052 E3.57304
G1 X103.047 Y117.381 E3.58238
G1 X103.045 Y117.653 E3.59007
G1 X103.013 Y117.977 E3.59927
G1 X102.955 Y118.251 E3.60719
G1 X102.863 Y118.554 E3.61614
G1 X102.753 Y118.811 E3.62405
G1 X102.599 Y119.098 E3.63326
G1 X102.444 Y119.324 E3.641
G1 X102.24 Y119.571 E3.65006
G1 X102.04 Y119.766 E3.65796
G1 X101.792 Y119.968 E3.667
G1 X101.562 Y120.118 E3.67476
G1 X101.269 Y120.274 E3.68415
G1 X101.013 Y120.376 E3.69194
G1 X100.95 Y120.395 E3.6938
G1 X100.95 Y114.608 E3.8574
G0 F9000 X101.182 Y115.042
;TYPE:SKIN
G1 F600 X101.65 Y115.792 E3.864
G1 X101.542 Y115.967 E3.86553
G0 F9000 X101.986 Y116.977
G1 F600 X101.991 Y117.265 E3.8685
G1 X101.981 Y117.82 E3.87421
G0 F9000 X101.626 Y119.163
G1 F600 X101.552 Y119.371 E3.87631
G1 X101.148 Y120.098 E3.88425
G1 F2700 E2.88425
G0 F9000 X98.25 Y118.908
;TYPE:WALL-INNER
G1 F2700 E3.88425
G1 F600 X98.087 Y118.683 E3.89211
G1 X97.894 Y118.288 E3.90454
G1 X97.853 Y118.152 E3.90855
G1 X97.818 Y118.04 E3.91187
G1 X97.781 Y117.865 E3.91693
G1 X97.756 Y117.61 E3.92417
G1 X97.774 Y117.177 E3.93642
G1 X97.811 Y116.985 E3.94195
G1 X97.852 Y116.848 E3.94599
G1 X97.884 Y116.741 E3.94915
G1 X97.954 Y116.569 E3.9544
G1 X98.074 Y116.342 E3.96166
G1 X98.25 Y116.094 E3.97026
G1 X98.25 Y116.342 E3.97147
G1 X98.25 Y116.569 E3.97518
G1 X98.25 Y116.741 E3.9792
G1 X98.25 Y116.853 E3.98224
G1 X98.25 Y118.145 E4.01876
G1 X98.25 Y118.288 E4.02259
G1 X98.25 Y118.683 E4.02974
G1 X98.25 Y118.908 E4.03073
G0 F9000 X98.65 Y119.778
G1 F600 X98.452 Y119.651 E4.03738
G1 X98.289 Y119.518 E4.04332
G1 X98.223 Y119.465 E4.04572
G1 X98.063 Y119.309 E4.05203
G1 X97.875 Y119.082 E4.06037
G1 X97.744 Y118.89 E4.06694
G1 X97.612 Y118.644 E4.07483
G1 X97.516 Y118.422 E4.08167
G1 X97.433 Y118.15 E4.08971
G1 X97.428 Y118.123 E4.09048
G1 X97.391 Y117.949 E4.09551
G1 X97.385 Y117.922 E4.0963
G1 X97.356 Y117.633 E4.10451
G1 X97.352 Y117.395 E4.11124
G1 X97.378 Y117.117 E4.11913
G1 X97.421 Y116.892 E4.12561
G1 X97.507 Y116.605 E4.13408
G1 X97.591 Y116.398 E4.14039
G1 X97.728 Y116.139 E4.14868
G1 X97.855 Y115.945 E4.15523
G1 X98.035 Y115.724 E4.16329
G1 X98.205 Y115.553 E4.17011
G1 X98.283 Y115.489 E4.17296
G1 X98.423 Y115.373 E4.1781
G1 X98.65 Y115.224 E4.18577
G1 X98.65 Y115.373 E4.1862
G1 X98.65 Y115.555 E4.19035
G1 X98.65 Y119.44 E4.30018
G1 X98.65 Y119.651 E4.30418
G1 X98.65 Y119.778 E4.30434
G0 F9000 X99.05 Y120.397
;TYPE:WALL-OUTER
G1 F600 X98.733 Y120.274 E4.31396
G1 X98.441 Y120.12 E4.32329
G1 X98.212 Y119.971 E4.33101
G1 X97.963 Y119.769 E4.34008
G1 X97.767 Y119.578 E4.34782
G1 X97.555 Y119.322 E4.35721
