; generated by Slic3r 1.3.0 on 2020-12-12 at 04:22:25

; external perimeters extrusion width = 0.44mm (2.38mm^3/s)
; perimeters extrusion width = 0.56mm (6.20mm^3/s)
; infill extrusion width = 0.50mm (7.31mm^3/s)
; solid infill extrusion width = 0.56mm (2.07mm^3/s)
; top infill extrusion width = 0.56mm (1.55mm^3/s)
; support material extrusion width = 0.44mm (4.76mm^3/s)

M107
M140 S65
M104 S150 T0
G28 ; home all axes
G29; ABL
G1 X0 Y0 Z5 F{Z_TRAVEL_SPEED}
M107 ; Turn off fan
G90 ; Absolute positioning
G1 X0 Y0 F2400 ; move to the X=0 Y=0 position on the bed at a speed of 2400 mm/min
M190 S65  ; Wait for bed to reach temperature
M109 S205 T0 ; Wait for all used extruders to reach temperature
G92 E0 ; Reset extruder position
G1 X5 Y15 Z0.25 F1000.0 ; go intro start pos
G1 X60.0 E9.0 F600.0 ; intro line to prime extruder
G1 X100.0 E16 F800.0 ; intro line
G92 E0.0 ; reset extruder distance position
; Filament gcode

G21 ; set units to millimeters
G90 ; use absolute coordinates
M82 ; use absolute distances for extrusion
G92 E0
G1 Z0.200 F7800.000
G1 E-2.00000 F2400.00000
G92 E0
G1 X98.360 Y98.778 F7800.000
G1 E2.00000 F2400.00000
G1 F1800
G1 X99.141 Y98.020 E2.03234
G1 X99.610 Y97.611 E2.05080
G1 X100.479 Y96.931 E2.08358
G1 X100.874 Y96.653 E2.09792
G1 X101.806 Y96.061 E2.13069
G1 X102.348 Y95.757 E2.14915
G1 X102.789 Y95.528 E2.16390
G1 X103.780 Y95.075 E2.19626
G1 X104.813 Y94.686 E2.22903
G1 X105.406 Y94.498 E2.24749
G1 X106.474 Y94.220 E2.28027
G1 X107.559 Y94.016 E2.31305
G1 X108.038 Y93.951 E2.32739
G1 X109.137 Y93.854 E2.36016
G1 X109.759 Y93.833 E2.37862
G1 X110.256 Y93.833 E2.39338
G1 X111.344 Y93.887 E2.42573
G1 X112.441 Y94.016 E2.45852
G1 X113.525 Y94.220 E2.49129
G1 X114.129 Y94.367 E2.50975
G1 X114.608 Y94.502 E2.52451
G1 X115.641 Y94.847 E2.55686
G1 X116.220 Y95.075 E2.57531
G1 X117.224 Y95.534 E2.60809
G1 X117.652 Y95.757 E2.62243
G1 X118.606 Y96.312 E2.65521
G1 X119.126 Y96.653 E2.67366
G1 X120.016 Y97.307 E2.70644
G1 X120.401 Y97.621 E2.72120
G1 X121.211 Y98.349 E2.75356
G1 X121.980 Y99.142 E2.78634
G1 X122.389 Y99.610 E2.80479
G1 X123.069 Y100.480 E2.83757
G1 X123.347 Y100.874 E2.85190
G1 X123.939 Y101.806 E2.88468
G1 X124.243 Y102.348 E2.90313
G1 X124.732 Y103.338 E2.93591
G1 X124.925 Y103.780 E2.95025
G1 X125.314 Y104.813 E2.98303
G1 X125.633 Y105.871 E3.01581
G1 X125.780 Y106.474 E3.03426
G1 X125.878 Y106.947 E3.04860
G1 X126.049 Y108.038 E3.08138
G1 X126.146 Y109.137 E3.11415
G1 X126.167 Y109.759 E3.13261
G1 X126.146 Y110.862 E3.16539
G1 X126.113 Y111.344 E3.17972
G1 X125.984 Y112.440 E3.21249
G1 X125.878 Y113.053 E3.23095
G1 X125.780 Y113.526 E3.24529
G1 X125.503 Y114.594 E3.27805
G1 X125.147 Y115.655 E3.31128
G1 X124.732 Y116.662 E3.34363
G1 X124.466 Y117.224 E3.36208
G1 X124.243 Y117.652 E3.37642
G1 X123.688 Y118.606 E3.40919
G1 X123.069 Y119.520 E3.44197
G1 X122.693 Y120.016 E3.46043
G1 X122.389 Y120.390 E3.47476
G1 X121.651 Y121.211 E3.50754
G1 X120.858 Y121.980 E3.54032
G1 X120.390 Y122.389 E3.55877
G1 X120.016 Y122.693 E3.57311
G1 X119.126 Y123.347 E3.60589
G1 X118.194 Y123.939 E3.63867
G1 X117.652 Y124.243 E3.65712
G1 X116.662 Y124.732 E3.68990
G1 X116.220 Y124.925 E3.70424
G1 X115.642 Y125.153 E3.72269
G1 X114.594 Y125.502 E3.75547
G1 X113.526 Y125.780 E3.78825
G1 X113.053 Y125.878 E3.80259
G1 X111.963 Y126.049 E3.83536
G1 X111.344 Y126.113 E3.85381
G1 X110.241 Y126.167 E3.88660
G1 X109.138 Y126.146 E3.91937
G1 X108.656 Y126.113 E3.93371
G1 X107.559 Y125.984 E3.96649
G1 X106.475 Y125.780 E3.99926
G1 X105.871 Y125.633 E4.01772
G1 X105.392 Y125.498 E4.03249
G1 X104.359 Y125.153 E4.06484
G1 X103.780 Y124.925 E4.08329
G1 X102.776 Y124.466 E4.11607
G1 X102.348 Y124.243 E4.13040
G1 X101.394 Y123.688 E4.16318
G1 X100.874 Y123.347 E4.18164
G1 X99.984 Y122.693 E4.21442
G1 X99.599 Y122.379 E4.22918
G1 X98.789 Y121.651 E4.26153
G1 X98.020 Y120.859 E4.29431
G1 X97.611 Y120.390 E4.31276
G1 X96.931 Y119.520 E4.34554
G1 X96.312 Y118.606 E4.37832
G1 X96.061 Y118.194 E4.39266
G1 X95.534 Y117.224 E4.42544
G1 X95.268 Y116.662 E4.44389
G1 X95.075 Y116.220 E4.45823
G1 X94.686 Y115.187 E4.49101
G1 X94.367 Y114.129 E4.52378
G1 X94.220 Y113.526 E4.54224
G1 X94.122 Y113.053 E4.55656
G1 X93.951 Y111.963 E4.58934
G1 X93.854 Y110.863 E4.62213
G1 X93.833 Y110.241 E4.64058
G1 X93.833 Y109.744 E4.65534
G1 X93.887 Y108.656 E4.68769
G1 X94.016 Y107.559 E4.72048
G1 X94.220 Y106.475 E4.75325
G1 X94.367 Y105.871 E4.77171
G1 X94.498 Y105.406 E4.78605
G1 X94.847 Y104.359 E4.81882
G1 X95.267 Y103.338 E4.85160
G1 X95.534 Y102.776 E4.87006
G1 X95.757 Y102.348 E4.88439
G1 X96.312 Y101.394 E4.91717
G1 X96.653 Y100.874 E4.93562
G1 X97.307 Y99.984 E4.96840
G1 X97.611 Y99.610 E4.98274
G1 X98.318 Y98.822 E5.01417
G1 X98.612 Y99.031 F7800.000
G1 F1800
G1 X99.376 Y98.289 E5.04579
G1 X99.845 Y97.880 E5.06425
G1 X100.200 Y97.591 E5.07786
G1 X101.070 Y96.951 E5.10992
G1 X101.981 Y96.372 E5.14196
G1 X102.523 Y96.068 E5.16042
G1 X102.942 Y95.851 E5.17445
G1 X103.911 Y95.407 E5.20609
G1 X104.921 Y95.026 E5.23814
G1 X105.514 Y94.838 E5.25660
G1 X106.559 Y94.567 E5.28865
G1 X107.620 Y94.368 E5.32071
G1 X108.074 Y94.306 E5.33432
G1 X109.150 Y94.211 E5.36637
G1 X109.771 Y94.190 E5.38483
G1 X110.244 Y94.190 E5.39887
G1 X111.307 Y94.242 E5.43049
G1 X112.380 Y94.368 E5.46255
G1 X113.441 Y94.567 E5.49460
G1 X114.045 Y94.714 E5.51306
G1 X114.500 Y94.842 E5.52709
G1 X115.510 Y95.179 E5.55872
G1 X116.089 Y95.407 E5.57718
G1 X117.070 Y95.857 E5.60923
G1 X117.477 Y96.068 E5.62285
G1 X118.411 Y96.611 E5.65490
G1 X118.930 Y96.951 E5.67335
G1 X119.800 Y97.591 E5.70541
G1 X120.155 Y97.880 E5.71902
G1 X120.959 Y98.602 E5.75108
G1 X121.711 Y99.376 E5.78314
G1 X122.120 Y99.845 E5.80158
G1 X122.784 Y100.695 E5.83364
G1 X123.049 Y101.070 E5.84725
G1 X123.628 Y101.981 E5.87931
G1 X123.932 Y102.523 E5.89776
G1 X124.410 Y103.491 E5.92982
G1 X124.593 Y103.911 E5.94343
G1 X124.974 Y104.921 E5.97548
G1 X125.286 Y105.955 E6.00754
G1 X125.433 Y106.559 E6.02599
G1 X125.632 Y107.620 E6.05805
G1 X125.694 Y108.074 E6.07166
G1 X125.789 Y109.150 E6.10371
G1 X125.810 Y109.771 E6.12217
G1 X125.789 Y110.850 E6.15422
G1 X125.758 Y111.308 E6.16784
G1 X125.632 Y112.379 E6.19988
G1 X125.526 Y112.992 E6.21834
G1 X125.433 Y113.441 E6.23195
G1 X125.162 Y114.486 E6.26399
G1 X124.815 Y115.524 E6.29650
G1 X124.410 Y116.509 E6.32812
G1 X124.143 Y117.070 E6.34657
G1 X123.932 Y117.477 E6.36019
G1 X123.390 Y118.410 E6.39224
G1 X122.784 Y119.304 E6.42429
G1 X122.409 Y119.800 E6.44275
G1 X122.110 Y120.166 E6.45679
G1 X121.398 Y120.959 E6.48842
G1 X120.959 Y121.398 E6.50687
G1 X120.155 Y122.120 E6.53892
G1 X119.800 Y122.409 E6.55254
G1 X118.930 Y123.049 E6.58459
G1 X118.019 Y123.628 E6.61665
G1 X117.477 Y123.932 E6.63510
G1 X116.509 Y124.410 E6.66716
G1 X116.089 Y124.593 E6.68077
G1 X115.079 Y124.974 E6.71282
G1 X114.045 Y125.286 E6.74488
G1 X113.441 Y125.433 E6.76333
G1 X112.992 Y125.526 E6.77694
G1 X111.926 Y125.694 E6.80899
G1 X110.850 Y125.789 E6.84105
G1 X110.229 Y125.810 E6.85951
G1 X109.150 Y125.789 E6.89156
G1 X108.692 Y125.758 E6.90518
G1 X107.620 Y125.632 E6.93723
G1 X106.559 Y125.433 E6.96927
G1 X105.955 Y125.286 E6.98774
G1 X105.514 Y125.162 E7.00135
G1 X104.490 Y124.821 E7.03340
G1 X103.911 Y124.593 E7.05186
G1 X102.930 Y124.143 E7.08391
G1 X102.523 Y123.932 E7.09752
G1 X101.589 Y123.390 E7.12958
G1 X101.070 Y123.049 E7.14803
G1 X100.200 Y122.409 E7.18009
G1 X99.845 Y122.120 E7.19370
G1 X99.041 Y121.398 E7.22576
G1 X98.289 Y120.624 E7.25781
G1 X97.880 Y120.155 E7.27626
G1 X97.591 Y119.800 E7.28988
G1 X96.951 Y118.930 E7.32193
G1 X96.372 Y118.019 E7.35399
G1 X95.857 Y117.070 E7.38605
G1 X95.590 Y116.509 E7.40450
G1 X95.407 Y116.089 E7.41811
G1 X95.026 Y115.079 E7.45016
G1 X94.714 Y114.045 E7.48222
G1 X94.567 Y113.441 E7.50067
G1 X94.471 Y112.978 E7.51471
G1 X94.306 Y111.926 E7.54633
G1 X94.211 Y110.850 E7.57839
G1 X94.190 Y110.229 E7.59685
G1 X94.190 Y109.757 E7.61088
G1 X94.242 Y108.693 E7.64251
G1 X94.368 Y107.620 E7.67457
G1 X94.567 Y106.559 E7.70662
G1 X94.714 Y105.955 E7.72508
G1 X94.838 Y105.514 E7.73869
G1 X95.179 Y104.490 E7.77074
G1 X95.590 Y103.491 E7.80280
G1 X95.857 Y102.930 E7.82125
G1 X96.068 Y102.523 E7.83487
G1 X96.610 Y101.590 E7.86691
G1 X96.951 Y101.070 E7.88537
G1 X97.591 Y100.200 E7.91743
G1 X97.880 Y99.845 E7.93104
G1 X98.571 Y99.074 E7.96175
G1 X98.865 Y99.283 F7800.000
G1 F1800
G1 X99.611 Y98.558 E7.99264
G1 X100.079 Y98.150 E8.01110
G1 X100.416 Y97.876 E8.02399
G1 X101.266 Y97.250 E8.05532
G1 X102.156 Y96.684 E8.08665
G1 X102.698 Y96.379 E8.10510
G1 X103.096 Y96.173 E8.11842
G1 X104.042 Y95.740 E8.14932
G1 X105.029 Y95.366 E8.18065
G1 X105.622 Y95.178 E8.19911
G1 X106.643 Y94.914 E8.23044
G1 X107.681 Y94.720 E8.26177
G1 X108.111 Y94.661 E8.27466
G1 X109.162 Y94.568 E8.30599
G1 X109.783 Y94.547 E8.32444
G1 X110.217 Y94.547 E8.33732
G1 X111.271 Y94.597 E8.36866
G1 X112.319 Y94.720 E8.40000
G1 X113.356 Y94.914 E8.43132
G1 X113.960 Y95.061 E8.44978
G1 X114.392 Y95.183 E8.46310
G1 X115.379 Y95.512 E8.49400
G1 X115.958 Y95.740 E8.51245
G1 X116.917 Y96.179 E8.54378
G1 X117.302 Y96.379 E8.55667
G1 X118.215 Y96.909 E8.58800
G1 X118.734 Y97.250 E8.60645
G1 X119.584 Y97.876 E8.63779
G1 X119.932 Y98.159 E8.65110
G1 X120.706 Y98.854 E8.68201
G1 X121.442 Y99.611 E8.71334
G1 X121.850 Y100.079 E8.73179
G1 X122.500 Y100.911 E8.76312
G1 X122.750 Y101.266 E8.77601
G1 X123.316 Y102.156 E8.80734
G1 X123.621 Y102.698 E8.82579
G1 X124.088 Y103.644 E8.85713
G1 X124.260 Y104.042 E8.87001
G1 X124.634 Y105.029 E8.90134
G1 X124.939 Y106.040 E8.93268
G1 X125.086 Y106.643 E8.95113
G1 X125.280 Y107.681 E8.98246
G1 X125.339 Y108.111 E8.99535
G1 X125.432 Y109.162 E9.02668
G1 X125.453 Y109.783 E9.04513
G1 X125.432 Y110.838 E9.07647
G1 X125.403 Y111.271 E9.08936
G1 X125.280 Y112.319 E9.12067
G1 X125.174 Y112.932 E9.13914
G1 X125.086 Y113.357 E9.15202
G1 X124.822 Y114.378 E9.18334
G1 X124.483 Y115.393 E9.21512
G1 X124.088 Y116.356 E9.24602
G1 X123.821 Y116.917 E9.26447
G1 X123.621 Y117.302 E9.27736
G1 X123.091 Y118.215 E9.30869
G1 X122.500 Y119.089 E9.34002
G1 X122.124 Y119.584 E9.35848
G1 X121.841 Y119.932 E9.37180
G1 X121.146 Y120.706 E9.40270
G1 X120.706 Y121.146 E9.42115
G1 X119.921 Y121.850 E9.45248
G1 X119.584 Y122.124 E9.46537
G1 X118.734 Y122.750 E9.49670
G1 X117.831 Y123.324 E9.52846
G1 X116.917 Y123.821 E9.55937
G1 X116.356 Y124.088 E9.57782
G1 X115.958 Y124.260 E9.59070
G1 X114.971 Y124.634 E9.62204
G1 X113.960 Y124.939 E9.65337
G1 X113.357 Y125.086 E9.67182
G1 X112.932 Y125.174 E9.68471
G1 X111.889 Y125.339 E9.71603
G1 X110.838 Y125.432 E9.74737
G1 X110.217 Y125.453 E9.76582
G1 X109.162 Y125.432 E9.79715
G1 X108.729 Y125.403 E9.81005
G1 X107.681 Y125.280 E9.84138
G1 X107.068 Y125.174 E9.85983
G1 X106.630 Y125.083 E9.87313
G1 X105.622 Y124.822 E9.90405
G1 X104.607 Y124.483 E9.93581
G1 X103.644 Y124.088 E9.96671
G1 X103.083 Y123.821 E9.98516
G1 X102.698 Y123.621 E9.99805
G1 X101.785 Y123.091 E10.02938
G1 X101.266 Y122.750 E10.04783
G1 X100.416 Y122.124 E10.07917
G1 X100.068 Y121.841 E10.09248
G1 X99.294 Y121.146 E10.12339
G1 X98.558 Y120.389 E10.15472
G1 X98.150 Y119.921 E10.17317
G1 X97.876 Y119.584 E10.18606
G1 X97.250 Y118.734 E10.21739
G1 X96.684 Y117.844 E10.24872
G1 X96.179 Y116.917 E10.28006
G1 X95.912 Y116.356 E10.29851
G1 X95.512 Y115.380 E10.32984
G1 X95.366 Y114.971 E10.34273
G1 X95.061 Y113.960 E10.37406
G1 X94.914 Y113.357 E10.39251
G1 X94.823 Y112.918 E10.40582
G1 X94.661 Y111.889 E10.43672
G1 X94.568 Y110.838 E10.46806
G1 X94.547 Y110.217 E10.48651
G1 X94.547 Y109.768 E10.49983
G1 X94.597 Y108.729 E10.53073
G1 X94.720 Y107.681 E10.56207
G1 X94.914 Y106.644 E10.59339
G1 X95.061 Y106.040 E10.61185
G1 X95.178 Y105.622 E10.62474
G1 X95.512 Y104.621 E10.65607
G1 X95.912 Y103.644 E10.68740
G1 X96.179 Y103.083 E10.70585
G1 X96.379 Y102.698 E10.71874
G1 X96.909 Y101.785 E10.75007
G1 X97.250 Y101.266 E10.76852
G1 X97.876 Y100.416 E10.79986
G1 X98.150 Y100.079 E10.81274
G1 X98.823 Y99.327 E10.84273
G1 E8.84273 F2400.00000
G92 E0
G1 X114.894 Y114.581 F7800.000
G1 E2.00000 F2400.00000
G1 F1800
G1 X114.482 Y114.986 E2.01714
G1 X114.036 Y115.353 E2.03428
G1 X113.560 Y115.681 E2.05146
G1 X113.044 Y115.973 E2.06907
G1 X112.534 Y116.207 E2.08571
G1 X111.991 Y116.402 E2.10285
G1 X111.433 Y116.549 E2.11999
G1 X110.864 Y116.648 E2.13713
G1 X110.289 Y116.698 E2.15428
G1 X109.711 Y116.698 E2.17142
G1 X109.136 Y116.648 E2.18856
G1 X108.567 Y116.549 E2.20570
G1 X108.009 Y116.402 E2.22284
G1 X107.482 Y116.212 E2.23948
G1 X106.942 Y115.966 E2.25709
G1 X106.439 Y115.680 E2.27427
G1 X105.964 Y115.353 E2.29141
G1 X105.518 Y114.986 E2.30855
G1 X105.106 Y114.581 E2.32569
G1 X104.730 Y114.143 E2.34283
G1 X104.393 Y113.675 E2.35998
G1 X104.098 Y113.179 E2.37710
G1 X103.853 Y112.674 E2.39376
G1 X103.640 Y112.120 E2.41138
G1 X103.481 Y111.564 E2.42854
G1 X103.371 Y110.998 E2.44568
G1 X103.310 Y110.424 E2.46281
G1 X103.298 Y109.864 E2.47944
G1 X103.334 Y109.289 E2.49657
G1 X103.420 Y108.718 E2.51371
G1 X103.555 Y108.156 E2.53085
G1 X103.737 Y107.609 E2.54799
G1 X103.966 Y107.079 E2.56513
G1 X104.240 Y106.570 E2.58227
G1 X104.556 Y106.087 E2.59942
G1 X104.913 Y105.634 E2.61656
G1 X105.308 Y105.211 E2.63373
G1 X105.750 Y104.816 E2.65134
G1 X106.198 Y104.478 E2.66799
G1 X106.687 Y104.172 E2.68512
G1 X107.201 Y103.908 E2.70227
G1 X107.735 Y103.690 E2.71941
G1 X108.287 Y103.519 E2.73655
G1 X108.852 Y103.395 E2.75373
G1 X109.440 Y103.320 E2.77133
G1 X110.000 Y103.296 E2.78797
G1 X110.560 Y103.320 E2.80461
G1 X111.131 Y103.393 E2.82172
G1 X111.712 Y103.518 E2.83936
G1 X112.265 Y103.690 E2.85654
G1 X112.799 Y103.908 E2.87368
G1 X113.313 Y104.172 E2.89082
G1 X113.802 Y104.478 E2.90796
G1 X114.263 Y104.826 E2.92510
G1 X114.680 Y105.200 E2.94175
G1 X115.086 Y105.633 E2.95936
G1 X115.444 Y106.087 E2.97653
G1 X115.760 Y106.570 E2.99367
G1 X116.034 Y107.079 E3.01081
G1 X116.263 Y107.609 E3.02796
G1 X116.445 Y108.156 E3.04510
G1 X116.580 Y108.718 E3.06224
G1 X116.666 Y109.288 E3.07936
G1 X116.702 Y109.847 E3.09600
G1 X116.690 Y110.424 E3.11312
G1 X116.629 Y110.998 E3.13026
G1 X116.519 Y111.565 E3.14743
G1 X116.354 Y112.136 E3.16505
G1 X116.154 Y112.659 E3.18170
G1 X115.902 Y113.179 E3.19883
G1 X115.607 Y113.675 E3.21597
G1 X115.270 Y114.143 E3.23311
G1 X114.933 Y114.536 E3.24847
G1 X114.633 Y114.337 F7800.000
G1 F1800
G1 X114.243 Y114.720 E3.26470
G1 X113.821 Y115.067 E3.28093
G1 X113.370 Y115.378 E3.29718
G1 X112.881 Y115.654 E3.31387
G1 X112.399 Y115.876 E3.32961
G1 X111.885 Y116.060 E3.34584
G1 X111.356 Y116.200 E3.36207
G1 X110.818 Y116.294 E3.37830
G1 X110.273 Y116.341 E3.39452
G1 X109.727 Y116.341 E3.41075
G1 X109.182 Y116.294 E3.42698
G1 X108.644 Y116.200 E3.44321
G1 X108.115 Y116.060 E3.45943
G1 X107.616 Y115.881 E3.47518
G1 X107.105 Y115.648 E3.49187
G1 X106.629 Y115.377 E3.50812
G1 X106.179 Y115.067 E3.52435
G1 X105.757 Y114.720 E3.54057
G1 X105.367 Y114.337 E3.55680
G1 X105.011 Y113.922 E3.57303
G1 X104.692 Y113.479 E3.58926
G1 X104.412 Y113.009 E3.60548
G1 X104.181 Y112.532 E3.62122
G1 X103.979 Y112.007 E3.63793
G1 X103.829 Y111.481 E3.65417
G1 X103.724 Y110.945 E3.67040
G1 X103.666 Y110.402 E3.68661
G1 X103.655 Y109.872 E3.70235
G1 X103.689 Y109.327 E3.71857
G1 X103.771 Y108.786 E3.73479
G1 X103.898 Y108.255 E3.75102
G1 X104.071 Y107.736 E3.76725
G1 X104.288 Y107.234 E3.78348
G1 X104.547 Y106.753 E3.79970
G1 X104.847 Y106.296 E3.81593
G1 X105.184 Y105.866 E3.83216
G1 X105.558 Y105.467 E3.84841
G1 X105.977 Y105.092 E3.86510
G1 X106.401 Y104.773 E3.88085
G1 X106.864 Y104.483 E3.89707
G1 X107.350 Y104.233 E3.91330
G1 X107.856 Y104.027 E3.92953
G1 X108.378 Y103.864 E3.94575
G1 X108.913 Y103.747 E3.96200
G1 X109.470 Y103.676 E3.97870
G1 X110.000 Y103.653 E3.99444
G1 X110.530 Y103.676 E4.01018
G1 X111.071 Y103.745 E4.02638
G1 X111.621 Y103.864 E4.04310
G1 X112.144 Y104.027 E4.05935
G1 X112.650 Y104.233 E4.07557
G1 X113.136 Y104.483 E4.09180
G1 X113.599 Y104.773 E4.10803
G1 X114.036 Y105.102 E4.12425
G1 X114.430 Y105.456 E4.14000
G1 X114.815 Y105.866 E4.15670
G1 X115.153 Y106.296 E4.17294
G1 X115.453 Y106.753 E4.18917
G1 X115.712 Y107.234 E4.20540
G1 X115.929 Y107.736 E4.22162
