; generated by Slic3r 1.3.0 on 2020-09-29 at 13:45:21

; external perimeters extrusion width = 0.44mm (2.38mm^3/s)
; perimeters extrusion width = 0.56mm (6.20mm^3/s)
; infill extrusion width = 0.50mm (7.31mm^3/s)
; solid infill extrusion width = 0.56mm (2.07mm^3/s)
; top infill extrusion width = 0.10mm (0.17mm^3/s)

M107
M190 S70 ; set bed temperature and wait for it to be reached
M104 S205 ; set temperature
G28 ; home all axes
G1 Z5 F5000 ; lift nozzle

; Filament gcode

M109 S205 ; set temperature and wait for it to be reached
G21 ; set units to millimeters
G90 ; use absolute coordinates
M82 ; use absolute distances for extrusion
G92 E0
G1 Z0.200 F7800.000
G1 E-2.00000 F2400.00000
G92 E0
G1 X89.672 Y46.332 F7800.000
G1 E2.00000 F2400.00000
G1 F1800
G1 X90.760 Y44.226 E2.07037
G1 X92.483 Y42.598 E2.14074
G1 X93.730 Y41.936 E2.18267
G1 X94.116 Y41.785 E2.19497
G1 X95.012 Y41.467 E2.22320
G1 X96.087 Y41.145 E2.25652
G1 X97.475 Y40.811 E2.29892
G1 X99.109 Y40.540 E2.34808
G1 X100.392 Y40.414 E2.38635
G1 X101.609 Y40.363 E2.42254
G1 X118.391 Y40.363 E2.92080
G1 X119.608 Y40.414 E2.95699
G1 X120.891 Y40.540 E2.99526
G1 X122.525 Y40.811 E3.04442
G1 X123.766 Y41.103 E3.08228
G1 X124.665 Y41.365 E3.11010
G1 X125.146 Y41.522 E3.12510
G1 X126.270 Y41.935 E3.16067
G1 X128.282 Y43.188 E3.23104
G1 X129.767 Y45.036 E3.30141
G1 X130.558 Y47.270 E3.37178
G1 X130.659 Y48.678 E3.41371
G1 X127.282 Y168.674 E6.97795
G1 X127.221 Y169.531 E7.00345
G1 X127.124 Y170.250 E7.02499
G1 X126.881 Y171.349 E7.05841
G1 X126.511 Y172.466 E7.09334
G1 X126.220 Y173.137 E7.11506
G1 X125.836 Y173.884 E7.14000
G1 X125.404 Y174.596 E7.16474
G1 X124.915 Y175.270 E7.18947
G1 X124.376 Y175.915 E7.21442
G1 X123.907 Y176.408 E7.23461
G1 X123.486 Y176.797 E7.25162
G1 X123.025 Y177.186 E7.26954
G1 X122.504 Y177.574 E7.28883
G1 X122.109 Y177.841 E7.30298
G1 X121.453 Y178.232 E7.32566
G1 X121.031 Y178.453 E7.33982
G1 X120.396 Y178.747 E7.36058
G1 X119.880 Y178.949 E7.37702
G1 X119.240 Y179.163 E7.39708
G1 X118.149 Y179.433 E7.43045
G1 X116.984 Y179.596 E7.46538
G1 X115.946 Y179.639 E7.49620
G1 X103.799 Y179.634 E7.85689
G1 X103.016 Y179.596 E7.88014
G1 X101.851 Y179.433 E7.91507
G1 X100.760 Y179.163 E7.94844
G1 X100.120 Y178.949 E7.96850
G1 X99.604 Y178.747 E7.98494
G1 X98.969 Y178.453 E8.00571
G1 X98.604 Y178.262 E8.01796
G1 X97.934 Y177.869 E8.04101
G1 X97.496 Y177.574 E8.05669
G1 X96.935 Y177.153 E8.07751
G1 X96.093 Y176.408 E8.11090
G1 X95.297 Y175.541 E8.14584
G1 X94.596 Y174.596 E8.18077
G1 X93.974 Y173.538 E8.21723
G1 X93.489 Y172.466 E8.25216
G1 X93.133 Y171.398 E8.28558
G1 X92.978 Y170.767 E8.30486
G1 X92.867 Y170.199 E8.32205
G1 X92.779 Y169.531 E8.34206
G1 X92.718 Y168.674 E8.36756
G1 X89.341 Y48.678 E11.93180
G1 X89.664 Y46.391 E12.00039
G1 X90.031 Y46.384 F7800.000
G1 F1800
G1 X91.118 Y44.347 E12.06894
G1 X92.831 Y42.798 E12.13750
G1 X93.865 Y42.266 E12.17204
G1 X95.044 Y41.834 E12.20930
G1 X96.331 Y41.447 E12.24922
G1 X97.553 Y41.159 E12.28648
G1 X99.147 Y40.895 E12.33446
G1 X100.409 Y40.770 E12.37212
G1 X101.609 Y40.720 E12.40779
G1 X118.712 Y40.727 E12.91559
G1 X119.965 Y40.799 E12.95284
G1 X120.853 Y40.895 E12.97937
G1 X122.447 Y41.159 E13.02735
G1 X123.669 Y41.447 E13.06461
G1 X124.565 Y41.707 E13.09234
G1 X126.135 Y42.266 E13.14179
G1 X128.089 Y43.495 E13.21035
G1 X129.512 Y45.314 E13.27891
G1 X130.234 Y47.507 E13.34746
G1 X130.302 Y48.668 E13.38200
G1 X126.925 Y168.664 E16.94625
G1 X126.865 Y169.501 E16.97115
G1 X126.772 Y170.186 E16.99168
G1 X126.538 Y171.250 E17.02403
G1 X126.179 Y172.333 E17.05790
G1 X125.894 Y172.991 E17.07921
G1 X125.528 Y173.703 E17.10297
G1 X125.105 Y174.400 E17.12716
G1 X124.629 Y175.057 E17.15125
G1 X124.115 Y175.671 E17.17502
G1 X123.654 Y176.155 E17.19489
G1 X123.255 Y176.525 E17.21104
G1 X122.799 Y176.910 E17.22875
G1 X121.912 Y177.543 E17.26111
G1 X121.287 Y177.916 E17.28272
G1 X120.865 Y178.137 E17.29686
G1 X120.262 Y178.416 E17.31658
G1 X119.751 Y178.616 E17.33289
G1 X119.140 Y178.820 E17.35201
G1 X118.084 Y179.082 E17.38431
G1 X116.955 Y179.240 E17.41817
G1 X115.946 Y179.281 E17.44814
G1 X104.054 Y179.281 E17.80125
G1 X103.097 Y179.244 E17.82968
G1 X102.602 Y179.189 E17.84446
G1 X101.916 Y179.082 E17.86508
G1 X100.810 Y178.806 E17.89892
G1 X100.249 Y178.616 E17.91651
G1 X99.738 Y178.416 E17.93282
G1 X99.135 Y178.137 E17.95253
G1 X98.759 Y177.940 E17.96514
G1 X98.131 Y177.571 E17.98675
G1 X97.696 Y177.278 E18.00234
G1 X97.060 Y176.792 E18.02610
G1 X96.346 Y176.156 E18.05450
G1 X95.885 Y175.671 E18.07437
G1 X95.371 Y175.057 E18.09814
G1 X94.895 Y174.400 E18.12224
G1 X94.290 Y173.372 E18.15763
G1 X93.821 Y172.333 E18.19149
G1 X93.476 Y171.299 E18.22384
G1 X93.328 Y170.698 E18.24222
G1 X93.219 Y170.135 E18.25925
G1 X93.135 Y169.501 E18.27825
G1 X93.075 Y168.664 E18.30315
G1 X89.698 Y48.668 E21.86739
G1 X90.022 Y46.443 E21.93417
G1 X90.389 Y46.437 F7800.000
G1 F1800
G1 X91.475 Y44.471 E22.00086
G1 X94.001 Y42.596 E22.09424
G1 X95.245 Y42.142 E22.13356
G1 X96.287 Y41.831 E22.16587
G1 X96.735 Y41.712 E22.17963
G1 X97.953 Y41.445 E22.21666
G1 X98.846 Y41.296 E22.24354
G1 X100.073 Y41.154 E22.28019
G1 X101.609 Y41.077 E22.32587
G1 X118.391 Y41.077 E22.82413
G1 X119.574 Y41.127 E22.85928
G1 X121.154 Y41.296 E22.90647
G1 X122.370 Y41.508 E22.94313
G1 X123.572 Y41.791 E22.97978
G1 X124.755 Y42.142 E23.01644
G1 X125.999 Y42.596 E23.05576
G1 X127.895 Y43.801 E23.12246
G1 X129.253 Y45.590 E23.18915
G1 X129.945 Y48.658 E23.28253
G1 X126.568 Y168.654 E26.84677
G1 X126.510 Y169.471 E26.87108
G1 X126.421 Y170.122 E26.89061
G1 X126.195 Y171.151 E26.92188
G1 X125.848 Y172.200 E26.95468
G1 X125.567 Y172.846 E26.97559
G1 X125.220 Y173.523 E26.99818
G1 X124.807 Y174.203 E27.02181
G1 X124.343 Y174.843 E27.04527
G1 X123.855 Y175.426 E27.06786
G1 X123.401 Y175.903 E27.08741
G1 X122.573 Y176.633 E27.12019
G1 X121.715 Y177.245 E27.15148
G1 X121.121 Y177.600 E27.17202
G1 X120.699 Y177.821 E27.18614
G1 X120.129 Y178.084 E27.20481
G1 X119.621 Y178.283 E27.22099
G1 X119.041 Y178.477 E27.23917
G1 X118.019 Y178.730 E27.27041
G1 X116.926 Y178.884 E27.30320
G1 X115.946 Y178.924 E27.33230
G1 X104.054 Y178.924 E27.68542
G1 X103.126 Y178.889 E27.71299
G1 X102.654 Y178.836 E27.72707
G1 X101.981 Y178.730 E27.74732
G1 X100.910 Y178.463 E27.78009
G1 X100.379 Y178.283 E27.79675
G1 X99.871 Y178.084 E27.81292
G1 X99.301 Y177.821 E27.83159
G1 X98.925 Y177.624 E27.84418
G1 X98.328 Y177.274 E27.86472
G1 X97.896 Y176.982 E27.88021
G1 X97.291 Y176.521 E27.90279
G1 X96.599 Y175.903 E27.93033
G1 X96.145 Y175.426 E27.94988
G1 X95.657 Y174.843 E27.97247
G1 X95.193 Y174.203 E27.99593
G1 X94.607 Y173.207 E28.03025
G1 X94.152 Y172.200 E28.06305
G1 X93.819 Y171.201 E28.09433
G1 X93.678 Y170.629 E28.11182
G1 X93.570 Y170.072 E28.12867
G1 X93.490 Y169.471 E28.14666
G1 X93.432 Y168.654 E28.17097
G1 X90.055 Y48.658 E31.73521
G1 X90.380 Y46.496 E31.80013
G1 E29.80013 F2400.00000
G92 E0
G1 X106.210 Y166.101 F7800.000
G1 E2.00000 F2400.00000
G1 F1800
G1 X106.485 Y166.409 E2.01227
G1 X106.703 Y166.729 E2.02376
G1 X106.904 Y167.119 E2.03679
G1 X107.041 Y167.510 E2.04909
G1 X107.125 Y167.914 E2.06137
G1 X107.156 Y168.327 E2.07364
G1 X107.133 Y168.739 E2.08592
G1 X107.057 Y169.146 E2.09819
G1 X106.927 Y169.538 E2.11046
G1 X106.748 Y169.911 E2.12274
G1 X106.522 Y170.257 E2.13501
G1 X106.252 Y170.570 E2.14729
G1 X105.944 Y170.846 E2.15956
G1 X105.602 Y171.079 E2.17184
G1 X105.233 Y171.265 E2.18411
G1 X104.843 Y171.402 E2.19639
G1 X104.439 Y171.486 E2.20866
G1 X104.026 Y171.517 E2.22093
G1 X103.614 Y171.494 E2.23321
G1 X103.207 Y171.417 E2.24548
G1 X102.815 Y171.288 E2.25776
G1 X102.442 Y171.109 E2.27003
G1 X102.096 Y170.882 E2.28231
G1 X101.783 Y170.613 E2.29458
G1 X101.507 Y170.305 E2.30686
G1 X101.274 Y169.963 E2.31913
G1 X101.088 Y169.594 E2.33141
G1 X100.951 Y169.204 E2.34368
G1 X100.867 Y168.799 E2.35595
G1 X100.836 Y168.387 E2.36823
G1 X100.859 Y167.974 E2.38050
G1 X100.936 Y167.568 E2.39278
G1 X101.065 Y167.175 E2.40505
G1 X101.244 Y166.803 E2.41733
G1 X101.471 Y166.457 E2.42960
G1 X101.740 Y166.143 E2.44188
G1 X102.048 Y165.868 E2.45415
G1 X102.368 Y165.650 E2.46563
G1 X102.758 Y165.449 E2.47867
G1 X103.149 Y165.312 E2.49097
G1 X103.554 Y165.228 E2.50324
G1 X103.939 Y165.199 E2.51473
G1 X104.378 Y165.220 E2.52776
G1 X104.785 Y165.296 E2.54006
G1 X105.178 Y165.426 E2.55233
G1 X105.550 Y165.605 E2.56461
G1 X105.896 Y165.831 E2.57688
G1 X106.164 Y166.062 E2.58738
G1 X106.210 Y166.101 F7800.000
G1 E0.58738 F2400.00000
G92 E0
G1 X102.859 Y109.821 F7800.000
G1 E2.00000 F2400.00000
G1 F1800
G1 X99.361 Y107.891 E2.11861
G1 X99.284 Y103.897 E2.23722
G1 X102.704 Y101.833 E2.35583
G1 X106.202 Y103.763 E2.47444
G1 X106.279 Y107.757 E2.59306
G1 X102.910 Y109.790 E2.70989
G1 X102.851 Y109.409 F7800.000
G1 F1800
G1 X99.714 Y107.678 E2.81626
G1 X99.645 Y104.097 E2.92262
G1 X102.712 Y102.245 E3.02899
G1 X105.849 Y103.976 E3.13536
G1 X105.918 Y107.558 E3.24173
G1 X102.902 Y109.378 E3.34632
G1 X102.658 Y109.759 F7800.000
G1 E1.34632 F2400.00000
G92 E0
G1 X102.696 Y101.421 F7800.000
G1 E2.00000 F2400.00000
G1 F1800
G1 X98.879 Y103.725 E2.13238
G1 X98.663 Y96.045 E2.36050
G1 X102.634 Y98.236 E2.49516
G1 X106.472 Y95.919 E2.62827
G1 X106.559 Y103.552 E2.85492
G1 X102.748 Y101.450 E2.98413
G1 E0.98413 F2400.00000
G92 E0
G1 X102.626 Y97.824 F7800.000
G1 E2.00000 F2400.00000
G1 F1800
G1 X99.128 Y95.894 E2.11861
G1 X99.050 Y91.900 E2.23722
G1 X102.470 Y89.835 E2.35583
G1 X105.968 Y91.765 E2.47444
G1 X106.046 Y95.759 E2.59306
G1 X102.677 Y97.793 E2.70989
G1 X102.618 Y97.411 F7800.000
G1 F1800
G1 X99.481 Y95.681 E2.81626
G1 X99.411 Y92.099 E2.92262
G1 X102.478 Y90.248 E3.02899
G1 X105.615 Y91.978 E3.13536
G1 X105.685 Y95.560 E3.24173
G1 X102.669 Y97.380 E3.34632
G1 X102.424 Y97.762 F7800.000
G1 E1.34632 F2400.00000
G92 E0
G1 X102.392 Y85.826 F7800.000
G1 E2.00000 F2400.00000
G1 F1800
G1 X98.894 Y83.896 E2.11861
G1 X98.817 Y79.902 E2.23722
G1 X102.237 Y77.838 E2.35583
G1 X105.735 Y79.767 E2.47445
G1 X105.812 Y83.762 E2.59306
G1 X102.444 Y85.795 E2.70989
G1 X102.384 Y85.414 F7800.000
G1 F1800
G1 X99.247 Y83.683 E2.81625
G1 X99.178 Y80.101 E2.92262
G1 X102.245 Y78.250 E3.02899
G1 X105.382 Y79.981 E3.13536
G1 X105.451 Y83.562 E3.24173
G1 X102.436 Y85.383 E3.34632
G1 X102.191 Y85.764 F7800.000
G1 E1.34632 F2400.00000
G92 E0
G1 X102.167 Y74.240 F7800.000
G1 E2.00000 F2400.00000
G1 F1800
G1 X98.308 Y72.111 E2.13085
G1 X98.222 Y67.705 E2.26171
G1 X101.995 Y65.428 E2.39256
G1 X105.854 Y67.557 E2.52341
G1 X105.940 Y71.963 E2.65427
G1 X102.218 Y74.209 E2.78334
G1 X102.159 Y73.828 F7800.000
G1 F1800
G1 X98.661 Y71.898 E2.90195
G1 X98.583 Y67.904 E3.02056
G1 X102.003 Y65.840 E3.13917
G1 X105.501 Y67.770 E3.25778
G1 X105.579 Y71.764 E3.37640
G1 X102.210 Y73.797 E3.49323
G1 X102.151 Y73.416 F7800.000
G1 F1800
G1 X99.014 Y71.685 E3.59960
G1 X98.944 Y68.103 E3.70596
G1 X102.011 Y66.252 E3.81233
G1 X105.148 Y67.983 E3.91870
G1 X105.218 Y71.565 E4.02507
G1 X102.202 Y73.385 E4.12966
G1 X101.957 Y73.766 F7800.000
G1 E2.12966 F2400.00000
G92 E0
G1 X101.885 Y61.712 F7800.000
G1 E2.00000 F2400.00000
G1 F1800
G1 X101.378 Y61.684 E2.01505
G1 X100.880 Y61.590 E2.03011
G1 X100.398 Y61.431 E2.04516
G1 X99.942 Y61.211 E2.06022
G1 X99.517 Y60.934 E2.07527
G1 X99.133 Y60.603 E2.09032
G1 X98.795 Y60.225 E2.10538
G1 X98.509 Y59.806 E2.12043
G1 X98.281 Y59.354 E2.13549
G1 X98.113 Y58.875 E2.15054
G1 X98.016 Y58.408 E2.16472
G1 X97.971 Y57.877 E2.18053
G1 X98.000 Y57.367 E2.19570
G1 X98.094 Y56.869 E2.21075
G1 X98.253 Y56.387 E2.22581
G1 X98.472 Y55.930 E2.24086
G1 X98.750 Y55.506 E2.25591
G1 X99.081 Y55.122 E2.27097
G1 X99.459 Y54.784 E2.28602
G1 X99.878 Y54.498 E2.30108
G1 X100.330 Y54.270 E2.31613
G1 X100.809 Y54.102 E2.33118
G1 X101.305 Y53.998 E2.34624
G1 X101.781 Y53.963 E2.36041
G1 X102.313 Y53.988 E2.37623
G1 X102.815 Y54.083 E2.39139
G1 X103.308 Y54.245 E2.40680
G1 X103.755 Y54.462 E2.42155
G1 X104.178 Y54.739 E2.43656
G1 X104.562 Y55.069 E2.45161
G1 X104.900 Y55.447 E2.46667
G1 X105.186 Y55.866 E2.48172
G1 X105.414 Y56.319 E2.49678
G1 X105.582 Y56.797 E2.51183
G1 X105.686 Y57.294 E2.52688
G1 X105.724 Y57.799 E2.54194
G1 X105.695 Y58.306 E2.55699
G1 X105.601 Y58.804 E2.57205
G1 X105.443 Y59.285 E2.58710
G1 X105.223 Y59.742 E2.60215
G1 X104.945 Y60.166 E2.61721
G1 X104.614 Y60.551 E2.63226
G1 X104.236 Y60.889 E2.64732
G1 X103.818 Y61.174 E2.66237
G1 X103.365 Y61.403 E2.67743
G1 X102.886 Y61.571 E2.69248
G1 X102.390 Y61.674 E2.70753
G1 X101.944 Y61.708 E2.72081
G1 X101.881 Y61.354 F7800.000
G1 F1800
G1 X101.422 Y61.329 E2.73447
G1 X100.969 Y61.243 E2.74813
G1 X100.532 Y61.099 E2.76180
G1 X100.118 Y60.900 E2.77546
G1 X99.733 Y60.648 E2.78913
G1 X99.384 Y60.348 E2.80279
G1 X99.077 Y60.005 E2.81646
G1 X98.818 Y59.624 E2.83012
G1 X98.610 Y59.214 E2.84378
G1 X98.458 Y58.779 E2.85745
G1 X98.370 Y58.356 E2.87028
G1 X98.329 Y57.872 E2.88470
G1 X98.355 Y57.410 E2.89844
G1 X98.441 Y56.958 E2.91210
G1 X98.584 Y56.521 E2.92576
G1 X98.784 Y56.106 E2.93943
G1 X99.036 Y55.721 E2.95309
G1 X99.336 Y55.372 E2.96676
G1 X99.679 Y55.066 E2.98042
G1 X100.059 Y54.806 E2.99409
G1 X100.470 Y54.599 E3.00775
G1 X100.905 Y54.447 E3.02141
G1 X101.355 Y54.353 E3.03508
G1 X101.786 Y54.320 E3.04791
G1 X102.271 Y54.343 E3.06233
G1 X102.726 Y54.429 E3.07607
G1 X103.174 Y54.577 E3.09007
G1 X103.578 Y54.773 E3.10343
G1 X103.963 Y55.025 E3.11706
G1 X104.312 Y55.325 E3.13073
G1 X104.618 Y55.668 E3.14439
G1 X104.878 Y56.048 E3.15805
G1 X105.085 Y56.459 E3.17172
G1 X105.237 Y56.893 E3.18538
G1 X105.331 Y57.344 E3.19905
G1 X105.366 Y57.803 E3.21271
G1 X105.340 Y58.262 E3.22638
G1 X105.255 Y58.714 E3.24004
G1 X105.111 Y59.152 E3.25370
G1 X104.911 Y59.566 E3.26737
G1 X104.659 Y59.951 E3.28103
G1 X104.359 Y60.300 E3.29470
G1 X104.016 Y60.607 E3.30836
G1 X103.636 Y60.866 E3.32203
G1 X103.225 Y61.074 E3.33569
G1 X102.791 Y61.226 E3.34935
G1 X102.340 Y61.320 E3.36302
G1 X101.941 Y61.350 E3.37490
G1 X101.878 Y60.997 F7800.000
G1 F1800
G1 X101.465 Y60.973 E3.38718
G1 X101.059 Y60.897 E3.39945
G1 X100.666 Y60.768 E3.41172
G1 X100.294 Y60.588 E3.42400
G1 X99.948 Y60.362 E3.43627
G1 X99.634 Y60.092 E3.44855
G1 X99.359 Y59.784 E3.46082
G1 X99.126 Y59.443 E3.47310
G1 X98.939 Y59.074 E3.48537
G1 X98.803 Y58.683 E3.49765
G1 X98.724 Y58.305 E3.50913
G1 X98.687 Y57.867 E3.52216
G1 X98.710 Y57.454 E3.53446
G1 X98.787 Y57.047 E3.54674
G1 X98.916 Y56.655 E3.55901
G1 X99.096 Y56.282 E3.57129
G1 X99.322 Y55.936 E3.58356
G1 X99.592 Y55.623 E3.59584
G1 X99.900 Y55.347 E3.60811
G1 X100.241 Y55.114 E3.62039
G1 X100.610 Y54.928 E3.63266
G1 X101.001 Y54.791 E3.64493
G1 X101.405 Y54.707 E3.65721
G1 X101.791 Y54.678 E3.66869
G1 X102.229 Y54.699 E3.68173
G1 X102.636 Y54.776 E3.69403
G1 X103.039 Y54.908 E3.70662
G1 X103.402 Y55.085 E3.71859
G1 X103.748 Y55.311 E3.73085
G1 X104.061 Y55.580 E3.74313
G1 X104.336 Y55.889 E3.75540
G1 X104.569 Y56.230 E3.76768
G1 X104.756 Y56.599 E3.77995
G1 X104.892 Y56.989 E3.79222
G1 X104.977 Y57.394 E3.80450
G1 X105.008 Y57.806 E3.81677
G1 X104.985 Y58.219 E3.82905
G1 X104.908 Y58.625 E3.84132
G1 X104.779 Y59.018 E3.85360
G1 X104.600 Y59.390 E3.86587
G1 X104.373 Y59.736 E3.87815
G1 X104.104 Y60.050 E3.89042
G1 X103.795 Y60.325 E3.90270
G1 X103.454 Y60.558 E3.91497
G1 X103.085 Y60.744 E3.92724
G1 X102.695 Y60.881 E3.93952
G1 X102.290 Y60.966 E3.95179
G1 X101.938 Y60.992 E3.96229
G1 X101.878 Y60.997 F7800.000
G1 E1.96229 F2400.00000
G92 E0
G1 X102.229 Y77.425 F7800.000
G1 E2.00000 F2400.00000
G1 F1800
G1 X98.456 Y79.703 E2.13085
G1 X98.541 Y84.109 E2.26171
G1 X102.400 Y86.238 E2.39256
G1 X106.335 Y83.863 E2.52903
G1 X106.423 Y91.608 E2.75902
G1 X102.462 Y89.423 E2.89333
G1 X98.543 Y91.789 E3.02926
G1 X97.342 Y49.115 E4.29680
G1 X97.599 Y49.022 E4.30491
G1 X98.384 Y48.794 E4.32920
G1 X99.184 Y48.611 E4.35355
G1 X99.993 Y48.476 E4.37790
G1 X100.805 Y48.389 E4.40218
G1 X101.714 Y48.349 E4.42919
G1 X102.447 Y48.356 E4.45094
G1 X103.265 Y48.413 E4.47529
G1 X104.079 Y48.516 E4.49964
G1 X104.885 Y48.668 E4.52399
G1 X105.679 Y48.866 E4.54828
G1 X105.939 Y48.948 E4.55640
G1 X106.288 Y79.665 E5.46848
G1 X102.281 Y77.454 E5.60433
G1 E3.60433 F2400.00000
