; generated by Slic3r 1.3.0 on 2020-09-29 at 13:45:59

; external perimeters extrusion width = 0.44mm (2.38mm^3/s)
; perimeters extrusion width = 0.56mm (6.20mm^3/s)
; infill extrusion width = 0.50mm (7.31mm^3/s)
; solid infill extrusion width = 0.56mm (2.07mm^3/s)
; top infill extrusion width = 0.10mm (0.17mm^3/s)

M107
M190 S70 ; set bed temperature and wait for it to be reached
M104 S205 ; set temperature
G28 ; home all axes
G1 Z5 F5000 ; lift nozzle

; Filament gcode

M109 S205 ; set temperature and wait for it to be reached
G21 ; set units to millimeters
G90 ; use absolute coordinates
M82 ; use absolute distances for extrusion
G92 E0
G1 Z0.200 F7800.000
G1 E-2.00000 F2400.00000
G92 E0
G1 X90.836 Y57.042 F7800.000
G1 E2.00000 F2400.00000
G1 F1800
G1 X94.286 Y51.613 E2.19099
G1 X94.950 Y50.684 E2.22492
G1 X99.220 Y45.269 E2.42968
G1 X99.539 Y44.892 E2.44432
G1 X103.648 Y40.380 E2.62553
G1 X104.555 Y39.583 E2.66135
G1 X105.692 Y38.866 E2.70128
G1 X105.844 Y38.789 E2.70634
G1 X106.966 Y38.337 E2.74226
G1 X108.116 Y38.060 E2.77736
G1 X108.553 Y37.992 E2.79049
G1 X109.289 Y37.916 E2.81246
G1 X109.731 Y37.895 E2.82560
G1 X110.497 Y37.898 E2.84835
G1 X110.939 Y37.924 E2.86151
G1 X111.692 Y38.009 E2.88399
G1 X112.128 Y38.082 E2.89711
G1 X113.235 Y38.358 E2.93099
G1 X114.368 Y38.824 E2.96738
G1 X114.519 Y38.902 E2.97243
G1 X115.543 Y39.548 E3.00838
G1 X115.679 Y39.651 E3.01344
G1 X116.670 Y40.559 E3.05335
G1 X120.625 Y44.992 E3.22973
G1 X120.940 Y45.372 E3.24437
G1 X125.158 Y50.827 E3.44911
G1 X125.584 Y51.418 E3.47076
G1 X129.212 Y57.225 E3.67406
G1 X129.448 Y57.619 E3.68768
G1 X129.924 Y58.573 E3.71936
G1 X130.048 Y58.877 E3.72911
G1 X130.377 Y59.899 E3.76096
G1 X130.454 Y60.220 E3.77077
G1 X130.625 Y61.289 E3.80292
G1 X130.652 Y61.617 E3.81269
G1 X130.659 Y62.692 E3.84460
G1 X130.634 Y63.052 E3.85534
G1 X124.506 Y144.838 E6.29047
G1 X124.264 Y147.443 E6.36815
G1 X123.969 Y150.079 E6.44690
G1 X123.698 Y152.112 E6.50778
G1 X123.423 Y153.939 E6.56265
G1 X123.190 Y155.324 E6.60436
G1 X122.798 Y157.384 E6.66661
G1 X122.360 Y159.442 E6.72908
G1 X121.847 Y161.559 E6.79377
G1 X121.239 Y163.825 E6.86343
G1 X120.603 Y165.950 E6.92929
G1 X119.951 Y167.958 E6.99198
G1 X119.442 Y169.418 E7.03786
G1 X118.921 Y170.836 E7.08274
G1 X118.370 Y172.260 E7.12807
G1 X117.182 Y175.126 E7.22020
G1 X115.955 Y177.849 E7.30886
G1 X114.617 Y179.805 E7.37923
G1 X112.707 Y181.209 E7.44960
G1 X109.497 Y181.962 E7.54750
G1 X107.093 Y181.553 E7.61991
G1 X105.025 Y180.396 E7.69027
G1 X103.008 Y177.779 E7.78836
G1 X102.389 Y176.390 E7.83351
G1 X101.241 Y173.669 E7.92120
G1 X100.164 Y170.882 E8.00992
G1 X99.635 Y169.409 E8.05640
G1 X99.136 Y167.941 E8.10243
G1 X98.651 Y166.424 E8.14970
G1 X98.261 Y165.131 E8.18980
G1 X97.847 Y163.672 E8.23484
G1 X97.454 Y162.179 E8.28068
G1 X96.779 Y159.314 E8.36807
G1 X96.227 Y156.554 E8.45164
G1 X95.988 Y155.185 E8.49289
G1 X95.611 Y152.723 E8.56685
G1 X95.261 Y149.961 E8.64953
G1 X95.000 Y147.413 E8.72559
G1 X94.777 Y144.772 E8.80428
G1 X94.610 Y142.380 E8.87545
G1 X89.337 Y62.495 E11.25250
G1 X89.353 Y61.423 E11.28435
G1 X89.383 Y61.095 E11.29412
G1 X89.566 Y60.019 E11.32653
G1 X89.646 Y59.700 E11.33630
G1 X89.980 Y58.694 E11.36776
G1 X90.107 Y58.390 E11.37755
G1 X90.601 Y57.424 E11.40975
G1 X90.804 Y57.093 E11.42128
G1 X91.137 Y57.234 F7800.000
G1 F1800
G1 X94.587 Y51.805 E11.61227
G1 X95.231 Y50.905 E11.64513
G1 X99.501 Y45.490 E11.84988
G1 X99.803 Y45.132 E11.86378
G1 X103.906 Y40.627 E12.04471
G1 X104.767 Y39.871 E12.07872
G1 X105.854 Y39.185 E12.11689
G1 X106.006 Y39.108 E12.12195
G1 X107.071 Y38.678 E12.15605
G1 X108.171 Y38.413 E12.18964
G1 X108.608 Y38.345 E12.20277
G1 X109.306 Y38.273 E12.22362
G1 X109.748 Y38.251 E12.23676
G1 X110.476 Y38.254 E12.25837
G1 X110.918 Y38.280 E12.27153
G1 X111.633 Y38.361 E12.29287
G1 X112.069 Y38.434 E12.30600
G1 X113.128 Y38.699 E12.33842
G1 X114.204 Y39.142 E12.37297
G1 X114.355 Y39.220 E12.37802
G1 X115.328 Y39.833 E12.41215
G1 X115.464 Y39.936 E12.41722
G1 X116.410 Y40.804 E12.45536
G1 X120.358 Y45.230 E12.63145
G1 X120.658 Y45.590 E12.64535
G1 X124.876 Y51.045 E12.85009
G1 X125.293 Y51.624 E12.87128
G1 X128.909 Y57.414 E13.07396
G1 X129.142 Y57.802 E13.08739
G1 X129.594 Y58.708 E13.11747
G1 X129.718 Y59.012 E13.12722
G1 X130.030 Y59.982 E13.15746
G1 X130.107 Y60.303 E13.16726
G1 X130.270 Y61.318 E13.19779
G1 X130.297 Y61.646 E13.20756
G1 X130.303 Y62.667 E13.23787
G1 X130.277 Y63.026 E13.24855
G1 X124.150 Y144.810 E15.68364
G1 X123.909 Y147.405 E15.76102
G1 X123.615 Y150.032 E15.83951
G1 X123.345 Y152.059 E15.90023
G1 X123.070 Y153.886 E15.95507
G1 X122.838 Y155.264 E15.99658
G1 X122.447 Y157.317 E16.05862
G1 X122.010 Y159.367 E16.12085
G1 X121.500 Y161.475 E16.18524
G1 X120.897 Y163.723 E16.25436
G1 X120.263 Y165.842 E16.32003
G1 X119.612 Y167.845 E16.38255
G1 X119.106 Y169.298 E16.42826
G1 X118.037 Y172.131 E16.51814
G1 X116.853 Y174.987 E16.60995
G1 X115.631 Y177.700 E16.69829
G1 X114.318 Y179.600 E16.76684
G1 X112.440 Y180.943 E16.83540
G1 X109.499 Y181.605 E16.92492
G1 X107.157 Y181.196 E16.99551
G1 X105.157 Y180.042 E17.06406
G1 X103.334 Y177.633 E17.15376
G1 X102.717 Y176.249 E17.19877
G1 X101.571 Y173.535 E17.28622
G1 X100.498 Y170.756 E17.37467
G1 X99.971 Y169.289 E17.42097
G1 X99.475 Y167.826 E17.46683
G1 X98.603 Y165.028 E17.55384
G1 X98.191 Y163.575 E17.59869
G1 X97.799 Y162.090 E17.64429
G1 X97.129 Y159.241 E17.73119
G1 X96.578 Y156.492 E17.81442
G1 X96.340 Y155.126 E17.85560
G1 X95.964 Y152.670 E17.92939
G1 X95.616 Y149.920 E18.01166
G1 X95.345 Y147.269 E18.09081
G1 X95.133 Y144.743 E18.16606
G1 X94.967 Y142.355 E18.23712
G1 X89.693 Y62.474 E20.61408
G1 X89.709 Y61.455 E20.64431
G1 X89.739 Y61.127 E20.65409
G1 X89.913 Y60.106 E20.68486
G1 X89.993 Y59.787 E20.69463
G1 X90.310 Y58.832 E20.72451
G1 X90.437 Y58.528 E20.73429
G1 X90.905 Y57.611 E20.76487
G1 X91.105 Y57.285 E20.77622
G1 X91.439 Y57.425 F7800.000
G1 F1800
G1 X94.889 Y51.996 E20.96721
G1 X95.511 Y51.126 E20.99899
G1 X99.781 Y45.711 E21.20374
G1 X100.068 Y45.372 E21.21691
G1 X104.164 Y40.874 E21.39755
G1 X104.979 Y40.158 E21.42975
G1 X106.015 Y39.503 E21.46615
G1 X106.167 Y39.426 E21.47121
G1 X107.176 Y39.019 E21.50350
G1 X108.226 Y38.766 E21.53557
G1 X108.663 Y38.698 E21.54870
G1 X109.324 Y38.630 E21.56845
G1 X109.766 Y38.608 E21.58159
G1 X110.455 Y38.611 E21.60204
G1 X110.897 Y38.637 E21.61520
G1 X111.574 Y38.713 E21.63541
G1 X112.010 Y38.786 E21.64854
G1 X113.021 Y39.040 E21.67950
G1 X114.040 Y39.459 E21.71222
G1 X114.191 Y39.537 E21.71726
G1 X115.112 Y40.117 E21.74958
G1 X115.248 Y40.220 E21.75465
G1 X116.151 Y41.049 E21.79103
G1 X120.092 Y45.467 E21.96682
G1 X120.375 Y45.808 E21.97998
G1 X124.593 Y51.263 E22.18472
G1 X125.001 Y51.830 E22.20546
G1 X128.606 Y57.603 E22.40751
G1 X128.835 Y57.985 E22.42075
G1 X129.263 Y58.843 E22.44923
G1 X129.387 Y59.147 E22.45897
G1 X129.683 Y60.065 E22.48761
G1 X129.760 Y60.386 E22.49741
G1 X129.914 Y61.347 E22.52632
G1 X129.941 Y61.675 E22.53609
G1 X129.947 Y62.642 E22.56478
G1 X129.921 Y62.999 E22.57542
G1 X123.794 Y144.782 E25.01046
G1 X123.554 Y147.367 E25.08755
G1 X123.261 Y149.985 E25.16577
G1 X122.991 Y152.007 E25.22633
G1 X122.717 Y153.833 E25.28115
G1 X122.486 Y155.205 E25.32246
G1 X122.096 Y157.250 E25.38427
G1 X121.661 Y159.292 E25.44628
G1 X121.153 Y161.390 E25.51037
G1 X120.555 Y163.621 E25.57894
G1 X119.923 Y165.734 E25.64443
G1 X119.274 Y167.731 E25.70677
G1 X118.769 Y169.179 E25.75231
G1 X117.704 Y172.001 E25.84187
G1 X116.524 Y174.848 E25.93336
G1 X115.306 Y177.550 E26.02137
G1 X114.021 Y179.392 E26.08806
G1 X112.175 Y180.673 E26.15476
G1 X109.501 Y181.248 E26.23598
G1 X107.222 Y180.840 E26.30471
G1 X105.293 Y179.689 E26.37140
G1 X103.660 Y177.487 E26.45279
G1 X103.045 Y176.107 E26.49767
G1 X101.902 Y173.401 E26.58488
G1 X100.832 Y170.631 E26.67305
G1 X100.308 Y169.168 E26.71918
G1 X99.813 Y167.712 E26.76486
G1 X98.945 Y164.925 E26.85151
G1 X98.535 Y163.478 E26.89618
G1 X98.145 Y162.001 E26.94153
G1 X97.478 Y159.168 E27.02795
G1 X96.930 Y156.431 E27.11083
G1 X96.692 Y155.067 E27.15194
G1 X96.317 Y152.616 E27.22556
G1 X95.971 Y149.880 E27.30744
G1 X95.700 Y147.234 E27.38640
G1 X95.489 Y144.715 E27.46147
G1 X95.323 Y142.331 E27.53243
G1 X90.050 Y62.452 E29.90929
G1 X90.064 Y61.488 E29.93792
G1 X90.094 Y61.160 E29.94770
G1 X90.259 Y60.193 E29.97683
G1 X90.339 Y59.874 E29.98660
G1 X90.639 Y58.969 E30.01489
G1 X90.766 Y58.665 E30.02467
G1 X91.210 Y57.797 E30.05362
G1 X91.407 Y57.476 E30.06480
G1 E28.06480 F2400.00000
G92 E0
G1 X118.837 Y60.287 F7800.000
G1 E2.00000 F2400.00000
G1 F1800
G1 X118.540 Y60.710 E2.01536
G1 X118.189 Y61.092 E2.03074
G1 X117.790 Y61.422 E2.04611
G1 X117.351 Y61.697 E2.06150
G1 X116.879 Y61.910 E2.07689
G1 X116.382 Y62.058 E2.09227
G1 X115.873 Y62.139 E2.10759
G1 X115.353 Y62.152 E2.12301
G1 X114.838 Y62.095 E2.13840
G1 X114.337 Y61.970 E2.15373
G1 X113.856 Y61.779 E2.16911
G1 X113.404 Y61.527 E2.18449
G1 X112.990 Y61.215 E2.19986
G1 X112.621 Y60.852 E2.21522
G1 X112.303 Y60.442 E2.23064
G1 X112.044 Y59.995 E2.24598
G1 X111.847 Y59.517 E2.26134
G1 X111.714 Y59.015 E2.27674
G1 X111.650 Y58.501 E2.29211
G1 X111.656 Y57.982 E2.30753
G1 X111.730 Y57.470 E2.32289
G1 X111.871 Y56.974 E2.33820
G1 X112.077 Y56.499 E2.35359
G1 X112.346 Y56.055 E2.36899
G1 X112.671 Y55.652 E2.38436
G1 X113.046 Y55.296 E2.39973
G1 X113.467 Y54.992 E2.41513
G1 X113.923 Y54.748 E2.43048
G1 X114.408 Y54.566 E2.44586
G1 X114.912 Y54.451 E2.46122
G1 X115.414 Y54.405 E2.47618
G1 X115.944 Y54.426 E2.49194
G1 X116.455 Y54.518 E2.50734
G1 X116.948 Y54.675 E2.52270
G1 X117.416 Y54.898 E2.53811
G1 X117.849 Y55.180 E2.55346
G1 X118.242 Y55.518 E2.56885
G1 X118.585 Y55.906 E2.58423
G1 X118.875 Y56.335 E2.59959
G1 X119.104 Y56.801 E2.61500
G1 X119.269 Y57.292 E2.63037
G1 X119.367 Y57.800 E2.64576
G1 X119.396 Y58.317 E2.66113
G1 X119.357 Y58.832 E2.67647
G1 X119.250 Y59.338 E2.69180
G1 X119.075 Y59.827 E2.70722
G1 X118.864 Y60.233 E2.72083
G1 X118.530 Y60.101 F7800.000
G1 F1800
G1 X118.261 Y60.486 E2.73478
G1 X117.942 Y60.832 E2.74874
G1 X117.581 Y61.132 E2.76268
G1 X117.182 Y61.381 E2.77666
G1 X116.753 Y61.575 E2.79062
G1 X116.303 Y61.709 E2.80458
G1 X115.840 Y61.783 E2.81849
G1 X115.369 Y61.795 E2.83248
G1 X114.902 Y61.743 E2.84645
G1 X114.446 Y61.630 E2.86037
G1 X114.009 Y61.456 E2.87433
G1 X113.599 Y61.227 E2.88829
G1 X113.224 Y60.944 E2.90224
G1 X112.889 Y60.615 E2.91619
G1 X112.601 Y60.242 E2.93017
G1 X112.365 Y59.836 E2.94411
G1 X112.186 Y59.402 E2.95804
G1 X112.066 Y58.947 E2.97202
G1 X112.008 Y58.481 E2.98597
G1 X112.012 Y58.010 E2.99996
G1 X112.080 Y57.545 E3.01390
G1 X112.208 Y57.094 E3.02781
G1 X112.395 Y56.663 E3.04178
G1 X112.639 Y56.260 E3.05575
G1 X112.934 Y55.894 E3.06970
G1 X113.275 Y55.571 E3.08365
G1 X113.656 Y55.295 E3.09763
G1 X114.070 Y55.074 E3.11156
G1 X114.510 Y54.909 E3.12553
G1 X114.968 Y54.805 E3.13947
G1 X115.423 Y54.763 E3.15303
G1 X115.905 Y54.782 E3.16737
G1 X116.368 Y54.865 E3.18133
G1 X116.816 Y55.008 E3.19528
G1 X117.241 Y55.210 E3.20926
G1 X117.634 Y55.467 E3.22320
G1 X117.991 Y55.773 E3.23717
G1 X118.302 Y56.125 E3.25112
G1 X118.565 Y56.515 E3.26507
G1 X118.773 Y56.937 E3.27905
G1 X118.923 Y57.383 E3.29301
G1 X119.012 Y57.844 E3.30696
G1 X119.038 Y58.314 E3.32092
G1 X119.003 Y58.781 E3.33485
G1 X118.905 Y59.240 E3.34877
G1 X118.747 Y59.684 E3.36276
G1 X118.558 Y60.048 E3.37494
G1 X118.224 Y59.916 F7800.000
G1 F1800
G1 X117.982 Y60.262 E3.38748
G1 X117.696 Y60.572 E3.40002
G1 X117.371 Y60.842 E3.41254
G1 X117.013 Y61.066 E3.42510
G1 X116.628 Y61.240 E3.43763
G1 X116.223 Y61.360 E3.45017
G1 X115.807 Y61.427 E3.46268
G1 X115.384 Y61.437 E3.47524
G1 X114.965 Y61.390 E3.48778
G1 X114.556 Y61.289 E3.50029
G1 X114.163 Y61.133 E3.51284
G1 X113.795 Y60.927 E3.52537
G1 X113.457 Y60.673 E3.53791
G1 X113.156 Y60.377 E3.55044
G1 X112.898 Y60.043 E3.56299
G1 X112.686 Y59.678 E3.57551
G1 X112.525 Y59.288 E3.58804
G1 X112.417 Y58.879 E3.60059
G1 X112.365 Y58.460 E3.61312
G1 X112.369 Y58.037 E3.62568
G1 X112.430 Y57.620 E3.63820
G1 X112.545 Y57.215 E3.65072
G1 X112.713 Y56.827 E3.66326
G1 X112.932 Y56.466 E3.67580
G1 X113.197 Y56.137 E3.68833
G1 X113.503 Y55.847 E3.70087
G1 X113.846 Y55.599 E3.71342
G1 X114.217 Y55.400 E3.72593
G1 X114.613 Y55.252 E3.73849
G1 X115.024 Y55.158 E3.75101
G1 X115.432 Y55.121 E3.76317
G1 X115.867 Y55.138 E3.77607
G1 X116.282 Y55.212 E3.78861
G1 X116.685 Y55.341 E3.80115
G1 X117.066 Y55.522 E3.81369
G1 X117.419 Y55.753 E3.82622
G1 X117.740 Y56.028 E3.83876
G1 X118.019 Y56.344 E3.85130
G1 X118.255 Y56.694 E3.86383
G1 X118.442 Y57.074 E3.87638
G1 X118.577 Y57.474 E3.88892
G1 X118.657 Y57.888 E3.90146
G1 X118.680 Y58.310 E3.91400
G1 X118.648 Y58.730 E3.92652
G1 X118.561 Y59.143 E3.93902
G1 X118.419 Y59.541 E3.95158
G1 X118.252 Y59.863 E3.96234
G1 X118.224 Y59.916 F7800.000
G1 E1.96234 F2400.00000
G92 E0
G1 X108.371 Y58.580 F7800.000
G1 E2.00000 F2400.00000
G1 F1800
G1 X108.315 Y58.998 E2.01252
G1 X108.179 Y59.499 E2.02792
G1 X107.976 Y59.975 E2.04331
G1 X107.712 Y60.420 E2.05866
G1 X107.392 Y60.826 E2.07403
G1 X107.020 Y61.187 E2.08939
G1 X106.602 Y61.494 E2.10480
G1 X106.147 Y61.743 E2.12019
G1 X105.665 Y61.929 E2.13554
G1 X105.161 Y62.050 E2.15091
G1 X104.645 Y62.101 E2.16631
G1 X104.128 Y62.084 E2.18167
G1 X103.617 Y61.997 E2.19705
G1 X103.124 Y61.844 E2.21238
G1 X102.654 Y61.627 E2.22777
G1 X102.217 Y61.347 E2.24315
G1 X101.822 Y61.014 E2.25851
G1 X101.474 Y60.628 E2.27394
G1 X101.182 Y60.202 E2.28929
G1 X100.947 Y59.740 E2.30467
G1 X100.778 Y59.251 E2.32004
G1 X100.675 Y58.744 E2.33539
G1 X100.640 Y58.227 E2.35077
G1 X100.675 Y57.709 E2.36619
G1 X100.778 Y57.204 E2.38151
G1 X100.947 Y56.714 E2.39690
G1 X101.182 Y56.251 E2.41229
G1 X101.474 Y55.824 E2.42765
G1 X101.823 Y55.440 E2.44307
G1 X102.217 Y55.107 E2.45840
G1 X102.654 Y54.827 E2.47378
G1 X103.123 Y54.610 E2.48914
G1 X103.617 Y54.456 E2.50451
G1 X104.128 Y54.371 E2.51989
G1 X104.631 Y54.353 E2.53482
G1 X105.161 Y54.404 E2.55062
G1 X105.665 Y54.525 E2.56602
G1 X106.147 Y54.711 E2.58137
G1 X106.601 Y54.959 E2.59673
G1 X107.019 Y55.266 E2.61212
G1 X107.392 Y55.627 E2.62754
G1 X107.713 Y56.034 E2.64293
G1 X107.976 Y56.479 E2.65825
G1 X108.178 Y56.955 E2.67363
G1 X108.315 Y57.455 E2.68901
G1 X108.384 Y57.967 E2.70437
G1 X108.380 Y58.521 E2.72080
G1 X108.018 Y58.532 F7800.000
G1 F1800
G1 X107.964 Y58.927 E2.73263
G1 X107.840 Y59.381 E2.74660
G1 X107.656 Y59.814 E2.76057
G1 X107.417 Y60.218 E2.77450
G1 X107.126 Y60.586 E2.78845
G1 X106.789 Y60.913 E2.80240
G1 X106.409 Y61.193 E2.81639
G1 X105.997 Y61.419 E2.83035
G1 X105.559 Y61.587 E2.84429
G1 X105.102 Y61.697 E2.85824
G1 X104.633 Y61.743 E2.87222
G1 X104.164 Y61.728 E2.88616
G1 X103.700 Y61.649 E2.90012
G1 X103.253 Y61.510 E2.91404
G1 X102.826 Y61.313 E2.92800
G1 X102.430 Y61.059 E2.94196
G1 X102.071 Y60.756 E2.95590
G1 X101.755 Y60.407 E2.96991
G1 X101.490 Y60.019 E2.98384
G1 X101.277 Y59.600 E2.99780
G1 X101.123 Y59.156 E3.01174
G1 X101.030 Y58.696 E3.02569
G1 X100.998 Y58.227 E3.03965
G1 X101.030 Y57.757 E3.05364
G1 X101.123 Y57.298 E3.06755
G1 X101.277 Y56.853 E3.08151
G1 X101.490 Y56.434 E3.09548
G1 X101.755 Y56.046 E3.10943
G1 X102.071 Y55.697 E3.12341
G1 X102.430 Y55.395 E3.13734
G1 X102.826 Y55.141 E3.15130
G1 X103.252 Y54.944 E3.16524
G1 X103.700 Y54.804 E3.17919
G1 X104.164 Y54.727 E3.19315
G1 X104.620 Y54.710 E3.20669
G1 X105.101 Y54.757 E3.22105
G1 X105.559 Y54.867 E3.23502
G1 X105.997 Y55.035 E3.24896
G1 X106.409 Y55.261 E3.26290
G1 X106.788 Y55.539 E3.27687
G1 X107.126 Y55.867 E3.29085
G1 X107.418 Y56.236 E3.30482
G1 X107.656 Y56.640 E3.31874
G1 X107.840 Y57.073 E3.33270
G1 X107.964 Y57.526 E3.34665
G1 X108.027 Y57.992 E3.36060
G1 X108.026 Y58.473 E3.37489
G1 X107.664 Y58.484 F7800.000
G1 F1800
G1 X107.613 Y58.856 E3.38603
G1 X107.502 Y59.264 E3.39858
G1 X107.337 Y59.652 E3.41112
G1 X107.122 Y60.015 E3.42364
G1 X106.861 Y60.346 E3.43617
G1 X106.557 Y60.640 E3.44870
G1 X106.217 Y60.891 E3.46126
G1 X105.846 Y61.094 E3.47380
G1 X105.452 Y61.245 E3.48633
G1 X105.042 Y61.344 E3.49886
G1 X104.622 Y61.385 E3.51141
G1 X104.200 Y61.371 E3.52393
G1 X103.783 Y61.301 E3.53648
