;FLAVOR:Marlin
;TIME:16026
;Filament used: 8.5593m
;Layer height: 0.2
;MINX:48.173
;MINY:57.725
;MINZ:0.2
;MAXX:96.823
;MAXY:177.275
;MAXZ:21.2
;Generated with Cura_SteamEngine master
M82 ;absolute extrusion mode
; Ender 3 Custom Start G-code
M140 S75 ; Set Heat Bed temperature
M104 S160 ; start warming extruder to 160
G28 ; Home all axes
G29 ; Auto bed-level (BL-Touch)
G92 E0 ; Reset Extruder
M190 S75 ; Wait for Heat Bed temperature
M104 S210 ; Set Extruder temperature
G1 X0 Y0 Z0.3 F5000.0 ; Move to 0 0
M109 S210 ; Wait for Extruder temperature
G1 X3 Y20 Z0.3 F5000.0 ; Move to start position
; G1 Z2.0 F3000 ; Move Z Axis up little to prevent scratching of Heat Bed
G1 X3 Y200.0 Z0.3 F1500.0 E15 ; Draw the first line
G1 X3.3 Y200.0 Z0.3 F5000.0 ; Move to side a little
G1 X3.3 Y20 Z0.3 F1500.0 E30 ; Draw the second line
G92 E0 ; Reset Extruder
G1 Z2.0 F3000 ; Move Z Axis up little to prevent scratching of Heat Bed
G92 E0
G92 E0
G1 F2700 E-5
;LAYER_COUNT:106
;LAYER:0
M107
M204 S500
M205 X8 Y8
;MESH:camshaft_mounting_bd.stl
G0 F6000 X77.934 Y61.35 Z0.2
;TYPE:WALL-INNER
G1 F2700 E0
G1 F1200 X65.042 Y61.35 E0.34732
G1 X62.866 Y63.527 E0.43024
G1 X62.543 Y63.85 E0.44255
G1 X62.523 Y63.85 E0.44309
G1 X62.523 Y63.393 E0.45
G1 X62.523 Y58.925 E0.57037
G1 X80.453 Y58.925 E1.05342
G1 X80.453 Y63.393 E1.17379
G1 X80.453 Y63.85 E1.1861
G1 X80.433 Y63.85 E1.18664
G1 X80.11 Y63.527 E1.19354
G1 X77.934 Y61.35 E1.27646
G0 F6000 X77.768 Y61.75
G1 F1200 X65.208 Y61.75 E1.61484
G1 X62.709 Y64.25 E1.71007
G1 X62.123 Y64.25 E1.72586
G1 X62.123 Y58.525 E1.88009
G1 X80.853 Y58.525 E2.38469
G1 X80.853 Y64.25 E2.53893
G1 X80.267 Y64.25 E2.55471
G1 X77.768 Y61.75 E2.64995
G0 F6000 X72.793 Y62.2
G0 X72.723 Y62.27
G1 F1200 X72.723 Y62.15 E2.65318
G1 X65.374 Y62.15 E2.85117
G1 X62.875 Y64.65 E2.9464
G1 X61.871 Y64.65 E2.97344
G1 X61.723 Y64.502 E2.97908
G1 X61.723 Y58.273 E3.1469
G1 X61.871 Y58.125 E3.15254
G1 X81.105 Y58.125 E3.67071
G1 X81.253 Y58.273 E3.67635
G1 X81.253 Y64.502 E3.84417
G1 X81.105 Y64.65 E3.8498
G1 X80.101 Y64.65 E3.87685
G1 X77.602 Y62.15 E3.97208
G1 X73.416 Y62.15 E4.08486
G1 X73.396 Y62.269 E4.08811
G1 X72.723 Y62.27 E4.10624
G0 F6000 X72.323 Y62.67
;TYPE:WALL-OUTER
G1 F1200 X72.323 Y62.55 E4.10947
G1 X65.54 Y62.55 E4.29221
G1 X63.041 Y65.05 E4.38744
G1 X61.705 Y65.05 E4.42343
G1 X61.323 Y64.668 E4.43799
G1 X61.323 Y58.107 E4.61475
G1 X61.705 Y57.725 E4.6293
G1 X81.271 Y57.725 E5.15642
G1 X81.653 Y58.107 E5.17098
G1 X81.653 Y64.668 E5.34774
G1 X81.271 Y65.05 E5.36229
G1 X79.935 Y65.05 E5.39828
G1 X77.436 Y62.55 E5.49351
G1 X73.754 Y62.55 E5.59271
G1 X73.734 Y62.669 E5.59596
G1 X72.323 Y62.67 E5.63397
G0 F6000 X72.323 Y62.05
G0 X78.096 Y60.96
;TYPE:SKIN
G1 F1200 X64.88 Y60.96 E5.99002
G1 X62.913 Y62.93 E6.06502
G1 X62.913 Y59.315 E6.16241
G1 X80.063 Y59.315 E6.62444
G1 X80.063 Y62.93 E6.72184
G1 X78.096 Y60.96 E6.79684
G0 F6000 X79.902 Y59.537
G1 F1200 X79.84 Y59.475 E6.7992
G0 F6000 X79.274 Y59.475
G1 F1200 X79.902 Y60.103 E6.82312
G0 F6000 X79.902 Y60.669
G1 F1200 X78.708 Y59.475 E6.86862
G0 F6000 X78.143 Y59.475
G1 F1200 X79.902 Y61.234 E6.93563
G0 F6000 X79.902 Y61.8
G1 F1200 X77.577 Y59.475 E7.02422
G0 F6000 X77.011 Y59.475
G1 F1200 X79.902 Y62.366 E7.13436
G0 F6000 X77.77 Y60.799
G1 F1200 X76.446 Y59.475 E7.18481
G0 F6000 X75.88 Y59.475
G1 F1200 X77.204 Y60.799 E7.23525
G0 F6000 X76.639 Y60.799
G1 F1200 X75.314 Y59.475 E7.28571
G0 F6000 X74.748 Y59.475
G1 F1200 X76.073 Y60.799 E7.33618
G0 F6000 X75.507 Y60.799
G1 F1200 X74.183 Y59.475 E7.38662
G0 F6000 X73.617 Y59.475
G1 F1200 X74.942 Y60.799 E7.43709
G0 F6000 X74.376 Y60.799
G1 F1200 X73.051 Y59.475 E7.48755
G0 F6000 X72.486 Y59.475
G1 F1200 X73.81 Y60.799 E7.53799
G0 F6000 X73.244 Y60.799
G1 F1200 X71.92 Y59.475 E7.58844
G0 F6000 X71.354 Y59.475
G1 F1200 X72.679 Y60.799 E7.6389
G0 F6000 X72.113 Y60.799
G1 F1200 X70.789 Y59.475 E7.68934
G0 F6000 X70.223 Y59.475
G1 F1200 X71.547 Y60.799 E7.73979
G0 F6000 X70.982 Y60.799
G1 F1200 X69.657 Y59.475 E7.79025
G0 F6000 X69.092 Y59.475
G1 F1200 X70.416 Y60.799 E7.8407
G0 F6000 X69.85 Y60.799
G1 F1200 X68.526 Y59.475 E7.89114
G0 F6000 X67.96 Y59.475
G1 F1200 X69.285 Y60.799 E7.9416
G0 F6000 X68.719 Y60.799
G1 F1200 X67.395 Y59.475 E7.99205
G0 F6000 X66.829 Y59.475
G1 F1200 X68.153 Y60.799 E8.04249
G0 F6000 X67.588 Y60.799
G1 F1200 X66.263 Y59.475 E8.09296
G0 F6000 X65.697 Y59.475
G1 F1200 X67.022 Y60.799 E8.14342
G0 F6000 X66.456 Y60.799
G1 F1200 X65.132 Y59.475 E8.19386
G0 F6000 X64.566 Y59.475
G1 F1200 X65.891 Y60.799 E8.24433
G0 F6000 X65.325 Y60.799
G1 F1200 X64 Y59.475 E8.29479
G0 F6000 X63.435 Y59.475
G1 F1200 X64.786 Y60.826 E8.34626
G0 F6000 X64.503 Y61.109
G1 F1200 X63.072 Y59.678 E8.40078
G0 F6000 X63.072 Y60.244
G1 F1200 X64.22 Y61.392 E8.44452
G0 F6000 X63.938 Y61.675
G1 F1200 X63.072 Y60.809 E8.47752
G0 F6000 X63.072 Y61.375
G1 F1200 X63.655 Y61.958 E8.49973
G0 F6000 X63.373 Y62.241
G1 F1200 X63.072 Y61.941 E8.51118
G0 F6000 X62.782 Y63.065
;TYPE:SKIN
G1 F1200 X62.941 Y63.224 E8.51421
G0 F6000 X62.8 Y63.365
G1 F1200 X62.682 Y63.248 E8.51645
G0 F6000 X65.359 Y62.114
G0 X77.617 Y62.114
G0 X80.081 Y63.111
G1 F1200 X80.292 Y63.322 E8.52047
G0 F6000 X77.617 Y62.114
G0 X73.27 Y61.956
G0 X73.246 Y61.933
G1 F1200 X73.032 Y62.001 E8.52484
G0 F6000 X73.005 Y61.868
G1 F2700 E3.52484
G0 F6000 X72.737 Y62.256
G0 X72.738 Y63.534
G0 X63.774 Y85.461
G0 X62.868 Y86.368
G0 X64.892 Y89.5
;TYPE:WALL-INNER
G1 F2700 E8.52484
G1 F1200 X62.866 Y91.527 E8.60205
G1 X62.543 Y91.85 E8.61436
G1 X62.523 Y91.85 E8.6149
G1 X62.523 Y91.393 E8.62181
G1 X62.523 Y87.607 E8.72381
G1 X62.523 Y87.15 E8.73612
G1 X62.543 Y87.15 E8.73666
G1 X62.866 Y87.473 E8.74355
G1 X64.892 Y89.5 E8.82076
G0 F6000 X78.084 Y89.5
G1 F1200 X80.11 Y87.473 E8.89797
G1 X80.433 Y87.15 E8.91028
G1 X80.453 Y87.15 E8.91082
G1 X80.453 Y87.607 E8.91773
G1 X80.453 Y91.393 E9.01973
G1 X80.453 Y91.85 E9.03204
G1 X80.433 Y91.85 E9.03258
G1 X80.11 Y91.527 E9.03948
G1 X78.084 Y89.5 E9.11669
G0 F6000 X72.968 Y89.25
G1 F1200 X72.971 Y89.227 E9.11731
G1 X72.988 Y89.131 E9.11994
G1 X73.09 Y89.13 E9.12268
G1 X73.107 Y89.224 E9.12345
G1 X73.112 Y89.25
G1 X77.768 Y89.25 E9.24889
G1 X80.267 Y86.75 E9.34412
G1 X80.853 Y86.75 E9.35991
G1 X80.853 Y92.25 E9.50808
G1 X80.267 Y92.25 E9.52387
G1 X77.768 Y89.75 E9.6191
G1 X65.208 Y89.75 E9.95747
G1 X62.709 Y92.25 E10.0527
G1 X62.123 Y92.25 E10.06849
G1 X62.123 Y86.75 E10.21667
G1 X62.709 Y86.75 E10.23245
G1 X65.208 Y89.25 E10.32768
G1 X72.968 Y89.25 E10.53674
G0 F6000 X72.793 Y90.2
G0 X72.723 Y90.27
G1 F1200 X72.723 Y90.15 E10.53998
G1 X65.374 Y90.15 E10.73796
G1 X62.875 Y92.65 E10.83319
G1 X61.871 Y92.65 E10.86024
G1 X61.723 Y92.502 E10.86588
G1 X61.723 Y86.498 E11.02763
G1 X61.871 Y86.35 E11.03327
G1 X62.875 Y86.35 E11.06032
G1 X65.374 Y88.85 E11.15555
G1 X72.63 Y88.85 E11.35103
G1 X72.65 Y88.731 E11.35428
G1 X73.423 Y88.73 E11.37511
G1 X73.445 Y88.85 E11.3784
G1 X77.602 Y88.85 E11.49039
G1 X80.101 Y86.35 E11.58562
G1 X81.105 Y86.35 E11.61267
G1 X81.253 Y86.498 E11.61831
G1 X81.253 Y92.502 E11.78006
G1 X81.105 Y92.65 E11.7857
G1 X80.101 Y92.65 E11.81275
G1 X77.602 Y90.15 E11.90798
G1 X73.416 Y90.15 E12.02075
G1 X73.396 Y90.269 E12.024
G1 X72.723 Y90.27 E12.04213
G0 F6000 X72.323 Y90.67
;TYPE:WALL-OUTER
G1 F1200 X72.323 Y90.55 E12.04537
G1 X65.54 Y90.55 E12.2281
G1 X63.041 Y93.05 E12.32333
G1 X61.705 Y93.05 E12.35933
G1 X61.323 Y92.668 E12.37388
G1 X61.323 Y86.332 E12.54458
G1 X61.705 Y85.95 E12.55913
G1 X63.041 Y85.95 E12.59512
G1 X65.54 Y88.45 E12.69036
G1 X72.292 Y88.45 E12.87226
G1 X72.312 Y88.331 E12.87551
G1 X73.756 Y88.33 E12.91441
G1 X73.778 Y88.45 E12.9177
G1 X77.436 Y88.45 E13.01625
G1 X79.935 Y85.95 E13.11148
G1 X81.271 Y85.95 E13.14747
G1 X81.653 Y86.332 E13.16203
G1 X81.653 Y92.668 E13.33272
G1 X81.271 Y93.05 E13.34728
G1 X79.935 Y93.05 E13.38327
G1 X77.436 Y90.55 E13.4785
G1 X73.754 Y90.55 E13.5777
G1 X73.734 Y90.669 E13.58095
G1 X72.323 Y90.67 E13.61896
G0 F6000 X72.323 Y90.05
G0 X78.634 Y89.5
;TYPE:SKIN
G1 F1200 X80.063 Y88.07 E13.67342
G1 X80.063 Y90.93 E13.75047
G1 X78.634 Y89.5 E13.80494
G0 F6000 X79.087 Y89.27
G1 F1200 X79.903 Y90.085 E13.83601
G0 F6000 X79.903 Y89.519
G1 F1200 X79.37 Y88.987 E13.8563
G0 F6000 X79.653 Y88.704
G1 F1200 X79.903 Y88.954 E13.86582
G0 F6000 X80.293 Y87.93
;TYPE:SKIN
G1 F1200 X80.085 Y87.722 E13.86978
G0 F6000 X80.226 Y87.58
G1 F1200 X80.293 Y87.647 E13.87106
G0 F6000 X80.08 Y91.111
G1 F1200 X80.293 Y91.324 E13.87512
G0 F6000 X77.617 Y90.114
G0 X64.342 Y89.5
;TYPE:SKIN
G1 F1200 X62.913 Y90.93 E13.92958
G1 X62.913 Y88.07 E14.00663
G1 X64.342 Y89.5 E14.0611
G0 F6000 X64.08 Y89.535
G1 F1200 X63.072 Y88.528 E14.09948
G0 F6000 X63.072 Y89.094
G1 F1200 X63.797 Y89.818 E14.12709
G0 F6000 X63.514 Y90.101
G1 F1200 X63.072 Y89.659 E14.14393
G0 F6000 X63.072 Y90.225
G1 F1200 X63.231 Y90.384 E14.14998
G0 F6000 X62.779 Y91.064
;TYPE:SKIN
G1 F1200 X62.94 Y91.225 E14.15305
G0 F6000 X62.799 Y91.366
G1 F1200 X62.682 Y91.25 E14.15527
G0 F6000 X62.767 Y87.94
G1 F1200 X62.682 Y87.855 E14.15689
G0 F6000 X62.691 Y87.581
G1 F1200 X62.967 Y87.857 E14.16215
G0 F6000 X65.108 Y89.432
G0 X65.178 Y89.503
G1 F1200 X65.457 Y89.499 E14.16501
G1 X77.619 Y89.499 E14.28976
G1 X77.853 Y89.45 E14.29222
G0 F6000 X77.88 Y89.476
G0 X73.27 Y89.958
G0 X73.245 Y89.933
G1 F1200 X73.03 Y90.001 E14.29666
G0 F6000 X73.005 Y89.868
G1 F2700 E9.29666
G0 F6000 X72.737 Y90.256
G0 X72.738 Y91.534
G0 X63.774 Y113.461
G0 X62.868 Y114.368
G0 X64.892 Y117.5
;TYPE:WALL-INNER
G1 F2700 E14.29666
G1 F1200 X62.866 Y119.527 E14.37387
G1 X62.543 Y119.85 E14.38617
G1 X62.523 Y119.85 E14.38671
G1 X62.523 Y119.393 E14.39363
G1 X62.523 Y115.607 E14.49562
G1 X62.523 Y115.15 E14.50793
G1 X62.543 Y115.15 E14.50847
G1 X62.866 Y115.473 E14.51537
G1 X64.892 Y117.5 E14.59258
G0 F6000 X78.084 Y117.5
G1 F1200 X80.11 Y115.473 E14.66979
G1 X80.433 Y115.15 E14.6821
G1 X80.453 Y115.15 E14.68264
G1 X80.453 Y115.607 E14.68955
G1 X80.453 Y119.393 E14.79154
G1 X80.453 Y119.85 E14.80386
G1 X80.433 Y119.85 E14.8044
G1 X80.11 Y119.527 E14.81129
G1 X78.084 Y117.5 E14.8885
G0 F6000 X72.968 Y117.25
G1 F1200 X72.971 Y117.227 E14.88913
G1 X72.988 Y117.131 E14.89175
G1 X73.09 Y117.13 E14.8945
G1 X73.107 Y117.224 E14.89527
G1 X73.112 Y117.25
G1 X77.768 Y117.25 E15.02071
G1 X80.267 Y114.75 E15.11594
G1 X80.853 Y114.75 E15.13172
G1 X80.853 Y120.25 E15.2799
G1 X80.267 Y120.25 E15.29568
G1 X77.768 Y117.75 E15.39092
G1 X65.208 Y117.75 E15.72929
G1 X62.709 Y120.25 E15.82452
G1 X62.123 Y120.25 E15.84031
G1 X62.123 Y114.75 E15.98848
G1 X62.709 Y114.75 E16.00427
G1 X65.208 Y117.25 E16.0995
G1 X72.968 Y117.25 E16.30856
G0 F6000 X72.793 Y118.2
G0 X72.723 Y118.27
G1 F1200 X72.723 Y118.15 E16.31179
G1 X65.374 Y118.15 E16.50978
G1 X62.875 Y120.65 E16.60501
G1 X61.871 Y120.65 E16.63206
G1 X61.723 Y120.502 E16.6377
G1 X61.723 Y114.498 E16.79945
G1 X61.871 Y114.35 E16.80509
G1 X62.875 Y114.35 E16.83214
G1 X65.374 Y116.85 E16.92737
G1 X72.63 Y116.85 E17.12285
G1 X72.65 Y116.731 E17.1261
G1 X73.423 Y116.73 E17.14693
G1 X73.445 Y116.85 E17.15021
G1 X77.602 Y116.85 E17.26221
G1 X80.101 Y114.35 E17.35744
G1 X81.105 Y114.35 E17.38449
G1 X81.253 Y114.498 E17.39012
G1 X81.253 Y120.502 E17.55188
G1 X81.105 Y120.65 E17.55751
G1 X80.101 Y120.65 E17.58456
G1 X77.602 Y118.15 E17.67979
G1 X73.416 Y118.15 E17.79257
G1 X73.396 Y118.269 E17.79582
G1 X72.723 Y118.27 E17.81395
G0 F6000 X72.323 Y118.67
;TYPE:WALL-OUTER
G1 F1200 X72.323 Y118.55 E17.81718
G1 X65.54 Y118.55 E17.99992
G1 X63.041 Y121.05 E18.09515
G1 X61.705 Y121.05 E18.13114
G1 X61.323 Y120.668 E18.1457
G1 X61.323 Y114.332 E18.3164
G1 X61.705 Y113.95 E18.33095
G1 X63.041 Y113.95 E18.36694
G1 X65.54 Y116.45 E18.46217
G1 X72.292 Y116.45 E18.64408
G1 X72.312 Y116.331 E18.64733
G1 X73.756 Y116.33 E18.68623
G1 X73.778 Y116.45 E18.68952
G1 X77.436 Y116.45 E18.78807
G1 X79.935 Y113.95 E18.8833
G1 X81.271 Y113.95 E18.91929
G1 X81.653 Y114.332 E18.93384
G1 X81.653 Y120.668 E19.10454
G1 X81.271 Y121.05 E19.11909
G1 X79.935 Y121.05 E19.15509
G1 X77.436 Y118.55 E19.25032
G1 X73.754 Y118.55 E19.34951
G1 X73.734 Y118.669 E19.35276
G1 X72.323 Y118.67 E19.39078
G0 F6000 X72.323 Y118.05
G0 X78.634 Y117.5
;TYPE:SKIN
G1 F1200 X80.063 Y116.07 E19.44524
G1 X80.063 Y118.93 E19.52229
G1 X78.634 Y117.5 E19.57676
G0 F6000 X78.945 Y117.412
G1 F1200 X79.903 Y118.369 E19.61324
G0 F6000 X79.903 Y117.803
G1 F1200 X79.228 Y117.129 E19.63893
G0 F6000 X79.511 Y116.846
G1 F1200 X79.903 Y117.238 E19.65387
G0 F6000 X79.903 Y116.672
G1 F1200 X79.794 Y116.563 E19.65802
G0 F6000 X80.293 Y115.931
;TYPE:SKIN
G1 F1200 X80.084 Y115.722 E19.662
G0 F6000 X80.226 Y115.581
G1 F1200 X80.293 Y115.648 E19.66328
G0 F6000 X80.079 Y119.112
G1 F1200 X80.293 Y119.325 E19.66735
G0 F6000 X77.617 Y118.114
G0 X64.342 Y117.5
;TYPE:SKIN
G1 F1200 X62.913 Y118.93 E19.72181
G1 X62.913 Y116.07 E19.79886
G1 X64.342 Y117.5 E19.85333
G0 F6000 X63.938 Y117.678
G1 F1200 X63.072 Y116.812 E19.88632
G0 F6000 X63.072 Y117.378
G1 F1200 X63.655 Y117.96 E19.90851
G0 F6000 X63.372 Y118.243
G1 F1200 X63.072 Y117.943 E19.91994
G0 F6000 X62.777 Y119.063
;TYPE:SKIN
G1 F1200 X62.94 Y119.225 E19.92304
G0 F6000 X62.798 Y119.367
G1 F1200 X62.682 Y119.251 E19.92525
G0 F6000 X62.765 Y115.94
G1 F1200 X62.682 Y115.857 E19.92683
G0 F6000 X62.689 Y115.581
G1 F1200 X62.966 Y115.858 E19.93211
G0 F6000 X65.108 Y117.434
G0 X65.178 Y117.504
G1 F1200 X65.456 Y117.499 E19.93496
G1 X77.618 Y117.499 E20.05965
G1 X77.852 Y117.45 E20.0621
G0 F6000 X77.879 Y117.477
G0 X73.27 Y117.959
G0 X73.245 Y117.934
G1 F1200 X73.029 Y118.001 E20.06655
G0 F6000 X73.005 Y117.868
G1 F2700 E15.06655
G0 F6000 X72.737 Y118.256
G0 X72.738 Y119.534
G0 X63.774 Y141.461
G0 X62.868 Y142.368
G0 X64.892 Y145.5
;TYPE:WALL-INNER
G1 F2700 E20.06655
G1 F1200 X62.866 Y147.527 E20.14375
G1 X62.543 Y147.85 E20.15606
G1 X62.523 Y147.85 E20.1566
G1 X62.523 Y147.393 E20.16351
G1 X62.523 Y143.607 E20.26551
G1 X62.523 Y143.15 E20.27782
G1 X62.543 Y143.15 E20.27836
G1 X62.866 Y143.473 E20.28526
G1 X64.892 Y145.5 E20.36247
G0 F6000 X78.084 Y145.5
G1 F1200 X80.11 Y143.473 E20.43968
G1 X80.433 Y143.15 E20.45198
G1 X80.453 Y143.15 E20.45252
G1 X80.453 Y143.607 E20.45943
G1 X80.453 Y147.393 E20.56143
G1 X80.453 Y147.85 E20.57374
G1 X80.433 Y147.85 E20.57428
G1 X80.11 Y147.527 E20.58118
G1 X78.084 Y145.5 E20.65839
G0 F6000 X72.968 Y145.25
G1 F1200 X72.971 Y145.227 E20.65901
G1 X72.988 Y145.131 E20.66164
G1 X73.09 Y145.13 E20.66439
G1 X73.107 Y145.224 E20.66516
G1 X73.112 Y145.25
G1 X77.768 Y145.25 E20.79059
G1 X80.267 Y142.75 E20.88582
G1 X80.853 Y142.75 E20.90161
G1 X80.853 Y148.25 E21.04978
G1 X80.267 Y148.25 E21.06557
G1 X77.768 Y145.75 E21.1608
G1 X65.208 Y145.75 E21.49918
G1 X62.709 Y148.25 E21.59441
G1 X62.123 Y148.25 E21.6102
G1 X62.123 Y142.75 E21.75837
G1 X62.709 Y142.75 E21.77416
G1 X65.208 Y145.25 E21.86939
G1 X72.968 Y145.25 E22.07845
G0 F6000 X72.793 Y146.2
G0 X72.723 Y146.27
G1 F1200 X72.723 Y146.15 E22.08168
G1 X65.374 Y146.15 E22.27967
G1 X62.875 Y148.65 E22.3749
G1 X61.871 Y148.65 E22.40195
G1 X61.723 Y148.502 E22.40759
G1 X61.723 Y142.498 E22.56934
G1 X61.871 Y142.35 E22.57498
G1 X62.875 Y142.35 E22.60202
G1 X65.374 Y144.85 E22.69726
G1 X72.63 Y144.85 E22.89274
G1 X72.65 Y144.731 E22.89599
G1 X73.423 Y144.73 E22.91681
G1 X73.445 Y144.85 E22.9201
G1 X77.602 Y144.85 E23.03209
G1 X80.101 Y142.35 E23.12732
G1 X81.105 Y142.35 E23.15437
G1 X81.253 Y142.498 E23.16001
G1 X81.253 Y148.502 E23.32176
G1 X81.105 Y148.65 E23.3274
G1 X80.101 Y148.65 E23.35445
G1 X77.602 Y146.15 E23.44968
G1 X73.416 Y146.15 E23.56245
G1 X73.396 Y146.269 E23.56571
G1 X72.723 Y146.27 E23.58384
G0 F6000 X72.323 Y146.67
;TYPE:WALL-OUTER
G1 F1200 X72.323 Y146.55 E23.58707
G1 X65.54 Y146.55 E23.76981
G1 X63.041 Y149.05 E23.86504
G1 X61.705 Y149.05 E23.90103
G1 X61.323 Y148.668 E23.91559
G1 X61.323 Y142.332 E24.08628
G1 X61.705 Y141.95 E24.10084
G1 X63.041 Y141.95 E24.13683
G1 X65.54 Y144.45 E24.23206
G1 X72.292 Y144.45 E24.41396
G1 X72.312 Y144.331 E24.41721
G1 X73.756 Y144.33 E24.45612
G1 X73.778 Y144.45 E24.4594
G1 X77.436 Y144.45 E24.55795
G1 X79.935 Y141.95 E24.65318
G1 X81.271 Y141.95 E24.68918
