;FLAVOR:Marlin
;TIME:1885
;Filament used: 0.959303m
;Layer height: 0.2
;MINX:110.65
;MINY:90.134
;MINZ:0.2
;MAXX:124.35
;MAXY:144.868
;MAXZ:7.8
;Generated with Cura_SteamEngine master
M82 ;absolute extrusion mode
; Ender 3 Custom Start G-code
M140 S75 ; Set Heat Bed temperature
M104 S160 ; start warming extruder to 160
G28 ; Home all axes
G29 ; Auto bed-level (BL-Touch)
G92 E0 ; Reset Extruder
M190 S75 ; Wait for Heat Bed temperature
M104 S210 ; Set Extruder temperature
G1 X0 Y0 Z0.3 F5000.0 ; Move to 0 0
M109 S210 ; Wait for Extruder temperature
G1 X3 Y20 Z0.3 F5000.0 ; Move to start position
; G1 Z2.0 F3000 ; Move Z Axis up little to prevent scratching of Heat Bed
G1 X3 Y200.0 Z0.3 F1500.0 E15 ; Draw the first line
G1 X3.3 Y200.0 Z0.3 F5000.0 ; Move to side a little
G1 X3.3 Y20 Z0.3 F1500.0 E30 ; Draw the second line
G92 E0 ; Reset Extruder
G1 Z2.0 F3000 ; Move Z Axis up little to prevent scratching of Heat Bed
G92 E0
G92 E0
G1 F2700 E-5
;LAYER_COUNT:39
;LAYER:0
M107
M204 S500
M205 X8 Y8
;MESH:connecting_rod.stl
G0 F6000 X117.52 Y135.822 Z0.2
;TYPE:WALL-INNER
G1 F2700 E0
G1 F1200 X117.163 Y135.835 E0.00962
G1 X116.807 Y135.88 E0.01929
G1 X116.457 Y135.956 E0.02894
G1 X116.117 Y136.062 E0.03854
G1 X115.784 Y136.197 E0.04822
G1 X115.466 Y136.361 E0.05785
G1 X115.163 Y136.552 E0.0675
G1 X114.878 Y136.768 E0.07714
G1 X114.614 Y137.009 E0.08677
G1 X114.371 Y137.272 E0.09642
G1 X114.152 Y137.554 E0.10603
G1 X113.957 Y137.856 E0.11572
G1 X113.791 Y138.171 E0.12531
G1 X113.651 Y138.501 E0.13497
G1 X113.543 Y138.843 E0.14463
G1 X113.464 Y139.19 E0.15422
G1 X113.416 Y139.543 E0.16382
G1 X113.399 Y139.903 E0.17353
G1 X113.412 Y140.262 E0.1832
G1 X113.457 Y140.616 E0.19282
G1 X113.532 Y140.965 E0.20244
G1 X113.639 Y141.308 E0.21212
G1 X113.774 Y141.639 E0.22175
G1 X113.938 Y141.955 E0.23134
G1 X114.129 Y142.26 E0.24103
G1 X114.345 Y142.544 E0.25064
G1 X114.586 Y142.81 E0.26031
G1 X114.848 Y143.052 E0.26992
G1 X115.131 Y143.271 E0.27956
G1 X115.432 Y143.466 E0.28923
G1 X115.748 Y143.632 E0.29884
G1 X116.08 Y143.772 E0.30855
G1 X116.42 Y143.879 E0.31815
G1 X116.768 Y143.959 E0.32777
G1 X117.122 Y144.007 E0.3374
G1 X117.48 Y144.024 E0.34705
G1 X117.837 Y144.011 E0.35668
G1 X118.193 Y143.966 E0.36634
G1 X118.543 Y143.89 E0.37599
G1 X118.883 Y143.784 E0.38559
G1 X119.216 Y143.649 E0.39527
G1 X119.534 Y143.485 E0.40491
G1 X119.837 Y143.294 E0.41456
G1 X120.122 Y143.077 E0.42421
G1 X120.386 Y142.837 E0.43382
G1 X120.629 Y142.574 E0.44347
G1 X120.848 Y142.292 E0.45309
G1 X121.043 Y141.99 E0.46277
G1 X121.209 Y141.674 E0.47239
G1 X121.349 Y141.344 E0.48204
G1 X121.457 Y141.002 E0.49171
G1 X121.536 Y140.656 E0.50127
G1 X121.584 Y140.303 E0.51086
G1 X121.6 Y139.983 E0.5195
G1 X121.605 Y139.945 E0.52053
G1 X121.587 Y139.564 E0.53081
G1 X121.541 Y139.209 E0.54045
G1 X121.467 Y138.878 E0.54959
G1 X121.361 Y138.538 E0.55918
G1 X121.225 Y138.207 E0.56882
G1 X121.062 Y137.891 E0.5784
G1 X120.871 Y137.586 E0.5881
G1 X120.655 Y137.302 E0.59771
G1 X120.414 Y137.036 E0.60738
G1 X120.152 Y136.794 E0.61699
G1 X119.869 Y136.575 E0.62663
G1 X119.568 Y136.38 E0.63629
G1 X119.252 Y136.214 E0.64591
G1 X118.92 Y136.074 E0.65561
G1 X118.58 Y135.967 E0.66522
G1 X118.232 Y135.887 E0.67484
G1 X117.878 Y135.839 E0.68446
G1 X117.52 Y135.822 E0.69412
G0 F6000 X117.518 Y136.222
;TYPE:WALL-OUTER
G1 F1200 X117.196 Y136.234 E0.7028
G1 X116.875 Y136.275 E0.71152
G1 X116.559 Y136.343 E0.72022
G1 X116.252 Y136.439 E0.72889
G1 X115.951 Y136.561 E0.73764
G1 X115.665 Y136.709 E0.74631
G1 X115.391 Y136.881 E0.75503
G1 X115.134 Y137.076 E0.76372
G1 X114.896 Y137.293 E0.7724
G1 X114.676 Y137.531 E0.78113
G1 X114.479 Y137.785 E0.78979
G1 X114.303 Y138.058 E0.79854
G1 X114.153 Y138.343 E0.80722
G1 X114.027 Y138.64 E0.81591
G1 X113.929 Y138.948 E0.82462
G1 X113.858 Y139.261 E0.83326
G1 X113.815 Y139.58 E0.84194
G1 X113.799 Y139.905 E0.8507
G1 X113.811 Y140.229 E0.85944
G1 X113.852 Y140.549 E0.86813
G1 X113.919 Y140.863 E0.87678
G1 X114.016 Y141.172 E0.8855
G1 X114.138 Y141.471 E0.8942
G1 X114.286 Y141.757 E0.90288
G1 X114.458 Y142.032 E0.91162
G1 X114.653 Y142.288 E0.92029
G1 X114.871 Y142.528 E0.92902
G1 X115.107 Y142.747 E0.9377
G1 X115.362 Y142.944 E0.94638
G1 X115.634 Y143.12 E0.9551
G1 X115.919 Y143.27 E0.96378
G1 X116.218 Y143.396 E0.97252
G1 X116.525 Y143.493 E0.9812
G1 X116.839 Y143.565 E0.98988
G1 X117.159 Y143.608 E0.99857
G1 X117.482 Y143.624 E1.00729
G1 X117.804 Y143.612 E1.01597
G1 X118.125 Y143.571 E1.02469
G1 X118.441 Y143.503 E1.03339
G1 X118.748 Y143.407 E1.04206
G1 X119.049 Y143.285 E1.05081
G1 X119.335 Y143.137 E1.05949
G1 X119.609 Y142.965 E1.0682
G1 X119.866 Y142.769 E1.07691
G1 X120.104 Y142.553 E1.08557
G1 X120.324 Y142.315 E1.0943
G1 X120.521 Y142.061 E1.10296
G1 X120.697 Y141.788 E1.11171
G1 X120.847 Y141.503 E1.12039
G1 X120.973 Y141.205 E1.1291
G1 X121.071 Y140.897 E1.13781
G1 X121.142 Y140.585 E1.14643
G1 X121.185 Y140.266 E1.1551
G1 X121.2 Y139.963 E1.16328
G1 X121.204 Y139.93 E1.16417
G1 X121.188 Y139.599 E1.1731
G1 X121.147 Y139.279 E1.18179
G1 X121.08 Y138.982 E1.18999
G1 X120.984 Y138.673 E1.19871
G1 X120.862 Y138.375 E1.20738
G1 X120.714 Y138.089 E1.21606
G1 X120.542 Y137.814 E1.2248
G1 X120.347 Y137.558 E1.23347
G1 X120.129 Y137.318 E1.2422
G1 X119.893 Y137.099 E1.25088
G1 X119.638 Y136.902 E1.25956
G1 X119.366 Y136.726 E1.26829
G1 X119.081 Y136.576 E1.27696
G1 X118.782 Y136.45 E1.2857
G1 X118.475 Y136.353 E1.29438
G1 X118.161 Y136.281 E1.30306
G1 X117.841 Y136.238 E1.31176
G1 X117.518 Y136.222 E1.32047
G0 F6000 X117.52 Y135.782
G1 F2700 E-3.67953
G0 F6000 X116.697 Y133.351
G0 X114.92 Y103.334
;TYPE:WALL-INNER
G1 F2700 E1.32047
G1 F1200 X114.999 Y103.367 E1.32278
G1 X115.218 Y103.442 E1.32901
G1 X115.519 Y103.545 E1.33758
G1 X115.725 Y103.602 E1.34334
G1 X115.725 Y116.731 E1.69705
G1 X115.725 Y116.732 E1.69707
G1 X115.725 Y129.933 E2.05272
G1 X115.327 Y116.738 E2.23056
G1 X114.929 Y103.601 E2.58464
G1 X114.922 Y103.37 E2.5888
G1 X114.92 Y103.334
G1 F2700 E-2.4112
G0 F6000 X116.697 Y133.351
G0 X119.142 Y134.323
G1 F2700 E2.5888
G1 F1200 X119.117 Y135.16 E2.61136
G1 X119.116 Y135.204 E2.61255
G1 X119.113 Y135.296 E2.61503
G1 X118.79 Y135.195 E2.62117
G1 X118.748 Y135.186 E2.62224
G1 X118.376 Y135.099 E2.63253
G1 X117.95 Y135.041 E2.64412
G1 X117.524 Y135.022 E2.6556
G1 X117.099 Y135.037 E2.66706
G1 X116.671 Y135.09 E2.67868
G1 X116.27 Y135.179 E2.68975
G1 X116.253 Y135.182 E2.69021
G1 X115.887 Y135.295 E2.70053
G1 X115.884 Y135.194
G1 X115.884 Y135.176 E2.701
G1 X115.858 Y134.323 E2.72399
G1 X119.142 Y134.323 E2.81247
G1 F2700 E-2.18753
G0 F6000 X120.081 Y103.329
G1 F2700 E2.81247
G1 F1200 X120.077 Y103.462 E2.81605
G1 X120.076 Y103.523 E2.81769
G1 X119.673 Y116.767 E3.17466
G1 X119.275 Y129.933 E3.52953
G1 X119.275 Y116.761 E3.70698
G1 X119.275 Y103.599 E4.06157
G1 X119.42 Y103.562 E4.0656
G1 X119.708 Y103.471 E4.07374
G1 X119.767 Y103.453 E4.07525
G1 X120.081 Y103.329 E4.08098
G0 F6000 X120.5 Y102.699
G1 F1200 X120.499 Y102.74 E4.08208
G1 X120.495 Y102.893 E4.08621
G1 X120.495 Y102.914 E4.08677
G1 X119.504 Y135.618 E4.96825
G1 X119.497 Y135.854 E4.97461
G1 X119.495 Y135.89 E4.97558
G1 X119.423 Y135.852 E4.97653
G1 X119.205 Y135.76 E4.98076
G1 X119.058 Y135.698 E4.98506
G1 X118.685 Y135.581 E4.99559
G1 X118.304 Y135.493 E5.00613
G1 X117.914 Y135.44 E5.01673
G1 X117.522 Y135.422 E5.0273
G1 X117.131 Y135.436 E5.03784
G1 X116.739 Y135.485 E5.04848
G1 X116.355 Y135.569 E5.05907
G1 X115.982 Y135.685 E5.0696
G1 X115.807 Y135.756 E5.07469
G1 X115.617 Y135.833 E5.08021
G1 X115.505 Y135.89 E5.08359
G1 X115.504 Y135.837
G1 X115.498 Y135.633 E5.08747
G1 X114.507 Y102.93 E5.96892
G1 X114.506 Y102.873 E5.97046
G1 X114.5 Y102.699 E5.97515
G1 X114.829 Y102.863 E5.98124
G1 X114.882 Y102.885 E5.98266
G1 X115.141 Y102.993 E5.99022
G1 X115.637 Y103.163 E6.00435
G1 X115.963 Y103.253 E6.01346
G1 X116.125 Y103.285 E6.0179
G1 X116.125 Y133.923 E6.84331
G1 X118.875 Y133.923 E6.9174
G1 X118.875 Y103.287 E7.74276
G1 X119.311 Y103.177 E7.75487
G1 X119.634 Y103.076 E7.76399
G1 X120.105 Y102.89 E7.77763
G1 X120.125 Y102.882 E7.77821
G1 X120.429 Y102.739 E7.78467
G1 X120.5 Y102.699 E7.78553
G0 F6000 X122.499 Y100.154
G0 X123.075 Y99.007
G0 X123.358 Y97.977
G0 X123.451 Y96.901
G0 X123.31 Y95.634
G0 X122.967 Y94.574
G0 X122.353 Y93.477
G0 X121.65 Y92.657
G0 X120.623 Y91.857
G0 X120.077 Y91.586
G0 X118.475 Y90.89
G1 F1200 X118.475 Y90.62 E7.79281
G1 X118.476 Y90.551 E7.79467
G1 X118.533 Y90.561
G1 X118.872 Y90.621 E7.80184
G1 X119.028 Y90.661 E7.80618
G1 X119.329 Y90.739 E7.81456
G1 X119.363 Y90.748 E7.81551
G1 X119.827 Y90.909 E7.82874
G1 X119.868 Y90.924 E7.82992
G1 X120.137 Y91.042 E7.83783
G1 X120.325 Y91.125 E7.84337
G1 X120.608 Y91.277 E7.85202
G1 X120.774 Y91.367 E7.85711
G1 X120.899 Y91.448 E7.86112
G1 X121.219 Y91.656 E7.8714
G1 X121.334 Y91.744 E7.8753
G1 X121.582 Y91.933 E7.8837
G1 X121.636 Y91.974 E7.88553
G1 X121.976 Y92.281 E7.89787
G1 X122.01 Y92.312 E7.89911
G1 X122.21 Y92.525 E7.90698
G1 X122.36 Y92.684 E7.91287
G1 X122.552 Y92.923 E7.92113
G1 X122.685 Y93.088 E7.92684
G1 X122.757 Y93.194 E7.93029
G1 X122.982 Y93.526 E7.9411
G1 X123.043 Y93.634 E7.94444
G1 X123.197 Y93.905 E7.95284
G1 X123.235 Y93.972 E7.95491
G1 X123.424 Y94.379 E7.967
G1 X123.45 Y94.434 E7.96864
G1 X123.546 Y94.693 E7.97608
G1 X123.631 Y94.92 E7.98261
G1 X123.708 Y95.196 E7.99033
G1 X123.774 Y95.43 E7.99688
G1 X123.792 Y95.523 E7.99943
G1 X123.872 Y95.922 E8.0104
G1 X123.885 Y96.041 E8.01362
G1 X123.92 Y96.35 E8.022
G1 X123.931 Y96.44 E8.02444
G1 X123.946 Y96.873 E8.03612
G1 X123.949 Y96.955 E8.03833
G1 X123.938 Y97.207 E8.04512
G1 X123.925 Y97.485 E8.05262
G1 X123.918 Y97.543 E8.05419
G1 X123.862 Y97.978 E8.06601
G1 X123.845 Y98.061 E8.06829
G1 X123.782 Y98.366 E8.07668
G1 X123.756 Y98.489 E8.08007
G1 X123.643 Y98.874 E8.09088
G1 X123.608 Y98.99 E8.09414
G1 X123.53 Y99.194 E8.10003
G1 X123.42 Y99.48 E8.10828
G1 X123.327 Y99.676 E8.11413
G1 X123.201 Y99.939 E8.12198
G1 X123.178 Y99.98 E8.12325
G1 X122.944 Y100.383 E8.1358
G1 X122.909 Y100.433 E8.13745
G1 X122.731 Y100.689 E8.14585
G1 X122.652 Y100.803 E8.14959
G1 X122.405 Y101.103 E8.16005
G1 X122.318 Y101.209 E8.16375
G1 X122.18 Y101.353 E8.16912
G1 X121.958 Y101.583 E8.17773
G1 X121.803 Y101.719 E8.18329
G1 X121.579 Y101.917 E8.19134
G1 X121.547 Y101.941 E8.19242
G1 X121.15 Y102.24 E8.20581
G1 X120.909 Y102.422 E8.21395
G1 X120.908 Y102.455 E8.21484
G1 X119.891 Y136.022 E9.11957
G1 X120.466 Y136.473 E9.13926
G1 X120.762 Y136.752 E9.15022
G1 X121.027 Y137.049 E9.16094
G1 X121.272 Y137.379 E9.17201
G1 X121.474 Y137.707 E9.18239
G1 X121.661 Y138.082 E9.19368
G1 X121.801 Y138.439 E9.20401
G1 X121.918 Y138.838 E9.21521
G1 X121.995 Y139.222 E9.22576
G1 X122.039 Y139.627 E9.23674
G1 X122.048 Y140.026 E9.24749
G1 X122.021 Y140.432 E9.25845
G1 X121.958 Y140.829 E9.26928
G1 X121.859 Y141.225 E9.28028
G1 X121.734 Y141.587 E9.2906
G1 X121.562 Y141.972 E9.30196
G1 X121.366 Y142.32 E9.31272
G1 X121.146 Y142.644 E9.32327
G1 X120.888 Y142.959 E9.33424
G1 X120.603 Y143.25 E9.34521
G1 X120.302 Y143.507 E9.35587
G1 X119.964 Y143.748 E9.36706
G1 X119.631 Y143.943 E9.37745
G1 X119.262 Y144.118 E9.38846
G1 X118.883 Y144.257 E9.39933
G1 X118.508 Y144.359 E9.4098
G1 X118.086 Y144.434 E9.42135
G1 X117.708 Y144.468 E9.43157
G1 X117.292 Y144.468 E9.44278
G1 X116.914 Y144.434 E9.45301
G1 X116.492 Y144.359 E9.46455
G1 X116.117 Y144.257 E9.47502
G1 X115.738 Y144.118 E9.4859
G1 X115.369 Y143.943 E9.4969
G1 X115.036 Y143.748 E9.5073
G1 X114.698 Y143.507 E9.51848
G1 X114.397 Y143.25 E9.52914
G1 X114.112 Y142.959 E9.54012
G1 X113.854 Y142.644 E9.55109
G1 X113.634 Y142.32 E9.56164
G1 X113.438 Y141.972 E9.5724
G1 X113.266 Y141.587 E9.58376
G1 X113.141 Y141.225 E9.59407
G1 X113.042 Y140.829 E9.60507
G1 X112.979 Y140.432 E9.6159
G1 X112.952 Y140.026 E9.62686
G1 X112.961 Y139.627 E9.63761
G1 X113.005 Y139.222 E9.64859
G1 X113.082 Y138.838 E9.65914
G1 X113.199 Y138.439 E9.67034
G1 X113.339 Y138.082 E9.68067
G1 X113.526 Y137.707 E9.69196
G1 X113.728 Y137.379 E9.70234
G1 X113.973 Y137.049 E9.71341
G1 X114.238 Y136.752 E9.72414
G1 X114.534 Y136.473 E9.7351
G1 X115.109 Y136.022 E9.75478
G1 X114.092 Y102.458 E10.65944
G1 X114.091 Y102.422 E10.66041
G1 X114.067 Y102.404 E10.66121
G1 X113.668 Y102.103 E10.67468
G1 X113.421 Y101.917 E10.68301
G1 X113.4 Y101.898 E10.68377
G1 X113.042 Y101.583 E10.69662
G1 X113.008 Y101.547 E10.69795
G1 X112.792 Y101.323 E10.70634
G1 X112.682 Y101.209 E10.7106
G1 X112.449 Y100.926 E10.72048
G1 X112.348 Y100.803 E10.72477
G1 X112.245 Y100.655 E10.72963
G1 X112.056 Y100.383 E10.73855
G1 X111.959 Y100.214 E10.7438
G1 X111.799 Y99.939 E10.75237
G1 X111.79 Y99.921 E10.75291
G1 X111.58 Y99.48 E10.76607
G1 X111.567 Y99.445 E10.76708
G1 X111.456 Y99.155 E10.77544
G1 X111.392 Y98.99 E10.78021
G1 X111.293 Y98.652 E10.7897
G1 X111.244 Y98.489 E10.79429
G1 X111.21 Y98.324 E10.79882
G1 X111.138 Y97.978 E10.80834
G1 X111.117 Y97.809 E10.81293
G1 X111.077 Y97.499 E10.82135
G1 X111.075 Y97.485 E10.82173
G1 X111.075 Y97.472 E10.82208
G1 X111.052 Y96.977 E10.83543
G1 X111.051 Y96.955 E10.83603
G1 X111.061 Y96.642 E10.84446
G1 X111.069 Y96.44 E10.84991
G1 X111.084 Y96.308 E10.85349
G1 X111.128 Y95.922 E10.86396
G1 X111.154 Y95.788 E10.86763
G1 X111.215 Y95.482 E10.87604
G1 X111.226 Y95.43 E10.87747
G1 X111.353 Y94.974 E10.89022
G1 X111.369 Y94.92 E10.89174
G1 X111.468 Y94.653 E10.89941
G1 X111.55 Y94.434 E10.90571
G1 X111.671 Y94.172 E10.91349
G1 X111.765 Y93.972 E10.91944
G1 X111.823 Y93.87 E10.9226
G1 X112.018 Y93.526 E10.93326
G1 X112.091 Y93.418 E10.93677
G1 X112.266 Y93.16 E10.94517
G1 X112.315 Y93.088 E10.94751
G1 X112.591 Y92.744 E10.9594
G1 X112.64 Y92.684 E10.96148
G1 X112.817 Y92.496 E10.96844
G1 X112.99 Y92.312 E10.97524
G1 X113.193 Y92.128 E10.98262
G1 X113.364 Y91.974 E10.98882
G1 X113.452 Y91.907 E10.9918
G1 X113.781 Y91.656 E11.00295
G1 X113.872 Y91.597 E11.00587
G1 X114.135 Y91.426 E11.01432
G1 X114.226 Y91.367 E11.01725
G1 X114.594 Y91.169 E11.0285
G1 X114.675 Y91.125 E11.03099
G1 X114.901 Y91.026 E11.03764
G1 X115.132 Y90.924 E11.04444
G1 X115.389 Y90.835 E11.05177
G1 X115.637 Y90.748 E11.05885
G1 X115.712 Y90.729 E11.06093
G1 X116.128 Y90.621 E11.07251
G1 X116.221 Y90.605 E11.07505
G1 X116.466 Y90.562 E11.08175
G1 X116.525 Y90.551 E11.08337
G1 X116.525 Y90.621
G1 X116.525 Y90.891 E11.08874
G1 X116.279 Y90.932 E11.09435
G1 X116.212 Y90.949 E11.09586
G1 X115.797 Y91.054 E11.10559
G1 X115.739 Y91.072 E11.10693
G1 X115.499 Y91.147 E11.11258
G1 X115.258 Y91.242 E11.11844
G1 X115.035 Y91.33 E11.12386
G1 X114.819 Y91.431 E11.12924
G1 X114.753 Y91.462 E11.13084
G1 X114.393 Y91.663 E11.14018
G1 X114.317 Y91.706 E11.14212
G1 X114.053 Y91.874 E11.14912
G1 X113.984 Y91.926 E11.15102
G1 X113.655 Y92.172 E11.1603
G1 X113.583 Y92.232 E11.16238
G1 X113.416 Y92.374 E11.16732
G1 X113.231 Y92.556 E11.17319
G1 X113.061 Y92.724 E11.17861
G1 X112.89 Y92.911 E11.18433
G1 X112.852 Y92.953 E11.18557
G1 X112.583 Y93.297 E11.19548
G1 X112.544 Y93.347 E11.19687
G1 X112.366 Y93.604 E11.20391
G1 X112.312 Y93.697 E11.2063
G1 X112.115 Y94.035 E11.2152
G1 X112.068 Y94.127 E11.21753
G1 X111.973 Y94.312 E11.22222
G1 X111.866 Y94.567 E11.22848
G1 X111.78 Y94.769 E11.23344
G1 X111.688 Y95.032 E11.23973
G1 X111.676 Y95.064 E11.24046
G1 X111.553 Y95.518 E11.25114
G1 X111.545 Y95.547 E11.25178
G1 X111.481 Y95.852 E11.25883
G1 X111.466 Y95.966 E11.26139
G1 X111.416 Y96.345 E11.27008
G1 X111.407 Y96.466 E11.2728
G1 X111.392 Y96.653 E11.27701
G1 X111.388 Y96.961 E11.28394
G1 X111.412 Y97.456 E11.2952
G1 X111.446 Y97.767 E11.30225
G1 X111.473 Y97.916 E11.30564
G1 X111.536 Y98.256 E11.31348
G1 X111.573 Y98.408 E11.317
G1 X111.61 Y98.558 E11.32045
G1 X111.716 Y98.884 E11.32818
G1 X111.765 Y99.036 E11.33176
G1 X111.88 Y99.325 E11.33876
G1 X111.884 Y99.335 E11.33893
G1 X112.094 Y99.775 E11.35001
G1 X112.246 Y100.047 E11.35703
G1 X112.343 Y100.195 E11.36102
G1 X112.518 Y100.464 E11.36832
G1 X112.619 Y100.599 E11.37212
G1 X112.705 Y100.714 E11.37534
G1 X112.94 Y100.986 E11.38349
G1 X113.031 Y101.092 E11.38663
G1 X113.249 Y101.314 E11.39363
G1 X113.267 Y101.33 E11.39413
