;FLAVOR:Marlin
;TIME:1245
;Filament used: 0.581589m
;Layer height: 0.2
;MINX:76.067
;MINY:103.7
;MINZ:0.2
;MAXX:87.667
;MAXY:131.3
;MAXZ:12
;Generated with Cura_SteamEngine master
M82 ;absolute extrusion mode
; Ender 3 Custom Start G-code
M140 S75 ; Set Heat Bed temperature
M104 S160 ; start warming extruder to 160
G28 ; Home all axes
G29 ; Auto bed-level (BL-Touch)
G92 E0 ; Reset Extruder
M190 S75 ; Wait for Heat Bed temperature
M104 S210 ; Set Extruder temperature
G1 X0 Y0 Z0.3 F5000.0 ; Move to 0 0
M109 S210 ; Wait for Extruder temperature
G1 X3 Y20 Z0.3 F5000.0 ; Move to start position
; G1 Z2.0 F3000 ; Move Z Axis up little to prevent scratching of Heat Bed
G1 X3 Y200.0 Z0.3 F1500.0 E15 ; Draw the first line
G1 X3.3 Y200.0 Z0.3 F5000.0 ; Move to side a little
G1 X3.3 Y20 Z0.3 F1500.0 E30 ; Draw the second line
G92 E0 ; Reset Extruder
G1 Z2.0 F3000 ; Move Z Axis up little to prevent scratching of Heat Bed
G92 E0
G92 E0
G1 F2700 E-5
;LAYER_COUNT:60
;LAYER:0
M107
M204 S500
M205 X8 Y8
;MESH:crank_arm.stl
G0 F6000 X80.532 Y120.448 Z0.2
;TYPE:WALL-INNER
G1 F2700 E0
G1 F1200 X80.165 Y120.559 E0.01033
G1 X79.804 Y120.698 E0.02075
G1 X79.457 Y120.863 E0.0311
G1 X79.142 Y121.041 E0.04085
G1 X78.823 Y121.253 E0.05117
G1 X78.518 Y121.487 E0.06153
G1 X78.231 Y121.746 E0.07194
G1 X77.966 Y122.023 E0.08227
G1 X77.72 Y122.319 E0.09264
G1 X77.496 Y122.635 E0.10307
G1 X77.309 Y122.945 E0.11283
G1 X77.135 Y123.284 E0.12309
G1 X76.983 Y123.64 E0.13352
G1 X76.866 Y123.983 E0.14328
G1 X76.859 Y124.005 E0.14391
G1 X76.764 Y124.378 E0.15428
G1 X76.695 Y124.755 E0.1646
G1 X76.653 Y125.139 E0.17501
G1 X76.642 Y125.502 E0.18479
G1 X76.654 Y125.86 E0.19444
G1 X76.655 Y125.884 E0.19509
G1 X76.687 Y126.174 E0.20295
G1 X76.698 Y126.268 E0.2055
G1 X76.745 Y126.523 E0.21248
G1 X76.768 Y126.647 E0.21588
G1 X76.823 Y126.856 E0.2217
G1 X76.867 Y127.019 E0.22625
G1 X76.918 Y127.17 E0.23055
G1 X76.991 Y127.383 E0.23661
G1 X77.036 Y127.488 E0.23969
G1 X77.144 Y127.739 E0.24705
G1 X77.179 Y127.806 E0.24909
G1 X77.322 Y128.078 E0.25737
G1 X77.341 Y128.11 E0.25837
G1 X77.511 Y128.387 E0.26713
G1 X77.519 Y128.398 E0.26749
G1 X77.684 Y128.626 E0.27507
G1 X77.728 Y128.692 E0.27721
G1 X77.946 Y128.951 E0.28633
G1 X77.98 Y128.992 E0.28777
G1 X78.177 Y129.197 E0.29543
G1 X78.249 Y129.272 E0.29823
G1 X78.427 Y129.429 E0.30462
G1 X78.539 Y129.529 E0.30867
G1 X78.688 Y129.642 E0.3137
G1 X78.843 Y129.761 E0.31897
G1 X78.958 Y129.837 E0.32268
G1 X79.163 Y129.972 E0.3293
G1 X79.264 Y130.028 E0.33241
G1 X79.48 Y130.148 E0.33906
G1 X79.555 Y130.183 E0.34129
G1 X79.826 Y130.31 E0.34936
G1 X79.861 Y130.323 E0.35036
G1 X80.189 Y130.449 E0.35983
G1 X80.511 Y130.545 E0.36888
G1 X80.558 Y130.559 E0.3702
G1 X80.862 Y130.625 E0.37858
G1 X80.932 Y130.641 E0.38052
G1 X81.195 Y130.679 E0.38768
G1 X81.314 Y130.697 E0.39092
G1 X81.52 Y130.71 E0.39648
G1 X81.699 Y130.723 E0.40131
G1 X81.867 Y130.723 E0.40584
G1 X82.06 Y130.722 E0.41104
G1 X82.219 Y130.711 E0.41533
G1 X82.442 Y130.694 E0.42136
G1 X82.545 Y130.679 E0.42416
G1 X82.826 Y130.637 E0.43182
G1 X82.885 Y130.624 E0.43345
G1 X83.202 Y130.552 E0.4422
G1 X83.556 Y130.445 E0.45217
G1 X83.568 Y130.441 E0.45251
G1 X83.878 Y130.322 E0.46145
G1 X83.929 Y130.302 E0.46293
G1 X84.183 Y130.182 E0.4705
G1 X84.277 Y130.137 E0.4733
G1 X84.473 Y130.026 E0.47937
G1 X84.59 Y129.959 E0.483
G1 X84.78 Y129.834 E0.48913
G1 X84.911 Y129.748 E0.49335
G1 X85.057 Y129.635 E0.49833
G1 X85.216 Y129.512 E0.50374
G1 X85.301 Y129.435 E0.50683
G1 X85.502 Y129.254 E0.51412
G1 X85.559 Y129.194 E0.51635
G1 X85.768 Y128.976 E0.52449
G1 X85.797 Y128.941 E0.52571
G1 X86.013 Y128.681 E0.53482
G1 X86.214 Y128.396 E0.54421
G1 X86.236 Y128.365 E0.54524
G1 X86.4 Y128.096 E0.55372
G1 X86.424 Y128.057 E0.55496
G1 X86.547 Y127.817 E0.56222
G1 X86.6 Y127.715 E0.56532
G1 X86.698 Y127.481 E0.57215
G1 X86.75 Y127.359 E0.57573
G1 X86.814 Y127.171 E0.58108
G1 X86.874 Y126.995 E0.58609
G1 X86.911 Y126.851 E0.59009
G1 X86.97 Y126.622 E0.59646
G1 X86.989 Y126.515 E0.59939
G1 X87.039 Y126.245 E0.60679
G1 X87.046 Y126.171 E0.60879
G1 X87.08 Y125.861 E0.61719
G1 X87.08 Y125.844 E0.61765
G1 X87.092 Y125.498 E0.62698
G1 X87.078 Y125.115 E0.6373
G1 X87.035 Y124.732 E0.64769
G1 X86.965 Y124.353 E0.65807
G1 X86.869 Y123.991 E0.66816
G1 X86.866 Y123.981 E0.66844
G1 X86.742 Y123.617 E0.6788
G1 X86.589 Y123.261 E0.68924
G1 X86.411 Y122.922 E0.69956
G1 X86.222 Y122.613 E0.70931
G1 X86.046 Y122.37 E0.7174
G1 X86.009 Y122.311 E0.71927
G1 X85.753 Y122.007 E0.72998
G1 X85.484 Y121.728 E0.74042
G1 X85.196 Y121.472 E0.7508
G1 X84.891 Y121.239 E0.76114
G1 X84.569 Y121.028 E0.77151
G1 X84.253 Y120.852 E0.78126
G1 X83.907 Y120.69 E0.79155
G1 X83.545 Y120.551 E0.802
G1 X83.176 Y120.441 E0.81237
G1 X82.801 Y120.359 E0.82271
G1 X82.419 Y120.303 E0.83311
G1 X82.034 Y120.277 E0.84351
G1 X81.673 Y120.278 E0.85324
G1 X81.291 Y120.306 E0.86356
G1 X80.907 Y120.363 E0.87401
G1 X80.532 Y120.448 E0.88437
G0 F6000 X80.635 Y120.835
;TYPE:WALL-OUTER
G1 F1200 X80.295 Y120.938 E0.89394
G1 X79.962 Y121.066 E0.90355
G1 X79.641 Y121.218 E0.91312
G1 X79.351 Y121.382 E0.9221
G1 X79.056 Y121.578 E0.93164
G1 X78.774 Y121.795 E0.94123
G1 X78.51 Y122.033 E0.9508
G1 X78.265 Y122.289 E0.96035
G1 X78.038 Y122.563 E0.96994
G1 X77.831 Y122.855 E0.97958
G1 X77.658 Y123.14 E0.98856
G1 X77.497 Y123.454 E0.99807
G1 X77.357 Y123.783 E1.0077
G1 X77.243 Y124.119 E1.01726
G1 X77.155 Y124.464 E1.02685
G1 X77.091 Y124.813 E1.03641
G1 X77.052 Y125.167 E1.046
G1 X77.042 Y125.501 E1.05501
G1 X77.054 Y125.855 E1.06455
G1 X77.094 Y126.209 E1.07415
G1 X77.159 Y126.559 E1.08374
G1 X77.25 Y126.903 E1.09332
G1 X77.365 Y127.239 E1.10289
G1 X77.506 Y127.567 E1.11251
G1 X77.67 Y127.881 E1.12205
G1 X77.844 Y128.165 E1.13103
G1 X78.017 Y128.404 E1.13897
G1 X78.049 Y128.452 E1.14053
G1 X78.278 Y128.725 E1.15013
G1 X78.526 Y128.983 E1.15977
G1 X78.793 Y129.22 E1.16939
G1 X79.075 Y129.435 E1.17894
G1 X79.371 Y129.63 E1.18849
G1 X79.662 Y129.792 E1.19746
G1 X79.982 Y129.942 E1.20698
G1 X80.317 Y130.07 E1.21665
G1 X80.658 Y130.171 E1.22623
G1 X81.004 Y130.247 E1.23577
G1 X81.357 Y130.299 E1.24538
G1 X81.712 Y130.323 E1.25497
G1 X82.045 Y130.322 E1.26394
G1 X82.398 Y130.296 E1.27348
G1 X82.752 Y130.244 E1.28312
G1 X83.099 Y130.165 E1.2927
G1 X83.438 Y130.062 E1.30225
G1 X83.771 Y129.934 E1.31186
G1 X84.092 Y129.782 E1.32143
G1 X84.381 Y129.618 E1.33038
G1 X84.678 Y129.422 E1.33997
G1 X84.959 Y129.205 E1.34953
G1 X85.223 Y128.967 E1.35911
G1 X85.469 Y128.71 E1.36869
G1 X85.695 Y128.437 E1.37824
G1 X85.902 Y128.145 E1.38788
G1 X86.075 Y127.861 E1.39684
G1 X86.237 Y127.545 E1.40641
G1 X86.376 Y127.217 E1.41601
G1 X86.49 Y126.881 E1.42557
G1 X86.579 Y126.536 E1.43516
G1 X86.643 Y126.187 E1.44472
G1 X86.681 Y125.833 E1.45432
G1 X86.692 Y125.499 E1.46332
G1 X86.679 Y125.145 E1.47286
G1 X86.639 Y124.791 E1.48246
G1 X86.574 Y124.441 E1.49205
G1 X86.483 Y124.097 E1.50164
G1 X86.368 Y123.761 E1.5112
G1 X86.227 Y123.433 E1.52082
G1 X86.063 Y123.119 E1.53037
G1 X85.889 Y122.835 E1.53934
G1 X85.711 Y122.589 E1.54752
G1 X85.685 Y122.548 E1.54883
G1 X85.456 Y122.275 E1.55843
G1 X85.207 Y122.017 E1.56809
G1 X84.941 Y121.781 E1.57767
G1 X84.659 Y121.565 E1.58724
G1 X84.362 Y121.37 E1.59681
G1 X84.071 Y121.208 E1.60578
G1 X83.751 Y121.058 E1.6153
G1 X83.416 Y120.93 E1.62496
G1 X83.076 Y120.829 E1.63452
G1 X82.729 Y120.753 E1.64409
G1 X82.376 Y120.701 E1.6537
G1 X82.021 Y120.677 E1.66329
G1 X81.688 Y120.678 E1.67226
G1 X81.335 Y120.704 E1.6818
G1 X80.981 Y120.756 E1.69143
G1 X80.635 Y120.835 E1.701
G0 F6000 X80.523 Y120.41
G0 X80.507 Y120.352
G0 X77.889 Y107.19
;TYPE:WALL-INNER
G1 F1200 X78.048 Y106.937 E1.70905
G1 X78.213 Y106.706 E1.71669
G1 X78.413 Y106.462 E1.72519
G1 X78.605 Y106.258 E1.73274
G1 X78.836 Y106.04 E1.7413
G1 X79.066 Y105.852 E1.7493
G1 X79.294 Y105.688 E1.75687
G1 X79.575 Y105.514 E1.76577
G1 X79.839 Y105.372 E1.77385
G1 X80.1 Y105.253 E1.78158
G1 X80.416 Y105.135 E1.79066
G1 X80.636 Y105.068 E1.79686
G1 X80.973 Y104.99 E1.80618
G1 X81.281 Y104.939 E1.81459
G1 X81.543 Y104.914 E1.82168
G1 X81.872 Y104.901 E1.83055
G1 X82.186 Y104.912 E1.83901
G1 X82.448 Y104.937 E1.8461
G1 X82.756 Y104.988 E1.85451
G1 X83.093 Y105.066 E1.86383
G1 X83.313 Y105.133 E1.87003
G1 X83.629 Y105.251 E1.87912
G1 X83.896 Y105.373 E1.88703
G1 X84.159 Y105.512 E1.89504
G1 X84.435 Y105.684 E1.9038
G1 X84.662 Y105.847 E1.91133
G1 X84.888 Y106.032 E1.9192
G1 X85.125 Y106.254 E1.92795
G1 X85.318 Y106.46 E1.93555
G1 X85.533 Y106.722 E1.94468
G1 X85.668 Y106.911 E1.95094
G1 X85.856 Y107.212 E1.9605
G1 X85.976 Y107.434 E1.9673
G1 X86.129 Y107.773 E1.97732
G1 X86.212 Y107.992 E1.98363
G1 X86.303 Y108.29 E1.99202
G1 X86.378 Y108.616 E2.00104
G1 X86.427 Y108.907 E2.00899
G1 X86.453 Y109.163 E2.01592
G1 X86.466 Y109.526 E2.0257
G1 X86.466 Y121.123 E2.33814
G1 X86.466 Y121.47 E2.34748
G1 X86.467 Y121.613 E2.35134
G1 X86.347 Y121.471 E2.35279
G1 X86.107 Y121.221 E2.35908
G1 X86.038 Y121.15 E2.36175
G1 X85.706 Y120.854 E2.37373
G1 X85.353 Y120.585 E2.38569
G1 X84.983 Y120.343 E2.3976
G1 X84.617 Y120.14 E2.40887
G1 X84.221 Y119.954 E2.42066
G1 X83.803 Y119.793 E2.43273
G1 X83.376 Y119.665 E2.44474
G1 X82.945 Y119.571 E2.45662
G1 X82.504 Y119.507 E2.46862
G1 X82.06 Y119.477 E2.48061
G1 X81.643 Y119.478 E2.49185
G1 X81.203 Y119.51 E2.50373
G1 X80.759 Y119.577 E2.51583
G1 X80.328 Y119.674 E2.52773
G1 X79.905 Y119.801 E2.53963
G1 X79.488 Y119.962 E2.55167
G1 X79.087 Y120.153 E2.56364
G1 X78.724 Y120.359 E2.57488
G1 X78.357 Y120.601 E2.58673
G1 X78.006 Y120.871 E2.59866
G1 X77.673 Y121.172 E2.61075
G1 X77.625 Y121.222 E2.61262
G1 X77.368 Y121.491 E2.62264
G1 X77.268 Y121.612 E2.62687
G1 X77.268 Y121.492 E2.62704
G1 X77.268 Y121.12 E2.63358
G1 X77.267 Y109.544 E2.94544
G1 X77.279 Y109.162 E2.95574
G1 X77.303 Y108.917 E2.96237
G1 X77.353 Y108.62 E2.97049
G1 X77.427 Y108.297 E2.97941
G1 X77.52 Y107.991 E2.98803
G1 X77.607 Y107.761 E2.99466
G1 X77.724 Y107.503 E3.00229
G1 X77.889 Y107.19 E3.01182
G0 F6000 X77.542 Y106.99
G1 F1200 X77.713 Y106.718 E3.02048
G1 X77.894 Y106.464 E3.02888
G1 X78.11 Y106.201 E3.03805
G1 X78.33 Y105.967 E3.0467
G1 X78.569 Y105.741 E3.05556
G1 X78.819 Y105.537 E3.06425
G1 X79.075 Y105.353 E3.07275
G1 X79.378 Y105.165 E3.08235
G1 X79.656 Y105.016 E3.09085
G1 X79.945 Y104.884 E3.09941
G1 X80.281 Y104.759 E3.10907
G1 X80.299 Y104.754 E3.10957
G1 X80.518 Y104.687 E3.11574
G1 X80.542 Y104.679 E3.11642
G1 X80.896 Y104.597 E3.12621
G1 X81.222 Y104.543 E3.13512
G1 X81.242 Y104.542 E3.13566
G1 X81.524 Y104.514 E3.14329
G1 X81.87 Y104.501 E3.15262
G1 X82.205 Y104.512 E3.16165
G1 X82.507 Y104.541 E3.16982
G1 X82.833 Y104.595 E3.17872
G1 X83.187 Y104.677 E3.18851
G1 X83.448 Y104.757 E3.19587
G1 X83.784 Y104.882 E3.20553
G1 X84.071 Y105.013 E3.21403
G1 X84.361 Y105.167 E3.22287
G1 X84.654 Y105.349 E3.23216
G1 X84.909 Y105.532 E3.24062
G1 X85.159 Y105.737 E3.24933
G1 X85.399 Y105.962 E3.25819
G1 X85.621 Y106.199 E3.26694
G1 X85.842 Y106.468 E3.27632
G1 X85.857 Y106.49 E3.27704
G1 X86.007 Y106.699 E3.28397
G1 X86.203 Y107.013 E3.29394
G1 X86.341 Y107.269 E3.30178
G1 X86.494 Y107.608 E3.3118
G1 X86.595 Y107.875 E3.31949
G1 X86.689 Y108.183 E3.32816
G1 X86.768 Y108.526 E3.33764
G1 X86.82 Y108.84 E3.34622
G1 X86.825 Y108.866 E3.34693
G1 X86.853 Y109.149 E3.35459
G1 X86.866 Y109.512 E3.36438
G1 X86.866 Y121.613 E3.69039
G1 X86.866 Y122.255 E3.70769
G1 X86.866 Y122.391 E3.71135
G1 X86.866 Y122.723 E3.72029
G1 X86.867 Y122.93 E3.72587
G1 X86.759 Y122.724 E3.72714
G1 X86.555 Y122.391 E3.7332
G1 X86.476 Y122.281 E3.73646
G1 X86.379 Y122.147 E3.74092
G1 X86.333 Y122.075 E3.74322
G1 X86.05 Y121.739 E3.75506
G1 X85.761 Y121.439 E3.76628
G1 X85.451 Y121.163 E3.77746
G1 X85.122 Y120.912 E3.78861
G1 X84.776 Y120.686 E3.79974
G1 X84.764 Y120.68 E3.80011
G1 X84.435 Y120.496 E3.81026
G1 X84.064 Y120.322 E3.8213
G1 X83.674 Y120.172 E3.83256
G1 X83.276 Y120.053 E3.84375
G1 X82.873 Y119.965 E3.85486
G1 X82.462 Y119.905 E3.86605
G1 X82.047 Y119.877 E3.87726
G1 X81.658 Y119.878 E3.88774
G1 X81.247 Y119.908 E3.89884
G1 X80.833 Y119.97 E3.91012
G1 X80.43 Y120.061 E3.92125
G1 X80.035 Y120.18 E3.93236
G1 X79.646 Y120.33 E3.94359
G1 X79.272 Y120.508 E3.95475
G1 X78.933 Y120.7 E3.96525
G1 X78.59 Y120.927 E3.97633
G1 X78.262 Y121.179 E3.98747
G1 X77.952 Y121.459 E3.99873
G1 X77.667 Y121.757 E4.00984
G1 X77.403 Y122.075 E4.02097
G1 X77.257 Y122.281 E4.02777
G1 X77.161 Y122.416 E4.03224
G1 X76.959 Y122.75 E4.04275
G1 X76.868 Y122.928 E4.04814
G1 X76.868 Y122.75 E4.04855
G1 X76.868 Y122.417 E4.05353
G1 X76.868 Y122.251 E4.05744
G1 X76.867 Y109.531 E4.40013
G1 X76.879 Y109.149 E4.41043
G1 X76.906 Y108.869 E4.418
G1 X76.963 Y108.53 E4.42727
G1 X77.04 Y108.195 E4.43653
G1 X77.137 Y107.875 E4.44553
G1 X77.24 Y107.602 E4.45339
G1 X77.37 Y107.316 E4.46186
G1 X77.542 Y106.99 E4.47179
G0 F6000 X77.195 Y106.79
G1 F1200 X77.378 Y106.499 E4.48105
G1 X77.575 Y106.222 E4.49021
G1 X77.813 Y105.932 E4.50031
G1 X78.047 Y105.684 E4.5095
G1 X78.302 Y105.443 E4.51895
G1 X78.572 Y105.222 E4.52835
G1 X78.856 Y105.018 E4.53777
G1 X79.181 Y104.816 E4.54808
G1 X79.474 Y104.659 E4.55704
G1 X79.795 Y104.513 E4.56654
G1 X80.141 Y104.384 E4.57649
G1 X80.425 Y104.298 E4.58448
G1 X80.448 Y104.29 E4.58514
G1 X80.819 Y104.204 E4.5954
G1 X81.164 Y104.147 E4.60482
G1 X81.183 Y104.146 E4.60533
G1 X81.503 Y104.114 E4.61399
G1 X81.868 Y104.101 E4.62383
G1 X82.226 Y104.112 E4.63348
G1 X82.565 Y104.145 E4.64266
G1 X82.91 Y104.202 E4.65208
G1 X83.281 Y104.288 E4.66234
G1 X83.588 Y104.382 E4.67099
G1 X83.934 Y104.511 E4.68094
G1 X84.237 Y104.649 E4.68991
G1 X84.569 Y104.825 E4.70003
G1 X84.873 Y105.014 E4.70967
G1 X85.157 Y105.218 E4.71909
G1 X85.42 Y105.434 E4.72826
G1 X85.682 Y105.679 E4.73793
G1 X85.924 Y105.938 E4.74748
G1 X86.151 Y106.214 E4.7571
G1 X86.166 Y106.236 E4.75782
G1 X86.346 Y106.487 E4.76614
G1 X86.547 Y106.808 E4.77635
G1 X86.706 Y107.104 E4.7854
G1 X86.859 Y107.443 E4.79542
G1 X86.977 Y107.755 E4.80441
G1 X87.077 Y108.085 E4.81369
G1 X87.162 Y108.451 E4.82382
G1 X87.22 Y108.8 E4.83335
G1 X87.253 Y109.135 E4.84242
G1 X87.266 Y109.498 E4.8522
G1 X87.266 Y122.93 E5.21407
G1 X87.266 Y123.979 E5.24233
G1 X87.266 Y124.353 E5.25118
G1 X87.266 Y124.732 E5.25797
G1 X87.266 Y125.114 E5.26336
G1 X87.267 Y125.482 E5.26776
G1 X87.267 Y125.503
G1 X87.256 Y125.849 E5.27188
G1 X87.254 Y125.877
G1 X87.223 Y126.189 E5.2756
G1 X87.209 Y126.273 E5.27669
G1 X87.163 Y126.546 E5.27995
G1 X87.137 Y126.66 E5.28138
G1 X87.083 Y126.895 E5.28425
G1 X87.039 Y127.044 E5.28613
G1 X86.983 Y127.228 E5.28845
G1 X86.912 Y127.419 E5.29089
G1 X86.863 Y127.55 E5.29258
G1 X86.757 Y127.785 E5.29564
G1 X86.706 Y127.898 E5.29717
G1 X86.577 Y128.138 E5.30041
G1 X86.551 Y128.187
G1 X86.384 Y128.456 E5.30415
G1 X86.358 Y128.497
G1 X86.155 Y128.781 E5.30827
G1 X86.147 Y128.79
G1 X85.932 Y129.053 E5.31225
G1 X85.894 Y129.093 E5.31297
G1 X85.687 Y129.315 E5.31654
G1 X85.62 Y129.378 E5.31768
G1 X85.42 Y129.566 E5.32092
G1 X85.325 Y129.644 E5.32242
G1 X85.166 Y129.775 E5.32488
G1 X85.011 Y129.886 E5.32715
G1 X84.878 Y129.982 E5.32914
G1 X84.681 Y130.104 E5.33188
G1 X84.561 Y130.179 E5.33358
G1 X84.358 Y130.287 E5.33629
G1 X84.259 Y130.34 E5.33755
G1 X84.001 Y130.458 E5.34088
G1 X83.941 Y130.485 E5.34097
G1 X83.629 Y130.602 E5.34487
G1 X83.607 Y130.61
G1 X83.261 Y130.716 E5.34907
G1 X83.242 Y130.72 E5.3496
G1 X82.924 Y130.795 E5.35343
G1 X82.854 Y130.806 E5.35433
G1 X82.571 Y130.853 E5.3577
G1 X82.459 Y130.863 E5.35897
G1 X82.232 Y130.886 E5.36166
G1 X82.067 Y130.891 E5.36363
G1 X81.868 Y130.899 E5.36599
G1 X81.694 Y130.894 E5.36808
G1 X81.509 Y130.888 E5.3703
G1 X81.298 Y130.868 E5.37283
G1 X81.17 Y130.855 E5.3744
G1 X80.904 Y130.812 E5.37761
G1 X80.825 Y130.798 E5.37808
G1 X80.52 Y130.728 E5.38176
G1 X80.461 Y130.714
G1 X80.136 Y130.615 E5.3858
G1 X79.798 Y130.489 E5.39014
G1 X79.754 Y130.469 E5.39079
G1 X79.48 Y130.344 E5.39438
G1 X79.399 Y130.301 E5.39552
G1 X79.178 Y130.183 E5.3985
G1 X79.073 Y130.118 E5.40002
G1 X78.861 Y129.986 E5.40297
G1 X78.743 Y129.902 E5.40473
G1 X78.58 Y129.785 E5.40713
G1 X78.43 Y129.663 E5.40947
G1 X78.309 Y129.563 E5.41136
