;FLAVOR:Marlin
;TIME:1334
;Filament used: 0.412247m
;Layer height: 0.2
;MINX:76.115
;MINY:112.7
;MINZ:0.2
;MAXX:85.709
;MAXY:122.3
;MAXZ:28
;Generated with Cura_SteamEngine master
M82 ;absolute extrusion mode
; Ender 3 Custom Start G-code
M140 S75 ; Set Heat Bed temperature
M104 S160 ; start warming extruder to 160
G28 ; Home all axes
G29 ; Auto bed-level (BL-Touch)
G92 E0 ; Reset Extruder
M190 S75 ; Wait for Heat Bed temperature
M104 S210 ; Set Extruder temperature
G1 X0 Y0 Z0.3 F5000.0 ; Move to 0 0
M109 S210 ; Wait for Extruder temperature
G1 X3 Y20 Z0.3 F5000.0 ; Move to start position
; G1 Z2.0 F3000 ; Move Z Axis up little to prevent scratching of Heat Bed
G1 X3 Y200.0 Z0.3 F1500.0 E15 ; Draw the first line
G1 X3.3 Y200.0 Z0.3 F5000.0 ; Move to side a little
G1 X3.3 Y20 Z0.3 F1500.0 E30 ; Draw the second line
G92 E0 ; Reset Extruder
G1 Z2.0 F3000 ; Move Z Axis up little to prevent scratching of Heat Bed
G92 E0
G92 E0
G1 F2700 E-5
;LAYER_COUNT:140
;LAYER:0
M107
M204 S500
M205 X8 Y8
;MESH:crank_bolt.stl
G0 F6000 X78.805 Y120.418 Z0.2
;TYPE:WALL-INNER
G1 F2700 E0
G1 F1200 X78.601 Y120.258 E0.00698
G1 X78.4 Y120.076 E0.01429
G1 X78.073 Y119.712 E0.02747
G1 X77.808 Y119.321 E0.0402
G1 X77.662 Y119.045 E0.04861
G1 X77.575 Y118.849 E0.05439
G1 X77.489 Y118.612 E0.06118
G1 X77.422 Y118.372 E0.06789
G1 X77.365 Y118.107 E0.07519
G1 X77.315 Y117.63 E0.08812
G1 X77.315 Y117.366 E0.09523
G1 X77.367 Y116.879 E0.10842
G1 X77.422 Y116.626 E0.1154
G1 X77.493 Y116.375 E0.12243
G1 X77.569 Y116.165 E0.12844
G1 X77.678 Y115.924 E0.13557
G1 X77.804 Y115.686 E0.14282
G1 X78.076 Y115.285 E0.15588
G1 X78.239 Y115.09 E0.16272
G1 X78.4 Y114.924 E0.16895
G1 X78.606 Y114.738 E0.17643
G1 X79.002 Y114.448 E0.18965
G1 X79.213 Y114.328 E0.19619
G1 X79.454 Y114.209 E0.20344
G1 X79.696 Y114.112 E0.21046
G1 X79.91 Y114.042 E0.21652
G1 X80.167 Y113.978 E0.22366
G1 X80.388 Y113.939 E0.22971
G1 X80.665 Y113.909 E0.23721
G1 X80.908 Y113.901 E0.24376
G1 X81.168 Y113.912 E0.25077
G1 X81.419 Y113.938 E0.25757
G1 X81.676 Y113.982 E0.2646
G1 X82.135 Y114.115 E0.27747
G1 X82.375 Y114.211 E0.28443
G1 X82.588 Y114.316 E0.29083
G1 X82.825 Y114.452 E0.29819
G1 X83.035 Y114.593 E0.30501
G1 X83.217 Y114.736 E0.31124
G1 X83.416 Y114.915 E0.31845
G1 X83.744 Y115.278 E0.33164
G1 X83.9 Y115.494 E0.33881
G1 X84.018 Y115.682 E0.34479
G1 X84.147 Y115.924 E0.35218
G1 X84.253 Y116.16 E0.35915
G1 X84.401 Y116.612 E0.37196
G1 X84.454 Y116.861 E0.37882
G1 X84.491 Y117.119 E0.38584
G1 X84.509 Y117.38 E0.39289
G1 X84.509 Y117.616 E0.39925
G1 X84.491 Y117.88 E0.40638
G1 X84.458 Y118.113 E0.41272
G1 X84.402 Y118.383 E0.42015
G1 X84.261 Y118.821 E0.43254
G1 X84.146 Y119.078 E0.44013
G1 X84.028 Y119.302 E0.44695
G1 X83.905 Y119.499 E0.45321
G1 X83.741 Y119.726 E0.46075
G1 X83.579 Y119.917 E0.4675
G1 X83.43 Y120.071 E0.47327
G1 X83.211 Y120.27 E0.48124
G1 X83.05 Y120.396 E0.48675
G1 X82.817 Y120.553 E0.49432
G1 X82.596 Y120.68 E0.50119
G1 X82.364 Y120.795 E0.50816
G1 X82.148 Y120.881 E0.51443
G1 X81.903 Y120.962 E0.52138
G1 X81.676 Y121.018 E0.52768
G1 X81.419 Y121.062 E0.5347
G1 X81.168 Y121.088 E0.5415
G1 X80.908 Y121.099 E0.54851
G1 X80.665 Y121.091 E0.55506
G1 X80.388 Y121.061 E0.56257
G1 X80.167 Y121.022 E0.56861
G1 X79.91 Y120.958 E0.57575
G1 X79.696 Y120.888 E0.58182
G1 X79.454 Y120.791 E0.58884
G1 X79.205 Y120.668 E0.59632
G1 X78.805 Y120.418 E0.60903
G0 F6000 X78.574 Y120.745
G1 F1200 X78.34 Y120.561 E0.61705
G1 X78.127 Y120.369 E0.62478
G1 X77.938 Y120.174 E0.63209
G1 X77.76 Y119.961 E0.63957
G1 X77.592 Y119.73 E0.64726
G1 X77.457 Y119.514 E0.65413
G1 X77.308 Y119.232 E0.66272
G1 X77.298 Y119.208 E0.66342
G1 X77.203 Y118.997 E0.66965
G1 X77.108 Y118.734 E0.67719
G1 X77.033 Y118.467 E0.68466
G1 X76.971 Y118.178 E0.69262
G1 X76.934 Y117.91 E0.69991
G1 X76.915 Y117.645 E0.70707
G1 X76.915 Y117.352 E0.71496
G1 X76.934 Y117.084 E0.7222
G1 X76.972 Y116.815 E0.72952
G1 X77.034 Y116.528 E0.73743
G1 X77.108 Y116.266 E0.74476
G1 X77.199 Y116.013 E0.75201
G1 X77.324 Y115.737 E0.76017
G1 X77.45 Y115.499 E0.76743
G1 X77.466 Y115.474 E0.76822
G1 X77.605 Y115.253 E0.77526
G1 X77.763 Y115.036 E0.78249
G1 X77.94 Y114.824 E0.78993
G1 X78.127 Y114.631 E0.79717
G1 X78.349 Y114.431 E0.80522
G1 X78.561 Y114.264 E0.81249
G1 X78.778 Y114.118 E0.81954
G1 X78.789 Y114.11 E0.8199
G1 X78.804 Y114.102 E0.82036
G1 X79.036 Y113.969 E0.82757
G1 X79.29 Y113.844 E0.83519
G1 X79.553 Y113.738 E0.84283
G1 X79.786 Y113.663 E0.84943
G1 X79.802 Y113.657 E0.84989
G1 X80.085 Y113.586 E0.85775
G1 X80.337 Y113.542 E0.86464
G1 X80.636 Y113.51 E0.87274
G1 X80.91 Y113.501 E0.88013
G1 X81.194 Y113.512 E0.88778
G1 X81.473 Y113.541 E0.89534
G1 X81.754 Y113.59 E0.90302
G1 X82.018 Y113.655 E0.91035
G1 X82.272 Y113.739 E0.91756
G1 X82.536 Y113.844 E0.92521
G1 X82.78 Y113.964 E0.93254
G1 X83.03 Y114.108 E0.94031
G1 X83.274 Y114.272 E0.94823
G1 X83.472 Y114.427 E0.955
G1 X83.697 Y114.63 E0.96317
G1 X83.885 Y114.825 E0.97047
G1 X84.059 Y115.031 E0.97773
G1 X84.224 Y115.259 E0.98531
G1 X84.237 Y115.281 E0.986
G1 X84.367 Y115.486 E0.99254
G1 X84.508 Y115.751 E1.00063
G1 X84.617 Y115.997 E1.00788
G1 X84.624 Y116.011 E1.0083
G1 X84.719 Y116.273 E1.01581
G1 X84.789 Y116.514 E1.02257
G1 X84.849 Y116.796 E1.03033
G1 X84.889 Y117.076 E1.03795
G1 X84.909 Y117.366 E1.04579
G1 X84.909 Y117.631 E1.05292
G1 X84.889 Y117.924 E1.06084
G1 X84.85 Y118.195 E1.06821
G1 X84.791 Y118.477 E1.07597
G1 X84.719 Y118.728 E1.08301
G1 X84.63 Y118.975 E1.09008
G1 X84.506 Y119.254 E1.09831
G1 X84.378 Y119.496 E1.10568
G1 X84.23 Y119.733 E1.11321
G1 X84.06 Y119.969 E1.12105
G1 X83.88 Y120.18 E1.12852
G1 X83.867 Y120.193 E1.12901
G1 X83.704 Y120.363 E1.13536
G1 X83.472 Y120.573 E1.14379
G1 X83.457 Y120.584 E1.14429
G1 X83.285 Y120.719 E1.15018
G1 X83.274 Y120.726 E1.15053
G1 X83.041 Y120.883 E1.1581
G1 X83.017 Y120.9 E1.15889
G1 X82.788 Y121.032 E1.16602
G1 X82.536 Y121.156 E1.17358
G1 X82.512 Y121.165 E1.17427
G1 X82.297 Y121.251 E1.18051
G1 X82.273 Y121.261 E1.18121
G1 X82.018 Y121.345 E1.18844
G1 X81.999 Y121.349 E1.18897
G1 X81.773 Y121.405 E1.19524
G1 X81.754 Y121.41 E1.19577
G1 X81.473 Y121.459 E1.20345
G1 X81.194 Y121.488 E1.21101
G1 X80.91 Y121.499 E1.21867
G1 X80.636 Y121.49 E1.22605
G1 X80.337 Y121.458 E1.23415
G1 X80.085 Y121.414 E1.24105
G1 X79.802 Y121.343 E1.24891
G1 X79.553 Y121.262 E1.25596
G1 X79.29 Y121.156 E1.2636
G1 X79.028 Y121.027 E1.27147
G1 X78.787 Y120.888 E1.27896
G1 X78.574 Y120.745 E1.28588
G0 F6000 X78.335 Y121.066
G1 F1200 X78.085 Y120.87 E1.29443
G1 X77.846 Y120.655 E1.30309
G1 X77.645 Y120.447 E1.31089
G1 X77.442 Y120.204 E1.31942
G1 X77.264 Y119.959 E1.32758
G1 X77.254 Y119.942 E1.32811
G1 X77.107 Y119.708 E1.33555
G1 X76.954 Y119.419 E1.34436
G1 X76.944 Y119.395 E1.34506
G1 X76.832 Y119.146 E1.35242
G1 X76.828 Y119.133 E1.35278
G1 X76.726 Y118.853 E1.36081
G1 X76.645 Y118.567 E1.36882
G1 X76.578 Y118.255 E1.37742
G1 X76.536 Y117.953 E1.38563
G1 X76.515 Y117.659 E1.39357
G1 X76.515 Y117.34 E1.40217
G1 X76.536 Y117.043 E1.41019
G1 X76.578 Y116.745 E1.4183
G1 X76.645 Y116.433 E1.42689
G1 X76.726 Y116.147 E1.4349
G1 X76.83 Y115.859 E1.44315
G1 X76.963 Y115.564 E1.45187
G1 X77.103 Y115.299 E1.45994
G1 X77.266 Y115.04 E1.46819
G1 X77.45 Y114.787 E1.47662
G1 X77.647 Y114.551 E1.4849
G1 X77.846 Y114.345 E1.49261
G1 X78.085 Y114.13 E1.50127
G1 X78.329 Y113.938 E1.50964
G1 X78.579 Y113.77 E1.51775
G1 X78.846 Y113.617 E1.52604
G1 X79.127 Y113.479 E1.53448
G1 X79.415 Y113.363 E1.54284
G1 X79.429 Y113.359 E1.54324
G1 X79.694 Y113.272 E1.55075
G1 X80.001 Y113.195 E1.55928
G1 X80.289 Y113.145 E1.56715
G1 X80.606 Y113.111 E1.57574
G1 X80.912 Y113.1 E1.58399
G1 X81.221 Y113.112 E1.59232
G1 X81.526 Y113.144 E1.60058
G1 X81.833 Y113.198 E1.60898
G1 X82.128 Y113.271 E1.61717
G1 X82.41 Y113.363 E1.62516
G1 X82.699 Y113.479 E1.63355
G1 X82.972 Y113.613 E1.64174
G1 X83.238 Y113.766 E1.65001
G1 X83.509 Y113.949 E1.65882
G1 X83.733 Y114.124 E1.66648
G1 X83.978 Y114.345 E1.67537
G1 X84.173 Y114.547 E1.68293
G1 X84.375 Y114.786 E1.69136
G1 X84.563 Y115.046 E1.7
G1 X84.714 Y115.286 E1.70764
G1 X84.867 Y115.574 E1.71643
G1 X84.996 Y115.863 E1.72496
G1 X85.099 Y116.148 E1.73312
G1 X85.177 Y116.417 E1.74066
G1 X85.239 Y116.713 E1.74881
G1 X85.245 Y116.739 E1.74953
G1 X85.287 Y117.033 E1.75753
G1 X85.309 Y117.352 E1.76615
G1 X85.309 Y117.645 E1.77404
G1 X85.287 Y117.966 E1.78271
G1 X85.245 Y118.261 E1.79074
G1 X85.179 Y118.574 E1.79935
G1 X85.1 Y118.848 E1.80704
G1 X84.996 Y119.137 E1.81531
G1 X84.871 Y119.419 E1.82362
G1 X84.721 Y119.702 E1.83225
G1 X84.563 Y119.954 E1.84026
G1 X84.371 Y120.22 E1.8491
G1 X84.183 Y120.442 E1.85694
G1 X83.978 Y120.655 E1.8649
G1 X83.733 Y120.876 E1.87379
G1 X83.718 Y120.887 E1.87429
G1 X83.509 Y121.051 E1.88145
G1 X83.229 Y121.24 E1.89055
G1 X82.986 Y121.38 E1.89811
G1 X82.699 Y121.521 E1.90672
G1 X82.411 Y121.637 E1.91509
G1 X82.142 Y121.724 E1.9227
G1 X82.128 Y121.729 E1.9231
G1 X82.114 Y121.732 E1.92349
G1 X81.851 Y121.797 E1.93079
G1 X81.833 Y121.802 E1.93129
G1 X81.526 Y121.856 E1.93969
G1 X81.221 Y121.888 E1.94795
G1 X80.912 Y121.9 E1.95628
G1 X80.606 Y121.889 E1.96453
G1 X80.289 Y121.855 E1.97312
G1 X80.001 Y121.805 E1.981
G1 X79.694 Y121.728 E1.98952
G1 X79.415 Y121.637 E1.99743
G1 X79.127 Y121.521 E2.00579
G1 X78.83 Y121.375 E2.01471
G1 X78.582 Y121.232 E2.02242
G1 X78.335 Y121.066 E2.03044
G0 F6000 X78.09 Y121.383
;TYPE:WALL-OUTER
G1 F1200 X77.829 Y121.178 E2.03938
G1 X77.573 Y120.948 E2.04865
G1 X77.34 Y120.706 E2.0577
G1 X77.135 Y120.461 E2.06631
G1 X76.929 Y120.178 E2.07574
G1 X76.756 Y119.901 E2.08454
G1 X76.6 Y119.606 E2.09353
G1 X76.459 Y119.291 E2.10282
G1 X76.345 Y118.977 E2.11182
G1 X76.257 Y118.667 E2.12051
G1 X76.184 Y118.326 E2.1299
G1 X76.138 Y117.995 E2.1389
G1 X76.115 Y117.674 E2.14757
G1 X76.115 Y117.326 E2.15695
G1 X76.138 Y117.005 E2.16562
G1 X76.184 Y116.674 E2.17462
G1 X76.257 Y116.333 E2.18402
G1 X76.345 Y116.023 E2.1927
G1 X76.459 Y115.709 E2.2017
G1 X76.602 Y115.39 E2.21112
G1 X76.756 Y115.099 E2.21999
G1 X76.933 Y114.817 E2.22896
G1 X77.135 Y114.539 E2.23821
G1 X77.34 Y114.294 E2.24682
G1 X77.573 Y114.052 E2.25587
G1 X77.829 Y113.822 E2.26514
G1 X78.09 Y113.617 E2.27408
G1 X78.375 Y113.426 E2.28333
G1 X78.653 Y113.266 E2.29197
G1 X78.958 Y113.116 E2.30113
G1 X79.277 Y112.988 E2.31039
G1 X79.586 Y112.887 E2.31914
G1 X79.917 Y112.804 E2.32834
G1 X80.241 Y112.748 E2.33719
G1 X80.576 Y112.712 E2.34627
G1 X80.912 Y112.7 E2.35533
G1 X81.249 Y112.712 E2.36441
G1 X81.581 Y112.747 E2.37341
G1 X81.909 Y112.805 E2.38238
G1 X82.239 Y112.887 E2.39154
G1 X82.548 Y112.988 E2.4003
G1 X82.862 Y113.114 E2.40942
G1 X83.172 Y113.266 E2.41872
G1 X83.45 Y113.426 E2.42736
G1 X83.733 Y113.617 E2.43656
G1 X83.995 Y113.822 E2.44552
G1 X84.251 Y114.052 E2.45479
G1 X84.479 Y114.289 E2.46365
G1 X84.69 Y114.539 E2.47246
G1 X84.892 Y114.817 E2.48172
G1 X85.065 Y115.094 E2.49052
G1 X85.229 Y115.402 E2.49992
G1 X85.365 Y115.708 E2.50894
G1 X85.479 Y116.023 E2.51797
G1 X85.568 Y116.332 E2.52663
G1 X85.64 Y116.673 E2.53602
G1 X85.685 Y116.991 E2.54467
G1 X85.709 Y117.34 E2.5541
G1 X85.709 Y117.66 E2.56272
G1 X85.685 Y118.009 E2.57214
G1 X85.64 Y118.327 E2.5808
G1 X85.568 Y118.667 E2.59016
G1 X85.479 Y118.977 E2.59885
G1 X85.365 Y119.292 E2.60787
G1 X85.229 Y119.598 E2.61689
G1 X85.068 Y119.901 E2.62614
G1 X84.892 Y120.183 E2.63509
G1 X84.692 Y120.459 E2.64428
G1 X84.479 Y120.711 E2.65316
G1 X84.251 Y120.948 E2.66202
G1 X83.995 Y121.178 E2.6713
G1 X83.733 Y121.383 E2.68026
G1 X83.451 Y121.573 E2.68942
G1 X83.172 Y121.734 E2.6981
G1 X82.862 Y121.886 E2.7074
G1 X82.549 Y122.012 E2.71649
G1 X82.239 Y122.113 E2.72527
G1 X81.909 Y122.195 E2.73443
G1 X81.581 Y122.253 E2.74341
G1 X81.249 Y122.288 E2.7524
G1 X80.912 Y122.3 E2.76149
G1 X80.576 Y122.288 E2.77054
G1 X80.241 Y122.252 E2.77962
G1 X79.917 Y122.196 E2.78848
G1 X79.586 Y122.113 E2.79767
G1 X79.277 Y122.012 E2.80643
G1 X78.958 Y121.884 E2.81569
G1 X78.653 Y121.734 E2.82485
G1 X78.374 Y121.573 E2.83353
G1 X78.09 Y121.383 E2.84273
G0 F6000 X78.348 Y121.027
G0 X78.386 Y120.98
G0 X79.021 Y120.092
;TYPE:SKIN
G1 F1200 X78.687 Y119.811 E2.85449
G1 X78.379 Y119.467 E2.86693
G1 X78.145 Y119.122 E2.87816
G1 X78.011 Y118.87 E2.88585
G1 X77.861 Y118.493 E2.89678
G1 X77.751 Y118.042 E2.90929
G1 X77.705 Y117.602 E2.92121
G1 X77.705 Y117.389 E2.92694
G1 X77.754 Y116.935 E2.93925
G1 X77.86 Y116.508 E2.9511
G1 X78.023 Y116.107 E2.96276
G1 X78.143 Y115.881 E2.96965
G1 X78.392 Y115.514 E2.9816
G1 X78.671 Y115.204 E2.99284
G1 X78.853 Y115.039 E2.99946
G1 X79.209 Y114.779 E3.01133
G1 X79.612 Y114.565 E3.02363
G1 X80.024 Y114.415 E3.03544
G1 X80.435 Y114.327 E3.04676
G1 X80.694 Y114.299 E3.05378
G1 X81.142 Y114.302 E3.06585
G1 X81.589 Y114.362 E3.078
G1 X82.008 Y114.484 E3.08976
G1 X82.394 Y114.654 E3.10112
G1 X82.614 Y114.78 E3.10795
G1 X82.956 Y115.026 E3.1193
G1 X83.148 Y115.198 E3.12625
G1 X83.433 Y115.515 E3.13773
G1 X83.584 Y115.723 E3.14465
G1 X83.676 Y115.87 E3.14933
G1 X83.797 Y116.096 E3.15623
G1 X83.886 Y116.294 E3.16208
G1 X84.022 Y116.71 E3.17387
G1 X84.101 Y117.146 E3.18581
G1 X84.119 Y117.407 E3.19286
G1 X84.119 Y117.589 E3.19776
G1 X84.101 Y117.853 E3.20489
G1 X84.076 Y118.034 E3.20981
G1 X84.024 Y118.288 E3.2168
G1 X83.899 Y118.673 E3.2277
G1 X83.791 Y118.915 E3.23484
G1 X83.575 Y119.29 E3.2465
G1 X83.294 Y119.65 E3.2588
G1 X83.158 Y119.791 E3.26408
G1 X82.964 Y119.968 E3.27116
G1 X82.821 Y120.08 E3.27605
G1 X82.607 Y120.223 E3.28298
G1 X82.211 Y120.436 E3.2951
G1 X81.799 Y120.586 E3.30691
G1 X81.375 Y120.674 E3.31858
G1 X80.906 Y120.709 E3.33125
G1 X80.694 Y120.701 E3.33696
G1 X80.435 Y120.673 E3.34398
G1 X80.024 Y120.585 E3.3553
G1 X79.608 Y120.433 E3.36724
G1 X79.403 Y120.331 E3.3734
G1 X79.021 Y120.092 E3.38554
G0 F6000 X79.425 Y120.154
G1 F1200 X78.252 Y118.982 E3.43022
G0 F6000 X77.926 Y118.09
G1 F1200 X80.32 Y120.484 E3.52143
G0 F6000 X80.946 Y120.544
G1 F1200 X77.865 Y117.463 E3.63881
G0 F6000 X77.915 Y116.947
G1 F1200 X81.459 Y120.491 E3.77384
G0 F6000 X81.908 Y120.375
G1 F1200 X78.034 Y116.501 E3.92144
G0 F6000 X78.204 Y116.105
G1 F1200 X82.302 Y120.203 E4.07757
G0 F6000 X82.659 Y119.994
G1 F1200 X78.42 Y115.755 E4.23908
G0 F6000 X78.671 Y115.441
G1 F1200 X82.972 Y119.742 E4.40295
G0 F6000 X83.246 Y119.45
G1 F1200 X78.957 Y115.161 E4.56636
G0 F6000 X79.284 Y114.922
G1 F1200 X83.485 Y119.124 E4.72643
G0 F6000 X83.685 Y118.757
G1 F1200 X79.652 Y114.725 E4.88007
G0 F6000 X80.063 Y114.57
G1 F1200 X83.838 Y118.344 E5.02388
G0 F6000 X83.936 Y117.877
G1 F1200 X80.535 Y114.476 E5.15346
G0 F6000 X81.085 Y114.46
G1 F1200 X83.953 Y117.328 E5.26273
G0 F6000 X83.833 Y116.642
M104 S210
G1 F1200 X81.771 Y114.58 E5.34129
;MESH:NONMESH
G0 F300 X81.771 Y114.58 Z0.4
G0 F6000 X78.805 Y120.418
;TIME_ELAPSED:16.032914
;LAYER:1
M140 S70
M106 S85
;TYPE:WALL-INNER
;MESH:crank_bolt.stl
G1 F1209.4 X78.601 Y120.258 E5.34905
G1 X78.4 Y120.076 E5.35717
G1 X78.073 Y119.712 E5.37181
G1 X77.808 Y119.321 E5.38595
G1 X77.662 Y119.045 E5.3953
G1 X77.575 Y118.849 E5.40172
G1 X77.489 Y118.612 E5.40927
G1 X77.422 Y118.372 E5.41672
G1 X77.365 Y118.107 E5.42484
G1 X77.315 Y117.63 E5.4392
G1 X77.315 Y117.366 E5.4471
G1 X77.367 Y116.879 E5.46176
G1 X77.422 Y116.626 E5.46951
G1 X77.493 Y116.375 E5.47732
G1 X77.569 Y116.165 E5.484
G1 X77.678 Y115.924 E5.49192
G1 X77.804 Y115.686 E5.49998
G1 X78.076 Y115.285 E5.51449
G1 X78.239 Y115.09 E5.52209
G1 X78.4 Y114.924 E5.52902
G1 X78.606 Y114.738 E5.53732
G1 X79.002 Y114.448 E5.55202
G1 X79.213 Y114.328 E5.55928
G1 X79.454 Y114.209 E5.56733
G1 X79.696 Y114.112 E5.57513
G1 X79.91 Y114.042 E5.58187
G1 X80.167 Y113.978 E5.5898
G1 X80.388 Y113.939 E5.59652
G1 X80.665 Y113.909 E5.60486
G1 X80.908 Y113.901 E5.61214
G1 X81.168 Y113.912 E5.61993
G1 X81.419 Y113.938 E5.62748
G1 X81.676 Y113.982 E5.63529
G1 X82.135 Y114.115 E5.64959
G1 X82.375 Y114.211 E5.65733
G1 X82.588 Y114.316 E5.66444
G1 X82.825 Y114.452 E5.67262
G1 X83.035 Y114.593 E5.68019
G1 X83.217 Y114.736 E5.68712
G1 X83.416 Y114.915 E5.69513
G1 X83.744 Y115.278 E5.70977
G1 X83.9 Y115.494 E5.71775
G1 X84.018 Y115.682 E5.72439
G1 X84.147 Y115.924 E5.7326
G1 X84.253 Y116.16 E5.74035
