;FLAVOR:Marlin
;TIME:4713
;Filament used: 3.22137m
;Layer height: 0.2
;MINX:46.15
;MINY:100.052
;MINZ:0.2
;MAXX:188.85
;MAXY:134.947
;MAXZ:8
;Generated with Cura_SteamEngine master
M82 ;absolute extrusion mode
; Ender 3 Custom Start G-code
M140 S75 ; Set Heat Bed temperature
M104 S160 ; start warming extruder to 160
G28 ; Home all axes
G29 ; Auto bed-level (BL-Touch)
G92 E0 ; Reset Extruder
M190 S75 ; Wait for Heat Bed temperature
M104 S210 ; Set Extruder temperature
G1 X0 Y0 Z0.3 F5000.0 ; Move to 0 0
M109 S210 ; Wait for Extruder temperature
G1 X1 Y20 Z0.3 F5000.0 ; Move to start position
; G1 Z2.0 F3000 ; Move Z Axis up little to prevent scratching of Heat Bed
G1 X3 Y200.0 Z0.3 F1500.0 E15 ; Draw the first line
G1 X3.3 Y200.0 Z0.3 F5000.0 ; Move to side a little
G1 X3.3 Y20 Z0.3 F1500.0 E30 ; Draw the second line
G92 E0 ; Reset Extruder
G1 Z2.0 F3000 ; Move Z Axis up little to prevent scratching of Heat Bed
G92 E0
G92 E0
G1 F2700 E-5
;LAYER_COUNT:40
;LAYER:0
M107
M204 S500
M205 X8 Y8
;MESH:crankshaft.stl
G0 F6000 X47.744 Y118.467 Z0.2
;TYPE:WALL-INNER
G1 F2700 E0
G1 F1200 X47.713 Y118.467 E0.00103
G1 X47.35 Y118.467 E0.0131
G1 X47.35 Y118.385 E0.01323
G1 X47.35 Y117.782 E0.03329
G1 X47.35 Y117.173 E0.05354
G1 X47.35 Y116.589 E0.07296
G1 X47.35 Y116.533 E0.07483
G1 X47.724 Y116.533 E0.08443
G1 X47.745 Y116.533 E0.0851
G1 X47.724 Y116.589
G1 X47.721 Y116.604
G1 X47.611 Y117.173 E0.10036
G1 X47.609 Y117.782 E0.11356
G1 X47.713 Y118.385 E0.12947
G1 X47.744 Y118.467 E0.13085
G0 F6000 X48.101 Y118.28
G1 F1200 X48.21 Y118.569 E0.14112
G1 X48.288 Y118.779 E0.14857
G1 X48.341 Y118.867 E0.15199
G1 X48.288 Y118.867
G1 X48.064 Y118.867 E0.15706
G1 X46.95 Y118.867 E0.19411
G1 X46.95 Y116.133 E0.28505
G1 X48.061 Y116.133 E0.322
G1 X48.296 Y116.133 E0.32982
G1 X48.34 Y116.133 E0.33128
G1 X48.296 Y116.206 E0.33239
G1 X48.213 Y116.426 E0.33758
G1 X48.11 Y116.698 E0.34726
G1 X48.011 Y117.212 E0.36467
G1 X48.009 Y117.748 E0.3825
G1 X48.101 Y118.28 E0.40045
G0 F6000 X48.489 Y118.175
G1 F1200 X48.65 Y118.605 E0.41572
G1 X48.827 Y118.9 E0.42717
G1 X48.884 Y118.997 E0.43091
G1 X49.119 Y119.267 E0.44281
G1 X48.884 Y119.267 E0.44467
G1 X48.771 Y119.267 E0.4479
G1 X46.55 Y119.267 E0.52177
G1 X46.55 Y115.733 E0.63931
G1 X48.768 Y115.733 E0.71308
G1 X48.893 Y115.733 E0.71724
G1 X49.12 Y115.733 E0.72479
G1 X48.893 Y115.99 E0.73031
G1 X48.829 Y116.097 E0.73381
G1 X48.657 Y116.381 E0.74485
G1 X48.496 Y116.807 E0.76
G1 X48.411 Y117.251 E0.77503
G1 X48.409 Y117.714 E0.79043
G1 X48.489 Y118.175 E0.80599
G0 F6000 X49.339 Y119.257
G0 X50.459 Y119.634
G0 X50.841 Y119.687
G0 X51.236 Y119.67
G0 X52.78 Y119.267
G1 F1200 X52.863 Y119.189 E0.80978
G1 X53.05 Y118.934 E0.8203
G1 X53.133 Y118.821 E0.82496
G1 X53.334 Y118.409 E0.84021
G1 X53.456 Y117.974 E0.85524
G1 X53.503 Y117.499 E0.87111
G1 X53.459 Y117.044 E0.88632
G1 X53.34 Y116.608 E0.90135
G1 X53.142 Y116.193 E0.91664
G1 X53.051 Y116.068 E0.92178
G1 X52.873 Y115.824 E0.93183
G1 X52.778 Y115.733 E0.93621
G1 X52.873 Y115.733 E0.93627
G1 X53.175 Y115.733 E0.94286
G1 X60.15 Y115.733 E1.17485
G1 X60.15 Y114.018 E1.23189
G1 X63.57 Y114.016 E1.34564
G1 X71.406 Y126.021 E1.82246
G1 X71.698 Y126.016 E1.83218
G1 X71.9 Y126.013 E1.8389
G1 X71.9 Y126.215 E1.84323
G1 X71.9 Y127.067 E1.87157
G1 X80.901 Y127.068 E2.17094
G1 X81.1 Y127.068 E2.17756
G1 X81.1 Y126.869 E2.18184
G1 X81.1 Y126.213 E2.20366
G1 X81.1 Y126.012 E2.21034
G1 X81.301 Y126.014 E2.21466
G1 X81.594 Y126.017 E2.22441
G1 X97.265 Y102.016 E3.17778
G1 X97.941 Y102.019 E3.20026
G1 X99.701 Y102.018 E3.2588
G1 X99.9 Y102.018 E3.26542
G1 X99.9 Y102.217 E3.2697
G1 X99.9 Y103.067 E3.29797
G1 X108.901 Y103.068 E3.59735
G1 X109.1 Y103.068 E3.60396
G1 X109.1 Y102.869 E3.60825
G1 X109.1 Y102.018 E3.63655
G1 X112.765 Y102.013 E3.75845
G1 X113.45 Y102.699 E3.79069
G1 X123.549 Y102.7 E4.12659
G1 X124.235 Y102.013 E4.15888
G1 X127.9 Y102.018 E4.28078
G1 X127.9 Y103.067 E4.31567
G1 X136.901 Y103.068 E4.61504
G1 X137.1 Y103.068 E4.62166
G1 X137.1 Y102.869 E4.62594
G1 X137.1 Y102.017 E4.65428
G1 X139.731 Y102.013 E4.74179
G1 X155.406 Y126.021 E5.69543
G1 X155.698 Y126.016 E5.70514
G1 X155.9 Y126.013 E5.71186
G1 X155.9 Y126.215 E5.71619
G1 X155.9 Y127.067 E5.74453
G1 X164.901 Y127.068 E6.0439
G1 X165.1 Y127.068 E6.05052
G1 X165.1 Y126.869 E6.0548
G1 X165.1 Y126.213 E6.07662
G1 X165.1 Y126.012 E6.08331
G1 X165.301 Y126.014 E6.08762
G1 X165.594 Y126.017 E6.09737
G1 X173.432 Y114.017 E6.57409
G1 X176.85 Y114.018 E6.68777
G1 X176.85 Y115.733 E6.74481
G1 X188.45 Y115.733 E7.13063
G1 X188.45 Y119.267 E7.24817
G1 X176.85 Y119.267 E7.63399
G1 X176.85 Y120.983 E7.69106
G1 X175.569 Y120.987 E7.73367
G1 X167.735 Y132.984 E8.21023
G1 X167.059 Y132.981 E8.23271
G1 X165.299 Y132.982 E8.29125
G1 X165.1 Y132.982 E8.29787
G1 X165.1 Y132.783 E8.30215
G1 X165.1 Y131.933 E8.33042
G1 X156.099 Y131.932 E8.6298
G1 X155.9 Y131.932 E8.63641
G1 X155.9 Y132.131 E8.6407
G1 X155.9 Y132.983 E8.66903
G1 X153.269 Y132.987 E8.75654
G1 X137.593 Y108.979 E9.7102
G1 X137.302 Y108.984 E9.71988
G1 X137.1 Y108.987 E9.7266
G1 X137.1 Y108.785 E9.73093
G1 X137.1 Y107.933 E9.75927
G1 X128.099 Y107.932 E10.05864
G1 X127.9 Y107.932 E10.06526
G1 X127.9 Y108.131 E10.06954
G1 X127.9 Y108.981 E10.09781
G1 X124.234 Y108.986 E10.21975
G1 X123.55 Y108.301 E10.25194
G1 X113.451 Y108.3 E10.58784
G1 X112.769 Y108.983 E10.61994
G1 X111.869 Y108.981 E10.64987
G1 X109.299 Y108.982 E10.73535
G1 X109.1 Y108.982 E10.74197
G1 X109.1 Y108.783 E10.74625
G1 X109.1 Y107.933 E10.77452
G1 X100.099 Y107.932 E11.0739
G1 X99.9 Y107.932 E11.08052
G1 X99.9 Y108.131 E11.0848
G1 X99.9 Y108.787 E11.10662
G1 X99.9 Y108.988 E11.1133
G1 X99.699 Y108.986 E11.11762
G1 X99.407 Y108.983 E11.12733
G1 X83.735 Y132.984 E12.08072
G1 X83.059 Y132.981 E12.10321
G1 X81.299 Y132.982 E12.16174
G1 X81.1 Y132.982 E12.16836
G1 X81.1 Y132.783 E12.17264
G1 X81.1 Y131.933 E12.20092
G1 X72.099 Y131.932 E12.50029
G1 X71.9 Y131.932 E12.50691
G1 X71.9 Y132.131 E12.51119
G1 X71.9 Y132.983 E12.53953
G1 X69.269 Y132.987 E12.62704
G1 X61.434 Y120.988 E13.10367
G1 X60.732 Y120.981 E13.12702
G1 X60.349 Y120.982 E13.13976
G1 X60.15 Y120.982 E13.14638
G1 X60.15 Y120.783 E13.15066
G1 X60.15 Y119.267 E13.20108
G1 X53.179 Y119.267 E13.43294
G1 X52.863 Y119.267 E13.43968
G1 X52.78 Y119.267 E13.4397
G0 F6000 X53.556 Y118.867
G1 F1200 X53.709 Y118.552 E13.45134
G1 X53.723 Y118.499 E13.45317
G1 X53.851 Y118.048 E13.46876
G1 X53.905 Y117.499 E13.48711
G1 X53.854 Y116.972 E13.50472
G1 X53.726 Y116.507 E13.52076
G1 X53.716 Y116.468 E13.5221
G1 X53.557 Y116.133 E13.53443
G1 X53.716 Y116.133 E13.53527
G1 X53.757 Y116.133 E13.53655
G1 X60.55 Y116.133 E13.76249
G1 X60.55 Y114.418 E13.81953
G1 X63.353 Y114.416 E13.91276
G1 X71.192 Y126.425 E14.38974
G1 X71.5 Y126.42 E14.39999
G1 X71.5 Y127.467 E14.43481
G1 X81.301 Y127.468 E14.76079
G1 X81.5 Y127.468 E14.76741
G1 X81.5 Y127.269 E14.77169
G1 X81.5 Y126.416 E14.80007
G1 X81.809 Y126.419 E14.81034
G1 X97.481 Y102.417 E15.76376
G1 X97.94 Y102.419 E15.77903
G1 X99.301 Y102.418 E15.82429
G1 X99.5 Y102.418 E15.83091
G1 X99.5 Y102.617 E15.83519
G1 X99.5 Y103.467 E15.86347
G1 X109.301 Y103.468 E16.18945
G1 X109.5 Y103.468 E16.19607
G1 X109.5 Y103.269 E16.20035
G1 X109.5 Y102.417 E16.22869
G1 X112.599 Y102.413 E16.33176
G1 X113.284 Y103.099 E16.364
G1 X123.715 Y103.1 E16.71094
G1 X124.401 Y102.413 E16.74323
G1 X127.5 Y102.417 E16.8463
G1 X127.5 Y103.467 E16.88123
G1 X137.301 Y103.468 E17.20721
G1 X137.5 Y103.468 E17.21383
G1 X137.5 Y103.269 E17.21811
G1 X137.5 Y102.416 E17.24648
G1 X139.514 Y102.413 E17.31347
G1 X155.192 Y126.425 E18.26727
G1 X155.5 Y126.42 E18.27752
G1 X155.5 Y127.467 E18.31234
G1 X165.301 Y127.468 E18.63832
G1 X165.5 Y127.468 E18.64494
G1 X165.5 Y127.269 E18.64922
G1 X165.5 Y126.416 E18.6776
G1 X165.809 Y126.419 E18.68787
G1 X173.649 Y114.417 E19.16468
G1 X176.45 Y114.418 E19.25784
G1 X176.45 Y116.133 E19.31489
G1 X188.05 Y116.133 E19.7007
G1 X188.05 Y118.867 E19.79164
G1 X176.45 Y118.867 E20.17745
G1 X176.45 Y120.584 E20.23456
G1 X175.352 Y120.588 E20.27108
G1 X167.519 Y132.583 E20.74757
G1 X167.06 Y132.581 E20.76283
G1 X165.699 Y132.582 E20.8081
G1 X165.5 Y132.582 E20.81472
G1 X165.5 Y132.383 E20.819
G1 X165.5 Y131.533 E20.84727
G1 X155.699 Y131.532 E21.17326
G1 X155.5 Y131.532 E21.17987
G1 X155.5 Y131.731 E21.18416
G1 X155.5 Y132.584 E21.21253
G1 X153.486 Y132.587 E21.27951
G1 X137.807 Y108.575 E22.23334
G1 X137.5 Y108.58 E22.24355
G1 X137.5 Y107.533 E22.27837
G1 X127.699 Y107.532 E22.60435
G1 X127.5 Y107.532 E22.61097
G1 X127.5 Y107.731 E22.61526
G1 X127.5 Y108.582 E22.64356
G1 X124.4 Y108.586 E22.74667
G1 X123.716 Y107.901 E22.77886
G1 X113.285 Y107.9 E23.1258
G1 X112.603 Y108.583 E23.1579
G1 X111.869 Y108.581 E23.18232
G1 X109.699 Y108.582 E23.25449
G1 X109.5 Y108.582 E23.26111
G1 X109.5 Y108.383 E23.26539
G1 X109.5 Y107.533 E23.29366
G1 X99.699 Y107.532 E23.61964
G1 X99.5 Y107.532 E23.62626
G1 X99.5 Y107.731 E23.63055
G1 X99.5 Y108.584 E23.65892
G1 X99.192 Y108.581 E23.66916
G1 X83.519 Y132.583 E24.6226
G1 X83.06 Y132.581 E24.63786
G1 X81.699 Y132.582 E24.68313
G1 X81.5 Y132.582 E24.68975
G1 X81.5 Y132.383 E24.69403
G1 X81.5 Y131.533 E24.7223
G1 X71.699 Y131.532 E25.04828
G1 X71.5 Y131.532 E25.0549
G1 X71.5 Y131.731 E25.05919
G1 X71.5 Y132.584 E25.08756
G1 X69.486 Y132.587 E25.15454
G1 X61.652 Y120.59 E25.6311
G1 X60.734 Y120.581 E25.66164
G1 X60.55 Y120.581 E25.66776
G1 X60.55 Y118.867 E25.72476
G1 X53.764 Y118.867 E25.95047
G1 X53.709 Y118.867
G1 X53.556 Y118.867 E25.95114
G0 F6000 X54.148 Y118.467
G1 F1200 X54.246 Y118.122 E25.96307
G1 X54.248 Y118.094 E25.964
G1 X54.307 Y117.499 E25.98389
G1 X54.25 Y116.916 E26.00337
G1 X54.249 Y116.899 E26.00394
G1 X54.148 Y116.533 E26.01656
G1 X54.249 Y116.533
G1 X54.267 Y116.533 E26.01715
G1 X60.95 Y116.533 E26.23942
G1 X60.95 Y114.818 E26.29646
G1 X63.136 Y114.816 E26.36917
G1 X70.978 Y126.829 E26.84632
G1 X71.1 Y126.827 E26.85038
G1 X71.1 Y127.867 E26.88497
G1 X81.701 Y127.868 E27.23756
G1 X81.9 Y127.868 E27.24418
G1 X81.9 Y127.669 E27.24846
G1 X81.9 Y126.82 E27.2767
G1 X82.024 Y126.821 E27.28083
G1 X97.697 Y102.818 E28.23429
G1 X97.94 Y102.818 E28.24237
G1 X99.1 Y102.818 E28.28095
G1 X99.1 Y103.867 E28.31584
G1 X109.701 Y103.868 E28.66843
G1 X109.9 Y103.868 E28.67505
G1 X109.9 Y103.669 E28.67933
G1 X109.9 Y102.816 E28.70771
G1 X112.433 Y102.813 E28.79195
G1 X113.118 Y103.499 E28.8242
G1 X123.881 Y103.5 E29.18218
G1 X124.567 Y102.813 E29.21447
G1 X127.1 Y102.816 E29.29871
G1 X127.1 Y103.867 E29.33367
G1 X137.701 Y103.868 E29.68626
G1 X137.9 Y103.868 E29.69288
G1 X137.9 Y103.669 E29.69716
G1 X137.9 Y102.815 E29.72557
G1 X139.297 Y102.813 E29.77203
G1 X154.978 Y126.829 E30.726
G1 X155.1 Y126.827 E30.73006
G1 X155.1 Y127.867 E30.76465
G1 X165.701 Y127.868 E31.11724
G1 X165.9 Y127.868 E31.12386
G1 X165.9 Y127.669 E31.12814
G1 X165.9 Y126.82 E31.15638
G1 X166.024 Y126.821 E31.1605
G1 X173.866 Y114.817 E31.63741
G1 X176.05 Y114.818 E31.71005
G1 X176.05 Y116.533 E31.76709
G1 X187.65 Y116.533 E32.1529
G1 X187.65 Y118.467 E32.21723
G1 X176.05 Y118.467 E32.60305
G1 X176.05 Y120.186 E32.66022
G1 X175.135 Y120.189 E32.69065
G1 X167.303 Y132.182 E33.16707
G1 X167.06 Y132.182 E33.17515
G1 X165.9 Y132.182 E33.21373
G1 X165.9 Y131.133 E33.24862
G1 X155.299 Y131.132 E33.60121
G1 X155.1 Y131.132 E33.60783
G1 X155.1 Y131.331 E33.61211
G1 X155.1 Y132.185 E33.64052
G1 X153.703 Y132.187 E33.68698
G1 X138.021 Y108.171 E34.64097
G1 X137.9 Y108.173 E34.64499
G1 X137.9 Y107.133 E34.67958
G1 X127.299 Y107.132 E35.03218
G1 X127.1 Y107.132 E35.03879
G1 X127.1 Y107.331 E35.04308
G1 X127.1 Y108.183 E35.07141
G1 X124.566 Y108.186 E35.1557
G1 X123.882 Y107.501 E35.18789
G1 X113.119 Y107.5 E35.54587
G1 X112.437 Y108.183 E35.57797
G1 X111.869 Y108.181 E35.59687
G1 X110.099 Y108.182 E35.65574
G1 X109.9 Y108.182 E35.66235
G1 X109.9 Y107.983 E35.66664
G1 X109.9 Y107.133 E35.69491
G1 X99.299 Y107.132 E36.0475
G1 X99.1 Y107.132 E36.05412
G1 X99.1 Y107.331 E36.0584
G1 X99.1 Y108.18 E36.08664
G1 X98.977 Y108.179 E36.09073
G1 X83.303 Y132.182 E37.04421
G1 X83.06 Y132.182 E37.05229
G1 X81.9 Y132.182 E37.09087
G1 X81.9 Y131.133 E37.12576
G1 X71.299 Y131.132 E37.47835
G1 X71.1 Y131.132 E37.48497
G1 X71.1 Y131.331 E37.48926
G1 X71.1 Y132.185 E37.51766
G1 X69.703 Y132.187 E37.56412
G1 X61.87 Y120.192 E38.04061
G1 X60.95 Y120.183 E38.07121
G1 X60.95 Y118.467 E38.12829
G1 X54.275 Y118.467 E38.3503
G1 X54.246 Y118.467
G1 X54.148 Y118.467
G0 F6000 X53.247 Y118.346
G0 X52.959 Y118.266
;TYPE:WALL-OUTER
G1 F1200 X53.061 Y117.9 E38.36293
G1 X53.101 Y117.498 E38.37637
G1 X53.064 Y117.116 E38.38914
G1 X52.964 Y116.748 E38.40182
G1 X52.797 Y116.399 E38.41469
G1 X52.571 Y116.088 E38.42747
G1 X52.293 Y115.822 E38.44027
G1 X51.973 Y115.609 E38.45306
G1 X51.62 Y115.457 E38.46584
G1 X51.244 Y115.37 E38.47868
G1 X50.862 Y115.352 E38.4914
G1 X50.481 Y115.402 E38.50418
G1 X50.113 Y115.52 E38.51703
G1 X49.774 Y115.701 E38.52981
G1 X49.473 Y115.938 E38.54255
G1 X49.217 Y116.228 E38.55542
G1 X49.018 Y116.557 E38.56821
G1 X48.882 Y116.916 E38.58098
G1 X48.811 Y117.29 E38.59364
G1 X48.809 Y117.68 E38.60661
G1 X48.877 Y118.07 E38.61978
G1 X49.012 Y118.431 E38.6326
G1 X49.209 Y118.761 E38.64538
G1 X49.462 Y119.052 E38.6582
G1 X49.762 Y119.291 E38.67096
G1 X50.101 Y119.474 E38.68377
G1 X50.467 Y119.595 E38.6966
G1 X50.845 Y119.648 E38.70929
G1 X51.23 Y119.631 E38.72211
G1 X51.605 Y119.547 E38.73489
G1 X51.959 Y119.397 E38.74768
G1 X52.282 Y119.187 E38.76049
G1 X52.562 Y118.923 E38.77329
G1 X52.789 Y118.613 E38.78607
G1 X52.959 Y118.266 E38.79892
G0 F6000 X53.37 Y118.422
G1 F2700 E33.79892
G0 F6000 X59.978 Y119.439
G0 X60.02 Y121.113
G0 X59.75 Y121.382
G1 F2700 E38.79892
G1 F1200 X59.75 Y119.667 E38.85596
G1 X46.15 Y119.667 E39.3083
G1 X46.15 Y115.333 E39.45245
G1 X59.75 Y115.333 E39.90479
G1 X59.75 Y113.618 E39.96183
G1 X63.787 Y113.616 E40.0961
G1 X71.62 Y125.617 E40.57275
G1 X72.177 Y125.608 E40.59128
G1 X72.3 Y125.61 E40.59537
G1 X72.3 Y126.667 E40.63053
G1 X80.7 Y126.668 E40.90992
G1 X80.7 Y125.61 E40.9451
G1 X80.823 Y125.609 E40.9492
G1 X81.379 Y125.615 E40.96769
G1 X97.049 Y101.615 E41.92101
G1 X97.942 Y101.619 E41.95072
G1 X100.3 Y101.618 E42.02914
G1 X100.3 Y102.667 E42.06403
G1 X108.7 Y102.668 E42.34342
G1 X108.7 Y101.619 E42.37831
G1 X112.931 Y101.613 E42.51903
G1 X113.616 Y102.299 E42.55128
G1 X123.383 Y102.3 E42.87613
G1 X124.069 Y101.613 E42.90842
G1 X128.3 Y101.618 E43.04914
G1 X128.3 Y102.667 E43.08403
G1 X136.7 Y102.668 E43.36342
G1 X136.7 Y101.618 E43.39834
G1 X138.372 Y101.614 E43.45395
G1 X139.948 Y101.613 E43.50637
G1 X155.62 Y125.617 E44.45984
G1 X156.177 Y125.608 E44.47837
G1 X156.3 Y125.61 E44.48246
G1 X156.3 Y126.667 E44.51762
G1 X164.7 Y126.668 E44.797
G1 X164.7 Y125.61 E44.83219
G1 X164.823 Y125.609 E44.83628
G1 X165.379 Y125.615 E44.85478
G1 X173.215 Y113.617 E45.3314
G1 X177.25 Y113.618 E45.46561
G1 X177.25 Y115.333 E45.52265
G1 X188.85 Y115.333 E45.90846
G1 X188.85 Y119.667 E46.05261
G1 X177.25 Y119.667 E46.43843
G1 X177.25 Y121.382 E46.49547
G1 X175.786 Y121.386 E46.54417
G1 X167.951 Y133.385 E47.0208
G1 X167.058 Y133.381 E47.0505
G1 X164.7 Y133.382 E47.12893
G1 X164.7 Y132.333 E47.16382
G1 X156.3 Y132.332 E47.4432
G1 X156.3 Y133.382 E47.47813
G1 X154.637 Y133.386 E47.53344
G1 X153.052 Y133.387 E47.58616
G1 X137.379 Y109.383 E48.53965
G1 X136.823 Y109.392 E48.55814
G1 X136.7 Y109.39 E48.56223
G1 X136.7 Y108.333 E48.59739
G1 X128.3 Y108.332 E48.87677
G1 X128.3 Y109.381 E48.91166
G1 X124.068 Y109.386 E49.05242
G1 X123.384 Y108.701 E49.08462
G1 X113.617 Y108.7 E49.40947
G1 X112.935 Y109.383 E49.44157
G1 X111.868 Y109.381 E49.47706
G1 X108.7 Y109.382 E49.58243
G1 X108.7 Y108.333 E49.61732
G1 X100.3 Y108.332 E49.8967
G1 X100.3 Y109.39 E49.93189
G1 X100.177 Y109.391 E49.93598
G1 X99.622 Y109.385 E49.95444
G1 X83.951 Y133.385 E50.90779
G1 X83.058 Y133.381 E50.93749
G1 X80.7 Y133.382 E51.01592
G1 X80.7 Y132.333 E51.05081
G1 X72.3 Y132.332 E51.33019
G1 X72.3 Y133.382 E51.36511
G1 X70.637 Y133.386 E51.42043
G1 X69.052 Y133.387 E51.47314
G1 X61.216 Y121.386 E51.94985
G1 X60.73 Y121.381 E51.96602
