;FLAVOR:Marlin
;TIME:325
;Filament used: 0.140643m
;Layer height: 0.2
;MINX:73.374
;MINY:110.325
;MINZ:0.2
;MAXX:87.724
;MAXY:124.675
;MAXZ:4.6
;Generated with Cura_SteamEngine master
M82 ;absolute extrusion mode
; Ender 3 Custom Start G-code
M140 S75 ; Set Heat Bed temperature
M104 S160 ; start warming extruder to 160
G28 ; Home all axes
G29 ; Auto bed-level (BL-Touch)
G92 E0 ; Reset Extruder
M190 S75 ; Wait for Heat Bed temperature
M104 S210 ; Set Extruder temperature
G1 X0 Y0 Z0.3 F5000.0 ; Move to 0 0
M109 S210 ; Wait for Extruder temperature
G1 X3 Y20 Z0.3 F5000.0 ; Move to start position
; G1 Z2.0 F3000 ; Move Z Axis up little to prevent scratching of Heat Bed
G1 X3 Y200.0 Z0.3 F1500.0 E15 ; Draw the first line
G1 X3.3 Y200.0 Z0.3 F5000.0 ; Move to side a little
G1 X3.3 Y20 Z0.3 F1500.0 E30 ; Draw the second line
G92 E0 ; Reset Extruder
G1 Z2.0 F3000 ; Move Z Axis up little to prevent scratching of Heat Bed
G92 E0
G92 E0
G1 F2700 E-5
;LAYER_COUNT:23
;LAYER:0
M107
M204 S500
M205 X8 Y8
;MESH:crankshaft_bearing.stl
G0 F6000 X83.269 Y122.626 Z0.2
;TYPE:WALL-INNER
G1 F2700 E0
G1 F1200 X83.507 Y122.626 E0.00641
G1 X83.523 Y122.599 E0.00726
G1 X83.614 Y122.441 E0.01217
G1 X86.344 Y117.713 E0.15925
G1 X86.467 Y117.5 E0.16588
G1 X86.452 Y117.474 E0.16669
G1 X86.36 Y117.315 E0.17164
G1 X83.625 Y112.578 E0.319
G1 X83.507 Y112.374 E0.32535
G1 X83.491 Y112.374 E0.32578
G1 X83.293 Y112.374 E0.33111
G1 X77.828 Y112.374 E0.47835
G1 X77.59 Y112.374 E0.48476
G1 X77.575 Y112.401 E0.48559
G1 X77.484 Y112.558 E0.49048
G1 X74.752 Y117.288 E0.63764
G1 X74.63 Y117.5 E0.64423
G1 X74.637 Y117.512 E0.6446
G1 X74.737 Y117.686 E0.65001
G1 X77.481 Y122.437 E0.79782
G1 X77.59 Y122.626 E0.8037
G1 X77.606 Y122.626 E0.80413
G1 X77.805 Y122.626 E0.80949
G1 X83.269 Y122.626 E0.95669
G0 F6000 X83.276 Y122.226
;TYPE:WALL-OUTER
G1 F1200 X86.005 Y117.5 E1.10372
G1 X83.276 Y112.774 E1.25074
G1 X77.821 Y112.774 E1.3977
G1 X75.092 Y117.5 E1.54473
G1 X77.821 Y122.226 E1.69175
G1 X83.276 Y122.226 E1.83871
G0 F6000 X83.276 Y122.726
G0 X83.527 Y122.66
G0 X86.507 Y117.5
G0 X86.174 Y116.192
;TYPE:WALL-INNER
G1 F1200 X86.05 Y115.975 E1.84545
G1 X85.916 Y115.743 E1.85266
G1 X85.751 Y115.457 E1.86156
G1 X85.617 Y115.226 E1.86875
G1 X85.487 Y115.001 E1.87575
G1 X85.31 Y114.694 E1.8853
G1 X85.168 Y114.448 E1.89295
G1 X85.031 Y114.212 E1.90031
G1 X84.883 Y113.956 E1.90827
G1 X84.757 Y113.738 E1.91506
G1 X84.594 Y113.456 E1.92383
G1 X84.495 Y113.285 E1.92915
G1 X84.642 Y113.427 E1.92967
G1 X84.871 Y113.671 E1.93191
G1 X85.037 Y113.867 E1.93464
G1 X85.218 Y114.103 E1.93861
G1 X85.375 Y114.328 E1.94283
G1 X85.524 Y114.57 E1.9475
G1 X85.696 Y114.88 E1.95336
G1 X85.809 Y115.115 E1.95753
G1 X85.913 Y115.363 E1.96125
G1 X86.028 Y115.677 E1.96513
G1 X86.11 Y115.94 E1.96734
G1 X86.174 Y116.192 E1.96813
G0 F6000 X83.527 Y112.34
G0 X82.228 Y111.974
G1 F1200 X81.976 Y111.974 E1.97492
G1 X81.667 Y111.974 E1.98325
G1 X81.416 Y111.974 E1.99001
G1 X81.119 Y111.974 E1.99801
G1 X80.843 Y111.974 E2.00544
G1 X80.513 Y111.974 E2.01434
G1 X80.213 Y111.974 E2.02242
G1 X79.92 Y111.974 E2.03031
G1 X79.671 Y111.974 E2.03702
G1 X79.363 Y111.974 E2.04532
G1 X79.105 Y111.974 E2.05227
G1 X78.877 Y111.974 E2.05841
G1 X79.105 Y111.909 E2.0591
G1 X79.363 Y111.848 E2.06093
G1 X79.671 Y111.793 E2.06422
G1 X79.92 Y111.759 E2.0676
G1 X80.213 Y111.736 E2.07209
G1 X80.513 Y111.725 E2.07703
G1 X80.843 Y111.732 E2.0825
G1 X81.119 Y111.752 E2.08684
G1 X81.416 Y111.79 E2.09096
G1 X81.667 Y111.833 E2.09379
G1 X81.976 Y111.904 E2.09617
G1 X82.228 Y111.974 E2.09696
G0 F6000 X77.57 Y112.34
G0 X75.603 Y115.017
G1 F1200 X75.455 Y115.273 E2.10493
G1 X75.323 Y115.502 E2.11205
G1 X75.162 Y115.78 E2.1207
G1 X75.037 Y115.996 E2.12743
G1 X74.925 Y116.189 E2.13344
G1 X74.981 Y115.964 E2.13409
G1 X75.055 Y115.719 E2.13579
G1 X75.165 Y115.412 E2.1392
G1 X75.267 Y115.165 E2.14281
G1 X75.393 Y114.897 E2.14738
G1 X75.519 Y114.663 E2.15403
G1 X75.693 Y114.374 E2.16312
G1 X75.847 Y114.146 E2.17053
G1 X76.039 Y113.893 E2.17909
G1 X76.209 Y113.687 E2.18628
G1 X76.394 Y113.487 E2.19362
G1 X76.603 Y113.284 E2.20147
G1 X76.464 Y113.526 E2.20215
G1 X76.331 Y113.757 E2.20439
G1 X76.2 Y113.985 E2.20748
G1 X76.042 Y114.258 E2.21202
G1 X75.905 Y114.495 E2.21644
G1 X75.736 Y114.787 E2.22209
G1 X75.603 Y115.017 E2.22648
G0 F6000 X74.59 Y117.5
G0 X76.601 Y121.713
G1 F1200 X76.438 Y121.556 E2.23257
G1 X76.226 Y121.33 E2.24092
G1 X76.061 Y121.134 E2.24782
G1 X75.875 Y120.891 E2.25607
G1 X75.719 Y120.664 E2.26349
G1 X75.566 Y120.418 E2.27129
G1 X75.406 Y120.129 E2.28019
G1 X75.283 Y119.873 E2.28784
G1 X75.176 Y119.618 E2.29529
G1 X75.069 Y119.324 E2.30372
G1 X74.993 Y119.078 E2.31066
G1 X74.925 Y118.811 E2.31808
G1 X75.057 Y119.041 E2.31868
G1 X75.182 Y119.258 E2.32061
G1 X75.336 Y119.525 E2.32413
G1 X75.473 Y119.763 E2.32804
G1 X75.615 Y120.008 E2.33244
G1 X75.78 Y120.294 E2.3379
G1 X75.925 Y120.544 E2.34264
G1 X76.063 Y120.782 E2.34686
G1 X76.215 Y121.045 E2.35089
G1 X76.341 Y121.263 E2.35349
G1 X76.492 Y121.524 E2.35542
G1 X76.601 Y121.713 E2.35583
G0 F6000 X77.57 Y122.66
G0 X82.223 Y123.026
G1 F1200 X81.998 Y123.09 E2.36213
G1 X81.735 Y123.152 E2.36941
G1 X81.426 Y123.207 E2.37787
G1 X81.177 Y123.241 E2.38464
G1 X80.884 Y123.264 E2.39256
G1 X80.585 Y123.275 E2.40062
G1 X80.254 Y123.268 E2.40954
G1 X79.978 Y123.248 E2.41699
G1 X79.681 Y123.21 E2.42506
G1 X79.43 Y123.167 E2.43192
G1 X79.137 Y123.1 E2.44002
G1 X78.871 Y123.026 E2.44746
G1 X79.137 Y123.026 E2.44806
G1 X79.43 Y123.026 E2.45016
G1 X79.681 Y123.026 E2.4529
G1 X79.978 Y123.026 E2.45697
G1 X80.254 Y123.026 E2.46129
G1 X80.585 Y123.026 E2.46678
G1 X80.884 Y123.026 E2.47169
G1 X81.177 Y123.026 E2.47617
G1 X81.426 Y123.026 E2.4795
G1 X81.735 Y123.026 E2.48268
G1 X81.998 Y123.026 E2.48434
G1 X82.223 Y123.026 E2.48477
G0 F6000 X83.527 Y122.66
G0 X85.41 Y120.62
G1 F1200 X85.233 Y120.878 E2.4932
G1 X85.081 Y121.08 E2.50001
G1 X84.888 Y121.313 E2.50817
G1 X84.705 Y121.511 E2.51543
G1 X84.495 Y121.716 E2.52334
G1 X84.636 Y121.472 E2.524
G1 X84.767 Y121.244 E2.52616
G1 X84.916 Y120.986 E2.52967
G1 X85.042 Y120.768 E2.53331
G1 X85.198 Y120.498 E2.53829
G1 X85.357 Y120.223 E2.54684
G1 X85.506 Y119.965 E2.55487
G1 X85.634 Y119.744 E2.56175
G1 X85.784 Y119.484 E2.56984
G1 X85.936 Y119.22 E2.57804
G1 X86.059 Y119.007 E2.58467
G1 X86.172 Y118.811 E2.59077
G1 X86.115 Y119.039 E2.59145
G1 X86.042 Y119.281 E2.59313
G1 X85.938 Y119.572 E2.59631
G1 X85.822 Y119.852 E2.60036
G1 X85.713 Y120.084 E2.6043
G1 X85.572 Y120.347 E2.60919
G1 X85.41 Y120.62 E2.61448
G0 F6000 X85.74 Y120.846
G1 F1200 X85.56 Y121.109 E2.62307
G1 X85.389 Y121.335 E2.6307
G1 X85.189 Y121.576 E2.63914
G1 X84.984 Y121.798 E2.64728
G1 X84.761 Y122.015 E2.65566
G1 X84.533 Y122.218 E2.66389
G1 X84.282 Y122.42 E2.67257
G1 X84.049 Y122.588 E2.68031
G1 X83.946 Y122.655 E2.68362
G1 X83.793 Y122.754 E2.688
G1 X83.636 Y122.846 E2.69208
G1 X83.528 Y122.909 E2.69482
G1 X83.317 Y123.018 E2.70031
G1 X83.252 Y123.052 E2.70228
G1 X82.988 Y123.173 E2.71011
G1 X82.676 Y123.297 E2.71915
G1 X82.406 Y123.39 E2.72685
G1 X82.103 Y123.476 E2.73533
G1 X82.091 Y123.478 E2.73566
G1 X81.813 Y123.545 E2.74336
G1 X81.496 Y123.601 E2.75204
G1 X81.211 Y123.64 E2.75979
G1 X80.906 Y123.664 E2.76803
G1 X80.591 Y123.675 E2.77652
G1 X80.236 Y123.668 E2.78609
G1 X79.937 Y123.646 E2.79416
G1 X79.629 Y123.607 E2.80253
G1 X79.344 Y123.558 E2.81032
G1 X79.032 Y123.486 E2.81894
G1 X78.75 Y123.408 E2.82683
G1 X78.443 Y123.304 E2.83556
G1 X78.166 Y123.197 E2.84356
G1 X77.892 Y123.074 E2.85165
G1 X77.783 Y123.019 E2.85494
G1 X77.606 Y122.93 E2.85966
G1 X77.463 Y122.848 E2.86338
G1 X77.337 Y122.775 E2.86665
G1 X77.153 Y122.657 E2.87178
G1 X77.098 Y122.621 E2.87355
G1 X76.844 Y122.442 E2.88192
G1 X76.6 Y122.247 E2.89034
G1 X76.362 Y122.039 E2.89885
G1 X76.151 Y121.835 E2.90676
G1 X75.934 Y121.604 E2.9153
G1 X75.755 Y121.392 E2.92277
G1 X75.55 Y121.125 E2.93184
G1 X75.389 Y120.891 E2.93949
G1 X75.222 Y120.623 E2.948
G1 X75.057 Y120.322 E2.95725
G1 X75.045 Y120.302 E2.95788
G1 X74.922 Y120.046 E2.96553
G1 X74.807 Y119.773 E2.97351
G1 X74.693 Y119.461 E2.98246
G1 X74.606 Y119.181 E2.99036
G1 X74.528 Y118.875 E2.99886
G1 X74.47 Y118.59 E3.0067
G1 X74.423 Y118.273 E3.01533
G1 X74.392 Y117.98 E3.02327
G1 X74.386 Y117.865 E3.02637
G1 X74.376 Y117.664 E3.03116
G1 X74.376 Y117.501 E3.03483
G1 X74.375 Y117.385 E3.03796
G1 X74.385 Y117.14 E3.0436
G1 X74.39 Y117.05 E3.04603
G1 X74.417 Y116.775 E3.05347
G1 X74.462 Y116.462 E3.06199
G1 X74.522 Y116.152 E3.0705
G1 X74.598 Y115.848 E3.07894
G1 X74.678 Y115.584 E3.08637
G1 X74.788 Y115.277 E3.09516
G1 X74.905 Y114.995 E3.10338
G1 X75.031 Y114.727 E3.11136
G1 X75.176 Y114.457 E3.11962
G1 X75.357 Y114.156 E3.12908
G1 X75.528 Y113.904 E3.13728
G1 X75.72 Y113.651 E3.14584
G1 X75.908 Y113.424 E3.15378
G1 X76.115 Y113.2 E3.162
G1 X76.342 Y112.979 E3.17053
G1 X76.555 Y112.788 E3.17824
G1 X76.808 Y112.586 E3.18696
G1 X77.056 Y112.407 E3.1952
G1 X77.152 Y112.344 E3.1983
G1 X77.304 Y112.245 E3.20267
G1 X77.461 Y112.154 E3.20674
G1 X77.569 Y112.091 E3.20949
G1 X77.78 Y111.982 E3.21498
G1 X77.846 Y111.948 E3.21698
G1 X78.11 Y111.827 E3.2248
G1 X78.422 Y111.703 E3.23385
G1 X78.69 Y111.611 E3.24148
G1 X78.995 Y111.524 E3.25003
G1 X79.285 Y111.455 E3.25806
G1 X79.601 Y111.399 E3.2667
G1 X79.886 Y111.36 E3.27445
G1 X80.191 Y111.336 E3.28269
G1 X80.507 Y111.325 E3.29121
G1 X80.861 Y111.332 E3.30075
G1 X81.16 Y111.354 E3.30883
G1 X81.468 Y111.393 E3.31719
G1 X81.753 Y111.442 E3.32498
G1 X82.066 Y111.514 E3.33364
G1 X82.347 Y111.592 E3.34149
G1 X82.659 Y111.697 E3.35036
G1 X82.93 Y111.802 E3.35819
G1 X83.207 Y111.926 E3.36637
G1 X83.315 Y111.981 E3.36963
G1 X83.491 Y112.07 E3.37433
G1 X83.634 Y112.152 E3.37805
G1 X83.743 Y112.215 E3.38085
G1 X83.941 Y112.342 E3.3863
G1 X84.01 Y112.386 E3.3885
G1 X84.242 Y112.55 E3.39616
G1 X84.491 Y112.748 E3.40473
G1 X84.724 Y112.951 E3.41305
G1 X84.771 Y112.997 E3.41483
G1 X84.934 Y113.153 E3.4209
G1 X85.163 Y113.397 E3.42992
G1 X85.342 Y113.608 E3.43737
G1 X85.541 Y113.867 E3.44617
G1 X85.716 Y114.118 E3.45442
G1 X85.865 Y114.36 E3.46207
G1 X86.046 Y114.686 E3.47212
G1 X86.055 Y114.706 E3.47271
G1 X86.178 Y114.96 E3.48031
G1 X86.289 Y115.225 E3.48805
G1 X86.404 Y115.539 E3.49706
G1 X86.492 Y115.821 E3.50502
G1 X86.563 Y116.098 E3.51272
G1 X86.628 Y116.416 E3.52147
G1 X86.672 Y116.701 E3.52924
G1 X86.706 Y117.024 E3.53799
G1 X86.712 Y117.134 E3.54095
G1 X86.722 Y117.318 E3.54539
G1 X86.722 Y117.499 E3.54945
G1 X86.723 Y117.613 E3.55252
G1 X86.712 Y117.86 E3.55821
G1 X86.707 Y117.948 E3.56059
G1 X86.681 Y118.225 E3.56808
G1 X86.633 Y118.557 E3.57712
G1 X86.58 Y118.827 E3.58453
G1 X86.501 Y119.144 E3.59334
G1 X86.419 Y119.416 E3.60099
G1 X86.312 Y119.715 E3.60955
G1 X86.192 Y120.005 E3.618
G1 X86.066 Y120.273 E3.62598
G1 X85.925 Y120.536 E3.63402
G1 X85.74 Y120.846 E3.64374
G0 F6000 X86.07 Y121.072
;TYPE:WALL-OUTER
G1 F1200 X85.889 Y121.337 E3.65239
G1 X85.696 Y121.591 E3.66098
G1 X85.488 Y121.841 E3.66975
G1 X85.263 Y122.085 E3.67869
G1 X85.035 Y122.307 E3.68726
G1 X84.784 Y122.53 E3.69631
G1 X84.533 Y122.732 E3.70499
G1 X84.275 Y122.918 E3.71355
G1 X84.001 Y123.096 E3.72236
G1 X83.72 Y123.26 E3.73112
G1 X83.423 Y123.414 E3.74014
G1 X83.136 Y123.545 E3.74863
G1 X82.824 Y123.669 E3.75768
G1 X82.518 Y123.774 E3.7664
G1 X82.212 Y123.861 E3.77497
G1 X81.886 Y123.938 E3.78399
G1 X81.566 Y123.995 E3.79275
G1 X81.245 Y124.039 E3.80148
G1 X80.928 Y124.064 E3.81004
G1 X80.597 Y124.075 E3.81896
G1 X80.216 Y124.068 E3.82923
G1 X79.897 Y124.044 E3.83785
G1 X79.579 Y124.004 E3.84648
G1 X79.258 Y123.949 E3.85526
G1 X78.942 Y123.876 E3.864
G1 X78.625 Y123.788 E3.87286
G1 X78.311 Y123.682 E3.88179
G1 X78.014 Y123.567 E3.89037
G1 X77.71 Y123.431 E3.89934
G1 X77.42 Y123.284 E3.9081
G1 X77.138 Y123.122 E3.91686
G1 X76.872 Y122.951 E3.92538
G1 X76.598 Y122.757 E3.93442
G1 X76.351 Y122.56 E3.94294
G1 X76.099 Y122.34 E3.95195
G1 X75.864 Y122.114 E3.96073
G1 X75.642 Y121.877 E3.96948
G1 X75.438 Y121.636 E3.97799
G1 X75.233 Y121.369 E3.98706
G1 X75.049 Y121.102 E3.99579
G1 X74.877 Y120.825 E4.00458
G1 X74.695 Y120.496 E4.01471
G1 X74.554 Y120.204 E4.02344
G1 X74.432 Y119.913 E4.03194
G1 X74.317 Y119.599 E4.04095
G1 X74.22 Y119.288 E4.04973
G1 X74.14 Y118.973 E4.05848
G1 X74.075 Y118.654 E4.06725
G1 X74.027 Y118.332 E4.07602
G1 X73.992 Y118.008 E4.0848
G1 X73.976 Y117.684 E4.09354
G1 X73.975 Y117.367 E4.10208
G1 X73.99 Y117.032 E4.11112
G1 X74.021 Y116.718 E4.11962
G1 X74.069 Y116.386 E4.12866
G1 X74.129 Y116.076 E4.13716
G1 X74.21 Y115.751 E4.14619
G1 X74.301 Y115.449 E4.15468
G1 X74.411 Y115.142 E4.16347
G1 X74.535 Y114.842 E4.17221
G1 X74.679 Y114.538 E4.18128
G1 X74.833 Y114.251 E4.19005
G1 X75.021 Y113.938 E4.19989
G1 X75.209 Y113.662 E4.20889
G1 X75.401 Y113.409 E4.21744
G1 X75.609 Y113.159 E4.2262
G1 X75.836 Y112.913 E4.23522
G1 X76.063 Y112.692 E4.24376
G1 X76.305 Y112.476 E4.2525
G1 X76.567 Y112.266 E4.26154
G1 X76.823 Y112.082 E4.27003
G1 X77.096 Y111.904 E4.27881
G1 X77.377 Y111.74 E4.28758
G1 X77.675 Y111.586 E4.29662
G1 X77.962 Y111.455 E4.30512
G1 X78.274 Y111.331 E4.31416
G1 X78.58 Y111.226 E4.32288
G1 X78.885 Y111.139 E4.33142
G1 X79.212 Y111.062 E4.34047
G1 X79.531 Y111.005 E4.3492
G1 X79.852 Y110.961 E4.35793
G1 X80.169 Y110.936 E4.3665
G1 X80.501 Y110.925 E4.37545
G1 X80.881 Y110.932 E4.38569
G1 X81.2 Y110.956 E4.3943
G1 X81.518 Y110.996 E4.40294
G1 X81.839 Y111.051 E4.41171
G1 X82.156 Y111.124 E4.42048
G1 X82.472 Y111.212 E4.42931
G1 X82.787 Y111.318 E4.43827
G1 X83.082 Y111.432 E4.44679
G1 X83.388 Y111.569 E4.45582
G1 X83.677 Y111.716 E4.46456
G1 X83.959 Y111.878 E4.47332
G1 X84.226 Y112.049 E4.48186
G1 X84.491 Y112.237 E4.49061
G1 X84.754 Y112.446 E4.49966
G1 X84.992 Y112.653 E4.50816
G1 X85.226 Y112.879 E4.51693
G1 X85.455 Y113.123 E4.52594
G1 X85.659 Y113.364 E4.53445
G1 X85.864 Y113.631 E4.54352
G1 X86.044 Y113.889 E4.55199
G1 X86.215 Y114.166 E4.56076
G1 X86.403 Y114.504 E4.57118
G1 X86.539 Y114.787 E4.57964
G1 X86.665 Y115.087 E4.58841
G1 X86.78 Y115.401 E4.59741
G1 X86.874 Y115.702 E4.60591
G1 X86.955 Y116.018 E4.6147
G1 X87.02 Y116.336 E4.62344
G1 X87.07 Y116.659 E4.63225
G1 X87.104 Y116.982 E4.641
G1 X87.122 Y117.317 E4.65004
G1 X87.123 Y117.632 E4.65852
G1 X87.107 Y117.967 E4.66756
G1 X87.077 Y118.282 E4.67608
G1 X87.029 Y118.614 E4.68512
G1 X86.968 Y118.924 E4.69363
G1 X86.887 Y119.249 E4.70266
G1 X86.796 Y119.551 E4.71115
G1 X86.686 Y119.858 E4.71994
G1 X86.562 Y120.158 E4.72868
G1 X86.418 Y120.462 E4.73775
G1 X86.268 Y120.741 E4.74628
G1 X86.07 Y121.072 E4.75667
G0 F6000 X85.7 Y120.835
G0 X85.651 Y120.801
G0 X84.444 Y122.062
G0 X84.314 Y121.932
;TYPE:SKIN
G1 F1200 X84.184 Y122.085 E4.76159
G1 X83.919 Y122.385 E4.77141
G0 F6000 X83.964 Y122.431
G0 X83.063 Y122.944
G0 X82.991 Y122.872
G1 F1200 X82.751 Y122.915 E4.77652
G1 X82.427 Y123.156 E4.785
G0 F6000 X82.397 Y123.127
G0 X78.732 Y122.856
G0 X78.704 Y122.828
G1 F1200 X78.546 Y122.952 E4.7882
G1 X77.892 Y122.864 E4.79871
G0 F6000 X76.944 Y122.199
G1 F1200 X76.91 Y121.882 E4.81499
G0 F6000 X77.027 Y121.999
G0 X75.034 Y118.592
G0 X74.809 Y118.366
G1 F1200 X74.64 Y117.915 E4.82231
G1 X74.731 Y118.572 E4.8324
G0 F6000 X74.833 Y118.674
G0 X74.615 Y117.618
G0 X74.664 Y117.09
G0 X74.617 Y117.043
G1 F1200 X74.682 Y116.826 E4.83749
G1 X74.83 Y116.408 E4.84745
G0 F6000 X74.686 Y116.264
G0 X76.942 Y113.146
G0 X76.818 Y113.022
G1 F1200 X76.949 Y112.87 E4.85016
G1 X77.215 Y112.571 E4.85556
G1 X77.934 Y112.158 E4.86675
G1 X78.611 Y111.987 E4.87617
G0 F6000 X78.488 Y111.864
G0 X82.375 Y112.074
G0 X82.437 Y112.136
G1 F1200 X82.596 Y112.011 E4.88167
G1 X82.937 Y112.07 E4.89107
G0 F6000 X83.065 Y112.198
G0 X83.48 Y112.325
G0 X83.963 Y112.813
G0 X84.154 Y113.004
G1 F1200 X84.297 Y112.864 E4.90629
G0 F6000 X84.089 Y112.656
G0 X86.121 Y116.385
G0 X86.312 Y116.576
G1 F1200 X86.408 Y116.955 E4.9134
G1 X86.388 Y116.37 E4.92405
G0 F6000 X86.322 Y116.304
G0 X86.488 Y117.38
G0 X86.461 Y117.857
G0 X86.496 Y117.892
G1 F1200 X86.433 Y118.111 E4.92867
G1 X86.291 Y118.535 E4.93774
M104 S210
G0 F6000 X86.259 Y118.659
;MESH:NONMESH
G0 F300 X86.259 Y118.659 Z0.4
