;FLAVOR:Marlin
;TIME:1103
;Filament used: 0.439262m
;Layer height: 0.2
;MINX:72.195
;MINY:111.702
;MINZ:0.2
;MAXX:83.795
;MAXY:123.298
;MAXZ:19.4
;Generated with Cura_SteamEngine master
M82 ;absolute extrusion mode
; Ender 3 Custom Start G-code
M140 S75 ; Set Heat Bed temperature
M104 S160 ; start warming extruder to 160
G28 ; Home all axes
G29 ; Auto bed-level (BL-Touch)
G92 E0 ; Reset Extruder
M190 S75 ; Wait for Heat Bed temperature
M104 S210 ; Set Extruder temperature
G1 X0 Y0 Z0.3 F5000.0 ; Move to 0 0
M109 S210 ; Wait for Extruder temperature
G1 X3 Y20 Z0.3 F5000.0 ; Move to start position
; G1 Z2.0 F3000 ; Move Z Axis up little to prevent scratching of Heat Bed
G1 X3 Y200.0 Z0.3 F1500.0 E15 ; Draw the first line
G1 X3.3 Y200.0 Z0.3 F5000.0 ; Move to side a little
G1 X3.3 Y20 Z0.3 F1500.0 E30 ; Draw the second line
G92 E0 ; Reset Extruder
G1 Z2.0 F3000 ; Move Z Axis up little to prevent scratching of Heat Bed
G92 E0
G92 E0
G1 F2700 E-5
;LAYER_COUNT:97
;LAYER:0
M107
M204 S500
M205 X8 Y8
;MESH:crank_grip.stl
G0 F6000 X76.946 Y112.664 Z0.2
;TYPE:WALL-INNER
G1 F2700 E0
G1 F887.9 X76.897 Y112.676 E0.00136
G1 X76.623 Y112.747 E0.00898
G1 X76.338 Y112.839 E0.01705
G1 X76.307 Y112.849 E0.01793
G1 X76.067 Y112.945 E0.02489
G1 X75.997 Y112.974 E0.02694
G1 X75.804 Y113.065 E0.03268
G1 X75.696 Y113.117 E0.03591
G1 X75.551 Y113.2 E0.04041
G1 X75.407 Y113.283 E0.04489
G1 X75.302 Y113.352 E0.04828
G1 X75.129 Y113.466 E0.05386
G1 X75.063 Y113.516 E0.05609
G1 X74.864 Y113.668 E0.06284
G1 X74.844 Y113.686 E0.06356
G1 X74.613 Y113.887 E0.07181
G1 X74.413 Y114.089 E0.07947
G1 X74.379 Y114.123 E0.08076
G1 X74.21 Y114.315 E0.08765
G1 X74.159 Y114.373 E0.08974
G1 X74.035 Y114.536 E0.09525
G1 X73.958 Y114.637 E0.09867
G1 X73.882 Y114.752 E0.10239
G1 X73.774 Y114.915 E0.10766
G1 X73.718 Y115.014 E0.11072
G1 X73.61 Y115.205 E0.11663
G1 X73.585 Y115.257 E0.11819
G1 X73.466 Y115.505 E0.1256
G1 X73.342 Y115.815 E0.13459
G1 X73.253 Y116.092 E0.14243
G1 X73.24 Y116.131 E0.14354
G1 X73.184 Y116.349 E0.1496
G1 X73.157 Y116.454 E0.15252
G1 X73.128 Y116.619 E0.15704
G1 X73.098 Y116.781 E0.16147
G1 X73.081 Y116.938 E0.16573
G1 X73.061 Y117.112 E0.17045
G1 X73.058 Y117.186 E0.17244
G1 X73.046 Y117.445 E0.17943
G1 X73.047 Y117.511 E0.18121
G1 X73.052 Y117.78 E0.18845
G1 X73.06 Y117.873 E0.19097
G1 X73.088 Y118.164 E0.19884
G1 X73.141 Y118.469 E0.20718
G1 X73.145 Y118.492 E0.20781
G1 X73.203 Y118.74 E0.21468
G1 X73.222 Y118.817 E0.21681
G1 X73.284 Y119.016 E0.22243
G1 X73.321 Y119.134 E0.22576
G1 X73.384 Y119.295 E0.23042
G1 X73.442 Y119.445 E0.23475
G1 X73.497 Y119.563 E0.23826
G1 X73.583 Y119.748 E0.24375
G1 X73.616 Y119.808 E0.2456
G1 X73.744 Y120.039 E0.25271
G1 X73.763 Y120.069 E0.25367
G1 X73.924 Y120.319 E0.26168
G1 X74.102 Y120.558 E0.26971
G1 X74.124 Y120.587 E0.27069
G1 X74.283 Y120.773 E0.27728
G1 X74.341 Y120.84 E0.27967
G1 X74.474 Y120.977 E0.28481
G1 X74.573 Y121.078 E0.28862
G1 X74.69 Y121.182 E0.29284
G1 X74.821 Y121.3 E0.29759
G1 X74.917 Y121.374 E0.30086
G1 X75.084 Y121.505 E0.30657
G1 X75.123 Y121.531 E0.30784
G1 X75.359 Y121.691 E0.31552
G1 X75.386 Y121.706 E0.31635
G1 X75.631 Y121.85 E0.32401
G1 X75.648 Y121.86 E0.32454
G1 X75.9 Y121.984 E0.3321
G1 X75.947 Y122.007 E0.33351
G1 X76.163 Y122.095 E0.3398
G1 X76.254 Y122.133 E0.34245
G1 X76.428 Y122.193 E0.34741
G1 X76.568 Y122.241 E0.3514
G1 X76.691 Y122.273 E0.35482
G1 X76.892 Y122.326 E0.36042
G1 X76.986 Y122.344 E0.363
G1 X77.22 Y122.389 E0.36942
G1 X77.267 Y122.394 E0.3707
G1 X77.55 Y122.43 E0.37838
G1 X77.855 Y122.446 E0.38661
G1 X77.888 Y122.448 E0.3875
G1 X78.136 Y122.441 E0.39418
G1 X78.381 Y122.433 E0.40079
G1 X78.419 Y122.429 E0.40182
G1 X78.716 Y122.395 E0.40987
G1 X79.004 Y122.344 E0.41775
G1 X79.044 Y122.336 E0.41885
G1 X79.296 Y122.271 E0.42586
G1 X79.366 Y122.253 E0.42781
G1 X79.562 Y122.191 E0.43335
G1 X79.684 Y122.151 E0.43681
G1 X79.828 Y122.093 E0.44099
G1 X79.993 Y122.026 E0.44579
G1 X80.092 Y121.979 E0.44874
G1 X80.293 Y121.883 E0.45474
G1 X80.354 Y121.848 E0.45663
G1 X80.582 Y121.717 E0.46372
G1 X80.605 Y121.702 E0.46446
G1 X80.86 Y121.534 E0.47268
G1 X81.089 Y121.36 E0.48043
G1 X81.125 Y121.332 E0.48166
G1 X81.292 Y121.186 E0.48764
G1 X81.376 Y121.113 E0.49064
G1 X81.515 Y120.973 E0.49595
G1 X81.61 Y120.877 E0.49959
G1 X81.709 Y120.765 E0.50362
G1 X81.83 Y120.627 E0.50856
G1 X81.894 Y120.542 E0.51143
G1 X82.031 Y120.363 E0.5175
G1 X82.056 Y120.325 E0.51873
G1 X82.216 Y120.085 E0.5265
G1 X82.226 Y120.068 E0.52703
G1 X82.379 Y119.795 E0.53546
G1 X82.499 Y119.548 E0.54286
G1 X82.524 Y119.496 E0.54441
G1 X82.607 Y119.288 E0.55044
G1 X82.649 Y119.184 E0.55347
G1 X82.703 Y119.013 E0.5583
G1 X82.749 Y118.869 E0.56237
G1 X82.786 Y118.726 E0.56635
G1 X82.833 Y118.546 E0.57136
G1 X82.849 Y118.451 E0.57396
G1 X82.891 Y118.218 E0.58034
G1 X82.894 Y118.185 E0.58123
G1 X82.928 Y117.888 E0.58928
G1 X82.94 Y117.597 E0.59713
G1 X82.945 Y117.503 E0.59966
G1 X82.939 Y117.3 E0.60514
G1 X82.934 Y117.167 E0.60872
G1 X82.919 Y117.012 E0.61292
G1 X82.901 Y116.834 E0.61774
G1 X82.885 Y116.737 E0.62038
G1 X82.845 Y116.508 E0.62665
G1 X82.828 Y116.434 E0.62869
G1 X82.767 Y116.182 E0.63568
G1 X82.668 Y115.866 E0.6446
G1 X82.568 Y115.609 E0.65203
G1 X82.547 Y115.555 E0.65359
G1 X82.45 Y115.347 E0.65977
G1 X82.406 Y115.253 E0.66257
G1 X82.322 Y115.1 E0.66727
G1 X82.246 Y114.961 E0.67154
G1 X82.174 Y114.849 E0.67513
G1 X82.064 Y114.68 E0.68056
G1 X82.023 Y114.625 E0.68241
G1 X81.865 Y114.414 E0.68951
G1 X81.826 Y114.368 E0.69113
G1 X81.65 Y114.16 E0.69847
G1 X81.443 Y113.95 E0.70642
G1 X81.416 Y113.922 E0.70747
G1 X81.226 Y113.752 E0.71433
G1 X81.169 Y113.7 E0.71641
G1 X81.008 Y113.575 E0.7219
G1 X80.905 Y113.495 E0.72542
G1 X80.77 Y113.404 E0.7298
G1 X80.63 Y113.309 E0.73436
G1 X80.527 Y113.249 E0.73757
G1 X80.341 Y113.14 E0.74338
G1 X80.266 Y113.103 E0.74563
G1 X80.042 Y112.993 E0.75236
G1 X80.031 Y112.989 E0.75267
G1 X79.735 Y112.867 E0.7613
G1 X79.47 Y112.776 E0.76885
G1 X79.421 Y112.759 E0.77024
G1 X79.186 Y112.698 E0.77678
G1 X79.097 Y112.674 E0.77927
G1 X78.91 Y112.638 E0.7844
G1 X78.77 Y112.611 E0.78824
G1 X78.616 Y112.592 E0.79242
G1 X78.439 Y112.57 E0.79723
G1 X78.349 Y112.566 E0.79965
G1 X78.101 Y112.552 E0.80634
G1 X78.051 Y112.553 E0.80769
G1 X77.743 Y112.562 E0.81599
G1 X77.608 Y112.567 E0.81963
G1 X77.464 Y112.583 E0.82354
G1 X77.274 Y112.605 E0.82869
G1 X77.184 Y112.621 E0.83115
G1 X76.946 Y112.664 E0.83767
G0 F6000 X77.031 Y113.055
;TYPE:WALL-OUTER
G1 F887.9 X76.734 Y113.131 E0.84593
G1 X76.443 Y113.225 E0.85416
G1 X76.158 Y113.34 E0.86244
G1 X75.882 Y113.472 E0.87069
G1 X75.616 Y113.624 E0.87894
G1 X75.361 Y113.792 E0.88717
G1 X75.117 Y113.978 E0.89543
G1 X74.887 Y114.179 E0.90366
G1 X74.671 Y114.396 E0.91191
G1 X74.469 Y114.626 E0.92016
G1 X74.284 Y114.869 E0.92839
G1 X74.115 Y115.124 E0.93663
G1 X73.965 Y115.39 E0.94485
G1 X73.832 Y115.666 E0.95311
G1 X73.718 Y115.951 E0.96138
G1 X73.624 Y116.242 E0.96962
G1 X73.548 Y116.539 E0.97788
G1 X73.494 Y116.839 E0.98609
G1 X73.46 Y117.143 E0.99433
G1 X73.446 Y117.45 E1.00261
G1 X73.452 Y117.757 E1.01088
G1 X73.485 Y118.111 E1.02046
G1 X73.537 Y118.412 E1.02869
G1 X73.608 Y118.711 E1.03697
G1 X73.699 Y119.002 E1.04518
G1 X73.81 Y119.288 E1.05345
G1 X73.94 Y119.566 E1.06171
G1 X74.088 Y119.834 E1.06996
G1 X74.253 Y120.091 E1.07819
G1 X74.437 Y120.337 E1.08647
G1 X74.636 Y120.57 E1.09472
G1 X74.85 Y120.789 E1.10297
G1 X75.078 Y120.993 E1.11121
G1 X75.319 Y121.181 E1.11945
G1 X75.572 Y121.352 E1.12767
G1 X75.837 Y121.507 E1.13595
G1 X76.112 Y121.642 E1.1442
G1 X76.395 Y121.759 E1.15245
G1 X76.684 Y121.858 E1.16068
G1 X76.981 Y121.936 E1.16895
G1 X77.282 Y121.994 E1.17721
G1 X77.585 Y122.031 E1.18543
G1 X77.893 Y122.048 E1.19374
G1 X78.352 Y122.034 E1.20612
G1 X78.658 Y121.999 E1.21441
G1 X78.959 Y121.945 E1.22265
G1 X79.255 Y121.869 E1.23088
G1 X79.547 Y121.775 E1.23915
G1 X79.831 Y121.66 E1.2474
G1 X80.107 Y121.528 E1.25565
G1 X80.373 Y121.376 E1.2639
G1 X80.628 Y121.208 E1.27213
G1 X80.872 Y121.022 E1.28039
G1 X81.102 Y120.821 E1.28862
G1 X81.318 Y120.604 E1.29687
G1 X81.52 Y120.374 E1.30512
G1 X81.705 Y120.131 E1.31334
G1 X81.875 Y119.876 E1.3216
G1 X82.024 Y119.61 E1.32981
G1 X82.158 Y119.334 E1.33808
G1 X82.272 Y119.049 E1.34635
G1 X82.365 Y118.758 E1.35458
G1 X82.442 Y118.461 E1.36285
G1 X82.495 Y118.161 E1.37105
G1 X82.529 Y117.857 E1.37929
G1 X82.545 Y117.501 E1.3889
G1 X82.535 Y117.194 E1.39717
G1 X82.504 Y116.888 E1.40546
G1 X82.453 Y116.588 E1.41365
G1 X82.381 Y116.289 E1.42194
G1 X82.29 Y115.998 E1.43015
G1 X82.179 Y115.712 E1.43842
G1 X82.049 Y115.434 E1.44669
G1 X81.902 Y115.166 E1.45492
G1 X81.735 Y114.909 E1.46318
G1 X81.552 Y114.663 E1.47144
G1 X81.354 Y114.43 E1.47968
G1 X81.139 Y114.211 E1.48795
G1 X80.912 Y114.007 E1.49617
G1 X80.67 Y113.819 E1.50442
G1 X80.417 Y113.648 E1.51265
G1 X80.152 Y113.493 E1.52092
G1 X79.877 Y113.358 E1.52917
G1 X79.594 Y113.241 E1.53742
G1 X79.305 Y113.142 E1.54565
G1 X79.008 Y113.064 E1.55393
G1 X78.708 Y113.006 E1.56216
G1 X78.404 Y112.969 E1.57041
G1 X78.096 Y112.952 E1.57872
G1 X77.637 Y112.966 E1.59109
G1 X77.332 Y113.001 E1.59936
G1 X77.031 Y113.055 E1.6076
G0 F6000 X76.938 Y112.626
G0 X76.834 Y112.432
;TYPE:WALL-INNER
G1 F887.9 X76.897 Y112.42 E1.60837
G1 X77.139 Y112.372 E1.61256
G1 X77.239 Y112.359 E1.61431
G1 X77.435 Y112.331 E1.61768
G1 X77.589 Y112.32 E1.62034
G1 X77.735 Y112.309 E1.62286
G1 X78.043 Y112.301 E1.62813
G1 X78.111 Y112.303 E1.62897
G1 X78.362 Y112.314 E1.63323
G1 X78.463 Y112.323 E1.63491
G1 X78.646 Y112.342 E1.63803
G1 X78.808 Y112.367 E1.64082
G1 X78.957 Y112.391 E1.64339
G1 X79.149 Y112.432 E1.64672
G1 X79.249 Y112.454 E1.64841
G1 X79.487 Y112.521 E1.65258
G1 X79.551 Y112.539 E1.65336
G1 X79.816 Y112.63 E1.65809
G1 X79.826 Y112.634
G1 X80.125 Y112.757 E1.66359
G1 X80.149 Y112.769 E1.66411
G1 X80.376 Y112.878 E1.66835
G1 X80.46 Y112.924 E1.66986
G1 X80.653 Y113.032 E1.67359
G1 X80.761 Y113.1 E1.67577
G1 X80.911 Y113.195 E1.6788
G1 X81.049 Y113.295 E1.6817
G1 X81.161 Y113.376 E1.68406
G1 X81.324 Y113.509 E1.68761
G1 X81.393 Y113.565 E1.68893
G1 X81.583 Y113.739 E1.69327
G1 X81.621 Y113.774 E1.69367
G1 X81.832 Y113.989 E1.69878
G1 X82.018 Y114.204 E1.70364
G1 X82.062 Y114.262 E1.70493
G1 X82.224 Y114.473 E1.70943
G1 X82.269 Y114.54 E1.71085
G1 X82.385 Y114.711 E1.71436
G1 X82.458 Y114.835 E1.71683
G1 X82.543 Y114.978 E1.71967
G1 X82.626 Y115.138 E1.72274
G1 X82.679 Y115.239 E1.72473
G1 X82.774 Y115.453 E1.72871
G1 X82.803 Y115.517 E1.72963
G1 X82.901 Y115.777 E1.73434
G1 X82.906 Y115.79 E1.73471
G1 X83.007 Y116.113 E1.74044
G1 X83.072 Y116.375 E1.74504
G1 X83.088 Y116.462 E1.74638
G1 X83.132 Y116.694 E1.75036
G1 X83.145 Y116.803 E1.75223
G1 X83.169 Y116.987 E1.75537
G1 X83.18 Y117.149 E1.75812
G1 X83.19 Y117.291 E1.76056
G1 X83.192 Y117.499 E1.76408
G1 X83.194 Y117.608 E1.766
G1 X83.179 Y117.897 E1.77092
G1 X83.178 Y117.914
G1 X83.145 Y118.213 E1.77603
G1 X83.138 Y118.259 E1.77633
G1 X83.098 Y118.494 E1.78038
G1 X83.075 Y118.599 E1.78224
G1 X83.032 Y118.789 E1.78557
G1 X82.99 Y118.937 E1.78821
G1 X82.946 Y119.089 E1.79094
G1 X82.883 Y119.266 E1.79415
G1 X82.842 Y119.382 E1.79628
G1 X82.753 Y119.593 E1.80019
G1 X82.725 Y119.657 E1.80105
G1 X82.603 Y119.905 E1.80572
G1 X82.594 Y119.922
G1 X82.443 Y120.189 E1.81083
G1 X82.424 Y120.219 E1.81086
G1 X82.265 Y120.463 E1.81576
G1 X82.231 Y120.509 E1.81678
G1 X82.095 Y120.694 E1.82067
G1 X82.021 Y120.784 E1.82268
G1 X81.899 Y120.931 E1.82594
G1 X81.793 Y121.046 E1.82862
G1 X81.695 Y121.151 E1.83109
G1 X81.547 Y121.292 E1.83458
G1 X81.459 Y121.376 E1.83668
G1 X81.287 Y121.522 E1.84051
G1 X81.242 Y121.56 E1.84111
G1 X81.011 Y121.734 E1.84601
G1 X80.994 Y121.747
G1 X80.744 Y121.913 E1.85111
G1 X80.709 Y121.933 E1.85132
G1 X80.48 Y122.067 E1.85583
G1 X80.406 Y122.104 E1.85728
G1 X80.202 Y122.208 E1.86119
G1 X80.093 Y122.255 E1.86324
G1 X79.924 Y122.328 E1.86639
G1 X79.77 Y122.384 E1.8692
G1 X79.64 Y122.432 E1.8716
G1 X79.438 Y122.492 E1.87519
G1 X79.36 Y122.516 E1.87638
G1 X79.102 Y122.577 E1.88088
G1 X79.049 Y122.59 E1.8814
G1 X78.751 Y122.643 E1.88656
G1 X78.448 Y122.679 E1.89175
G1 X78.396 Y122.682 E1.8927
G1 X78.144 Y122.697 E1.89704
G1 X77.889 Y122.697 E1.90142
G1 X77.842 Y122.698 E1.9018
G1 X77.541 Y122.68 E1.90691
G1 X77.521 Y122.678
G1 X77.237 Y122.644 E1.91175
G1 X77.177 Y122.634 E1.91238
G1 X76.939 Y122.591 E1.91647
G1 X76.835 Y122.567 E1.91827
G1 X76.628 Y122.517 E1.92187
G1 X76.498 Y122.479 E1.9242
G1 X76.346 Y122.433 E1.92694
G1 X76.168 Y122.368 E1.93018
G1 X76.067 Y122.33 E1.93203
G1 X75.849 Y122.236 E1.93607
G1 X75.79 Y122.21 E1.93681
G1 X75.537 Y122.083 E1.9416
G1 X75.505 Y122.067 E1.94163
G1 X75.26 Y121.923 E1.94644
G1 X75.222 Y121.898 E1.94673
G1 X74.983 Y121.739 E1.95157
G1 X74.936 Y121.704 E1.95261
G1 X74.762 Y121.574 E1.95631
G1 X74.662 Y121.489 E1.95857
G1 X74.522 Y121.371 E1.96168
G1 X74.403 Y121.257 E1.96449
G1 X74.294 Y121.153 E1.96706
G1 X74.16 Y121.009 E1.97039
G1 X74.093 Y120.937 E1.97198
G1 X73.934 Y120.746 E1.97616
G1 X73.902 Y120.708 E1.97657
G1 X73.725 Y120.466 E1.9816
G1 X73.715 Y120.453
G1 X73.554 Y120.204 E1.98656
G1 X73.53 Y120.162 E1.98744
G1 X73.398 Y119.93 E1.9919
G1 X73.363 Y119.858 E1.9933
G1 X73.269 Y119.67 E1.99685
G1 X73.215 Y119.541 E1.99924
G1 X73.15 Y119.387 E2.00208
G1 X73.09 Y119.217 E2.00514
G1 X73.045 Y119.091 E2.00742
G1 X72.986 Y118.886 E2.01101
G1 X72.96 Y118.798 E2.01242
G1 X72.903 Y118.548 E2.01673
G1 X72.895 Y118.512 E2.01676
G1 X72.846 Y118.214 E2.02182
G1 X72.844 Y118.191
G1 X72.812 Y117.897 E2.02676
G1 X72.808 Y117.791 E2.0286
G1 X72.795 Y117.516 E2.03324
G1 X72.797 Y117.439 E2.03459
G1 X72.804 Y117.175 E2.0391
G1 X72.811 Y117.09 E2.04041
G1 X72.828 Y116.91 E2.04351
G1 X72.852 Y116.745 E2.04638
G1 X72.878 Y116.575 E2.04932
G1 X72.913 Y116.404 E2.0523
G1 X72.938 Y116.286 E2.05441
G1 X72.997 Y116.066 E2.05829
G1 X73.011 Y116.015 E2.05875
G1 X73.103 Y115.736 E2.06376
G1 X73.11 Y115.717
G1 X73.232 Y115.411 E2.06936
G1 X73.238 Y115.398
G1 X73.356 Y115.148 E2.07407
G1 X73.39 Y115.086 E2.07533
G1 X73.497 Y114.89 E2.07914
G1 X73.563 Y114.784 E2.0813
G1 X73.67 Y114.612 E2.08476
G1 X73.754 Y114.493 E2.08727
G1 X73.832 Y114.383 E2.0896
G1 X73.964 Y114.218 E2.09322
G1 X74.02 Y114.148 E2.09459
G1 X74.191 Y113.956 E2.09896
G1 X74.232 Y113.911 E2.09962
G1 X74.435 Y113.709 E2.1045
G1 X74.447 Y113.697
G1 X74.677 Y113.496 E2.10969
G1 X74.709 Y113.471 E2.11045
G1 X74.909 Y113.315 E2.11476
G1 X74.987 Y113.261 E2.11643
G1 X75.162 Y113.14 E2.12007
G1 X75.277 Y113.07 E2.12239
G1 X75.424 Y112.981 E2.12532
G1 X75.579 Y112.899 E2.12832
G1 X75.695 Y112.837 E2.1306
G1 X75.893 Y112.747 E2.1343
G1 X75.972 Y112.711 E2.13559
G1 X76.216 Y112.616 E2.14004
G1 X76.26 Y112.599 E2.14036
G1 X76.539 Y112.509 E2.14536
G1 X76.559 Y112.504
G1 X76.834 Y112.432 E2.15019
G0 F6000 X76.746 Y112.041
;TYPE:WALL-OUTER
G1 F887.9 X77.065 Y111.979 E2.15894
G1 X77.398 Y111.933 E2.168
G1 X77.715 Y111.909 E2.17657
G1 X78.049 Y111.901 E2.18557
G1 X78.382 Y111.914 E2.19454
G1 X78.698 Y111.945 E2.2031
G1 X79.033 Y111.998 E2.21224
G1 X79.341 Y112.065 E2.22073
G1 X79.668 Y112.157 E2.22988
G1 X79.971 Y112.261 E2.23851
G1 X80.277 Y112.387 E2.24743
G1 X80.566 Y112.526 E2.25606
G1 X80.862 Y112.691 E2.26519
G1 X81.139 Y112.866 E2.27402
G1 X81.405 Y113.059 E2.28288
G1 X81.659 Y113.265 E2.29169
G1 X81.892 Y113.479 E2.30021
G1 X82.129 Y113.722 E2.30935
G1 X82.336 Y113.961 E2.31787
G1 X82.542 Y114.23 E2.327
G1 X82.725 Y114.501 E2.33581
G1 X82.892 Y114.783 E2.34464
G1 X83.038 Y115.064 E2.35317
G1 X83.172 Y115.364 E2.36202
G1 X83.288 Y115.671 E2.37086
G1 X83.389 Y115.994 E2.37998
G1 X83.465 Y116.301 E2.3885
G1 X83.528 Y116.634 E2.39763
G1 X83.567 Y116.947 E2.40613
G1 X83.59 Y117.286 E2.41528
G1 X83.594 Y117.603 E2.42382
G1 X83.577 Y117.939 E2.43289
G1 X83.543 Y118.259 E2.44156
G1 X83.489 Y118.579 E2.4503
G1 X83.417 Y118.898 E2.45911
G1 X83.323 Y119.223 E2.46823
G1 X83.217 Y119.521 E2.47675
G1 X83.084 Y119.834 E2.48591
G1 X82.944 Y120.117 E2.49441
G1 X82.782 Y120.402 E2.50325
G1 X82.601 Y120.681 E2.51221
G1 X82.41 Y120.941 E2.5209
G1 X82.2 Y121.194 E2.52976
G1 X81.971 Y121.441 E2.53883
