;FLAVOR:Marlin
;TIME:696
;Filament used: 0.188445m
;Layer height: 0.2
;MINX:114.715
;MINY:114.715
;MINZ:0.2
;MAXX:120.285
;MAXY:120.285
;MAXZ:22
;Generated with Cura_SteamEngine master
M82 ;absolute extrusion mode
; Ender 3 Custom Start G-code
M140 S75 ; Set Heat Bed temperature
M104 S160 ; start warming extruder to 160
G28 ; Home all axes
G29 ; Auto bed-level (BL-Touch)
G92 E0 ; Reset Extruder
M190 S75 ; Wait for Heat Bed temperature
M104 S210 ; Set Extruder temperature
G1 X0 Y0 Z0.3 F5000.0 ; Move to 0 0
M109 S210 ; Wait for Extruder temperature
G1 X3 Y20 Z0.3 F5000.0 ; Move to start position
; G1 Z2.0 F3000 ; Move Z Axis up little to prevent scratching of Heat Bed
G1 X3 Y200.0 Z0.3 F1500.0 E15 ; Draw the first line
G1 X3.3 Y200.0 Z0.3 F5000.0 ; Move to side a little
G1 X3.3 Y20 Z0.3 F1500.0 E30 ; Draw the second line
G92 E0 ; Reset Extruder
G1 Z2.0 F3000 ; Move Z Axis up little to prevent scratching of Heat Bed
G92 E0
G92 E0
G1 F2700 E-5
;LAYER_COUNT:110
;LAYER:0
M107
M204 S500
M205 X8 Y8
;MESH:cylinder_mounting-bolt.stl
G0 F6000 X117.5 Y116.141 Z0.2
;TYPE:WALL-INNER
G1 F2700 E0
G1 F600 X117.035 Y116.222 E0.01272
G1 X116.626 Y116.46 E0.02546
G1 X116.324 Y116.819 E0.0381
G1 X116.161 Y117.263 E0.05085
G1 X116.161 Y117.737 E0.06362
G1 X116.324 Y118.181 E0.07636
G1 X116.626 Y118.54 E0.089
G1 X117.035 Y118.778 E0.10175
G1 X117.5 Y118.859 E0.11446
G1 X117.965 Y118.778 E0.12718
G1 X118.374 Y118.54 E0.13993
G1 X118.676 Y118.181 E0.15256
G1 X118.839 Y117.737 E0.16531
G1 X118.839 Y117.263 E0.17808
G1 X118.676 Y116.819 E0.19082
G1 X118.374 Y116.46 E0.20346
G1 X117.965 Y116.222 E0.21621
G1 X117.5 Y116.141 E0.22892
G0 F6000 X117.5 Y116.547
;TYPE:WALL-OUTER
G1 F600 X117.174 Y116.604 E0.23784
G1 X116.887 Y116.771 E0.24678
G1 X116.675 Y117.023 E0.25566
G1 X116.561 Y117.334 E0.26458
G1 X116.561 Y117.666 E0.27352
G1 X116.675 Y117.977 E0.28245
G1 X116.887 Y118.229 E0.29132
G1 X117.174 Y118.396 E0.30027
G1 X117.5 Y118.453 E0.30918
G1 X117.826 Y118.396 E0.3181
G1 X118.113 Y118.229 E0.32704
G1 X118.325 Y117.977 E0.33591
G1 X118.439 Y117.666 E0.34484
G1 X118.439 Y117.334 E0.35378
G1 X118.325 Y117.023 E0.36271
G1 X118.113 Y116.771 E0.37158
G1 X117.826 Y116.604 E0.38052
G1 X117.5 Y116.547 E0.38944
G0 F6000 X117.5 Y116.107
G0 X117.404 Y115.467
;TYPE:WALL-INNER
G1 F600 X117.667 Y115.473 E0.39653
G1 X117.901 Y115.506 E0.40289
G1 X118.16 Y115.575 E0.41011
G1 X118.368 Y115.66 E0.41617
G1 X118.607 Y115.792 E0.42352
G1 X118.814 Y115.946 E0.43047
G1 X118.981 Y116.104 E0.43667
G1 X119.155 Y116.317 E0.44408
G1 X119.289 Y116.53 E0.45086
G1 X119.389 Y116.745 E0.45725
G1 X119.472 Y116.997 E0.46439
G1 X119.516 Y117.227 E0.4707
G1 X119.534 Y117.486 E0.4777
G1 X119.519 Y117.75 E0.48482
G1 X119.477 Y117.976 E0.49101
G1 X119.397 Y118.233 E0.49826
G1 X119.297 Y118.451 E0.50473
G1 X119.164 Y118.67 E0.51163
G1 X118.999 Y118.875 E0.51872
G1 X118.829 Y119.04 E0.5251
G1 X118.618 Y119.199 E0.53222
G1 X118.391 Y119.33 E0.53928
G1 X118.179 Y119.418 E0.54546
G1 X117.929 Y119.489 E0.55247
G1 X117.495 Y119.533 E0.56422
G1 X117.262 Y119.52 E0.5705
G1 X117.001 Y119.473 E0.57765
G1 X116.78 Y119.403 E0.58389
G1 X116.547 Y119.297 E0.59079
G1 X116.321 Y119.158 E0.59794
G1 X116.133 Y119.005 E0.60447
G1 X115.949 Y118.818 E0.61154
G1 X115.81 Y118.632 E0.61779
G1 X115.678 Y118.405 E0.62487
G1 X115.578 Y118.165 E0.63187
G1 X115.513 Y117.933 E0.63836
G1 X115.474 Y117.681 E0.64523
G1 X115.467 Y117.413 E0.65245
G1 X115.491 Y117.175 E0.6589
G1 X115.546 Y116.929 E0.66569
G1 X115.629 Y116.704 E0.67215
G1 X115.747 Y116.468 E0.67926
G1 X115.894 Y116.252 E0.6863
G1 X116.048 Y116.076 E0.6926
G1 X116.25 Y115.895 E0.69991
G1 X116.44 Y115.764 E0.70612
G1 X116.672 Y115.642 E0.71319
G1 X116.905 Y115.554 E0.7199
G1 X117.153 Y115.497 E0.72675
G1 X117.404 Y115.467 E0.73356
G0 F6000 X117.388 Y115.067
;TYPE:WALL-OUTER
G1 F600 X117.699 Y115.073 E0.74194
G1 X117.984 Y115.114 E0.7497
G1 X118.281 Y115.193 E0.75798
G1 X118.545 Y115.301 E0.76566
G1 X118.82 Y115.453 E0.77413
G1 X119.076 Y115.643 E0.78272
G1 X119.273 Y115.829 E0.79002
G1 X119.477 Y116.079 E0.79871
G1 X119.644 Y116.344 E0.80715
G1 X119.761 Y116.595 E0.81461
G1 X119.86 Y116.897 E0.82317
G1 X119.913 Y117.175 E0.83079
G1 X119.935 Y117.48 E0.83903
G1 X119.917 Y117.799 E0.84764
G1 X119.865 Y118.078 E0.85529
G1 X119.771 Y118.378 E0.86376
G1 X119.654 Y118.633 E0.87131
G1 X119.492 Y118.9 E0.87973
G1 X119.293 Y119.148 E0.88829
G1 X119.089 Y119.345 E0.89593
G1 X118.845 Y119.53 E0.90418
G1 X118.565 Y119.69 E0.91287
G1 X118.309 Y119.797 E0.92035
G1 X118.012 Y119.881 E0.92866
G1 X117.727 Y119.923 E0.93642
G1 X117.502 Y119.934 E0.94249
G1 X117.215 Y119.918 E0.95024
G1 X116.903 Y119.861 E0.95878
G1 X116.638 Y119.777 E0.96627
G1 X116.353 Y119.648 E0.9747
G1 X116.09 Y119.486 E0.98302
G1 X115.863 Y119.302 E0.99089
G1 X115.646 Y119.08 E0.99926
G1 X115.475 Y118.852 E1.00693
G1 X115.319 Y118.583 E1.01531
G1 X115.2 Y118.299 E1.02361
G1 X115.122 Y118.02 E1.03141
G1 X115.075 Y117.712 E1.03981
G1 X115.066 Y117.398 E1.04827
G1 X115.095 Y117.117 E1.05588
G1 X115.163 Y116.812 E1.0643
G1 X115.261 Y116.544 E1.07198
G1 X115.401 Y116.265 E1.08039
G1 X115.574 Y116.011 E1.08867
G1 X115.765 Y115.792 E1.0965
G1 X115.999 Y115.582 E1.10497
G1 X116.231 Y115.422 E1.11257
G1 X116.51 Y115.276 E1.12105
G1 X116.794 Y115.169 E1.12923
G1 X117.077 Y115.103 E1.13705
G1 X117.388 Y115.067 E1.14549
G0 F6000 X117.409 Y115.506
G0 X117.519 Y115.822
;TYPE:SKIN
G1 F600 X117.249 Y115.835 E1.15122
G1 X116.625 Y116.059 E1.16529
G1 X116.052 Y116.617 E1.18226
G1 X115.836 Y117.25 E1.19644
G1 X115.874 Y117.854 E1.20928
G1 X116.371 Y118.633 E1.22889
G1 X117.16 Y119.14 E1.24878
G1 X117.982 Y119.113 E1.26623
G1 X118.544 Y118.827 E1.27961
G1 X119.035 Y118.186 E1.29674
G1 X119.18 Y117.483 E1.31196
G1 X119.123 Y117.143 E1.31928
G1 X118.771 Y116.226 E1.34012
G0 F6000 X117.837 Y115.857
G1 F600 X118.634 Y116.371 E1.37351
G0 F6000 X119.301 Y117.038
G0 X118.71 Y118.201
G0 X118.399 Y118.57
G0 X118.059 Y118.768
G0 X116.54 Y119.085
G1 F600 X115.911 Y118.456 E1.38549
M104 S210
G0 F6000 X115.978 Y118.381
;MESH:NONMESH
G0 F300 X115.978 Y118.381 Z0.4
G0 F6000 X116.061 Y117.265
G0 X116.161 Y117.265
;TIME_ELAPSED:10.549103
;LAYER:1
M140 S70
M106 S85
;TYPE:WALL-INNER
;MESH:cylinder_mounting-bolt.stl
G1 F600 X116.161 Y117.735 E1.39956
G1 X116.322 Y118.181 E1.41375
G1 X116.627 Y118.541 E1.42788
G1 X117.035 Y118.778 E1.442
G1 X117.5 Y118.859 E1.45613
G1 X117.965 Y118.778 E1.47026
G1 X118.373 Y118.541 E1.48438
G1 X118.678 Y118.181 E1.49851
G1 X118.839 Y117.735 E1.5127
G1 X118.839 Y117.265 E1.52677
G1 X118.678 Y116.819 E1.54096
G1 X118.373 Y116.459 E1.55509
G1 X117.965 Y116.222 E1.56921
G1 X117.5 Y116.141 E1.58334
G1 X117.035 Y116.222 E1.59747
G1 X116.627 Y116.459 E1.61159
G1 X116.322 Y116.819 E1.62572
G1 X116.161 Y117.265 E1.63991
G0 F7500 X116.561 Y117.335
;TYPE:WALL-OUTER
G1 F600 X116.561 Y117.665 E1.64979
G1 X116.674 Y117.977 E1.65972
G1 X116.888 Y118.23 E1.66964
G1 X117.174 Y118.396 E1.67954
G1 X117.5 Y118.453 E1.68945
G1 X117.826 Y118.396 E1.69935
G1 X118.112 Y118.23 E1.70925
G1 X118.326 Y117.977 E1.71917
G1 X118.439 Y117.665 E1.72911
G1 X118.439 Y117.335 E1.73898
G1 X118.326 Y117.023 E1.74892
G1 X118.112 Y116.77 E1.75884
G1 X117.826 Y116.604 E1.76873
G1 X117.5 Y116.547 E1.77864
G1 X117.174 Y116.604 E1.78855
G1 X116.888 Y116.77 E1.79845
G1 X116.674 Y117.023 E1.80837
G1 X116.561 Y117.335 E1.8183
G0 F7500 X116.128 Y117.259
G0 X115.367 Y117.411
;TYPE:WALL-INNER
G1 F600 X115.436 Y116.962 E1.8319
G1 X115.597 Y116.538 E1.84547
G1 X115.838 Y116.161 E1.85887
G1 X116.172 Y115.829 E1.87296
G1 X116.559 Y115.584 E1.88668
G1 X116.992 Y115.427 E1.90046
G1 X117.428 Y115.368 E1.91363
G1 X117.885 Y115.402 E1.92735
G1 X118.131 Y115.461 E1.93492
G1 X118.546 Y115.642 E1.94848
G1 X118.911 Y115.899 E1.96184
G1 X119.217 Y116.231 E1.97535
G1 X119.452 Y116.636 E1.98937
G1 X119.59 Y117.075 E2.00315
G1 X119.633 Y117.537 E2.01703
G1 X119.58 Y117.979 E2.03036
G1 X119.429 Y118.413 E2.04412
G1 X119.19 Y118.805 E2.05786
G1 X118.875 Y119.132 E2.07145
G1 X118.483 Y119.394 E2.08556
G1 X118.066 Y119.557 E2.09897
G1 X117.61 Y119.632 E2.1128
G1 X117.278 Y119.622 E2.12274
G1 X116.837 Y119.53 E2.13623
G1 X116.407 Y119.334 E2.15037
G1 X116.04 Y119.054 E2.16419
G1 X115.748 Y118.717 E2.17754
G1 X115.53 Y118.321 E2.19107
G1 X115.399 Y117.87 E2.20513
G1 X115.367 Y117.411 E2.2189
G0 F7500 X114.966 Y117.397
;TYPE:WALL-OUTER
G1 F600 X114.992 Y117.137 E2.22672
G1 X115.049 Y116.859 E2.23522
G1 X115.129 Y116.604 E2.24322
G1 X115.24 Y116.356 E2.25135
G1 X115.376 Y116.115 E2.25964
G1 X115.527 Y115.908 E2.26731
G1 X115.721 Y115.695 E2.27593
G1 X115.923 Y115.516 E2.28401
G1 X116.136 Y115.365 E2.29182
G1 X116.385 Y115.223 E2.3004
G1 X116.626 Y115.12 E2.30825
G1 X116.897 Y115.038 E2.31673
G1 X117.155 Y114.988 E2.32459
G1 X117.415 Y114.968 E2.3324
G1 X117.706 Y114.973 E2.34111
G1 X117.964 Y115.009 E2.34891
G1 X118.24 Y115.076 E2.35741
G1 X118.49 Y115.166 E2.36536
G1 X118.738 Y115.29 E2.37366
G1 X118.969 Y115.434 E2.38181
G1 X119.179 Y115.601 E2.38984
G1 X119.375 Y115.794 E2.39808
G1 X119.544 Y115.999 E2.40603
G1 X119.693 Y116.231 E2.41428
G1 X119.82 Y116.476 E2.42254
G1 X119.91 Y116.716 E2.43022
G1 X119.984 Y116.999 E2.43897
G1 X120.023 Y117.257 E2.44678
G1 X120.034 Y117.537 E2.45517
G1 X120.017 Y117.808 E2.4633
G1 X119.971 Y118.064 E2.47109
G1 X119.891 Y118.341 E2.47972
G1 X119.792 Y118.582 E2.48752
G1 X119.656 Y118.832 E2.49603
G1 X119.51 Y119.047 E2.50381
G1 X119.333 Y119.252 E2.51192
G1 X119.129 Y119.441 E2.52025
G1 X118.918 Y119.602 E2.52819
G1 X118.668 Y119.749 E2.53687
G1 X118.438 Y119.856 E2.54447
G1 X118.177 Y119.942 E2.55269
G1 X117.909 Y120.002 E2.56091
G1 X117.639 Y120.031 E2.56904
G1 X117.506 Y120.035 E2.57302
G1 X117.23 Y120.02 E2.5813
G1 X116.959 Y119.976 E2.58952
G1 X116.705 Y119.908 E2.59739
G1 X116.448 Y119.804 E2.60569
G1 X116.205 Y119.68 E2.61385
G1 X115.983 Y119.53 E2.62187
G1 X115.767 Y119.348 E2.63033
G1 X115.584 Y119.161 E2.63816
G1 X115.421 Y118.948 E2.64619
G1 X115.269 Y118.705 E2.65477
G1 X115.159 Y118.472 E2.66248
G1 X115.065 Y118.202 E2.67104
G1 X115.005 Y117.945 E2.67894
G1 X114.973 Y117.678 E2.68699
G1 X114.966 Y117.397 E2.6954
G0 F7500 X115.405 Y117.413
G0 X115.812 Y117.249
;TYPE:SKIN
G1 F600 X115.776 Y117.568 E2.70658
G1 X115.942 Y118.25 E2.73103
G1 X116.292 Y118.748 E2.75222
G1 X117.013 Y119.159 E2.78112
G1 X117.519 Y119.218 E2.79886
G1 X117.858 Y119.162 E2.81083
G0 F7500 X118.317 Y119.27
G1 F600 X119.277 Y118.31 E2.83115
G0 F7500 X119.163 Y117.857
G1 F600 X119.223 Y117.514 E2.84437
G1 X119.084 Y116.806 E2.87176
G1 X118.604 Y116.154 E2.9025
G1 X117.827 Y115.8 E2.93491
G1 X117.263 Y115.798 E2.95633
G0 F7500 X117.205 Y115.574
G1 F600 X115.576 Y117.202 E2.9908
G0 F7500 X115.677 Y116.819
G1 F600 X116.823 Y115.672 E3.01506
G0 F7500 X118.398 Y116.429
G0 X119.412 Y117.892
G1 F600 X117.898 Y119.406 E3.04711
G0 F7500 X117.865 Y119.202
;MESH:NONMESH
G0 F300 X117.865 Y119.202 Z0.6
G0 F7500 X118.712 Y118.201
G0 X118.878 Y117.741
G0 X118.878 Y117.259
G0 X118.527 Y116.487
G0 X118.519 Y116.493
;TIME_ELAPSED:17.261547
;LAYER:2
M106 S170
;TYPE:WALL-INNER
;MESH:cylinder_mounting-bolt.stl
G1 F600 X118.707 Y116.73 E3.05617
G1 X118.794 Y116.89 E3.06162
G1 X118.888 Y117.157 E3.07009
G1 X118.93 Y117.442 E3.07871
G1 X118.922 Y117.641 E3.08468
G1 X118.867 Y117.914 E3.09301
G1 X118.748 Y118.202 E3.10234
G1 X118.655 Y118.344 E3.10742
G1 X118.462 Y118.559 E3.11607
G1 X118.318 Y118.676 E3.12162
G1 X118.054 Y118.818 E3.1306
G1 X117.79 Y118.9 E3.13887
G1 X117.616 Y118.926 E3.14414
G1 X117.352 Y118.923 E3.15204
G1 X117.19 Y118.898 E3.15695
G1 X116.924 Y118.811 E3.16533
G1 X116.8 Y118.748 E3.16949
G1 X116.558 Y118.577 E3.17836
G1 X116.348 Y118.351 E3.18759
G1 X116.256 Y118.209 E3.19266
G1 X116.145 Y117.964 E3.20071
G1 X116.076 Y117.664 E3.20992
G1 X116.07 Y117.464 E3.21591
G1 X116.1 Y117.205 E3.22372
G1 X116.208 Y116.885 E3.23383
G1 X116.281 Y116.751 E3.2384
G1 X116.455 Y116.523 E3.24698
G1 X116.689 Y116.319 E3.25627
G1 X116.834 Y116.234 E3.26131
G1 X117.093 Y116.129 E3.26967
G1 X117.415 Y116.071 E3.27947
G1 X117.588 Y116.072 E3.28464
G1 X117.856 Y116.113 E3.29276
G1 X118.125 Y116.211 E3.30133
G1 X118.305 Y116.316 E3.30757
G1 X118.519 Y116.493 E3.31588
G0 F9000 X118.806 Y116.212
G1 F600 X119.044 Y116.511 E3.32732
G1 X119.159 Y116.723 E3.33454
G1 X119.279 Y117.063 E3.34533
G1 X119.332 Y117.421 E3.35617
G1 X119.321 Y117.686 E3.36411
G1 X119.252 Y118.029 E3.37458
G1 X119.102 Y118.39 E3.38628
G1 X118.972 Y118.59 E3.39342
G1 X118.737 Y118.852 E3.40396
G1 X118.542 Y119.009 E3.41145
G1 X118.211 Y119.188 E3.42271
G1 X117.875 Y119.292 E3.43324
G1 X117.646 Y119.326 E3.44017
G1 X117.319 Y119.323 E3.44996
G1 X117.098 Y119.288 E3.45666
G1 X116.771 Y119.181 E3.46696
G1 X116.59 Y119.09 E3.47302
G1 X116.296 Y118.882 E3.4838
G1 X116.03 Y118.597 E3.49547
G1 X115.905 Y118.403 E3.50238
G1 X115.768 Y118.1 E3.51234
G1 X115.76 Y118.067 E3.51335
G1 X115.7 Y117.845 E3.52024
G1 X115.677 Y117.702 E3.52457
G1 X115.669 Y117.451 E3.53209
G1 X115.708 Y117.115 E3.54221
G1 X115.841 Y116.722 E3.55463
G1 X115.943 Y116.534 E3.56104
G1 X116.16 Y116.25 E3.57174
G1 X116.457 Y115.991 E3.58353
G1 X116.656 Y115.874 E3.59044
G1 X116.982 Y115.742 E3.60097
G1 X117.38 Y115.671 E3.61307
G1 X117.618 Y115.672 E3.6202
G1 X117.953 Y115.724 E3.63034
G1 X118.197 Y115.803 E3.63802
G1 X118.314 Y115.857 E3.64188
G1 X118.533 Y115.986 E3.64949
G1 X118.806 Y116.212 E3.6601
G0 F9000 X119.085 Y115.924
G1 F600 X119.273 Y116.139 E3.66865
G1 X119.387 Y116.304 E3.67465
G1 X119.526 Y116.561 E3.68339
G1 X119.666 Y116.956 E3.69594
G1 X119.72 Y117.249 E3.70486
G1 X119.733 Y117.421 E3.71002
G1 X119.72 Y117.731 E3.71931
G1 X119.638 Y118.139 E3.73177
G1 X119.538 Y118.414 E3.74053
G1 X119.45 Y118.59 E3.74642
G1 X119.289 Y118.836 E3.75522
G1 X119.015 Y119.141 E3.76749
G1 X118.778 Y119.332 E3.7766
G1 X118.621 Y119.433 E3.78219
G1 X118.359 Y119.561 E3.79092
G1 X117.993 Y119.673 E3.80238
G1 X117.96 Y119.684 E3.80342
G1 X117.676 Y119.726 E3.81201
G1 X117.286 Y119.723 E3.82368
G1 X117.003 Y119.678 E3.83226
G1 X116.62 Y119.552 E3.84433
G1 X116.381 Y119.433 E3.85232
G1 X116.039 Y119.191 E3.86487
G1 X115.84 Y118.996 E3.87321
G1 X115.71 Y118.838 E3.87933
G1 X115.554 Y118.597 E3.88792
G1 X115.388 Y118.23 E3.89998
G1 X115.309 Y117.933 E3.90918
G1 X115.278 Y117.738 E3.91509
G1 X115.268 Y117.438 E3.92408
G1 X115.315 Y117.037 E3.93616
G1 X115.392 Y116.762 E3.94471
G1 X115.475 Y116.558 E3.9513
G1 X115.606 Y116.317 E3.95951
G1 X115.843 Y116.008 E3.97117
G1 X115.866 Y115.978 E3.9723
G1 X116.077 Y115.777 E3.98103
G1 X116.232 Y115.66 E3.98684
G1 X116.481 Y115.513 E3.99549
G1 X116.833 Y115.372 E4.00685
G1 X116.864 Y115.359 E4.00785
G1 X117.149 Y115.294 E4.0166
G1 X117.354 Y115.271 E4.02278
G1 X117.647 Y115.272 E4.03155
G1 X118.046 Y115.334 E4.04363
G1 X118.341 Y115.43 E4.05292
G1 X118.502 Y115.503 E4.05821
G1 X118.763 Y115.658 E4.0673
G1 X119.085 Y115.924 E4.0798
G0 F9000 X119.364 Y115.636
;TYPE:WALL-OUTER
G1 F600 X119.592 Y115.897 E4.09018
G1 X119.727 Y116.092 E4.09728
G1 X119.892 Y116.397 E4.10766
G1 X120.053 Y116.852 E4.1221
G1 X120.118 Y117.203 E4.13279
G1 X120.134 Y117.425 E4.13945
G1 X120.119 Y117.776 E4.14997
G1 X120.024 Y118.249 E4.16441
G1 X119.906 Y118.573 E4.17473
G1 X119.798 Y118.789 E4.18196
G1 X119.608 Y119.08 E4.19236
G1 X119.29 Y119.433 E4.20659
G1 X119.013 Y119.657 E4.21725
G1 X118.821 Y119.78 E4.22407
G1 X118.507 Y119.934 E4.23454
G1 X118.046 Y120.076 E4.24898
G1 X117.705 Y120.126 E4.2593
G1 X117.253 Y120.123 E4.27283
G1 X116.921 Y120.07 E4.28289
G1 X116.688 Y120.007 E4.29012
G1 X116.454 Y119.917 E4.29762
G1 X116.18 Y119.78 E4.30679
G1 X115.783 Y119.499 E4.32135
G1 X115.542 Y119.264 E4.33143
G1 X115.389 Y119.078 E4.33864
G1 X115.203 Y118.789 E4.34893
G1 X115.088 Y118.563 E4.35652
G1 X115.005 Y118.348 E4.36342
G1 X114.918 Y118.02 E4.37357
G1 X114.879 Y117.774 E4.38103
G1 X114.867 Y117.435 E4.39118
G1 X114.884 Y117.18 E4.39883
G1 X114.924 Y116.95 E4.40582
G1 X115.014 Y116.63 E4.41577
G1 X115.112 Y116.387 E4.42362
G1 X115.27 Y116.098 E4.43348
G1 X115.565 Y115.712 E4.44802
G1 X115.819 Y115.471 E4.4585
