;FLAVOR:Marlin
;TIME:3538
;Filament used: 1.97741m
;Layer height: 0.2
;MINX:105.74
;MINY:104.876
;MINZ:0.2
;MAXX:129.26
;MAXY:130.108
;MAXZ:24
;Generated with Cura_SteamEngine master
M82 ;absolute extrusion mode
; Ender 3 Custom Start G-code
M140 S75 ; Set Heat Bed temperature
M104 S160 ; start warming extruder to 160
G28 ; Home all axes
G29 ; Auto bed-level (BL-Touch)
G92 E0 ; Reset Extruder
M190 S75 ; Wait for Heat Bed temperature
M104 S210 ; Set Extruder temperature
G1 X0 Y0 Z0.3 F5000.0 ; Move to 0 0
M109 S210 ; Wait for Extruder temperature
G1 X3 Y20 Z0.3 F5000.0 ; Move to start position
; G1 Z2.0 F3000 ; Move Z Axis up little to prevent scratching of Heat Bed
G1 X3 Y200.0 Z0.3 F1500.0 E15 ; Draw the first line
G1 X3.3 Y200.0 Z0.3 F5000.0 ; Move to side a little
G1 X3.3 Y20 Z0.3 F1500.0 E30 ; Draw the second line
G92 E0 ; Reset Extruder
G1 Z2.0 F3000 ; Move Z Axis up little to prevent scratching of Heat Bed
G92 E0
G92 E0
G1 F2700 E-5
;LAYER_COUNT:120
;LAYER:0
M107
M204 S500
M205 X8 Y8
;MESH:cylinder_tight.stl
G0 F6000 X108.103 Y113.813 Z0.2
;TYPE:WALL-INNER
G1 F2700 E0
G1 F1200 X108.203 Y113.573 E0.007
G1 X108.307 Y113.332 E0.01408
G1 X108.432 Y113.069 E0.02192
G1 X108.53 Y112.871 E0.02787
G1 X108.675 Y112.602 E0.03611
G1 X108.788 Y112.401 E0.04232
G1 X108.946 Y112.143 E0.05047
G1 X109.078 Y111.935 E0.05711
G1 X109.245 Y111.693 E0.06503
G1 X109.382 Y111.5 E0.0714
G1 X109.566 Y111.262 E0.07951
G1 X109.717 Y111.073 E0.08602
G1 X109.909 Y110.85 E0.09395
G1 X110.077 Y110.661 E0.10077
G1 X110.27 Y110.456 E0.10835
G1 X110.432 Y110.294 E0.11452
G1 X110.833 Y109.921 E0.12928
G1 X111.02 Y109.761 E0.13591
G1 X111.269 Y109.559 E0.14455
G1 X111.479 Y109.4 E0.15164
G1 X111.676 Y109.256 E0.15822
G1 X111.925 Y109.087 E0.16632
G1 X112.144 Y108.944 E0.17337
G1 X112.377 Y108.805 E0.18068
G1 X112.599 Y108.677 E0.18758
G1 X113.052 Y108.44 E0.20136
G1 X113.344 Y108.304 E0.21003
G1 X113.583 Y108.198 E0.21708
G1 X113.809 Y108.106 E0.22365
G1 X114.071 Y108.008 E0.23119
G1 X114.329 Y107.919 E0.23854
G1 X114.589 Y107.835 E0.2459
G1 X114.857 Y107.759 E0.25341
G1 X115.093 Y107.697 E0.25998
G1 X115.373 Y107.634 E0.26771
G1 X115.631 Y107.579 E0.27482
G1 X115.893 Y107.535 E0.28198
G1 X116.123 Y107.5 E0.28824
G1 X116.422 Y107.465 E0.29635
G1 X116.662 Y107.442 E0.30285
G1 X116.953 Y107.423 E0.31071
G1 X117.232 Y107.411 E0.31823
G1 X117.495 Y107.407 E0.32532
G1 X117.777 Y107.412 E0.33291
G1 X118.056 Y107.422 E0.34044
G1 X118.328 Y107.442 E0.34778
G1 X118.571 Y107.463 E0.35435
G1 X118.857 Y107.499 E0.36212
G1 X119.104 Y107.535 E0.36884
G1 X119.402 Y107.587 E0.37699
G1 X119.627 Y107.632 E0.38318
G1 X119.905 Y107.699 E0.39088
G1 X120.169 Y107.766 E0.39822
G1 X120.415 Y107.838 E0.40512
G1 X120.679 Y107.921 E0.41258
G1 X121.178 Y108.1 E0.42686
G1 X121.434 Y108.205 E0.43432
G1 X121.656 Y108.301 E0.44083
G1 X121.919 Y108.426 E0.44868
G1 X122.129 Y108.53 E0.45499
G1 X122.399 Y108.676 E0.46326
G1 X122.616 Y108.798 E0.46997
G1 X122.861 Y108.95 E0.47773
G1 X123.089 Y109.095 E0.48501
G1 X123.306 Y109.245 E0.49212
G1 X123.536 Y109.409 E0.49973
G1 X123.916 Y109.707 E0.51274
G1 X124.15 Y109.909 E0.52107
G1 X124.339 Y110.077 E0.52788
G1 X124.544 Y110.27 E0.53547
G1 X124.706 Y110.432 E0.54164
G1 X125.079 Y110.833 E0.55639
G1 X125.239 Y111.02 E0.56302
G1 X125.441 Y111.269 E0.57166
G1 X125.6 Y111.479 E0.57876
G1 X125.748 Y111.681 E0.5855
G1 X125.913 Y111.924 E0.59342
G1 X126.04 Y112.118 E0.59966
G1 X126.199 Y112.383 E0.60799
G1 X126.317 Y112.586 E0.61431
G1 X126.458 Y112.854 E0.62247
G1 X126.577 Y113.085 E0.62947
G1 X126.688 Y113.325 E0.6366
G1 X126.789 Y113.552 E0.64329
G1 X126.899 Y113.821 E0.65112
G1 X126.983 Y114.044 E0.65754
G1 X127.08 Y114.325 E0.66555
G1 X127.157 Y114.563 E0.67229
G1 X127.237 Y114.843 E0.68013
G1 X127.296 Y115.065 E0.68632
G1 X127.367 Y115.377 E0.69494
G1 X127.416 Y115.604 E0.7012
G1 X127.464 Y115.888 E0.70896
G1 X127.5 Y116.119 E0.71526
G1 X127.535 Y116.412 E0.72321
G1 X127.558 Y116.655 E0.72978
G1 X127.577 Y116.946 E0.73764
G1 X127.589 Y117.213 E0.74484
G1 X127.593 Y117.479 E0.75201
G1 X127.588 Y117.779 E0.76009
G1 X127.579 Y118.041 E0.76715
G1 X127.535 Y118.584 E0.78183
G1 X127.503 Y118.844 E0.78889
G1 X127.469 Y119.083 E0.79539
G1 X127.419 Y119.372 E0.80329
G1 X127.372 Y119.609 E0.8098
G1 X127.246 Y120.13 E0.82424
G1 X127.162 Y120.417 E0.8323
G1 X127.084 Y120.668 E0.83938
G1 X126.904 Y121.17 E0.85375
G1 X126.797 Y121.427 E0.86125
G1 X126.695 Y121.664 E0.8682
G1 X126.571 Y121.925 E0.87598
G1 X126.47 Y122.129 E0.88212
G1 X126.325 Y122.398 E0.89035
G1 X126.212 Y122.599 E0.89656
G1 X126.054 Y122.857 E0.90471
G1 X125.925 Y123.061 E0.91121
G1 X125.612 Y123.508 E0.92591
G1 X125.44 Y123.732 E0.93352
G1 X125.293 Y123.916 E0.93987
G1 X125.087 Y124.155 E0.94837
G1 X124.934 Y124.327 E0.95457
G1 X124.723 Y124.551 E0.96286
G1 X124.568 Y124.706 E0.96877
G1 X124.167 Y125.079 E0.98352
G1 X123.98 Y125.239 E0.99015
G1 X123.735 Y125.438 E0.99865
G1 X123.521 Y125.6 E1.00589
G1 X123.316 Y125.75 E1.01273
G1 X123.076 Y125.913 E1.02054
G1 X122.875 Y126.044 E1.02701
G1 X122.623 Y126.195 E1.03492
G1 X122.406 Y126.32 E1.04167
G1 X122.146 Y126.458 E1.0496
G1 X121.948 Y126.56 E1.0556
G1 X121.656 Y126.696 E1.06428
G1 X121.417 Y126.802 E1.07132
G1 X121.191 Y126.894 E1.0779
G1 X120.932 Y126.991 E1.08535
G1 X120.671 Y127.081 E1.09278
G1 X120.425 Y127.16 E1.09975
G1 X120.142 Y127.241 E1.10768
G1 X119.91 Y127.302 E1.11414
G1 X119.627 Y127.366 E1.12196
G1 X119.369 Y127.421 E1.12906
G1 X119.107 Y127.465 E1.13622
G1 X118.877 Y127.5 E1.14249
G1 X118.578 Y127.535 E1.1506
G1 X118.336 Y127.558 E1.15715
G1 X118.047 Y127.577 E1.16495
G1 X117.768 Y127.589 E1.17247
G1 X117.505 Y127.593 E1.17956
G1 X117.223 Y127.588 E1.18716
G1 X116.944 Y127.578 E1.19468
G1 X116.672 Y127.558 E1.20203
G1 X116.429 Y127.537 E1.2086
G1 X116.143 Y127.501 E1.21636
G1 X115.896 Y127.465 E1.22309
G1 X115.598 Y127.413 E1.23124
G1 X115.373 Y127.368 E1.23742
G1 X115.095 Y127.301 E1.24512
G1 X114.831 Y127.234 E1.25246
G1 X114.585 Y127.162 E1.25937
G1 X114.321 Y127.079 E1.26682
G1 X113.83 Y126.903 E1.28087
G1 X113.553 Y126.788 E1.28895
G1 X113.33 Y126.692 E1.29549
G1 X113.075 Y126.571 E1.3031
G1 X112.861 Y126.464 E1.30954
G1 X112.586 Y126.315 E1.31797
G1 X112.366 Y126.19 E1.32479
G1 X112.127 Y126.044 E1.33233
G1 X111.931 Y125.919 E1.3386
G1 X111.686 Y125.749 E1.34663
G1 X111.464 Y125.591 E1.35397
G1 X111.268 Y125.438 E1.36067
G1 X111.064 Y125.274 E1.36772
G1 X110.837 Y125.081 E1.37575
G1 X110.665 Y124.927 E1.38197
G1 X110.444 Y124.718 E1.39016
G1 X110.266 Y124.541 E1.39693
G1 X110.07 Y124.332 E1.40464
G1 X109.896 Y124.139 E1.41164
G1 X109.752 Y123.969 E1.41765
G1 X109.555 Y123.726 E1.42607
G1 X109.387 Y123.506 E1.43353
G1 X109.248 Y123.313 E1.43994
G1 X109.077 Y123.061 E1.44814
G1 X108.95 Y122.867 E1.45439
G1 X108.807 Y122.626 E1.46194
G1 X108.67 Y122.388 E1.46934
G1 X108.42 Y121.909 E1.4839
G1 X108.307 Y121.664 E1.49116
G1 X108.198 Y121.417 E1.49844
G1 X108.092 Y121.155 E1.50605
G1 X108.007 Y120.927 E1.51261
G1 X107.91 Y120.647 E1.52059
G1 X107.833 Y120.407 E1.52738
G1 X107.758 Y120.14 E1.53485
G1 X107.694 Y119.895 E1.54167
G1 X107.635 Y119.631 E1.54896
G1 X107.58 Y119.364 E1.55631
G1 X107.534 Y119.097 E1.56361
G1 X107.495 Y118.844 E1.5705
G1 X107.462 Y118.559 E1.57823
G1 X107.44 Y118.32 E1.5847
G1 X107.423 Y118.049 E1.59201
G1 X107.411 Y117.77 E1.59954
G1 X107.407 Y117.515 E1.60641
G1 X107.41 Y117.263 E1.6132
G1 X107.419 Y116.982 E1.62077
G1 X107.466 Y116.408 E1.63629
G1 X107.497 Y116.156 E1.64313
G1 X107.531 Y115.917 E1.64963
G1 X107.581 Y115.628 E1.65753
G1 X107.63 Y115.382 E1.66429
G1 X107.754 Y114.87 E1.67848
G1 X107.838 Y114.583 E1.68654
G1 X107.923 Y114.311 E1.69422
G1 X108.103 Y113.813 E1.70848
G0 F6000 X107.73 Y113.668
G1 F1200 X107.836 Y113.414 E1.7159
G1 X107.946 Y113.16 E1.72335
G1 X108.071 Y112.897 E1.7312
G1 X108.178 Y112.681 E1.73769
G1 X108.323 Y112.412 E1.74593
G1 X108.447 Y112.192 E1.75273
G1 X108.608 Y111.929 E1.76104
G1 X108.74 Y111.721 E1.76767
G1 X108.919 Y111.462 E1.77616
G1 X109.065 Y111.256 E1.78296
G1 X109.253 Y111.012 E1.79126
G1 X109.404 Y110.823 E1.79777
G1 X109.61 Y110.584 E1.80627
G1 X109.778 Y110.395 E1.81309
G1 X109.987 Y110.173 E1.8213
G1 X110.158 Y110.002 E1.82782
G1 X110.397 Y109.778 E1.83664
G1 X110.573 Y109.617 E1.84307
G1 X110.768 Y109.45 E1.84998
G1 X111.017 Y109.248 E1.85862
G1 X111.243 Y109.077 E1.86626
G1 X111.451 Y108.925 E1.8732
G1 X111.706 Y108.752 E1.8815
G1 X111.925 Y108.609 E1.88855
G1 X112.177 Y108.458 E1.89646
G1 X112.399 Y108.33 E1.90336
G1 X112.671 Y108.186 E1.91166
G1 X112.883 Y108.077 E1.91808
G1 X113.175 Y107.941 E1.92676
G1 X113.421 Y107.832 E1.934
G1 X113.669 Y107.731 E1.94122
G1 X113.931 Y107.633 E1.94875
G1 X114.206 Y107.538 E1.95659
G1 X114.466 Y107.454 E1.96395
G1 X114.748 Y107.374 E1.97185
G1 X114.992 Y107.31 E1.97865
G1 X115.005 Y107.308 E1.979
G1 X115.285 Y107.244 E1.98674
G1 X115.555 Y107.187 E1.99417
G1 X115.826 Y107.141 E2.00158
G1 X116.076 Y107.103 E2.00839
G1 X116.381 Y107.067 E2.01667
G1 X116.631 Y107.043 E2.02343
G1 X116.936 Y107.023 E2.03167
G1 X117.215 Y107.011 E2.03919
G1 X117.496 Y107.007 E2.04676
G1 X117.791 Y107.012 E2.05471
G1 X118.072 Y107.022 E2.06228
G1 X118.362 Y107.043 E2.07012
G1 X118.605 Y107.064 E2.07669
G1 X118.907 Y107.102 E2.08489
G1 X119.164 Y107.139 E2.09188
G1 X119.471 Y107.193 E2.10028
G1 X119.715 Y107.242 E2.10699
G1 X120.003 Y107.311 E2.11497
G1 X120.277 Y107.38 E2.12258
G1 X120.535 Y107.456 E2.12982
G1 X120.799 Y107.539 E2.13728
G1 X121.071 Y107.635 E2.14505
G1 X121.315 Y107.724 E2.15205
G1 X121.593 Y107.838 E2.16014
G1 X121.815 Y107.934 E2.16666
G1 X122.097 Y108.068 E2.17507
G1 X122.319 Y108.178 E2.18174
G1 X122.595 Y108.327 E2.19019
G1 X122.812 Y108.449 E2.1969
G1 X123.076 Y108.612 E2.20526
G1 X123.304 Y108.757 E2.21254
G1 X123.538 Y108.919 E2.22021
G1 X123.768 Y109.083 E2.22782
G1 X123.982 Y109.248 E2.2351
G1 X124.177 Y109.404 E2.24182
G1 X124.416 Y109.61 E2.25032
G1 X124.605 Y109.778 E2.25714
G1 X124.827 Y109.987 E2.26535
G1 X124.998 Y110.158 E2.27187
G1 X125.222 Y110.397 E2.28069
G1 X125.383 Y110.573 E2.28712
G1 X125.55 Y110.768 E2.29403
G1 X125.752 Y111.017 E2.30267
G1 X125.923 Y111.243 E2.31031
G1 X126.079 Y111.456 E2.31742
G1 X126.248 Y111.705 E2.32553
G1 X126.383 Y111.912 E2.33219
G1 X126.542 Y112.177 E2.34051
G1 X126.663 Y112.386 E2.34702
G1 X126.669 Y112.399 E2.3474
G1 X126.814 Y112.671 E2.35571
G1 X126.933 Y112.902 E2.36271
G1 X127.053 Y113.162 E2.37042
G1 X127.159 Y113.4 E2.37744
G1 X127.274 Y113.681 E2.38562
G1 X127.361 Y113.913 E2.3923
G1 X127.461 Y114.202 E2.40054
G1 X127.542 Y114.453 E2.40764
G1 X127.624 Y114.741 E2.41571
G1 X127.686 Y114.976 E2.42226
G1 X127.758 Y115.293 E2.43101
G1 X127.807 Y115.52 E2.43727
G1 X127.809 Y115.537 E2.43773
G1 X127.859 Y115.827 E2.44566
G1 X127.894 Y116.057 E2.45193
G1 X127.897 Y116.072 E2.45234
G1 X127.931 Y116.364 E2.46026
G1 X127.933 Y116.374 E2.46053
G1 X127.955 Y116.617 E2.46711
G1 X127.957 Y116.628 E2.46741
G1 X127.977 Y116.929 E2.47554
G1 X127.989 Y117.207 E2.48303
G1 X127.993 Y117.485 E2.49052
G1 X127.988 Y117.793 E2.49882
G1 X127.978 Y118.071 E2.50632
G1 X127.957 Y118.351 E2.51388
G1 X127.934 Y118.618 E2.5211
G1 X127.899 Y118.901 E2.52878
G1 X127.863 Y119.152 E2.53561
G1 X127.811 Y119.45 E2.54376
G1 X127.761 Y119.701 E2.55066
G1 X127.69 Y120.001 E2.55896
G1 X127.63 Y120.242 E2.56565
G1 X127.544 Y120.536 E2.57391
G1 X127.466 Y120.787 E2.58099
G1 X127.273 Y121.324 E2.59636
G1 X127.164 Y121.586 E2.60401
G1 X127.056 Y121.836 E2.61134
G1 X126.932 Y122.097 E2.61913
G1 X126.822 Y122.319 E2.6258
G1 X126.677 Y122.588 E2.63404
G1 X126.553 Y122.808 E2.64084
G1 X126.392 Y123.071 E2.64915
G1 X126.26 Y123.279 E2.65578
G1 X126.081 Y123.538 E2.66427
G1 X125.929 Y123.752 E2.67134
G1 X125.752 Y123.982 E2.67916
G1 X125.596 Y124.177 E2.68588
G1 X125.39 Y124.416 E2.69438
G1 X125.225 Y124.602 E2.70108
G1 X125.006 Y124.834 E2.70968
G1 X124.842 Y124.998 E2.71593
G1 X124.603 Y125.222 E2.72475
G1 X124.427 Y125.383 E2.73118
G1 X124.232 Y125.55 E2.73809
G1 X123.983 Y125.752 E2.74673
G1 X123.757 Y125.923 E2.75437
G1 X123.541 Y126.081 E2.76158
G1 X123.295 Y126.248 E2.76959
G1 X123.088 Y126.383 E2.77624
G1 X122.823 Y126.542 E2.78457
G1 X122.606 Y126.667 E2.79132
G1 X122.329 Y126.814 E2.79977
G1 X122.117 Y126.923 E2.80619
G1 X121.825 Y127.059 E2.81487
G1 X121.579 Y127.168 E2.82211
G1 X121.331 Y127.269 E2.82933
G1 X121.072 Y127.366 E2.83678
G1 X120.794 Y127.462 E2.8447
G1 X120.54 Y127.544 E2.85189
G1 X120.252 Y127.626 E2.85996
G1 X120.012 Y127.689 E2.86665
G1 X119.715 Y127.756 E2.87485
G1 X119.445 Y127.813 E2.88228
G1 X119.174 Y127.859 E2.88969
G1 X118.924 Y127.897 E2.8965
G1 X118.619 Y127.933 E2.90477
G1 X118.367 Y127.957 E2.91159
G1 X118.064 Y127.977 E2.91977
G1 X117.785 Y127.989 E2.9273
G1 X117.504 Y127.993 E2.93487
G1 X117.209 Y127.988 E2.94282
G1 X116.928 Y127.978 E2.95039
G1 X116.638 Y127.957 E2.95823
G1 X116.395 Y127.936 E2.9648
G1 X116.093 Y127.898 E2.973
G1 X115.836 Y127.861 E2.97999
G1 X115.529 Y127.807 E2.98839
G1 X115.285 Y127.758 E2.9951
G1 X114.997 Y127.689 E3.00307
G1 X114.723 Y127.62 E3.01069
G1 X114.465 Y127.544 E3.01793
G1 X114.201 Y127.461 E3.02539
G1 X113.926 Y127.364 E3.03324
G1 X113.68 Y127.274 E3.0403
G1 X113.4 Y127.158 E3.04847
G1 X113.171 Y127.059 E3.05519
G1 X112.897 Y126.929 E3.06336
G1 X112.67 Y126.816 E3.07019
G1 X112.395 Y126.667 E3.07862
G1 X112.168 Y126.538 E3.08565
G1 X111.918 Y126.385 E3.09355
G1 X111.703 Y126.248 E3.10041
G1 X111.458 Y126.078 E3.10845
G1 X111.232 Y125.917 E3.11592
G1 X111.017 Y125.75 E3.12326
G1 X110.803 Y125.578 E3.13065
G1 X110.577 Y125.384 E3.13868
G1 X110.391 Y125.218 E3.14539
G1 X110.162 Y125.002 E3.15388
G1 X109.984 Y124.825 E3.16064
G1 X109.778 Y124.605 E3.16876
G1 X109.599 Y124.407 E3.17595
G1 X109.447 Y124.228 E3.18228
G1 X109.244 Y123.978 E3.19095
G1 X109.069 Y123.747 E3.19876
G1 X108.917 Y123.538 E3.20572
G1 X108.746 Y123.286 E3.21393
G1 X108.615 Y123.085 E3.22039
G1 X108.46 Y122.826 E3.22852
G1 X108.323 Y122.588 E3.23592
G1 X108.184 Y122.325 E3.24393
G1 X108.064 Y122.092 E3.25099
G1 X107.944 Y121.832 E3.25871
G1 X107.832 Y121.579 E3.26616
G1 X107.721 Y121.305 E3.27413
G1 X107.632 Y121.067 E3.28097
G1 X107.532 Y120.778 E3.28921
G1 X107.452 Y120.529 E3.29626
G1 X107.373 Y120.248 E3.30412
G1 X107.307 Y119.996 E3.31114
G1 X107.305 Y119.983 E3.31149
G1 X107.243 Y119.712 E3.31898
G1 X107.188 Y119.445 E3.32633
G1 X107.14 Y119.164 E3.33401
G1 X107.1 Y118.905 E3.34107
G1 X107.099 Y118.891 E3.34145
G1 X107.065 Y118.605 E3.34921
G1 X107.042 Y118.357 E3.35592
G1 X107.023 Y118.066 E3.36377
G1 X107.011 Y117.787 E3.3713
G1 X107.007 Y117.51 E3.37876
G1 X107.01 Y117.25 E3.38576
G1 X107.02 Y116.952 E3.3938
G1 X107.043 Y116.65 E3.40196
G1 X107.067 Y116.373 E3.40945
G1 X107.101 Y116.099 E3.41689
G1 X107.137 Y115.848 E3.42372
G1 X107.189 Y115.55 E3.43187
G1 X107.241 Y115.29 E3.43901
G1 X107.31 Y114.999 E3.44707
G1 X107.37 Y114.758 E3.45376
G1 X107.456 Y114.464 E3.46201
G1 X107.541 Y114.192 E3.46969
G1 X107.73 Y113.668 E3.48469
G0 F6000 X107.354 Y113.532
G1 F1200 X107.469 Y113.255 E3.49277
G1 X107.579 Y113.001 E3.50023
G1 X107.71 Y112.725 E3.50846
G1 X107.826 Y112.491 E3.5155
G1 X107.975 Y112.215 E3.52395
G1 X108.106 Y111.983 E3.53113
G1 X108.27 Y111.715 E3.53959
G1 X108.411 Y111.493 E3.54668
G1 X108.593 Y111.23 E3.55529
G1 X108.748 Y111.012 E3.5625
G1 X108.941 Y110.762 E3.57101
G1 X109.101 Y110.562 E3.57791
G1 X109.311 Y110.318 E3.58658
G1 X109.487 Y110.12 E3.59372
G1 X109.704 Y109.89 E3.60224
G1 X109.884 Y109.71 E3.60909
G1 X110.123 Y109.486 E3.61792
G1 X110.313 Y109.313 E3.62484
G1 X110.516 Y109.139 E3.63205
G1 X110.765 Y108.937 E3.64068
G1 X111.007 Y108.754 E3.64886
G1 X111.226 Y108.594 E3.65616
G1 X111.487 Y108.417 E3.66466
G1 X111.706 Y108.274 E3.67171
G1 X111.977 Y108.111 E3.68023
G1 X112.199 Y107.983 E3.68713
G1 X112.488 Y107.83 E3.69594
G1 X112.714 Y107.714 E3.70278
G1 X113.006 Y107.578 E3.71146
G1 X113.259 Y107.466 E3.71892
G1 X113.529 Y107.356 E3.72677
G1 X113.791 Y107.258 E3.73431
G1 X114.083 Y107.157 E3.74263
G1 X114.343 Y107.073 E3.74999
G1 X114.639 Y106.989 E3.75828
G1 X114.891 Y106.923 E3.7653
