;FLAVOR:Marlin
;TIME:3443
;Filament used: 2.06664m
;Layer height: 0.2
;MINX:34.225
;MINY:87.475
;MINZ:0.2
;MAXX:86.039
;MAXY:147.525
;MAXZ:13.8
;Generated with Cura_SteamEngine master
M82 ;absolute extrusion mode
; Ender 3 Custom Start G-code
M140 S75 ; Set Heat Bed temperature
M104 S160 ; start warming extruder to 160
G28 ; Home all axes
G29 ; Auto bed-level (BL-Touch)
G92 E0 ; Reset Extruder
M190 S75 ; Wait for Heat Bed temperature
M104 S210 ; Set Extruder temperature
G1 X0 Y0 Z0.3 F5000.0 ; Move to 0 0
M109 S210 ; Wait for Extruder temperature
G1 X3 Y20 Z0.3 F5000.0 ; Move to start position
; G1 Z2.0 F3000 ; Move Z Axis up little to prevent scratching of Heat Bed
G1 X3 Y200.0 Z0.3 F1500.0 E15 ; Draw the first line
G1 X3.3 Y200.0 Z0.3 F5000.0 ; Move to side a little
G1 X3.3 Y20 Z0.3 F1500.0 E30 ; Draw the second line
G92 E0 ; Reset Extruder
G1 Z2.0 F3000 ; Move Z Axis up little to prevent scratching of Heat Bed
G92 E0
G92 E0
G1 F2700 E-5
;LAYER_COUNT:69
;LAYER:0
M107
M204 S500
M205 X8 Y8
;MESH:gearmount_base_bd.stl
G0 F6000 X41.231 Y108.525 Z0.2
;TYPE:WALL-INNER
G1 F2700 E0
G1 F1200 X35.825 Y108.525 E0.14564
G1 X35.825 Y108.075 E0.15776
G1 X41.231 Y108.075 E0.30341
G1 X41.231 Y108.525 E0.31553
G0 F6000 X41.631 Y108.925
G1 F1200 X35.425 Y108.925 E0.48272
G1 X35.425 Y107.675 E0.5164
G1 X41.631 Y107.675 E0.68359
G1 X41.631 Y108.925 E0.71727
G0 F6000 X42.031 Y109.325
G1 F1200 X35.025 Y109.325 E0.90602
G1 X35.025 Y107.275 E0.96124
G1 X42.031 Y107.275 E1.14999
G1 X42.031 Y109.325 E1.20522
G0 F6000 X42.431 Y109.725
;TYPE:WALL-OUTER
G1 F1200 X34.625 Y109.725 E1.41552
G1 X34.625 Y106.875 E1.4923
G1 X42.431 Y106.875 E1.7026
G1 X42.431 Y109.725 E1.77938
G0 F6000 X41.961 Y109.255
G0 X41.047 Y108.364
;TYPE:SKIN
G1 F1200 X40.918 Y108.234 E1.78431
G0 F6000 X40.481 Y108.364
G1 F1200 X40.352 Y108.234 E1.78925
G0 F6000 X39.916 Y108.364
G1 F1200 X39.786 Y108.234 E1.7942
G0 F6000 X39.35 Y108.364
G1 F1200 X39.221 Y108.234 E1.79913
G0 F6000 X38.784 Y108.364
G1 F1200 X38.655 Y108.234 E1.80407
G0 F6000 X38.219 Y108.364
G1 F1200 X38.089 Y108.234 E1.80902
G0 F6000 X37.653 Y108.364
G1 F1200 X37.524 Y108.234 E1.81396
G0 F6000 X37.087 Y108.364
G1 F1200 X36.958 Y108.234 E1.81889
G0 F6000 X36.522 Y108.364
G1 F1200 X36.392 Y108.234 E1.82384
G1 F2700 E-3.17616
G0 F6000 X42.017 Y107.289
G0 X43.296 Y107.289
G0 X48.754 Y107.089
G0 X49.833 Y107.089
G0 X61.372 Y107.111
G0 X77.45 Y105.307
;TYPE:WALL-INNER
G1 F2700 E1.82384
G1 F1200 X77.31 Y105.447 E1.82918
G1 X55.015 Y127.741 E2.6786
G1 X54.8 Y127.956 E2.68679
G1 X55.084 Y128.066 E2.69156
G1 X80.319 Y137.863 E3.42084
G1 X80.524 Y137.949 E3.42683
G1 X80.752 Y138.061 E3.43368
G1 X81.103 Y138.277 E3.44478
G1 X81.294 Y138.418 E3.45118
G1 X81.596 Y138.686 E3.46205
G1 X81.771 Y138.873 E3.46895
G1 X82.017 Y139.187 E3.4797
G1 X82.152 Y139.394 E3.48636
G1 X82.34 Y139.751 E3.49723
G1 X82.444 Y140.002 E3.50455
G1 X82.548 Y140.324 E3.51366
G1 X82.612 Y140.616 E3.52172
G1 X82.661 Y140.983 E3.53169
G1 X82.671 Y141.253 E3.53897
G1 X82.654 Y141.649 E3.54965
G1 X82.616 Y141.906 E3.55665
G1 X82.534 Y142.276 E3.56686
G1 X82.472 Y142.47 E3.57234
G1 X82.374 Y142.721 E3.5796
G1 X82.2 Y143.072 E3.59016
G1 X82.069 Y143.289 E3.59699
G1 X81.838 Y143.6 E3.60742
G1 X81.673 Y143.786 E3.61412
G1 X81.368 Y144.071 E3.62537
G1 X81.169 Y144.229 E3.63221
G1 X80.846 Y144.439 E3.64259
G1 X80.603 Y144.566 E3.64998
G1 X80.475 Y144.625 E3.65378
G1 X80.227 Y144.72 E3.66093
G1 X80.013 Y144.788 E3.66698
G1 X79.632 Y144.874 E3.6775
G1 X79.381 Y144.906 E3.68432
G1 X78.954 Y144.924 E3.69583
G1 X78.733 Y144.912 E3.7018
G1 X78.335 Y144.858 E3.71262
G1 X78.069 Y144.794 E3.71999
G1 X77.916 Y144.75 E3.72428
G1 X77.661 Y144.661 E3.73155
G1 X57.447 Y136.815 E4.31572
G1 X43.304 Y136.815 E4.69674
G1 X43.303 Y136.815 E4.69677
G1 X43.026 Y136.815 E4.70423
G1 X43.115 Y137.078 E4.70867
G1 X44.475 Y141.086 E4.8227
G1 X44.535 Y141.279 E4.82814
G1 X44.598 Y141.529 E4.83509
G1 X44.657 Y141.914 E4.84558
G1 X44.673 Y142.163 E4.8523
G1 X44.659 Y142.592 E4.86387
G1 X44.634 Y142.81 E4.86978
G1 X44.545 Y143.235 E4.88148
G1 X44.48 Y143.447 E4.88745
G1 X44.331 Y143.816 E4.89817
G1 X44.207 Y144.058 E4.9055
G1 X43.999 Y144.389 E4.91603
G1 X43.838 Y144.599 E4.92316
G1 X43.574 Y144.886 E4.93366
G1 X43.399 Y145.045 E4.94003
G1 X43.067 Y145.299 E4.95129
G1 X42.857 Y145.43 E4.95796
G1 X42.48 Y145.621 E4.96935
G1 X42.095 Y145.764 E4.98041
G1 X41.739 Y145.854 E4.99031
G1 X41.413 Y145.902 E4.99918
G1 X41.057 Y145.924 E5.00879
G1 X40.778 Y145.914 E5.01631
G1 X40.406 Y145.872 E5.0264
G1 X40.171 Y145.821 E5.03288
G1 X39.745 Y145.691 E5.04488
G1 X39.541 Y145.607 E5.05082
G1 X39.183 Y145.424 E5.06165
G1 X38.96 Y145.282 E5.06877
G1 X38.668 Y145.059 E5.07867
G1 X38.452 Y144.86 E5.08659
G1 X38.197 Y144.58 E5.09679
G1 X38.045 Y144.378 E5.1036
G1 X37.827 Y144.03 E5.11466
G1 X37.727 Y143.831 E5.12066
G1 X37.557 Y143.413 E5.13282
G1 X35.825 Y138.316 E5.27785
G1 X35.825 Y114.025 E5.93226
G1 X41.231 Y114.025 E6.07791
G1 X41.232 Y133.074 E6.5911
G1 X50.62 Y133.075 E6.84402
G1 X50.819 Y133.075 E6.84938
G1 X50.819 Y132.876 E6.85285
G1 X50.819 Y108.075 E7.521
G1 X61.772 Y108.075 E7.81609
G1 X80.771 Y89.075 E8.53997
G1 X82.312 Y89.075 E8.58148
G1 X82.313 Y89.075 E8.58151
G1 X82.793 Y89.075 E8.59444
G1 X82.453 Y89.415 E8.60141
G1 X81.39 Y90.479 E8.64193
G1 X80.851 Y91.066 E8.6634
G1 X80.539 Y91.463 E8.677
G1 X80.335 Y91.743 E8.68633
G1 X80.064 Y92.154 E8.6996
G1 X79.884 Y92.457 E8.70909
G1 X79.649 Y92.888 E8.72232
G1 X79.499 Y93.206 E8.73179
G1 X79.306 Y93.651 E8.74486
G1 X79.181 Y93.985 E8.75447
G1 X79.028 Y94.446 E8.76755
G1 X78.932 Y94.788 E8.77712
G1 X78.822 Y95.263 E8.79026
G1 X78.758 Y95.611 E8.79979
G1 X78.691 Y96.096 E8.81298
G1 X78.658 Y96.443 E8.82237
G1 X78.631 Y96.93 E8.83551
G1 X78.63 Y97.285 E8.84507
G1 X78.648 Y97.771 E8.85818
G1 X78.676 Y98.123 E8.86769
G1 X78.691 Y98.243 E8.87095
G1 X78.736 Y98.61 E8.88091
G1 X78.779 Y98.857 E8.88766
G1 X78.634 Y98.712 E8.8884
G1 X78.373 Y98.451 E8.89533
G1 X77.097 Y97.175 E8.94395
G1 X73.347 Y100.924 E9.08681
G1 X73.207 Y101.064 E9.09214
G1 X73.347 Y101.204 E9.09558
G1 X77.31 Y105.167 E9.24657
G1 X77.45 Y105.307 E9.25001
G0 F6000 X78.016 Y105.307
G1 F1200 X77.876 Y105.447 E9.25534
G1 X55.732 Y127.59 E10.09901
G1 X55.517 Y127.805 E10.1072
G1 X55.801 Y127.915 E10.11197
G1 X80.474 Y137.494 E10.82501
G1 X80.683 Y137.582 E10.83112
G1 X80.946 Y137.711 E10.83902
G1 X81.325 Y137.944 E10.851
G1 X81.549 Y138.109 E10.8585
G1 X81.871 Y138.395 E10.8701
G1 X82.075 Y138.612 E10.87812
G1 X82.343 Y138.955 E10.88985
G1 X82.498 Y139.193 E10.8975
G1 X82.705 Y139.586 E10.90947
G1 X82.814 Y139.849 E10.91714
G1 X82.823 Y139.878 E10.91796
G1 X82.927 Y140.2 E10.92707
G1 X82.937 Y140.228 E10.92787
G1 X83.005 Y140.537 E10.9364
G1 X83.061 Y140.957 E10.94781
G1 X83.072 Y141.256 E10.95587
G1 X83.053 Y141.685 E10.96744
G1 X83.011 Y141.972 E10.97526
G1 X82.92 Y142.382 E10.98657
G1 X82.85 Y142.602 E10.99279
G1 X82.741 Y142.88 E11.00083
G1 X82.546 Y143.274 E11.01268
G1 X82.405 Y143.506 E11.01999
G1 X82.144 Y143.858 E11.0318
G1 X81.959 Y144.067 E11.03932
G1 X81.632 Y144.372 E11.05136
G1 X81.406 Y144.551 E11.05913
G1 X81.387 Y144.563 E11.05974
G1 X81.064 Y144.773 E11.07012
G1 X81.046 Y144.785 E11.0707
G1 X80.781 Y144.924 E11.07876
G1 X80.618 Y144.999 E11.08359
G1 X80.37 Y145.094 E11.09075
G1 X80.119 Y145.174 E11.09785
G1 X79.72 Y145.263 E11.10886
G1 X79.695 Y145.269 E11.10955
G1 X79.412 Y145.305 E11.11724
G1 X78.961 Y145.324 E11.1294
G1 X78.694 Y145.31 E11.1366
G1 X78.258 Y145.251 E11.14846
G1 X77.966 Y145.181 E11.15655
G1 X77.787 Y145.129 E11.16157
G1 X77.529 Y145.039 E11.16893
G1 X57.372 Y137.215 E11.75145
G1 X43.862 Y137.215 E12.11541
G1 X43.861 Y137.215 E12.11544
G1 X43.584 Y137.215 E12.1229
G1 X43.673 Y137.478 E12.12735
G1 X44.854 Y140.957 E12.22633
G1 X44.916 Y141.161 E12.23207
G1 X44.923 Y141.181 E12.23264
G1 X44.989 Y141.443 E12.23992
G1 X44.992 Y141.468 E12.2406
G1 X45.051 Y141.853 E12.25109
G1 X45.056 Y141.882 E12.25188
G1 X45.071 Y142.138 E12.25879
G1 X45.073 Y142.163 E12.25947
G1 X45.059 Y142.615 E12.27165
G1 X45.028 Y142.883 E12.27892
G1 X44.935 Y143.328 E12.29117
G1 X44.856 Y143.585 E12.29841
G1 X44.695 Y143.984 E12.31
G1 X44.556 Y144.254 E12.31818
G1 X44.337 Y144.601 E12.32924
G1 X44.324 Y144.622 E12.3299
G1 X44.145 Y144.855 E12.33782
G1 X43.856 Y145.17 E12.34934
G1 X43.651 Y145.356 E12.35679
G1 X43.298 Y145.626 E12.36877
G1 X43.279 Y145.637 E12.36936
G1 X43.05 Y145.781 E12.37665
G1 X42.65 Y145.984 E12.38873
G1 X42.467 Y146.059 E12.39406
G1 X42.208 Y146.148 E12.40144
G1 X41.959 Y146.216 E12.40839
G1 X41.798 Y146.25 E12.41282
G1 X41.462 Y146.3 E12.42198
G1 X41.057 Y146.325 E12.43291
G1 X40.758 Y146.314 E12.44097
G1 X40.337 Y146.266 E12.45238
G1 X40.064 Y146.207 E12.45991
G1 X39.615 Y146.07 E12.47256
G1 X39.379 Y145.973 E12.47943
G1 X38.985 Y145.772 E12.49135
G1 X38.726 Y145.607 E12.49962
G1 X38.407 Y145.363 E12.51044
G1 X38.173 Y145.148 E12.519
G1 X37.888 Y144.835 E12.5304
G1 X37.714 Y144.603 E12.53822
G1 X37.483 Y144.236 E12.5499
G1 X37.358 Y143.987 E12.55741
G1 X37.181 Y143.55 E12.57011
G1 X35.425 Y138.383 E12.71713
G1 X35.425 Y113.625 E13.38413
G1 X41.631 Y113.625 E13.55132
G1 X41.632 Y132.674 E14.06452
G1 X50.22 Y132.675 E14.29588
G1 X50.419 Y132.675 E14.30124
G1 X50.419 Y132.476 E14.30471
G1 X50.419 Y107.675 E14.97287
G1 X61.606 Y107.675 E15.27425
G1 X80.605 Y88.675 E15.99813
G1 X83.278 Y88.675 E16.07015
G1 X83.279 Y88.675 E16.07017
G1 X83.759 Y88.675 E16.08311
G1 X83.419 Y89.015 E16.09007
G1 X81.679 Y90.756 E16.15639
G1 X81.156 Y91.325 E16.17721
G1 X80.858 Y91.704 E16.1902
G1 X80.664 Y91.971 E16.19909
G1 X80.403 Y92.366 E16.21184
G1 X80.232 Y92.655 E16.22089
G1 X80.006 Y93.07 E16.23362
G1 X79.863 Y93.371 E16.2426
G1 X79.677 Y93.801 E16.25522
G1 X79.558 Y94.118 E16.26434
G1 X79.411 Y94.563 E16.27697
G1 X79.32 Y94.887 E16.28604
G1 X79.214 Y95.344 E16.29867
G1 X79.153 Y95.675 E16.30774
G1 X79.09 Y96.132 E16.32017
G1 X79.088 Y96.142 E16.32044
G1 X79.057 Y96.473 E16.3294
G1 X79.031 Y96.942 E16.34206
G1 X79.03 Y97.278 E16.35111
G1 X79.047 Y97.748 E16.36378
G1 X79.074 Y98.082 E16.37281
G1 X79.132 Y98.551 E16.38554
G1 X79.19 Y98.881 E16.39456
G1 X79.29 Y99.339 E16.40719
G1 X79.306 Y99.399 E16.40887
G1 X79.375 Y99.66 E16.41614
G1 X79.515 Y100.111 E16.42886
G1 X79.542 Y100.185 E16.43098
G1 X79.492 Y100.135 E16.431
G1 X79.196 Y99.84 E16.43558
G1 X79.006 Y99.65 E16.44153
G1 X77.097 Y97.741 E16.51426
G1 X73.913 Y100.924 E16.63556
G1 X73.773 Y101.064 E16.64089
G1 X73.913 Y101.204 E16.64433
G1 X77.876 Y105.167 E16.79532
G1 X78.016 Y105.307 E16.79876
G0 F6000 X78.582 Y105.307
G1 F1200 X78.442 Y105.447 E16.80409
G1 X56.449 Y127.439 E17.642
G1 X56.234 Y127.654 E17.65019
G1 X56.518 Y127.764 E17.65497
G1 X80.629 Y137.125 E18.35177
G1 X80.85 Y137.218 E18.35823
G1 X81.136 Y137.359 E18.36682
G1 X81.547 Y137.611 E18.37981
G1 X81.798 Y137.796 E18.38821
G1 X81.813 Y137.81 E18.38876
G1 X82.151 Y138.109 E18.40092
G1 X82.379 Y138.351 E18.40988
G1 X82.669 Y138.723 E18.42259
G1 X82.832 Y138.975 E18.43067
G1 X82.845 Y138.994 E18.43129
G1 X82.95 Y139.177 E18.43698
G1 X83.071 Y139.423 E18.44436
G1 X83.184 Y139.696 E18.45232
G1 X83.267 Y139.932 E18.45906
G1 X83.326 Y140.134 E18.46473
G1 X83.4 Y140.47 E18.474
G1 X83.46 Y140.922 E18.48628
G1 X83.473 Y141.259 E18.49537
G1 X83.452 Y141.72 E18.5078
G1 X83.406 Y142.038 E18.51646
G1 X83.305 Y142.492 E18.52899
G1 X83.226 Y142.738 E18.53595
G1 X83.109 Y143.038 E18.54462
G1 X82.897 Y143.466 E18.55749
G1 X82.735 Y143.733 E18.56591
G1 X82.459 Y144.104 E18.57836
G1 X82.444 Y144.121 E18.57897
G1 X82.245 Y144.347 E18.58709
G1 X81.895 Y144.674 E18.59999
G1 X81.653 Y144.864 E18.60828
G1 X81.637 Y144.877 E18.60883
G1 X81.624 Y144.885 E18.60925
G1 X81.247 Y145.131 E18.62137
G1 X80.963 Y145.28 E18.63001
G1 X80.761 Y145.373 E18.636
G1 X80.513 Y145.468 E18.64316
G1 X80.24 Y145.554 E18.65087
G1 X80.223 Y145.56 E18.65136
G1 X80.207 Y145.563 E18.65179
G1 X79.761 Y145.664 E18.66411
G1 X79.443 Y145.704 E18.67275
G1 X78.967 Y145.725 E18.68559
G1 X78.656 Y145.708 E18.69398
G1 X78.182 Y145.644 E18.70686
G1 X77.869 Y145.569 E18.71553
G1 X77.654 Y145.507 E18.72156
G1 X77.397 Y145.417 E18.7289
G1 X57.297 Y137.615 E19.30977
G1 X44.42 Y137.615 E19.65668
G1 X44.419 Y137.615 E19.65671
G1 X44.142 Y137.615 E19.66417
G1 X44.231 Y137.878 E19.66862
G1 X45.236 Y140.838 E19.75283
G1 X45.308 Y141.07 E19.75938
G1 X45.381 Y141.362 E19.76749
G1 X45.427 Y141.619 E19.77452
G1 X45.452 Y141.834 E19.78035
G1 X45.454 Y141.846 E19.78068
G1 X45.454 Y141.858 E19.781
G1 X45.471 Y142.138 E19.78856
G1 X45.473 Y142.163 E19.78923
G1 X45.459 Y142.64 E19.80209
G1 X45.422 Y142.953 E19.81058
G1 X45.378 Y143.201 E19.81737
G1 X45.324 Y143.423 E19.82352
G1 X45.231 Y143.726 E19.83206
G1 X45.059 Y144.152 E19.84444
G1 X44.905 Y144.451 E19.8535
G1 X44.649 Y144.856 E19.86641
G1 X44.459 Y145.104 E19.87482
G1 X44.313 Y145.275 E19.88088
G1 X44.132 Y145.46 E19.88785
G1 X43.905 Y145.666 E19.89611
G1 X43.529 Y145.953 E19.90886
G1 X43.262 Y146.119 E19.91733
G1 X43.247 Y146.129 E19.91781
G1 X43.232 Y146.136 E19.91826
G1 X42.819 Y146.347 E19.93075
G1 X42.606 Y146.434 E19.93695
G1 X42.318 Y146.533 E19.94516
G1 X42.066 Y146.602 E19.95219
G1 X41.857 Y146.646 E19.95795
G1 X41.511 Y146.698 E19.96737
G1 X41.081 Y146.723 E19.97898
G1 X41.056 Y146.725 E19.97965
G1 X40.735 Y146.714 E19.98831
G1 X40.269 Y146.66 E20.00095
G1 X39.957 Y146.593 E20.00954
G1 X39.485 Y146.449 E20.02284
G1 X39.214 Y146.338 E20.03073
G1 X38.787 Y146.12 E20.04364
G1 X38.5 Y145.937 E20.05281
G1 X38.165 Y145.68 E20.06419
G1 X38.14 Y145.661 E20.06503
G1 X37.895 Y145.436 E20.074
G1 X37.579 Y145.09 E20.08662
G1 X37.388 Y144.835 E20.0952
G1 X37.133 Y144.43 E20.1081
G1 X36.991 Y144.148 E20.1166
G1 X36.897 Y143.933 E20.12292
G1 X36.806 Y143.69 E20.12992
G1 X35.025 Y138.45 E20.27902
G1 X35.025 Y113.225 E20.9586
G1 X42.031 Y113.225 E21.14734
G1 X42.032 Y132.274 E21.66054
G1 X49.82 Y132.275 E21.87035
G1 X50.019 Y132.275 E21.87571
G1 X50.019 Y132.076 E21.87918
G1 X50.019 Y107.275 E22.54734
G1 X61.44 Y107.275 E22.85503
G1 X80.439 Y88.275 E23.57891
G1 X84.244 Y88.275 E23.68141
G1 X84.245 Y88.275 E23.68144
G1 X84.725 Y88.275 E23.69437
G1 X84.385 Y88.615 E23.70134
G1 X81.968 Y91.033 E23.79345
G1 X81.461 Y91.584 E23.81362
G1 X81.177 Y91.945 E23.826
G1 X80.993 Y92.199 E23.83445
G1 X80.742 Y92.578 E23.84669
G1 X80.58 Y92.852 E23.85527
G1 X80.363 Y93.252 E23.86753
G1 X80.227 Y93.537 E23.87604
G1 X80.048 Y93.951 E23.88819
G1 X79.935 Y94.251 E23.89682
G1 X79.794 Y94.68 E23.90899
G1 X79.708 Y94.986 E23.91755
G1 X79.606 Y95.426 E23.92972
G1 X79.548 Y95.739 E23.9383
G1 X79.485 Y96.188 E23.95051
G1 X79.456 Y96.502 E23.95901
G1 X79.431 Y96.954 E23.9712
G1 X79.43 Y97.272 E23.97977
G1 X79.446 Y97.725 E23.99198
G1 X79.472 Y98.041 E24.00052
G1 X79.528 Y98.492 E24.01277
G1 X79.583 Y98.804 E24.0213
G1 X79.679 Y99.245 E24.03346
G1 X79.76 Y99.55 E24.04196
G1 X79.894 Y99.984 E24.0542
G1 X80.003 Y100.284 E24.0628
G1 X80.175 Y100.701 E24.07495
G1 X80.282 Y100.928 E24.08171
G1 X80.31 Y100.989 E24.08352
G1 X80.518 Y101.392 E24.09574
G1 X80.678 Y101.667 E24.10431
G1 X80.921 Y102.048 E24.11648
G1 X81.126 Y102.335 E24.12599
G1 X80.88 Y102.089 E24.12661
G1 X80.568 Y101.777 E24.12971
G1 X80.351 Y101.56 E24.1341
G1 X80.045 Y101.255 E24.1433
G1 X79.997 Y101.207 E24.14508
G1 X77.097 Y98.307 E24.25557
G1 X74.479 Y100.924 E24.3553
G1 X74.339 Y101.064 E24.36063
G1 X74.479 Y101.204 E24.36407
G1 X78.442 Y105.167 E24.51506
G1 X78.582 Y105.307 E24.5185
G0 F6000 X79.148 Y105.307
;TYPE:WALL-OUTER
G1 F1200 X56.951 Y127.503 E25.36418
G1 X80.774 Y136.752 E26.05266
G1 X81.027 Y136.859 E26.06006
G1 X81.325 Y137.006 E26.06902
G1 X81.561 Y137.14 E26.07633
G1 X81.768 Y137.277 E26.08301
G1 X82.045 Y137.481 E26.09228
G1 X82.251 Y137.652 E26.09949
G1 X82.435 Y137.827 E26.10634
G1 X82.67 Y138.076 E26.11556
G1 X82.845 Y138.286 E26.12292
G1 X82.992 Y138.487 E26.12963
G1 X83.185 Y138.783 E26.13915
G1 X83.309 Y139 E26.14589
G1 X83.43 Y139.246 E26.15327
G1 X83.557 Y139.551 E26.16217
G1 X83.648 Y139.809 E26.16954
G1 X83.717 Y140.048 E26.17624
G1 X83.791 Y140.384 E26.18551
G1 X83.834 Y140.64 E26.19251
