;FLAVOR:Marlin
;TIME:10184
;Filament used: 6.18463m
;Layer height: 0.2
;MINX:95.247
;MINY:55.842
;MINZ:0.2
;MAXX:139.533
;MAXY:179.164
;MAXZ:24.4
;Generated with Cura_SteamEngine master
M82 ;absolute extrusion mode
; Ender 3 Custom Start G-code
M140 S75 ; Set Heat Bed temperature
M104 S160 ; start warming extruder to 160
G28 ; Home all axes
G29 ; Auto bed-level (BL-Touch)
G92 E0 ; Reset Extruder
M190 S75 ; Wait for Heat Bed temperature
M104 S210 ; Set Extruder temperature
G1 X0 Y0 Z0.3 F5000.0 ; Move to 0 0
M109 S210 ; Wait for Extruder temperature
G1 X3 Y20 Z0.3 F5000.0 ; Move to start position
; G1 Z2.0 F3000 ; Move Z Axis up little to prevent scratching of Heat Bed
G1 X3 Y200.0 Z0.3 F1500.0 E15 ; Draw the first line
G1 X3.3 Y200.0 Z0.3 F5000.0 ; Move to side a little
G1 X3.3 Y20 Z0.3 F1500.0 E30 ; Draw the second line
G92 E0 ; Reset Extruder
G1 Z2.0 F3000 ; Move Z Axis up little to prevent scratching of Heat Bed
G92 E0
G92 E0
G1 F2700 E-5
;LAYER_COUNT:122
;LAYER:0
M107
M204 S500
M205 X8 Y8
;MESH:oilpan_full.stl
G0 F6000 X132.383 Y175.14 Z0.2
;TYPE:WALL-INNER
G1 F2700 E0
G1 F1200 X99.083 Y175.14 E0.89713
G1 X99.083 Y59.86 E4.00285
G1 X132.383 Y59.86 E4.89998
G1 X132.383 Y175.14 E8.0057
G0 F6000 X132.783 Y175.54
G1 F1200 X98.683 Y175.54 E8.92438
G1 X98.683 Y59.46 E12.05166
G1 X132.783 Y59.46 E12.97034
G1 X132.783 Y175.54 E16.09761
G0 F6000 X133.183 Y175.94
G1 F1200 X98.283 Y175.94 E17.03784
G1 X98.283 Y59.06 E20.18667
G1 X133.183 Y59.06 E21.1269
G1 X133.183 Y175.94 E24.27573
G0 F6000 X133.583 Y176.34
;TYPE:WALL-OUTER
G1 F1200 X97.883 Y176.34 E25.23752
G1 X97.883 Y58.66 E28.4079
G1 X133.583 Y58.66 E29.36968
G1 X133.583 Y176.34 E32.54007
G0 F6000 X133.113 Y175.87
G0 X131.993 Y174.75
;TYPE:SKIN
G1 F1200 X99.473 Y174.75 E33.41618
G1 X99.473 Y60.25 E36.50089
G1 X131.993 Y60.25 E37.377
G1 X131.993 Y174.75 E40.46171
G1 F2700 E35.46171
G0 F6000 X99.918 Y174.588
G1 F2700 E40.46171
G1 F1200 X99.632 Y174.302 E40.47261
G0 F6000 X99.632 Y173.736
G1 F1200 X100.484 Y174.588 E40.50507
G0 F6000 X101.049 Y174.588
G1 F1200 X99.632 Y173.171 E40.55906
G0 F6000 X99.632 Y172.605
G1 F1200 X101.615 Y174.588 E40.63461
G0 F6000 X102.181 Y174.588
G1 F1200 X99.632 Y172.039 E40.73173
G0 F6000 X99.632 Y171.474
G1 F1200 X102.746 Y174.588 E40.85037
G0 F6000 X103.312 Y174.588
G1 F1200 X99.632 Y170.908 E40.99058
G0 F6000 X99.632 Y170.342
G1 F1200 X103.878 Y174.588 E41.15235
G0 F6000 X104.443 Y174.588
G1 F1200 X99.632 Y169.777 E41.33565
G0 F6000 X99.632 Y169.211
G1 F1200 X105.009 Y174.588 E41.54051
G0 F6000 X105.575 Y174.588
G1 F1200 X99.632 Y168.645 E41.76694
G0 F6000 X99.632 Y168.079
G1 F1200 X106.14 Y174.588 E42.01491
G0 F6000 X106.706 Y174.588
G1 F1200 X99.632 Y167.514 E42.28443
G0 F6000 X99.632 Y166.948
G1 F1200 X107.272 Y174.588 E42.57552
G0 F6000 X107.838 Y174.588
G1 F1200 X99.632 Y166.382 E42.88816
G0 F6000 X99.632 Y165.817
G1 F1200 X108.403 Y174.588 E43.22234
G0 F6000 X108.969 Y174.588
G1 F1200 X99.632 Y165.251 E43.57808
G0 F6000 X99.632 Y164.685
G1 F1200 X109.535 Y174.588 E43.95538
G0 F6000 X110.1 Y174.588
G1 F1200 X99.632 Y164.12 E44.35421
G0 F6000 X99.632 Y163.554
G1 F1200 X110.666 Y174.588 E44.7746
G0 F6000 X111.232 Y174.588
G1 F1200 X99.632 Y162.988 E45.21656
G0 F6000 X99.632 Y162.423
G1 F1200 X111.797 Y174.588 E45.68005
G0 F6000 X112.363 Y174.588
G1 F1200 X99.632 Y161.857 E46.1651
G0 F6000 X99.632 Y161.291
G1 F1200 X112.929 Y174.588 E46.67171
G0 F6000 X113.494 Y174.588
G1 F1200 X99.632 Y160.726 E47.19985
G0 F6000 X99.632 Y160.16
G1 F1200 X114.06 Y174.588 E47.74956
G0 F6000 X114.626 Y174.588
G1 F1200 X99.632 Y159.594 E48.32083
G0 F6000 X99.632 Y159.029
G1 F1200 X115.191 Y174.588 E48.91363
G0 F6000 X115.757 Y174.588
G1 F1200 X99.632 Y158.463 E49.52799
G0 F6000 X99.632 Y157.897
G1 F1200 X116.323 Y174.588 E50.16391
G0 F6000 X116.888 Y174.588
G1 F1200 X99.632 Y157.331 E50.82138
G0 F6000 X99.632 Y156.766
G1 F1200 X117.454 Y174.588 E51.5004
G0 F6000 X118.02 Y174.588
G1 F1200 X99.632 Y156.2 E52.20098
G0 F6000 X99.632 Y155.634
G1 F1200 X118.586 Y174.588 E52.92313
G0 F6000 X119.151 Y174.588
G1 F1200 X99.632 Y155.069 E53.6668
G0 F6000 X99.632 Y154.503
G1 F1200 X119.717 Y174.588 E54.43204
G0 F6000 X120.283 Y174.588
G1 F1200 X99.632 Y153.937 E55.21884
G0 F6000 X99.632 Y153.372
G1 F1200 X120.848 Y174.588 E56.02717
G0 F6000 X121.414 Y174.588
G1 F1200 X99.632 Y152.806 E56.85706
G0 F6000 X99.632 Y152.24
G1 F1200 X121.98 Y174.588 E57.70852
G0 F6000 X122.545 Y174.588
G1 F1200 X99.632 Y151.675 E58.5815
G0 F6000 X99.632 Y151.109
G1 F1200 X123.111 Y174.588 E59.47605
G0 F6000 X123.677 Y174.588
G1 F1200 X99.632 Y150.543 E60.39216
G0 F6000 X99.632 Y149.978
G1 F1200 X124.242 Y174.588 E61.3298
G0 F6000 X124.808 Y174.588
G1 F1200 X99.632 Y149.412 E62.289
G0 F6000 X99.632 Y148.846
G1 F1200 X125.374 Y174.588 E63.26977
G0 F6000 X125.939 Y174.588
G1 F1200 X99.632 Y148.28 E64.27208
G0 F6000 X99.632 Y147.715
G1 F1200 X126.505 Y174.588 E65.29594
G0 F6000 X127.071 Y174.588
G1 F1200 X99.632 Y147.149 E66.34137
G0 F6000 X99.632 Y146.583
G1 F1200 X127.637 Y174.588 E67.40835
G0 F6000 X128.202 Y174.588
G1 F1200 X99.632 Y146.018 E68.49687
G0 F6000 X99.632 Y145.452
G1 F1200 X128.768 Y174.588 E69.60695
G0 F6000 X129.334 Y174.588
G1 F1200 X99.632 Y144.886 E70.73859
G0 F6000 X99.632 Y144.321
G1 F1200 X129.899 Y174.588 E71.89176
G0 F6000 X130.465 Y174.588
G1 F1200 X99.632 Y143.755 E73.0665
G0 F6000 X99.632 Y143.189
G1 F1200 X131.031 Y174.588 E74.2628
G0 F6000 X131.596 Y174.588
G1 F1200 X99.632 Y142.624 E75.48062
G0 F6000 X99.632 Y142.058
G1 F1200 X131.832 Y174.259 E76.70746
G0 F6000 X131.832 Y173.693
G1 F1200 X99.632 Y141.492 E77.9343
G0 F6000 X99.632 Y140.927
G1 F1200 X131.832 Y173.128 E79.16113
G0 F6000 X131.832 Y172.562
G1 F1200 X99.632 Y140.361 E80.38797
G0 F6000 X99.632 Y139.795
G1 F1200 X131.832 Y171.996 E81.6148
G0 F6000 X131.832 Y171.43
G1 F1200 X99.632 Y139.23 E82.84162
G0 F6000 X99.632 Y138.664
G1 F1200 X131.832 Y170.865 E84.06846
G0 F6000 X131.832 Y170.299
G1 F1200 X99.632 Y138.098 E85.29529
G0 F6000 X99.632 Y137.532
G1 F1200 X131.832 Y169.733 E86.52213
G0 F6000 X131.832 Y169.168
G1 F1200 X99.632 Y136.967 E87.74897
G0 F6000 X99.632 Y136.401
G1 F1200 X131.832 Y168.602 E88.9758
G0 F6000 X131.832 Y168.036
G1 F1200 X99.632 Y135.835 E90.20264
G0 F6000 X99.632 Y135.27
G1 F1200 X131.832 Y167.471 E91.42948
G0 F6000 X131.832 Y166.905
G1 F1200 X99.632 Y134.704 E92.65631
G0 F6000 X99.632 Y134.138
G1 F1200 X131.832 Y166.339 E93.88315
G0 F6000 X131.832 Y165.774
G1 F1200 X99.632 Y133.573 E95.10999
G0 F6000 X99.632 Y133.007
G1 F1200 X131.832 Y165.208 E96.33682
G0 F6000 X131.832 Y164.642
G1 F1200 X99.632 Y132.441 E97.56366
G0 F6000 X99.632 Y131.876
G1 F1200 X131.832 Y164.077 E98.79049
G0 F6000 X131.832 Y163.511
G1 F1200 X99.632 Y131.31 E100.01733
G0 F6000 X99.632 Y130.744
G1 F1200 X131.832 Y162.945 E101.24417
G0 F6000 X131.832 Y162.38
G1 F1200 X99.632 Y130.179 E102.471
G0 F6000 X99.632 Y129.613
G1 F1200 X131.832 Y161.814 E103.69784
G0 F6000 X131.832 Y161.248
G1 F1200 X99.632 Y129.047 E104.92468
G0 F6000 X99.632 Y128.482
G1 F1200 X131.832 Y160.682 E106.15149
G0 F6000 X131.832 Y160.117
G1 F1200 X99.632 Y127.916 E107.37833
G0 F6000 X99.632 Y127.35
G1 F1200 X131.832 Y159.551 E108.60517
G0 F6000 X131.832 Y158.985
G1 F1200 X99.632 Y126.784 E109.832
G0 F6000 X99.632 Y126.219
G1 F1200 X131.832 Y158.42 E111.05884
G0 F6000 X131.832 Y157.854
G1 F1200 X99.632 Y125.653 E112.28568
G0 F6000 X99.632 Y125.087
G1 F1200 X131.832 Y157.288 E113.51251
G0 F6000 X131.832 Y156.723
G1 F1200 X99.632 Y124.522 E114.73935
G0 F6000 X99.632 Y123.956
G1 F1200 X131.832 Y156.157 E115.96618
G0 F6000 X131.832 Y155.591
G1 F1200 X99.632 Y123.39 E117.19302
G0 F6000 X99.632 Y122.825
G1 F1200 X131.832 Y155.026 E118.41986
G0 F6000 X131.832 Y154.46
G1 F1200 X99.632 Y122.259 E119.64669
G0 F6000 X99.632 Y121.693
G1 F1200 X131.832 Y153.894 E120.87353
G0 F6000 X131.832 Y153.329
G1 F1200 X99.632 Y121.128 E122.10037
G0 F6000 X99.632 Y120.562
G1 F1200 X131.832 Y152.763 E123.3272
G0 F6000 X131.832 Y152.197
G1 F1200 X99.632 Y119.996 E124.55404
G0 F6000 X99.632 Y119.431
G1 F1200 X131.832 Y151.631 E125.78086
G0 F6000 X131.832 Y151.066
G1 F1200 X99.632 Y118.865 E127.00769
G0 F6000 X99.632 Y118.299
G1 F1200 X131.832 Y150.5 E128.23453
G0 F6000 X131.832 Y149.934
G1 F1200 X99.632 Y117.733 E129.46137
G0 F6000 X99.632 Y117.168
G1 F1200 X131.832 Y149.369 E130.6882
G0 F6000 X131.832 Y148.803
G1 F1200 X99.632 Y116.602 E131.91504
G0 F6000 X99.632 Y116.036
G1 F1200 X131.832 Y148.237 E133.14187
G0 F6000 X131.832 Y147.672
G1 F1200 X99.632 Y115.471 E134.36871
G0 F6000 X99.632 Y114.905
G1 F1200 X131.832 Y147.106 E135.59555
G0 F6000 X131.832 Y146.54
G1 F1200 X99.632 Y114.339 E136.82238
G0 F6000 X99.632 Y113.774
G1 F1200 X131.832 Y145.975 E138.04922
G0 F6000 X131.832 Y145.409
G1 F1200 X99.632 Y113.208 E139.27606
G0 F6000 X99.632 Y112.642
G1 F1200 X131.832 Y144.843 E140.50289
G0 F6000 X131.832 Y144.278
G1 F1200 X99.632 Y112.077 E141.72973
G0 F6000 X99.632 Y111.511
G1 F1200 X131.832 Y143.712 E142.95657
G0 F6000 X131.832 Y143.146
G1 F1200 X99.632 Y110.945 E144.1834
G0 F6000 X99.632 Y110.38
G1 F1200 X131.832 Y142.581 E145.41024
G0 F6000 X131.832 Y142.015
G1 F1200 X99.632 Y109.814 E146.63707
G0 F6000 X99.632 Y109.248
G1 F1200 X131.832 Y141.449 E147.86391
G0 F6000 X131.832 Y140.883
G1 F1200 X99.632 Y108.683 E149.09073
G0 F6000 X99.632 Y108.117
G1 F1200 X131.832 Y140.318 E150.31756
G0 F6000 X131.832 Y139.752
G1 F1200 X99.632 Y107.551 E151.5444
G0 F6000 X99.632 Y106.985
G1 F1200 X131.832 Y139.186 E152.77124
G0 F6000 X131.832 Y138.621
G1 F1200 X99.632 Y106.42 E153.99807
G0 F6000 X99.632 Y105.854
G1 F1200 X131.832 Y138.055 E155.22491
G0 F6000 X131.832 Y137.489
G1 F1200 X99.632 Y105.288 E156.45175
G0 F6000 X99.632 Y104.723
G1 F1200 X131.832 Y136.924 E157.67858
G0 F6000 X131.832 Y136.358
G1 F1200 X99.632 Y104.157 E158.90542
G0 F6000 X99.632 Y103.591
G1 F1200 X131.832 Y135.792 E160.13226
G0 F6000 X131.832 Y135.227
G1 F1200 X99.632 Y103.026 E161.35909
G0 F6000 X99.632 Y102.46
G1 F1200 X131.832 Y134.661 E162.58593
G0 F6000 X131.832 Y134.095
G1 F1200 X99.632 Y101.894 E163.81276
G0 F6000 X99.632 Y101.329
G1 F1200 X131.832 Y133.53 E165.0396
G0 F6000 X131.832 Y132.964
G1 F1200 X99.632 Y100.763 E166.26644
G0 F6000 X99.632 Y100.197
G1 F1200 X131.832 Y132.398 E167.49327
G0 F6000 X131.832 Y131.832
G1 F1200 X99.632 Y99.632 E168.72009
G0 F6000 X99.632 Y99.066
G1 F1200 X131.832 Y131.267 E169.94693
G0 F6000 X131.832 Y130.701
G1 F1200 X99.632 Y98.5 E171.17376
G0 F6000 X99.632 Y97.934
G1 F1200 X131.832 Y130.135 E172.4006
G0 F6000 X131.832 Y129.57
G1 F1200 X99.632 Y97.369 E173.62744
G0 F6000 X99.632 Y96.803
G1 F1200 X131.832 Y129.004 E174.85427
G0 F6000 X131.832 Y128.438
G1 F1200 X99.632 Y96.237 E176.08111
G0 F6000 X99.632 Y95.672
G1 F1200 X131.832 Y127.873 E177.30795
G0 F6000 X131.832 Y127.307
G1 F1200 X99.632 Y95.106 E178.53478
G0 F6000 X99.632 Y94.54
G1 F1200 X131.832 Y126.741 E179.76162
G0 F6000 X131.832 Y126.176
G1 F1200 X99.632 Y93.975 E180.98845
G0 F6000 X99.632 Y93.409
G1 F1200 X131.832 Y125.61 E182.21529
G0 F6000 X131.832 Y125.044
G1 F1200 X99.632 Y92.843 E183.44213
G0 F6000 X99.632 Y92.278
G1 F1200 X131.832 Y124.479 E184.66896
G0 F6000 X131.832 Y123.913
G1 F1200 X99.632 Y91.712 E185.8958
G0 F6000 X99.632 Y91.146
G1 F1200 X131.832 Y123.347 E187.12264
G0 F6000 X131.832 Y122.782
G1 F1200 X99.632 Y90.581 E188.34947
G0 F6000 X99.632 Y90.015
G1 F1200 X131.832 Y122.216 E189.57631
G0 F6000 X131.832 Y121.65
G1 F1200 X99.632 Y89.449 E190.80315
G0 F6000 X99.632 Y88.884
G1 F1200 X131.832 Y121.084 E192.02996
G0 F6000 X131.832 Y120.519
G1 F1200 X99.632 Y88.318 E193.2568
G0 F6000 X99.632 Y87.752
G1 F1200 X131.832 Y119.953 E194.48364
G0 F6000 X131.832 Y119.387
G1 F1200 X99.632 Y87.186 E195.71047
G0 F6000 X99.632 Y86.621
G1 F1200 X131.832 Y118.822 E196.93731
G0 F6000 X131.832 Y118.256
G1 F1200 X99.632 Y86.055 E198.16414
G0 F6000 X99.632 Y85.489
G1 F1200 X131.832 Y117.69 E199.39098
G0 F6000 X131.832 Y117.125
G1 F1200 X99.632 Y84.924 E200.61782
G0 F6000 X99.632 Y84.358
G1 F1200 X131.832 Y116.559 E201.84465
G0 F6000 X131.832 Y115.993
G1 F1200 X99.632 Y83.792 E203.07149
G0 F6000 X99.632 Y83.227
G1 F1200 X131.832 Y115.428 E204.29833
G0 F6000 X131.832 Y114.862
G1 F1200 X99.632 Y82.661 E205.52516
G0 F6000 X99.632 Y82.095
G1 F1200 X131.832 Y114.296 E206.752
G0 F6000 X131.832 Y113.731
G1 F1200 X99.632 Y81.53 E207.97884
G0 F6000 X99.632 Y80.964
G1 F1200 X131.832 Y113.165 E209.20567
G0 F6000 X131.832 Y112.599
G1 F1200 X99.632 Y80.398 E210.43251
G0 F6000 X99.632 Y79.833
G1 F1200 X131.832 Y112.033 E211.65933
G0 F6000 X131.832 Y111.468
G1 F1200 X99.632 Y79.267 E212.88616
G0 F6000 X99.632 Y78.701
G1 F1200 X131.832 Y110.902 E214.113
G0 F6000 X131.832 Y110.336
G1 F1200 X99.632 Y78.136 E215.33982
G0 F6000 X99.632 Y77.57
G1 F1200 X131.832 Y109.771 E216.56665
G0 F6000 X131.832 Y109.205
G1 F1200 X99.632 Y77.004 E217.79349
G0 F6000 X99.632 Y76.438
G1 F1200 X131.832 Y108.639 E219.02032
G0 F6000 X131.832 Y108.074
G1 F1200 X99.632 Y75.873 E220.24716
G0 F6000 X99.632 Y75.307
G1 F1200 X131.832 Y107.508 E221.474
G0 F6000 X131.832 Y106.942
G1 F1200 X99.632 Y74.741 E222.70083
G0 F6000 X99.632 Y74.176
G1 F1200 X131.832 Y106.377 E223.92767
G0 F6000 X131.832 Y105.811
G1 F1200 X99.632 Y73.61 E225.15451
G0 F6000 X99.632 Y73.044
G1 F1200 X131.832 Y105.245 E226.38134
G0 F6000 X131.832 Y104.68
G1 F1200 X99.632 Y72.479 E227.60818
G0 F6000 X99.632 Y71.913
G1 F1200 X131.832 Y104.114 E228.83502
G0 F6000 X131.832 Y103.548
G1 F1200 X99.632 Y71.347 E230.06185
G0 F6000 X99.632 Y70.782
G1 F1200 X131.832 Y102.983 E231.28869
G0 F6000 X131.832 Y102.417
G1 F1200 X99.632 Y70.216 E232.51552
G0 F6000 X99.632 Y69.65
G1 F1200 X131.832 Y101.851 E233.74236
G0 F6000 X131.832 Y101.285
G1 F1200 X99.632 Y69.085 E234.96918
G0 F6000 X99.632 Y68.519
G1 F1200 X131.832 Y100.72 E236.19601
G0 F6000 X131.832 Y100.154
G1 F1200 X99.632 Y67.953 E237.42285
G0 F6000 X99.632 Y67.387
G1 F1200 X131.832 Y99.588 E238.64969
G0 F6000 X131.832 Y99.023
G1 F1200 X99.632 Y66.822 E239.87652
G0 F6000 X99.632 Y66.256
G1 F1200 X131.832 Y98.457 E241.10336
G0 F6000 X131.832 Y97.891
G1 F1200 X99.632 Y65.69 E242.3302
G0 F6000 X99.632 Y65.125
G1 F1200 X131.832 Y97.326 E243.55703
G0 F6000 X131.832 Y96.76
G1 F1200 X99.632 Y64.559 E244.78387
G0 F6000 X99.632 Y63.993
G1 F1200 X131.832 Y96.194 E246.01071
G0 F6000 X131.832 Y95.629
G1 F1200 X99.632 Y63.428 E247.23754
G0 F6000 X99.632 Y62.862
G1 F1200 X131.832 Y95.063 E248.46438
G0 F6000 X131.832 Y94.497
G1 F1200 X99.632 Y62.296 E249.69121
G0 F6000 X99.632 Y61.731
G1 F1200 X131.832 Y93.932 E250.91805
G0 F6000 X131.832 Y93.366
G1 F1200 X99.632 Y61.165 E252.14489
G0 F6000 X99.632 Y60.599
G1 F1200 X131.832 Y92.8 E253.37172
G0 F6000 X131.832 Y92.235
G1 F1200 X100.008 Y60.41 E254.58423
G0 F6000 X100.573 Y60.41
G1 F1200 X131.832 Y91.669 E255.7752
G0 F6000 X131.832 Y91.103
G1 F1200 X101.139 Y60.41 E256.9446
G0 F6000 X101.705 Y60.41
G1 F1200 X131.832 Y90.537 E258.09244
G0 F6000 X131.832 Y89.972
G1 F1200 X102.27 Y60.41 E259.21875
G0 F6000 X102.836 Y60.41
G1 F1200 X131.832 Y89.406 E260.32349
G0 F6000 X131.832 Y88.84
G1 F1200 X103.402 Y60.41 E261.40667
G0 F6000 X103.968 Y60.41
G1 F1200 X131.832 Y88.275 E262.46831
G0 F6000 X131.832 Y87.709
G1 F1200 X104.533 Y60.41 E263.5084
G0 F6000 X105.099 Y60.41
G1 F1200 X131.832 Y87.143 E264.52692
G0 F6000 X131.832 Y86.578
G1 F1200 X105.665 Y60.41 E265.5239
G0 F6000 X106.23 Y60.41
G1 F1200 X131.832 Y86.012 E266.49934
G0 F6000 X131.832 Y85.446
G1 F1200 X106.796 Y60.41 E267.45321
G0 F6000 X107.362 Y60.41
G1 F1200 X131.832 Y84.881 E268.38553
G0 F6000 X131.832 Y84.315
G1 F1200 X107.927 Y60.41 E269.29631
G0 F6000 X108.493 Y60.41
G1 F1200 X131.832 Y83.749 E270.18552
G0 F6000 X131.832 Y83.184
G1 F1200 X109.059 Y60.41 E271.05319
G0 F6000 X109.624 Y60.41
G1 F1200 X131.832 Y82.618 E271.89931
G0 F6000 X131.832 Y82.052
G1 F1200 X110.19 Y60.41 E272.72387
G0 F6000 X110.756 Y60.41
G1 F1200 X131.832 Y81.486 E273.52687
G0 F6000 X131.832 Y80.921
G1 F1200 X111.321 Y60.41 E274.30833
G0 F6000 X111.887 Y60.41
G1 F1200 X131.832 Y80.355 E275.06824
G0 F6000 X131.832 Y79.789
G1 F1200 X112.453 Y60.41 E275.80657
