;FLAVOR:Marlin
;TIME:1054
;Filament used: 0.368737m
;Layer height: 0.2
;MINX:110.327
;MINY:137.459
;MINZ:0.2
;MAXX:124.673
;MAXY:151.809
;MAXZ:14.2
;Generated with Cura_SteamEngine master
M82 ;absolute extrusion mode
; Ender 3 Custom Start G-code
M140 S75 ; Set Heat Bed temperature
M104 S160 ; start warming extruder to 160
G28 ; Home all axes
G29 ; Auto bed-level (BL-Touch)
G92 E0 ; Reset Extruder
M190 S75 ; Wait for Heat Bed temperature
M104 S210 ; Set Extruder temperature
G1 X0 Y0 Z0.3 F5000.0 ; Move to 0 0
M109 S210 ; Wait for Extruder temperature
G1 X3 Y20 Z0.3 F5000.0 ; Move to start position
; G1 Z2.0 F3000 ; Move Z Axis up little to prevent scratching of Heat Bed
G1 X3 Y200.0 Z0.3 F1500.0 E15 ; Draw the first line
G1 X3.3 Y200.0 Z0.3 F5000.0 ; Move to side a little
G1 X3.3 Y20 Z0.3 F1500.0 E30 ; Draw the second line
G92 E0 ; Reset Extruder
G1 Z2.0 F3000 ; Move Z Axis up little to prevent scratching of Heat Bed
G92 E0
G92 E0
G1 F2700 E-5
;LAYER_COUNT:71
;LAYER:0
M107
M204 S500
M205 X8 Y8
;MESH:pulley_crankshaft.stl
G0 F6000 X112.144 Y142.835 Z0.2
;TYPE:WALL-INNER
G1 F2700 E0
G1 F1200 X112.135 Y142.857 E0.00064
G1 X112.062 Y143.106 E0.00763
G1 X112.03 Y143.211 E0.01059
G1 X111.988 Y143.402 E0.01586
G1 X111.952 Y143.565 E0.02035
G1 X111.925 Y143.735 E0.02499
G1 X111.893 Y143.927 E0.03024
G1 X111.886 Y144.013 E0.03256
G1 X111.861 Y144.292 E0.04011
G1 X111.86 Y144.341 E0.04143
G1 X111.85 Y144.634 E0.04932
G1 X111.859 Y144.931 E0.05733
G1 X111.862 Y145.001 E0.05922
G1 X111.887 Y145.26 E0.06623
G1 X111.899 Y145.384 E0.06958
G1 X111.924 Y145.536 E0.07373
G1 X111.959 Y145.745 E0.07944
G1 X111.983 Y145.849 E0.08232
G1 X112.037 Y146.083 E0.08879
G1 X112.057 Y146.15 E0.09067
G1 X112.137 Y146.415 E0.09813
G1 X112.148 Y146.449 E0.09909
G1 X112.242 Y146.7 E0.10631
G1 X112.272 Y146.778 E0.10856
G1 X112.37 Y146.997 E0.11503
G1 X112.412 Y147.089 E0.11775
G1 X112.493 Y147.246 E0.12251
G1 X112.59 Y147.432 E0.12816
G1 X112.643 Y147.518 E0.13089
G1 X112.781 Y147.741 E0.13795
G1 X112.81 Y147.783 E0.13933
G1 X112.984 Y148.03 E0.14747
G1 X112.991 Y148.039 E0.14777
G1 X113.032 Y148.089 E0.14951
G1 X113.209 Y148.308 E0.1571
G1 X113.227 Y148.33 E0.15787
G1 X113.421 Y148.543 E0.16563
G1 X113.455 Y148.58 E0.16698
G1 X113.622 Y148.741 E0.17323
G1 X113.705 Y148.821 E0.17634
G1 X113.837 Y148.932 E0.18098
G1 X114.003 Y149.072 E0.18683
G1 X114.073 Y149.124 E0.18918
G1 X114.289 Y149.285 E0.19644
G1 X114.351 Y149.324 E0.19841
G1 X114.507 Y149.423 E0.20339
G1 X114.571 Y149.468 E0.2055
G1 X114.603 Y149.485 E0.20648
G1 X114.864 Y149.632 E0.21455
G1 X114.905 Y149.655 E0.21581
G1 X115.144 Y149.766 E0.22291
G1 X115.234 Y149.809 E0.2256
G1 X115.424 Y149.887 E0.23113
G1 X115.551 Y149.939 E0.23483
G1 X115.73 Y149.997 E0.2399
G1 X115.922 Y150.059 E0.24533
G1 X115.998 Y150.078 E0.24744
G1 X116.265 Y150.147 E0.25487
G1 X116.277 Y150.149 E0.2552
G1 X116.597 Y150.211 E0.26398
G1 X116.611 Y150.214 E0.26437
G1 X116.868 Y150.246 E0.27135
G1 X116.973 Y150.259 E0.2742
G1 X116.984 Y150.259 E0.27449
G1 X117.19 Y150.272 E0.28005
G1 X117.324 Y150.281 E0.28367
G1 X117.339 Y150.283 E0.28408
G1 X117.498 Y150.283 E0.28836
G1 X117.686 Y150.282 E0.29343
G1 X117.803 Y150.274 E0.29659
G1 X118.052 Y150.257 E0.30331
G1 X118.118 Y150.249 E0.3051
G1 X118.39 Y150.213 E0.31249
G1 X118.41 Y150.21 E0.31304
G1 X118.689 Y150.156 E0.32069
G1 X118.769 Y150.14 E0.32289
G1 X118.996 Y150.08 E0.32922
G1 X119.124 Y150.046 E0.33279
G1 X119.294 Y149.989 E0.33762
G1 X119.472 Y149.929 E0.34268
G1 X119.559 Y149.894 E0.3452
G1 X119.792 Y149.799 E0.35198
G1 X119.86 Y149.766 E0.35402
G1 X120.131 Y149.634 E0.36214
G1 X120.151 Y149.623 E0.36275
G1 X120.422 Y149.468 E0.37117
G1 X120.455 Y149.449 E0.37219
G1 X120.704 Y149.285 E0.38022
G1 X120.755 Y149.251 E0.38188
G1 X120.935 Y149.117 E0.38792
G1 X121.034 Y149.043 E0.39125
G1 X121.184 Y148.915 E0.39656
G1 X121.314 Y148.804 E0.40117
G1 X121.392 Y148.728 E0.4041
G1 X121.563 Y148.562 E0.41052
G1 X121.617 Y148.501 E0.41272
G1 X121.823 Y148.271 E0.42104
G1 X122.012 Y148.032 E0.42924
G1 X122.048 Y147.987 E0.4308
G1 X122.18 Y147.797 E0.43703
G1 X122.242 Y147.708 E0.43995
G1 X122.338 Y147.548 E0.44498
G1 X122.433 Y147.391 E0.44992
G1 X122.493 Y147.274 E0.45347
G1 X122.6 Y147.066 E0.45977
G1 X122.616 Y147.03 E0.46083
G1 X122.738 Y146.753 E0.46898
G1 X122.746 Y146.73 E0.46964
G1 X122.859 Y146.427 E0.47835
G1 X122.865 Y146.411 E0.47881
G1 X122.946 Y146.138 E0.48648
G1 X122.97 Y146.057 E0.48876
G1 X123.015 Y145.852 E0.49441
G1 X123.048 Y145.703 E0.49852
G1 X123.069 Y145.572 E0.5021
G1 X123.107 Y145.341 E0.50841
G1 X123.112 Y145.283 E0.50997
G1 X123.139 Y144.977 E0.51825
G1 X123.14 Y144.945 E0.51911
G1 X123.15 Y144.634 E0.5275
G1 X123.141 Y144.346 E0.53526
G1 X123.138 Y144.266 E0.53742
G1 X123.112 Y143.998 E0.54467
G1 X123.1 Y143.88 E0.54786
G1 X123.082 Y143.773 E0.55079
G1 X123.04 Y143.528 E0.55748
G1 X123.03 Y143.482 E0.55875
G1 X122.963 Y143.186 E0.56693
G1 X122.957 Y143.164 E0.56754
G1 X122.934 Y143.089 E0.56966
G1 X122.851 Y142.817 E0.57732
G1 X122.732 Y142.501 E0.58642
G1 X122.728 Y142.491 E0.58671
G1 X122.621 Y142.25 E0.59381
G1 X122.588 Y142.177 E0.59597
G1 X122.475 Y141.96 E0.60256
G1 X122.409 Y141.835 E0.60637
G1 X122.338 Y141.72 E0.61001
G1 X122.218 Y141.526 E0.61615
G1 X122.189 Y141.485 E0.61751
G1 X122.009 Y141.229 E0.62594
G1 X121.794 Y140.964 E0.63513
G1 X121.772 Y140.937 E0.63607
G1 X121.594 Y140.742 E0.64318
G1 X121.545 Y140.688 E0.64515
G1 X121.393 Y140.541 E0.65084
G1 X121.295 Y140.447 E0.6545
G1 X121.175 Y140.346 E0.65873
G1 X120.996 Y140.195 E0.66504
G1 X120.916 Y140.136 E0.66771
G1 X120.71 Y139.983 E0.67463
G1 X120.656 Y139.949 E0.67635
G1 X120.442 Y139.812 E0.68319
G1 X120.403 Y139.787 E0.68444
G1 X120.131 Y139.634 E0.69285
G1 X120.097 Y139.615 E0.6939
G1 X119.882 Y139.514 E0.7003
G1 X119.768 Y139.46 E0.7037
G1 X119.581 Y139.384 E0.70913
G1 X119.45 Y139.33 E0.71295
G1 X119.271 Y139.271 E0.71803
G1 X119.103 Y139.215 E0.7228
G1 X118.995 Y139.188 E0.7258
G1 X118.759 Y139.127 E0.73237
G1 X118.747 Y139.123 E0.73271
G1 X118.674 Y139.11 E0.7347
G1 X118.407 Y139.058 E0.74203
G1 X118.386 Y139.054 E0.74261
G1 X118.086 Y139.017 E0.75075
G1 X118.025 Y139.009 E0.75241
G1 X118.014 Y139.009 E0.7527
G1 X117.801 Y138.996 E0.75845
G1 X117.66 Y138.986 E0.76226
G1 X117.499 Y138.986 E0.7666
G1 X117.315 Y138.987 E0.77156
G1 X117.216 Y138.993 E0.77423
G1 X116.951 Y139.011 E0.78138
G1 X116.877 Y139.02 E0.78339
G1 X116.59 Y139.058 E0.79119
G1 X116.278 Y139.118 E0.79975
G1 X116.212 Y139.131 E0.80156
G1 X115.996 Y139.19 E0.8076
G1 X115.856 Y139.229 E0.81151
G1 X115.714 Y139.276 E0.81554
G1 X115.529 Y139.338 E0.8208
G1 X115.402 Y139.39 E0.8245
G1 X115.208 Y139.47 E0.83015
G1 X115.121 Y139.511 E0.83274
G1 X114.864 Y139.635 E0.84043
G1 X114.853 Y139.641 E0.84076
G1 X114.589 Y139.792 E0.84896
G1 X114.535 Y139.823 E0.85064
G1 X114.32 Y139.965 E0.85758
G1 X114.235 Y140.021 E0.86032
G1 X114.099 Y140.124 E0.86492
G1 X113.947 Y140.239 E0.87005
G1 X113.834 Y140.336 E0.87406
G1 X113.675 Y140.474 E0.87973
G1 X113.608 Y140.539 E0.88225
G1 X113.422 Y140.721 E0.88926
G1 X113.41 Y140.734 E0.88974
G1 X113.206 Y140.964 E0.89802
G1 X113.173 Y141.001 E0.89936
G1 X113.02 Y141.194 E0.90599
G1 X112.951 Y141.282 E0.909
G1 X112.804 Y141.496 E0.916
G1 X112.746 Y141.58 E0.91875
G1 X112.671 Y141.707 E0.92272
G1 X112.569 Y141.876 E0.92804
G1 X112.53 Y141.952 E0.93034
G1 X112.4 Y142.201 E0.93791
G1 X112.368 Y142.275 E0.94008
G1 X112.262 Y142.515 E0.94715
G1 X112.144 Y142.835 E0.95634
G0 F6000 X112.515 Y142.983
G1 F1200 X112.418 Y143.311 E0.96555
G1 X112.345 Y143.641 E0.97466
G1 X112.29 Y143.977 E0.98383
G1 X112.26 Y144.316 E0.993
G1 X112.25 Y144.634 E1.00157
G1 X112.261 Y144.975 E1.01076
G1 X112.296 Y145.331 E1.0204
G1 X112.352 Y145.667 E1.02958
G1 X112.424 Y145.98 E1.03823
G1 X112.527 Y146.32 E1.0478
G1 X112.642 Y146.625 E1.05658
G1 X112.772 Y146.915 E1.06514
G1 X112.938 Y147.234 E1.07483
G1 X113.115 Y147.521 E1.08391
G1 X113.31 Y147.798 E1.09304
G1 X113.53 Y148.069 E1.10244
G1 X113.742 Y148.301 E1.11091
G1 X113.973 Y148.524 E1.11956
G1 X114.251 Y148.758 E1.12935
G1 X114.516 Y148.955 E1.13825
G1 X114.728 Y149.09 E1.14502
G1 X114.783 Y149.128 E1.14682
G1 X115.088 Y149.299 E1.15624
G1 X115.395 Y149.443 E1.16537
G1 X115.689 Y149.563 E1.17393
G1 X116.034 Y149.675 E1.1837
G1 X116.353 Y149.757 E1.19258
G1 X116.674 Y149.819 E1.20138
G1 X117.011 Y149.861 E1.21053
G1 X117.351 Y149.883 E1.21971
G1 X117.672 Y149.882 E1.22836
G1 X118.012 Y149.859 E1.23754
G1 X118.346 Y149.815 E1.24662
G1 X118.68 Y149.75 E1.25578
G1 X119.009 Y149.663 E1.26495
G1 X119.332 Y149.554 E1.27414
G1 X119.629 Y149.433 E1.28278
G1 X119.944 Y149.28 E1.29221
G1 X120.246 Y149.108 E1.30157
G1 X120.525 Y148.924 E1.31058
G1 X120.784 Y148.73 E1.31929
G1 X121.045 Y148.508 E1.32853
G1 X121.274 Y148.285 E1.33714
G1 X121.517 Y148.013 E1.34696
G1 X121.727 Y147.748 E1.35607
G1 X121.906 Y147.491 E1.36451
G1 X122.083 Y147.196 E1.37378
G1 X122.239 Y146.894 E1.38294
G1 X122.367 Y146.603 E1.3915
G1 X122.485 Y146.285 E1.40064
G1 X122.582 Y145.957 E1.40985
G1 X122.655 Y145.627 E1.41896
G1 X122.71 Y145.291 E1.42813
G1 X122.74 Y144.953 E1.43727
G1 X122.75 Y144.634 E1.44587
G1 X122.739 Y144.292 E1.45509
G1 X122.703 Y143.934 E1.46478
G1 X122.647 Y143.605 E1.47377
G1 X122.576 Y143.288 E1.48253
G1 X122.472 Y142.946 E1.49216
G1 X122.358 Y142.643 E1.50088
G1 X122.228 Y142.352 E1.50946
G1 X122.061 Y142.033 E1.51916
G1 X121.884 Y141.746 E1.52825
G1 X121.69 Y141.47 E1.53734
G1 X121.469 Y141.198 E1.54678
G1 X121.258 Y140.967 E1.55521
G1 X121.027 Y140.744 E1.56386
G1 X120.748 Y140.509 E1.57369
G1 X120.483 Y140.313 E1.58257
G1 X120.197 Y140.13 E1.59171
G1 X119.913 Y139.971 E1.60048
G1 X119.607 Y139.826 E1.6096
G1 X119.311 Y139.705 E1.61822
G1 X118.99 Y139.599 E1.62733
G1 X118.659 Y139.513 E1.63654
G1 X118.324 Y139.449 E1.64573
G1 X117.988 Y139.407 E1.65485
G1 X117.648 Y139.386 E1.66403
G1 X117.329 Y139.387 E1.67262
G1 X116.99 Y139.409 E1.68177
G1 X116.654 Y139.453 E1.6909
G1 X116.303 Y139.521 E1.70054
G1 X115.972 Y139.612 E1.70978
G1 X115.668 Y139.713 E1.71841
G1 X115.371 Y139.835 E1.72706
G1 X115.04 Y139.995 E1.73697
G1 X114.745 Y140.164 E1.74613
G1 X114.466 Y140.348 E1.75513
G1 X114.199 Y140.55 E1.76415
G1 X113.946 Y140.769 E1.77317
G1 X113.711 Y140.998 E1.78201
G1 X113.479 Y141.258 E1.79139
G1 X113.273 Y141.519 E1.80035
G1 X113.083 Y141.796 E1.8094
G1 X112.918 Y142.071 E1.81804
G1 X112.761 Y142.374 E1.82724
G1 X112.633 Y142.665 E1.8358
G1 X112.515 Y142.983 E1.84494
G0 F6000 X112.895 Y143.109
;TYPE:WALL-OUTER
G1 F1200 X112.806 Y143.411 E1.85342
G1 X112.738 Y143.717 E1.86186
G1 X112.687 Y144.027 E1.87033
G1 X112.659 Y144.34 E1.87879
G1 X112.65 Y144.634 E1.88672
G1 X112.66 Y144.949 E1.89521
G1 X112.693 Y145.278 E1.90412
G1 X112.745 Y145.589 E1.91261
G1 X112.811 Y145.877 E1.92057
G1 X112.906 Y146.192 E1.92944
G1 X113.012 Y146.473 E1.93753
G1 X113.132 Y146.741 E1.94544
G1 X113.286 Y147.036 E1.9544
G1 X113.449 Y147.301 E1.96279
G1 X113.629 Y147.557 E1.97122
G1 X113.833 Y147.808 E1.97993
G1 X114.029 Y148.022 E1.98775
G1 X114.241 Y148.227 E1.99569
G1 X114.499 Y148.444 E2.00478
G1 X114.743 Y148.625 E2.01296
G1 X114.956 Y148.761 E2.01977
G1 X114.995 Y148.788 E2.02105
G1 X115.271 Y148.943 E2.02957
G1 X115.555 Y149.076 E2.03802
G1 X115.827 Y149.187 E2.04594
G1 X116.146 Y149.291 E2.05498
G1 X116.441 Y149.367 E2.06318
G1 X116.737 Y149.424 E2.0713
G1 X117.049 Y149.463 E2.07978
G1 X117.363 Y149.483 E2.08825
G1 X117.658 Y149.482 E2.0962
G1 X117.972 Y149.461 E2.10468
G1 X118.282 Y149.42 E2.1131
G1 X118.591 Y149.36 E2.12158
G1 X118.894 Y149.28 E2.13003
G1 X119.193 Y149.179 E2.13853
G1 X119.466 Y149.068 E2.14647
G1 X119.757 Y148.926 E2.15519
G1 X120.037 Y148.767 E2.16387
G1 X120.295 Y148.597 E2.17219
G1 X120.534 Y148.418 E2.18023
G1 X120.775 Y148.212 E2.18878
G1 X120.985 Y148.008 E2.19666
G1 X121.211 Y147.755 E2.2058
G1 X121.406 Y147.509 E2.21426
G1 X121.57 Y147.273 E2.222
G1 X121.734 Y147.001 E2.23056
G1 X121.878 Y146.722 E2.23902
G1 X121.996 Y146.453 E2.24693
G1 X122.105 Y146.159 E2.25538
G1 X122.194 Y145.857 E2.26386
G1 X122.262 Y145.551 E2.27231
G1 X122.313 Y145.241 E2.28077
G1 X122.341 Y144.929 E2.28921
G1 X122.35 Y144.634 E2.29716
G1 X122.34 Y144.319 E2.30565
G1 X122.306 Y143.988 E2.31461
G1 X122.254 Y143.682 E2.32298
G1 X122.189 Y143.39 E2.33104
G1 X122.093 Y143.075 E2.33991
G1 X121.988 Y142.795 E2.34796
G1 X121.868 Y142.527 E2.35587
G1 X121.713 Y142.231 E2.36488
G1 X121.55 Y141.966 E2.37326
G1 X121.371 Y141.711 E2.38165
G1 X121.166 Y141.459 E2.3904
G1 X120.971 Y141.246 E2.39818
G1 X120.759 Y141.041 E2.40613
G1 X120.5 Y140.823 E2.41525
G1 X120.256 Y140.642 E2.42343
G1 X119.992 Y140.473 E2.43188
G1 X119.73 Y140.327 E2.43996
G1 X119.446 Y140.192 E2.44843
G1 X119.173 Y140.081 E2.45637
G1 X118.876 Y139.983 E2.4648
G1 X118.571 Y139.903 E2.47329
G1 X118.262 Y139.844 E2.48177
G1 X117.951 Y139.805 E2.49021
G1 X117.637 Y139.786 E2.49868
G1 X117.342 Y139.787 E2.50663
G1 X117.029 Y139.807 E2.51508
G1 X116.718 Y139.848 E2.52353
G1 X116.394 Y139.911 E2.53242
G1 X116.088 Y139.995 E2.54097
G1 X115.807 Y140.088 E2.54895
G1 X115.534 Y140.2 E2.5569
G1 X115.227 Y140.349 E2.56609
G1 X114.955 Y140.505 E2.57454
G1 X114.697 Y140.675 E2.58286
G1 X114.451 Y140.861 E2.59117
G1 X114.217 Y141.064 E2.59952
G1 X114 Y141.275 E2.60767
G1 X113.785 Y141.516 E2.61637
G1 X113.595 Y141.756 E2.62462
G1 X113.42 Y142.012 E2.63297
G1 X113.267 Y142.266 E2.64096
G1 X113.122 Y142.546 E2.64946
G1 X113.004 Y142.815 E2.65737
G1 X112.895 Y143.109 E2.66582
G0 F6000 X112.478 Y142.971
G0 X112.048 Y142.8
;TYPE:WALL-INNER
G1 F1200 X112.167 Y142.486 E2.6681
G1 X112.274 Y142.235 E2.67015
G1 X112.312 Y142.158 E2.67077
G1 X112.439 Y141.905 E2.6727
G1 X112.483 Y141.827 E2.67296
G1 X112.583 Y141.655 E2.67431
G1 X112.663 Y141.528 E2.67535
G1 X112.719 Y141.439 E2.67588
G1 X112.872 Y141.226 E2.67766
G1 X112.94 Y141.132 E2.67845
G1 X113.097 Y140.94 E2.68012
G1 X113.131 Y140.898
G1 X113.336 Y140.669 E2.68218
G1 X113.353 Y140.652
G1 X113.538 Y140.468 E2.68389
G1 X113.61 Y140.403 E2.68457
G1 X113.768 Y140.261 E2.68599
G1 X113.887 Y140.165 E2.68702
G1 X114.038 Y140.044 E2.68832
G1 X114.179 Y139.943 E2.68949
G1 X114.264 Y139.882 E2.68998
G1 X114.483 Y139.742 E2.69171
G1 X114.539 Y139.706
G1 X114.805 Y139.556 E2.69374
G1 X114.821 Y139.547
G1 X115.077 Y139.42 E2.69564
G1 X115.169 Y139.381 E2.69633
G1 X115.363 Y139.296 E2.69775
G1 X115.495 Y139.248 E2.69872
G1 X115.681 Y139.18 E2.70006
G1 X115.827 Y139.136 E2.7011
G1 X115.968 Y139.092 E2.7021
G1 X116.188 Y139.038 E2.70363
G1 X116.259 Y139.02
G1 X116.579 Y138.959 E2.70587
G1 X116.863 Y138.92 E2.70774
G1 X116.943 Y138.914 E2.70834
G1 X117.209 Y138.893 E2.71011
G1 X117.311 Y138.89 E2.71082
G1 X117.498 Y138.884 E2.71211
G1 X117.663 Y138.889 E2.71326
G1 X117.807 Y138.894 E2.71425
G1 X118.032 Y138.911 E2.7159
G1 X118.098 Y138.917
G1 X118.398 Y138.956 E2.71792
G1 X118.425 Y138.96
G1 X118.693 Y139.009 E2.71977
G1 X118.77 Y139.027 E2.72035
G1 X119.02 Y139.089 E2.72224
G1 X119.13 Y139.122 E2.72303
G1 X119.302 Y139.174 E2.72424
G1 X119.482 Y139.238 E2.72555
G1 X119.619 Y139.288 E2.72657
G1 X119.807 Y139.369 E2.72798
G1 X119.925 Y139.421 E2.72887
G1 X120.14 Y139.527 E2.73049
G1 X120.179 Y139.547
G1 X120.451 Y139.701 E2.73258
G1 X120.496 Y139.727
G1 X120.71 Y139.863 E2.73429
G1 X120.767 Y139.904
G1 X120.975 Y140.055 E2.73601
G1 X121.056 Y140.12 E2.73673
G1 X121.24 Y140.268 E2.73832
G1 X121.359 Y140.375 E2.73942
G1 X121.462 Y140.468 E2.74036
G1 X121.613 Y140.618 E2.74178
G1 X121.668 Y140.673
G1 X121.845 Y140.87 E2.74358
G1 X121.872 Y140.9
G1 X122.086 Y141.168 E2.74588
G1 X122.271 Y141.426 E2.7481
G1 X122.3 Y141.472 E2.74851
G1 X122.425 Y141.666 E2.75009
G1 X122.493 Y141.787 E2.75104
G1 X122.564 Y141.913 E2.75203
G1 X122.674 Y142.133 E2.75366
G1 X122.712 Y142.209
G1 X122.818 Y142.45 E2.75542
G1 X122.825 Y142.465
G1 X122.941 Y142.776 E2.75763
G1 X122.944 Y142.787
G1 X123.029 Y143.06 E2.75952
G1 X123.05 Y143.135 E2.76001
G1 X123.056 Y143.163 E2.76025
G1 X123.128 Y143.459 E2.76226
G1 X123.137 Y143.51 E2.76265
G1 X123.182 Y143.755 E2.76433
G1 X123.196 Y143.867 E2.76511
