;FLAVOR:Marlin
;TIME:498
;Filament used: 0.187998m
;Layer height: 0.2
;MINX:73.746
;MINY:102.951
;MINZ:0.2
;MAXX:85.041
;MAXY:132.048
;MAXZ:10.6
;Generated with Cura_SteamEngine master
M82 ;absolute extrusion mode
; Ender 3 Custom Start G-code
M140 S75 ; Set Heat Bed temperature
M104 S160 ; start warming extruder to 160
G28 ; Home all axes
G29 ; Auto bed-level (BL-Touch)
G92 E0 ; Reset Extruder
M190 S75 ; Wait for Heat Bed temperature
M104 S210 ; Set Extruder temperature
G1 X0 Y0 Z0.3 F5000.0 ; Move to 0 0
M109 S210 ; Wait for Extruder temperature
G1 X3 Y20 Z0.3 F5000.0 ; Move to start position
; G1 Z2.0 F3000 ; Move Z Axis up little to prevent scratching of Heat Bed
G1 X3 Y200.0 Z0.3 F1500.0 E15 ; Draw the first line
G1 X3.3 Y200.0 Z0.3 F5000.0 ; Move to side a little
G1 X3.3 Y20 Z0.3 F1500.0 E30 ; Draw the second line
G92 E0 ; Reset Extruder
G1 Z2.0 F3000 ; Move Z Axis up little to prevent scratching of Heat Bed
G92 E0
G92 E0
G1 F2700 E-5
;LAYER_COUNT:53
;LAYER:0
M107
M204 S500
M205 X8 Y8
;MESH:valve_intake.stl
G0 F6000 X77.394 Y129.151 Z0.2
;TYPE:WALL-INNER
G1 F2700 E0
G1 F1200 X81.394 Y129.151 E0.10776
G1 X81.394 Y124.051 E0.24516
G1 X77.394 Y124.051 E0.35292
G1 X77.394 Y129.151 E0.49032
G0 F6000 X77.794 Y128.751
;TYPE:WALL-OUTER
G1 F1200 X80.994 Y128.751 E0.57653
G1 X80.994 Y124.451 E0.69238
G1 X77.794 Y124.451 E0.77859
G1 X77.794 Y128.751 E0.89443
G0 F6000 X77.294 Y128.751
G0 X77.366 Y124.023
G0 X77.925 Y123.251
;TYPE:WALL-INNER
G1 F1200 X77.925 Y113.102 E1.16785
G1 X76.885 Y113.101 E1.19587
G1 X76.885 Y104.401 E1.43026
G1 X81.902 Y104.401 E1.56542
G1 X81.902 Y112.896 E1.79428
G1 X81.902 Y113.097 E1.79969
G1 X81.701 Y113.095 E1.80319
G1 X81.062 Y113.088 E1.82041
G1 X81.061 Y113.087 E1.82044
G1 X80.861 Y113.087 E1.82583
G1 X80.861 Y113.287 E1.82932
G1 X80.861 Y113.288 E1.82935
G1 X80.861 Y123.251 E2.09776
G1 X77.925 Y123.251 E2.17686
G0 F6000 X77.525 Y123.651
G1 F1200 X77.525 Y113.502 E2.45028
G1 X76.485 Y113.501 E2.4783
G1 X76.485 Y104.001 E2.73423
G1 X82.302 Y104.001 E2.89095
G1 X82.302 Y113.3 E3.14147
G1 X82.302 Y113.501 E3.14688
G1 X82.101 Y113.499 E3.15038
G1 X81.462 Y113.492 E3.16759
G1 X81.461 Y113.491 E3.16763
G1 X81.261 Y113.491 E3.17302
G1 X81.261 Y113.691 E3.17651
G1 X81.261 Y113.692 E3.17654
G1 X81.261 Y123.651 E3.44484
G1 X77.525 Y123.651 E3.54549
G0 F6000 X77.366 Y124.023
G0 X77.366 Y129.179
G0 X77.925 Y130.465
G1 F1200 X77.925 Y130.266 E3.55085
G1 X77.925 Y129.951 E3.55934
G1 X80.861 Y129.951 E3.63844
G1 X80.861 Y130.464 E3.65226
G1 X78.124 Y130.465 E3.72599
G1 X77.925 Y130.465 E3.72946
G0 F6000 X77.525 Y130.865
G1 F1200 X77.525 Y130.666 E3.73482
G1 X77.525 Y129.551 E3.76486
G1 X81.261 Y129.551 E3.86551
G1 X81.261 Y130.864 E3.90088
G1 X77.724 Y130.865 E3.99617
G1 X77.525 Y130.865 E3.99964
G0 F6000 X77.125 Y131.265
G1 F1200 X77.125 Y131.066 E4.005
G1 X77.125 Y129.151 E4.0566
G1 X77.125 Y124.051 E4.14923
G1 X77.125 Y113.902 E4.42265
G1 X76.085 Y113.901 E4.45067
G1 X76.085 Y103.601 E4.72816
G1 X82.702 Y103.601 E4.90642
G1 X82.702 Y113.862 E5.18286
G1 X82.702 Y113.901 E5.18391
G1 X82.382 Y113.902 E5.19253
G1 X82.343 Y113.902 E5.19358
G1 X81.862 Y113.897 E5.20654
G1 X81.661 Y113.895 E5.21196
G1 X81.661 Y114.096 E5.21545
G1 X81.661 Y124.051 E5.48365
G1 X81.661 Y129.151 E5.57559
G1 X81.661 Y131.264 E5.63252
G1 X77.324 Y131.265 E5.74936
G1 X77.125 Y131.265 E5.75283
G0 F6000 X76.725 Y131.665
;TYPE:WALL-OUTER
G1 F1200 X76.725 Y114.302 E6.2206
G1 X75.685 Y114.301 E6.24862
G1 X75.685 Y103.201 E6.54766
G1 X83.102 Y103.201 E6.74748
G1 X83.102 Y114.3 E7.04649
G1 X82.379 Y114.302 E7.06597
G1 X82.061 Y114.299 E7.07454
G1 X82.061 Y131.664 E7.54236
G1 X76.725 Y131.665 E7.68612
G0 F6000 X77.195 Y131.195
G0 X78.26 Y130.303
;TYPE:SKIN
G1 F1200 X78.084 Y130.127 E7.69283
G0 F6000 X78.633 Y130.11
G1 F1200 X78.826 Y130.303 E7.70018
G0 F6000 X79.198 Y130.11
G1 F1200 X79.391 Y130.303 E7.70753
G0 F6000 X79.764 Y130.11
G1 F1200 X79.957 Y130.303 E7.71489
G0 F6000 X80.33 Y130.11
G1 F1200 X80.523 Y130.303 E7.72224
G0 F6000 X81.422 Y129.179
G0 X81.422 Y124.023
G0 X80.471 Y122.861
G1 F1200 X78.315 Y122.861 E7.78032
G1 X78.315 Y112.712 E8.05374
G1 X77.275 Y112.711 E8.08176
G1 X77.275 Y104.791 E8.29513
G1 X81.512 Y104.791 E8.40928
G1 X81.512 Y112.703 E8.62244
G1 X80.471 Y112.693 E8.65048
G1 X80.471 Y122.861 E8.92442
G0 F6000 X78.576 Y122.699
G1 F1200 X78.474 Y122.598 E8.92828
G0 F6000 X78.474 Y122.032
G1 F1200 X79.142 Y122.699 E8.95371
G0 F6000 X79.707 Y122.699
G1 F1200 X78.474 Y121.466 E9.00069
G0 F6000 X78.474 Y120.901
G1 F1200 X80.273 Y122.699 E9.06921
G0 F6000 X80.311 Y122.171
G1 F1200 X78.474 Y120.335 E9.13918
G0 F6000 X78.474 Y119.769
G1 F1200 X80.311 Y121.606 E9.20917
G0 F6000 X80.311 Y121.04
G1 F1200 X78.474 Y119.204 E9.27914
G0 F6000 X78.474 Y118.638
G1 F1200 X80.311 Y120.474 E9.34912
G0 F6000 X80.311 Y119.909
G1 F1200 X78.474 Y118.072 E9.4191
G0 F6000 X78.474 Y117.507
G1 F1200 X80.311 Y119.343 E9.48908
G0 F6000 X80.311 Y118.777
G1 F1200 X78.474 Y116.941 E9.55905
G0 F6000 X78.474 Y116.375
G1 F1200 X80.311 Y118.211 E9.62902
G0 F6000 X80.311 Y117.646
G1 F1200 X78.474 Y115.809 E9.69901
G0 F6000 X78.474 Y115.244
G1 F1200 X80.311 Y117.08 E9.76898
G0 F6000 X80.311 Y116.514
G1 F1200 X78.474 Y114.678 E9.83895
G0 F6000 X78.474 Y114.112
G1 F1200 X80.311 Y115.949 E9.90894
G0 F6000 X80.311 Y115.383
G1 F1200 X78.474 Y113.547 E9.97891
G0 F6000 X78.474 Y112.981
G1 F1200 X80.311 Y114.817 E10.04888
G0 F6000 X80.311 Y114.252
G1 F1200 X77.435 Y111.376 E10.15845
G0 F6000 X77.435 Y110.81
G1 F1200 X80.311 Y113.686 E10.26803
G0 F6000 X80.311 Y113.12
G1 F1200 X77.435 Y110.245 E10.37758
G0 F6000 X77.435 Y109.679
G1 F1200 X80.311 Y112.555 E10.48716
G0 F6000 X80.856 Y112.534
G1 F1200 X77.435 Y109.113 E10.6175
G0 F6000 X77.435 Y108.547
G1 F1200 X81.352 Y112.465 E10.76676
G0 F6000 X81.352 Y111.899
G1 F1200 X77.435 Y107.982 E10.91599
G0 F6000 X77.435 Y107.416
G1 F1200 X81.352 Y111.333 E11.06523
G0 F6000 X81.352 Y110.768
G1 F1200 X77.435 Y106.85 E11.21449
G0 F6000 X77.435 Y106.285
G1 F1200 X81.352 Y110.202 E11.36372
G0 F6000 X81.352 Y109.636
G1 F1200 X77.435 Y105.719 E11.51296
G0 F6000 X77.435 Y105.153
G1 F1200 X81.352 Y109.071 E11.66222
G0 F6000 X81.352 Y108.505
G1 F1200 X77.798 Y104.95 E11.79764
G0 F6000 X78.363 Y104.95
G1 F1200 X81.352 Y107.939 E11.91153
G0 F6000 X81.352 Y107.374
G1 F1200 X78.929 Y104.95 E12.00386
G0 F6000 X79.495 Y104.95
G1 F1200 X81.352 Y106.808 E12.07463
G0 F6000 X81.352 Y106.242
G1 F1200 X80.06 Y104.95 E12.12386
G0 F6000 X80.626 Y104.95
G1 F1200 X81.352 Y105.677 E12.15154
G0 F6000 X81.352 Y105.111
G1 F1200 X81.192 Y104.95 E12.15765
G0 F6000 X77.435 Y111.942
M104 S210
G1 F1200 X78.044 Y112.55 E12.18083
;MESH:NONMESH
G0 F300 X78.044 Y112.55 Z0.4
G0 F6000 X77.366 Y124.023
G0 X77.294 Y128.951
G0 X77.594 Y128.951
;TIME_ELAPSED:33.437114
;LAYER:1
M140 S70
M106 S85
;TYPE:WALL-INNER
;MESH:valve_intake.stl
G1 F1350 X81.194 Y128.951 E12.2886
G1 X81.194 Y124.251 E12.42929
G1 X77.594 Y124.251 E12.53705
G1 X77.594 Y128.951 E12.67774
G0 F7500 X77.994 Y128.551
;TYPE:WALL-OUTER
G1 F1350 X80.794 Y128.551 E12.76156
G1 X80.794 Y124.651 E12.8783
G1 X77.994 Y124.651 E12.96212
G1 X77.994 Y128.551 E13.07886
G0 F7500 X77.494 Y128.551
G0 X77.566 Y124.223
G0 X77.725 Y123.451
;TYPE:WALL-INNER
G1 F1350 X77.725 Y113.305 E13.38257
G1 X76.802 Y113.303 E13.4102
G1 X76.802 Y104.201 E13.68266
G1 X81.985 Y104.201 E13.83781
G1 X81.986 Y113.1 E14.10419
G1 X81.986 Y113.299 E14.11015
G1 X81.787 Y113.299 E14.114
G1 X81.261 Y113.297 E14.12975
G1 X81.061 Y113.297 E14.13573
G1 X81.061 Y113.497 E14.13961
G1 X81.061 Y123.451 E14.43758
G1 X77.725 Y123.451 E14.53744
G0 F7500 X77.325 Y123.851
G1 F1350 X77.325 Y113.704 E14.84118
G1 X76.402 Y113.702 E14.86881
G1 X76.402 Y103.801 E15.16518
G1 X82.385 Y103.801 E15.34428
G1 X82.386 Y113.5 E15.63461
G1 X82.386 Y113.7 E15.6406
G1 X82.186 Y113.7 E15.64447
G1 X81.66 Y113.698 E15.66022
G1 X81.461 Y113.698 E15.66618
G1 X81.461 Y113.897 E15.67003
G1 X81.461 Y123.851 E15.968
G1 X77.325 Y123.851 E16.0918
G0 F7500 X77.519 Y128.004
G0 X77.725 Y130.629
G1 F1350 X77.725 Y130.43 E16.09776
G1 X77.725 Y129.751 E16.11809
G1 X81.061 Y129.751 E16.21795
G1 X81.061 Y130.628 E16.2442
G1 X77.924 Y130.629 E16.3381
G1 X77.725 Y130.629 E16.34195
G0 F7500 X77.325 Y131.029
G1 F1350 X77.325 Y130.83 E16.34791
G1 X77.325 Y129.351 E16.39218
G1 X81.461 Y129.351 E16.51599
G1 X81.461 Y131.028 E16.56619
G1 X77.524 Y131.029 E16.68404
G1 X77.325 Y131.029 E16.6879
G0 F7500 X76.925 Y131.429
G1 F1350 X76.925 Y131.23 E16.69385
G1 X76.925 Y114.103 E17.20653
G1 X76.002 Y114.101 E17.23416
G1 X76.002 Y103.401 E17.55446
G1 X82.785 Y103.401 E17.7575
G1 X82.786 Y113.901 E18.07181
G1 X82.786 Y114.101 E18.0778
G1 X82.586 Y114.101 E18.08167
G1 X82.06 Y114.099 E18.09742
G1 X81.861 Y114.099 E18.10338
G1 X81.861 Y114.298 E18.10723
G1 X81.861 Y131.428 E18.62
G1 X77.124 Y131.429 E18.7618
G1 X76.925 Y131.429 E18.76565
G0 F7500 X76.525 Y131.829
;TYPE:WALL-OUTER
G1 F1350 X76.525 Y114.502 E19.28432
G1 X75.814 Y114.501 E19.30561
G1 X75.602 Y114.352 E19.31336
G1 X75.602 Y103.001 E19.65314
G1 X83.185 Y103.001 E19.88013
G1 X83.186 Y114.351 E20.21989
G1 X82.974 Y114.501 E20.22766
G1 X82.261 Y114.5 E20.249
G1 X82.261 Y131.828 E20.7677
G1 X76.525 Y131.829 E20.9394
G0 F7500 X76.995 Y131.359
G0 X78.115 Y130.239
;TYPE:SKIN
G1 F1350 X78.115 Y130.141 E20.94234
G1 X80.671 Y130.141 E21.01885
G1 X80.671 Y130.238 E21.02175
G1 X78.115 Y130.239 E21.09826
G0 F7500 X77.566 Y128.979
G0 X77.566 Y124.223
G0 X78.115 Y123.061
G1 F1350 X78.115 Y112.915 E21.40198
G1 X77.192 Y112.913 E21.42961
G1 X77.192 Y104.591 E21.67872
G1 X81.595 Y104.591 E21.81052
G1 X81.596 Y112.909 E22.05951
G1 X80.671 Y112.907 E22.0872
G1 X80.671 Y123.061 E22.39115
G1 X78.115 Y123.061 E22.46766
G0 F7500 X80.18 Y122.9
G1 F1350 X80.511 Y122.569 E22.48167
G0 F7500 X80.511 Y122.004
G1 F1350 X79.614 Y122.9 E22.51963
G0 F7500 X79.048 Y122.9
G1 F1350 X80.511 Y121.438 E22.58154
G0 F7500 X80.511 Y120.872
G1 F1350 X78.483 Y122.9 E22.66739
G0 F7500 X78.274 Y122.543
G1 F1350 X80.511 Y120.307 E22.76207
G0 F7500 X80.511 Y119.741
G1 F1350 X78.274 Y121.978 E22.85677
G0 F7500 X78.274 Y121.412
G1 F1350 X80.511 Y119.175 E22.95147
G0 F7500 X80.511 Y118.61
G1 F1350 X78.274 Y120.846 E23.04615
G0 F7500 X78.274 Y120.28
G1 F1350 X80.511 Y118.044 E23.14082
G0 F7500 X80.511 Y117.478
G1 F1350 X78.274 Y119.715 E23.23552
G0 F7500 X78.274 Y119.149
G1 F1350 X80.511 Y116.913 E23.3302
G0 F7500 X80.511 Y116.347
G1 F1350 X78.274 Y118.583 E23.42488
G0 F7500 X78.274 Y118.018
G1 F1350 X80.511 Y115.781 E23.51958
G0 F7500 X80.511 Y115.215
G1 F1350 X78.274 Y117.452 E23.61428
G0 F7500 X78.274 Y116.886
G1 F1350 X80.511 Y114.65 E23.70896
G0 F7500 X80.511 Y114.084
G1 F1350 X78.274 Y116.321 E23.80366
G0 F7500 X78.274 Y115.755
G1 F1350 X80.511 Y113.518 E23.89836
G0 F7500 X80.511 Y112.953
G1 F1350 X78.274 Y115.189 E23.99303
G0 F7500 X78.274 Y114.624
G1 F1350 X81.435 Y111.463 E24.12685
G0 F7500 X81.435 Y110.897
G1 F1350 X78.274 Y114.058 E24.26066
G0 F7500 X78.274 Y113.492
G1 F1350 X81.435 Y110.331 E24.39448
G0 F7500 X81.435 Y109.766
G1 F1350 X78.274 Y112.927 E24.5283
G0 F7500 X77.882 Y112.753
G1 F1350 X81.435 Y109.2 E24.67871
G0 F7500 X81.435 Y108.634
G1 F1350 X77.351 Y112.718 E24.85159
G0 F7500 X77.351 Y112.152
G1 F1350 X81.435 Y108.069 E25.02446
G0 F7500 X81.435 Y107.503
G1 F1350 X77.351 Y111.587 E25.19735
G0 F7500 X77.351 Y111.021
G1 F1350 X81.435 Y106.937 E25.37024
G0 F7500 X81.435 Y106.372
G1 F1350 X77.351 Y110.455 E25.54311
G0 F7500 X77.351 Y109.89
G1 F1350 X81.435 Y105.806 E25.716
G0 F7500 X81.435 Y105.24
G1 F1350 X77.351 Y109.324 E25.88889
G0 F7500 X77.351 Y108.758
G1 F1350 X81.36 Y104.75 E26.05858
G0 F7500 X80.794 Y104.75
G1 F1350 X77.351 Y108.192 E26.20431
G0 F7500 X77.351 Y107.627
G1 F1350 X80.229 Y104.75 E26.32612
G0 F7500 X79.663 Y104.75
G1 F1350 X77.351 Y107.061 E26.42398
G0 F7500 X77.351 Y106.495
G1 F1350 X79.097 Y104.75 E26.49787
G0 F7500 X78.531 Y104.75
G1 F1350 X77.351 Y105.93 E26.54782
G0 F7500 X77.351 Y105.364
G1 F1350 X77.966 Y104.75 E26.57384
G0 F7500 X81.435 Y112.029
G1 F1350 X80.716 Y112.747 E26.60425
G0 F7500 X81.281 Y112.748
G1 F1350 X81.435 Y112.594 E26.61077
G0 F7500 X81.616 Y124.01
G0 X81.492 Y124.133
;TYPE:SKIN
G1 F1350 X81.526 Y124.381 E26.61706
G1 X81.526 Y128.907 E26.73077
G1 X81.606 Y129.111 E26.73627
G0 F7500 X81.527 Y129.19
G0 X77.419 Y129.056
G0 X77.351 Y129.123
G1 F1350 X77.259 Y128.932 E26.74149
G1 X77.259 Y124.406 E26.85301
G1 X77.236 Y124.146 E26.85944
G0 F7500 X77.194 Y124.283
;MESH:NONMESH
G0 F300 X77.194 Y124.283 Z0.6
G0 F7500 X77.494 Y128.751
G0 X77.644 Y128.751
;TIME_ELAPSED:62.127513
;LAYER:2
M106 S170
;TYPE:WALL-INNER
;MESH:valve_intake.stl
G1 F1500 X81.144 Y128.751 E26.96421
G1 X81.144 Y124.301 E27.09741
G1 X77.644 Y124.301 E27.20218
G1 X77.644 Y128.751 E27.33539
G0 F9000 X78.044 Y128.351
;TYPE:WALL-OUTER
G1 F1500 X80.744 Y128.351 E27.41621
G1 X80.744 Y124.701 E27.52547
G1 X78.044 Y124.701 E27.60629
G1 X78.044 Y128.351 E27.71555
G0 F9000 X77.544 Y128.351
G0 X77.601 Y125.048
G0 X77.676 Y123.501
;TYPE:WALL-INNER
G1 F1500 X77.676 Y113.351 E28.01938
G1 X77.125 Y113.351 E28.03588
G1 X76.926 Y113.351 E28.04183
G1 X76.926 Y113.152 E28.04569
G1 X76.931 Y104.69 E28.29899
G1 X76.929 Y104.351 E28.30914
G1 X76.929 Y104.151 E28.31513
G1 X77.129 Y104.151 E28.319
G1 X81.861 Y104.151 E28.46065
G1 X81.862 Y113.152 E28.73009
G1 X81.862 Y113.351 E28.73604
G1 X81.663 Y113.351 E28.7399
G1 X81.111 Y113.351 E28.75642
G1 X81.111 Y123.501 E29.06025
G1 X77.676 Y123.501 E29.16308
G0 F9000 X77.276 Y123.901
G1 F1500 X77.276 Y113.751 E29.46691
G1 X76.725 Y113.751 E29.4834
G1 X76.526 Y113.751 E29.48936
G1 X76.526 Y113.552 E29.49321
G1 X76.531 Y104.691 E29.75846
G1 X76.527 Y103.951 E29.78061
G1 X76.527 Y103.751 E29.7866
G1 X76.727 Y103.751 E29.79047
G1 X82.261 Y103.751 E29.95613
G1 X82.262 Y113.552 E30.24951
G1 X82.262 Y113.751 E30.25547
G1 X82.063 Y113.751 E30.25932
G1 X81.511 Y113.751 E30.27585
G1 X81.511 Y123.901 E30.57968
G1 X77.276 Y123.901 E30.70645
G0 F9000 X77.676 Y130.74
G1 F1500 X77.676 Y130.541 E30.71241
G1 X77.676 Y129.551 E30.74204
G1 X81.111 Y129.551 E30.84487
G1 X81.111 Y130.739 E30.88043
G1 X77.875 Y130.74 E30.97729
G1 X77.676 Y130.74 E30.98115
G0 F9000 X77.276 Y131.14
G1 F1500 X77.276 Y130.941 E30.98711
G1 X77.276 Y129.151 E31.04069
G1 X81.511 Y129.151 E31.16746
G1 X81.511 Y131.139 E31.22697
G1 X77.475 Y131.14 E31.34778
G1 X77.276 Y131.14 E31.35164
G0 F9000 X76.876 Y131.54
G1 F1500 X76.876 Y131.341 E31.35759
G1 X76.876 Y114.151 E31.87216
G1 X76.358 Y114.151 E31.88767
G1 X76.211 Y114.151 E31.89207
G1 X76.126 Y114.091 E31.89518
G1 X76.126 Y113.944 E31.89958
G1 X76.131 Y104.692 E32.17653
G1 X76.126 Y103.551 E32.21069
G1 X76.126 Y103.351 E32.21667
G1 X76.326 Y103.351 E32.22055
G1 X82.661 Y103.351 E32.41018
G1 X82.662 Y113.944 E32.72727
G1 X82.662 Y114.09 E32.73165
G1 X82.575 Y114.151 E32.73483
G1 X82.429 Y114.151 E32.7392
G1 X81.911 Y114.151 E32.7547
G1 X81.911 Y131.539 E33.2752
G1 X77.075 Y131.54 E33.41996
G1 X76.876 Y131.54 E33.42381
G0 F9000 X76.476 Y131.94
;TYPE:WALL-OUTER
G1 F1500 X76.476 Y114.551 E33.94434
G1 X76.085 Y114.551 E33.95604
G1 X75.726 Y114.298 E33.96919
G1 X75.731 Y104.693 E34.25671
G1 X75.726 Y103.692 E34.28667
G1 X75.726 Y102.951 E34.30885
G1 X83.061 Y102.951 E34.52842
G1 X83.062 Y114.297 E34.86805
G1 X82.701 Y114.551 E34.88126
G1 X82.311 Y114.551 E34.89294
G1 X82.311 Y131.939 E35.41343
G1 X76.476 Y131.94 E35.5881
G0 F9000 X76.946 Y131.47
G0 X78.066 Y130.35
;TYPE:SKIN
G1 F1500 X78.066 Y129.941 E35.60034
G1 X80.721 Y129.941 E35.67982
G1 X80.721 Y130.349 E35.69203
G1 X78.066 Y130.35 E35.7715
G0 F9000 X78.623 Y130.1
G1 F1500 X78.711 Y130.188 E35.77523
G0 F9000 X79.188 Y130.1
G1 F1500 X79.277 Y130.188 E35.77898
G0 F9000 X79.754 Y130.1
G1 F1500 X79.842 Y130.188 E35.7827
G0 F9000 X80.32 Y130.1
G1 F1500 X80.407 Y130.188 E35.78641
G0 F9000 X81.172 Y128.779
G0 X81.172 Y124.273
G0 X80.721 Y123.111
G1 F1500 X78.066 Y123.111 E35.86588
G1 X78.066 Y112.961 E36.16971
G1 X77.316 Y112.961 E36.19216
G1 X77.321 Y104.541 E36.44421
G1 X81.471 Y104.541 E36.56843
G1 X81.472 Y112.961 E36.82048
G1 X80.721 Y112.961 E36.84296
