;FLAVOR:Marlin
;TIME:11994
;Filament used: 6.88991m
;Layer height: 0.2
;MINX:32.116
;MINY:57.7
;MINZ:0.2
;MAXX:85.465
;MAXY:178.161
;MAXZ:15.8
;Generated with Cura_SteamEngine master
M82 ;absolute extrusion mode
; Ender 3 Custom Start G-code
M140 S75 ; Set Heat Bed temperature
M104 S160 ; start warming extruder to 160
G28 ; Home all axes
G29 ; Auto bed-level (BL-Touch)
G92 E0 ; Reset Extruder
M190 S75 ; Wait for Heat Bed temperature
M104 S210 ; Set Extruder temperature
G1 X0 Y0 Z0.3 F5000.0 ; Move to 0 0
M109 S210 ; Wait for Extruder temperature
G1 X3 Y20 Z0.3 F5000.0 ; Move to start position
; G1 Z2.0 F3000 ; Move Z Axis up little to prevent scratching of Heat Bed
G1 X3 Y200.0 Z0.3 F1500.0 E15 ; Draw the first line
G1 X3.3 Y200.0 Z0.3 F5000.0 ; Move to side a little
G1 X3.3 Y20 Z0.3 F1500.0 E30 ; Draw the second line
G92 E0 ; Reset Extruder
G1 Z2.0 F3000 ; Move Z Axis up little to prevent scratching of Heat Bed
G92 E0
G92 E0
G1 F2700 E-5
;LAYER_COUNT:79
;LAYER:0
M107
M204 S500
M205 X8 Y8
;MESH:valve_cover_branded_bd.stl
G0 F6000 X61.956 Y92.12 Z0.2
;TYPE:WALL-INNER
G1 F2700 E0
G1 F1200 X61.956 Y91.921 E0.00536
G1 X61.957 Y88.823 E0.08882
G1 X61.975 Y88.668 E0.09303
G1 X62.308 Y88.611 E0.10213
G1 X62.718 Y88.58 E0.11321
G1 X63.021 Y88.568 E0.12138
G1 X63.255 Y88.562 E0.12768
G1 X63.662 Y88.56 E0.13865
G1 X63.957 Y88.568 E0.1466
G1 X64.372 Y88.588 E0.15779
G1 X64.572 Y88.604 E0.1632
G1 X64.874 Y88.64 E0.17139
G1 X64.967 Y88.661 E0.17396
G1 X64.976 Y88.825 E0.17838
G1 X64.976 Y92.12 E0.26715
G1 X62.155 Y92.12 E0.34315
G1 X61.956 Y92.12 E0.34662
G0 F6000 X61.556 Y92.52
G1 F1200 X61.556 Y92.321 E0.35198
G1 X61.557 Y88.803 E0.44676
G1 X61.596 Y88.463 E0.45598
G1 X61.687 Y88.325 E0.46043
G1 X62.034 Y88.243 E0.47004
G1 X62.262 Y88.213 E0.47623
G1 X62.7 Y88.18 E0.48807
G1 X63.005 Y88.168 E0.49629
G1 X63.245 Y88.162 E0.50276
G1 X63.67 Y88.16 E0.51421
G1 X63.976 Y88.168 E0.52246
G1 X64.392 Y88.188 E0.53368
G1 X64.604 Y88.205 E0.53941
G1 X64.944 Y88.246 E0.54863
G1 X65.291 Y88.325 E0.55822
G1 X65.361 Y88.549 E0.56454
G1 X65.365 Y88.639 E0.56697
G1 X65.374 Y88.801 E0.57134
G1 X65.376 Y88.825 E0.57199
G1 X65.376 Y92.52 E0.67154
G1 X61.755 Y92.52 E0.76909
G1 X61.556 Y92.52 E0.77256
G0 F6000 X61.156 Y92.92
G1 F1200 X61.156 Y92.721 E0.77792
G1 X61.157 Y88.784 E0.88398
G1 X61.206 Y88.356 E0.89559
G1 X61.332 Y88.073 E0.90393
G1 X61.53 Y87.951 E0.9102
G1 X61.943 Y87.855 E0.92162
G1 X61.962 Y87.85 E0.92215
G1 X61.981 Y87.848 E0.92267
G1 X62.208 Y87.818 E0.92884
G1 X62.231 Y87.814 E0.92946
G1 X62.683 Y87.78 E0.94168
G1 X62.989 Y87.768 E0.94993
G1 X63.235 Y87.762 E0.95656
G1 X63.678 Y87.76 E0.96849
G1 X63.995 Y87.768 E0.97703
G1 X64.412 Y87.788 E0.98828
G1 X64.636 Y87.806 E0.99434
G1 X65.005 Y87.851 E1.00435
G1 X65.206 Y87.891 E1.00987
G1 X65.459 Y87.955 E1.0169
G1 X65.602 Y88.043 E1.02143
G1 X65.725 Y88.313 E1.02942
G1 X65.758 Y88.497 E1.03445
G1 X65.759 Y88.527 E1.03526
G1 X65.774 Y88.802 E1.04268
G1 X65.776 Y88.825 E1.04331
G1 X65.776 Y92.92 E1.15363
G1 X61.355 Y92.92 E1.27273
G1 X61.156 Y92.92 E1.2762
G0 F6000 X60.756 Y93.32
;TYPE:WALL-OUTER
G1 F1200 X60.757 Y88.77 E1.39878
G1 X60.776 Y88.497 E1.40615
G1 X60.821 Y88.237 E1.41326
G1 X60.996 Y87.843 E1.42488
G1 X61.143 Y87.696 E1.43048
G1 X61.384 Y87.577 E1.43772
G1 X61.654 Y87.501 E1.44528
G1 X61.895 Y87.456 E1.45188
G1 X62.199 Y87.415 E1.46014
G1 X62.664 Y87.38 E1.47271
G1 X62.974 Y87.368 E1.48107
G1 X63.225 Y87.362 E1.48783
G1 X63.686 Y87.36 E1.50025
G1 X64.014 Y87.368 E1.50909
G1 X64.431 Y87.388 E1.52034
G1 X64.672 Y87.407 E1.52685
G1 X65.061 Y87.455 E1.53741
G1 X65.305 Y87.503 E1.54411
G1 X65.591 Y87.576 E1.55206
G1 X65.781 Y87.664 E1.5577
G1 X65.933 Y87.806 E1.5633
G1 X66.11 Y88.194 E1.57479
G1 X66.155 Y88.445 E1.58166
G1 X66.176 Y88.825 E1.59192
G1 X66.176 Y93.32 E1.71302
G1 X60.756 Y93.32 E1.85903
G0 F6000 X61.226 Y92.85
G0 X62.346 Y91.73
;TYPE:SKIN
G1 F1200 X62.347 Y89 E1.93258
G1 X62.361 Y88.997 E1.93297
G1 X62.734 Y88.97 E1.94304
G1 X63.037 Y88.958 E1.95121
G1 X63.265 Y88.952 E1.95736
G1 X63.654 Y88.95 E1.96784
G1 X63.938 Y88.958 E1.97549
G1 X64.386 Y88.979 E1.98757
G1 X64.586 Y88.999 E1.99299
G1 X64.586 Y91.73 E2.06656
G1 X62.346 Y91.73 E2.12691
G0 F6000 X62.718 Y91.568
G1 F1200 X62.506 Y91.356 E2.13499
G0 F6000 X62.506 Y90.79
G1 F1200 X63.284 Y91.568 E2.16463
G0 F6000 X63.85 Y91.568
G1 F1200 X62.506 Y90.224 E2.21584
G0 F6000 X62.506 Y89.659
G1 F1200 X64.416 Y91.568 E2.28859
G0 F6000 X64.425 Y91.013
G1 F1200 X62.555 Y89.142 E2.35985
G0 F6000 X63.094 Y89.115
G1 F1200 X64.425 Y90.447 E2.41058
G0 F6000 X64.425 Y89.881
G1 F1200 X63.653 Y89.109 E2.44
G0 F6000 X64.242 Y89.132
G1 F1200 X64.425 Y89.316 E2.44699
G0 F6000 X65.478 Y88.388
;TYPE:SKIN
G1 F1200 X65.517 Y88.427 E2.44773
G0 F6000 X61.472 Y88.342
G0 X61.448 Y88.318
G1 F1200 X61.28 Y87.867 E2.44975
G0 F6000 X61.624 Y88.403
G1 F2700 E-2.55025
G0 F6000 X63.435 Y92.9
G0 X63.435 Y94.185
G0 X63.499 Y100.643
G0 X62.911 Y100.723
G0 X62.829 Y103.63
G0 X63.53 Y103.696
G0 X63.596 Y110.32
G0 X64.143 Y110.388
G0 X63.625 Y111.543
G0 X63.64 Y114.656
G0 X63.328 Y114.533
G0 X63.022 Y115.19
G0 X61.639 Y116.245
G0 X63.657 Y116.312
G0 X63.695 Y120.053
G0 X63.844 Y120.917
G0 X63.727 Y121.343
G0 X63.435 Y122.886
;TYPE:WALL-INNER
G1 F2700 E2.44975
G1 F1200 X63.427 Y122.614 E2.45708
G1 X63.431 Y122.319 E2.46503
G1 X63.449 Y122.051 E2.47227
G1 X63.456 Y121.997 E2.47374
G1 X63.455 Y122.051 E2.47375
G1 X63.449 Y122.319 E2.47396
G1 X63.442 Y122.614 E2.47432
G1 X63.435 Y122.886 E2.47446
G0 F6000 X63.797 Y124.179
G0 X63.856 Y124.259
;TYPE:WALL-OUTER
G1 F1200 X63.601 Y124.183 E2.48162
G1 X63.4 Y124.082 E2.48769
G1 X63.265 Y123.962 E2.49255
G1 X63.157 Y123.734 E2.49935
G1 X63.103 Y123.511 E2.50553
G1 X63.055 Y123.165 E2.51494
G1 X63.036 Y122.917 E2.52164
G1 X63.027 Y122.609 E2.52994
G1 X63.031 Y122.314 E2.53789
G1 X63.052 Y122 E2.54637
G1 X63.083 Y121.761 E2.55286
G1 X63.134 Y121.516 E2.5596
G1 X63.199 Y121.303 E2.5656
G1 X63.306 Y121.137 E2.57092
G1 X63.494 Y121.006 E2.5771
G1 X63.856 Y120.902 E2.58724
G1 X63.856 Y124.259 E2.67768
G0 F6000 X63.484 Y123.73
;TYPE:SKIN
G1 F1200 X63.458 Y123.421 E2.68688
G1 X63.635 Y123.032 E2.69955
G1 X63.638 Y122.753 E2.70782
G0 F6000 X63.439 Y121.705
G1 F1200 X63.527 Y121.509 E2.71583
G1 X63.594 Y121.294 E2.72421
G0 F6000 X63.456 Y121.394
G1 F2700 E-2.27579
G0 F6000 X63.594 Y123.462
G0 X63.845 Y124.243
G0 X63.677 Y125.105
G0 X63.687 Y128.911
G0 X63.548 Y130.45
G0 X63.702 Y134.51
G0 X63.442 Y135.073
G0 X61.639 Y136.127
G0 X63.706 Y136.194
G0 X63.714 Y139.06
G0 X61.639 Y139.128
G0 X61.639 Y140.184
G0 X63.717 Y140.251
G0 X63.728 Y143.945
G0 X63.843 Y144.814
G0 X63.673 Y145.434
G0 X63.443 Y146.909
;TYPE:WALL-INNER
G1 F2700 E2.72421
G1 F1200 X63.429 Y146.626 E2.73185
G1 X63.427 Y146.381 E2.73845
G1 X63.44 Y146.082 E2.74651
G1 X63.456 Y145.898 E2.75149
G1 X63.455 Y146.082 E2.75158
G1 X63.451 Y146.381 E2.752
G1 X63.447 Y146.626 E2.75235
G1 X63.443 Y146.909 E2.75252
G0 F6000 X63.797 Y148.081
G0 X63.856 Y148.162
;TYPE:WALL-OUTER
G1 F1200 X63.599 Y148.085 E2.75975
G1 X63.402 Y147.985 E2.7657
G1 X63.265 Y147.863 E2.77064
G1 X63.157 Y147.636 E2.77741
G1 X63.104 Y147.418 E2.78346
G1 X63.065 Y147.171 E2.79019
G1 X63.043 Y146.929 E2.79674
G1 X63.029 Y146.646 E2.80437
G1 X63.027 Y146.364 E2.81197
G1 X63.04 Y146.065 E2.82003
G1 X63.064 Y145.795 E2.82734
G1 X63.101 Y145.567 E2.83356
G1 X63.165 Y145.309 E2.84072
G1 X63.256 Y145.099 E2.84689
G1 X63.41 Y144.954 E2.85258
G1 X63.598 Y144.864 E2.8582
G1 X63.846 Y144.801 E2.86509
G1 X63.856 Y144.8 E2.86536
G1 X63.856 Y148.162 E2.95594
G0 F6000 X63.476 Y147.763
;TYPE:SKIN
G1 F1200 X63.467 Y147.471 E2.96496
G1 X63.64 Y147.079 E2.97818
G0 F6000 X63.542 Y147.039
G0 X63.428 Y145.736
G0 X63.352 Y145.66
G1 F1200 X63.507 Y145.531 E2.98318
G1 X63.64 Y145.099 E2.9944
G0 F6000 X63.617 Y145.311
G1 F2700 E-2.0056
G0 F6000 X63.624 Y147.365
G0 X64.721 Y147.365
G0 X64.706 Y149.194
G0 X64.087 Y149.975
G0 X63.994 Y151.041
G0 X67.786 Y151.584
G0 X68.592 Y151.831
G0 X69.148 Y152.173
G0 X69.572 Y152.702
G0 X69.862 Y153.46
G0 X69.814 Y169.346
G0 X69.525 Y171.574
;TYPE:WALL-INNER
G1 F2700 E2.9944
G1 F1200 X69.525 Y171.648 E2.99639
G1 X69.525 Y171.907 E3.00337
G1 X69.525 Y171.916 E3.00361
G1 X69.525 Y172.601 E3.02207
G1 X68.592 Y172.601 E3.0472
G1 X68.473 Y172.601 E3.05041
G1 X68.106 Y172.601 E3.0603
G1 X67.726 Y172.601 E3.07053
G1 X67.386 Y172.601 E3.07969
G1 X67.067 Y172.601 E3.08829
G1 X67.386 Y172.553 E3.08887
G1 X67.726 Y172.484 E3.0909
G1 X68.106 Y172.383 E3.09551
G1 X68.473 Y172.254 E3.10306
G1 X68.581 Y172.205 E3.10605
G1 X68.814 Y172.098 E3.11295
G1 X69.13 Y171.911 E3.12285
G1 X69.137 Y171.907 E3.12306
G1 X69.461 Y171.648 E3.13067
G1 X69.525 Y171.574 E3.13129
G0 F6000 X69.183 Y171.358
G1 F1200 X69.471 Y171.026 E3.14313
G1 X69.534 Y170.893 E3.1471
G1 X69.688 Y170.569 E3.15676
G1 X69.795 Y170.247 E3.1659
G1 X69.908 Y169.784 E3.17874
G1 X69.925 Y169.694 E3.18121
G1 X69.925 Y169.784 E3.18126
G1 X69.925 Y170.247 E3.18349
G1 X69.925 Y170.569 E3.18742
G1 X69.925 Y170.928 E3.19518
G1 X69.925 Y172.3 E3.23214
G1 X72.458 Y172.3 E3.30038
G1 X72.458 Y76.748 E5.87462
G1 X71.526 Y76.532 E5.9004
G1 X70.113 Y79.459 E5.98796
G1 X70.066 Y79.557 E5.99089
G1 X70.066 Y79.437 E5.99131
G1 X71.479 Y76.51 E6.00252
G1 X72.544 Y74.303 E6.06854
G1 X74.146 Y70.986 E6.16778
G1 X75.211 Y68.781 E6.23375
G1 X76.812 Y65.463 E6.333
G1 X76.906 Y65.268 E6.33884
G1 X78.02 Y62.964 E6.40778
G1 X78.141 Y62.712 E6.41531
G1 X78.339 Y62.909 E6.41977
G1 X78.492 Y63.062 E6.4256
G1 X78.491 Y171.937 E9.35877
G1 X78.097 Y172.332 E9.3738
G1 X77.961 Y172.468 E9.37898
G1 X77.826 Y172.603 E9.38412
G1 X77.429 Y173.001 E9.39927
G1 X41.505 Y173 E10.36709
G1 X41.11 Y172.606 E10.38212
G1 X40.973 Y172.469 E10.38734
G1 X40.837 Y172.333 E10.39252
G1 X40.44 Y171.938 E10.40761
G1 X40.441 Y63.062 E13.3408
G1 X40.835 Y62.667 E13.35583
G1 X40.971 Y62.531 E13.36102
G1 X41.107 Y62.395 E13.3662
G1 X41.503 Y61.999 E13.38128
G1 X77.428 Y62 E14.34913
G1 X77.788 Y62.36 E14.36285
G1 X78.129 Y62.7 E14.37582
G1 X77.85 Y62.7 E14.38028
G1 X77.648 Y62.7 E14.38573
G1 X77.647 Y62.7 E14.38575
G1 X75.425 Y62.7 E14.44561
G1 X75.415 Y62.722 E14.44627
G1 X67.533 Y79.045 E14.9346
G1 X67.533 Y79.204 E14.93889
G1 X67.533 Y82.9 E15.03846
G1 X69.925 Y82.9 E15.1029
G1 X69.925 Y85.535 E15.17389
G1 X69.925 Y85.88 E15.18319
G1 X69.925 Y86.297 E15.19442
G1 X69.925 Y86.574 E15.20188
G1 X69.852 Y86.297 E15.20276
G1 X69.699 Y85.88 E15.20759
G1 X69.537 Y85.576 E15.21492
G1 X69.475 Y85.461 E15.21844
G1 X69.199 Y85.101 E15.23066
G1 X68.878 Y84.8 E15.24251
G1 X68.518 Y84.564 E15.25411
G1 X68.115 Y84.378 E15.26607
G1 X67.724 Y84.238 E15.27726
G1 X67.436 Y84.157 E15.28532
G1 X67.042 Y84.068 E15.2962
G1 X66.764 Y84.016 E15.30382
G1 X66.34 Y83.953 E15.31537
G1 X66.035 Y83.914 E15.32365
G1 X65.773 Y83.889 E15.33074
G1 X65.239 Y83.847 E15.34517
G1 X64.74 Y83.821 E15.35863
G1 X64.149 Y83.805 E15.37456
G1 X63.606 Y83.8 E15.38919
G1 X62.777 Y83.809 E15.41152
G1 X62.374 Y83.821 E15.42239
G1 X61.984 Y83.84 E15.43291
G1 X61.605 Y83.862 E15.44313
G1 X61.234 Y83.892 E15.45316
G1 X60.877 Y83.927 E15.46283
G1 X60.597 Y83.96 E15.47042
G1 X60.192 Y84.019 E15.48145
G1 X59.923 Y84.064 E15.48879
G1 X59.549 Y84.143 E15.49909
G1 X59.248 Y84.22 E15.50746
G1 X58.961 Y84.306 E15.51553
G1 X58.666 Y84.409 E15.52395
G1 X58.309 Y84.583 E15.53465
G1 X57.977 Y84.82 E15.54564
G1 X57.69 Y85.108 E15.5566
G1 X57.444 Y85.45 E15.56795
G1 X57.398 Y85.539 E15.57064
G1 X57.244 Y85.837 E15.57968
G1 X57.087 Y86.268 E15.59204
G1 X57.008 Y86.596 E15.60113
G1 X57.008 Y86.268 E15.60195
G1 X57.008 Y85.837 E15.60642
G1 X57.008 Y85.502 E15.61366
G1 X57.008 Y82.9 E15.68376
G1 X59.4 Y82.9 E15.7482
G1 X59.4 Y78.504 E15.86663
G1 X59.487 Y78.323 E15.87204
G1 X67.03 Y62.7 E16.33943
G1 X64.307 Y62.7 E16.41279
G1 X64.297 Y62.721 E16.41341
G1 X60.511 Y70.563 E16.64801
G1 X59.446 Y72.769 E16.71401
G1 X57.844 Y76.087 E16.81327
G1 X57.008 Y77.818 E16.86506
G1 X57.008 Y75.882 E16.91722
G1 X57.798 Y76.065 E16.93906
G1 X59.4 Y72.748 E16.95149
G1 X59.4 Y70.326 E17.01674
G1 X59.4 Y62.7 E17.22219
G1 X54.475 Y62.7 E17.35487
G1 X54.475 Y172.3 E20.30757
G1 X57.008 Y172.3 E20.37581
G1 X57.008 Y170.857 E20.41469
G1 X57.008 Y170.68 E20.41946
G1 X57.008 Y170.378 E20.42759
G1 X57.008 Y170.002 E20.43772
G1 X57.008 Y169.887 E20.44082
G1 X57.039 Y170.002 E20.44102
G1 X57.169 Y170.378 E20.44392
G1 X57.309 Y170.68 E20.44936
G1 X57.4 Y170.831 E20.45355
G1 X57.508 Y171.012 E20.45923
G1 X57.759 Y171.306 E20.46964
G1 X58.042 Y171.535 E20.47945
G1 X58.385 Y171.736 E20.49016
G1 X58.737 Y171.885 E20.50046
G1 X59.079 Y171.991 E20.5101
G1 X59.478 Y172.081 E20.52112
G1 X59.911 Y172.147 E20.53292
G1 X60.344 Y172.186 E20.54464
G1 X60.624 Y172.201 E20.55219
G1 X61.028 Y172.209 E20.56308
G1 X61.307 Y172.208 E20.57059
G1 X61.581 Y172.201 E20.57798
G1 X62.028 Y172.172 E20.59004
G1 X62.31 Y172.144 E20.59768
G1 X62.723 Y172.084 E20.60892
G1 X63.161 Y171.985 E20.62102
G1 X63.565 Y171.854 E20.63246
G1 X63.875 Y171.715 E20.64162
G1 X64.218 Y171.501 E20.65251
G1 X64.428 Y171.309 E20.66017
G1 X64.532 Y171.213 E20.66399
G1 X64.743 Y170.921 E20.67369
G1 X64.806 Y170.802 E20.67732
G1 X64.806 Y170.921 E20.67747
G1 X64.806 Y171.213 E20.68051
G1 X64.806 Y171.355 E20.68379
G1 X64.806 Y172.107 E20.70405
G1 X64.806 Y172.108 E20.70408
G1 X64.806 Y172.309 E20.7095
G1 X65.007 Y172.308 E20.713
G1 X65.008 Y172.307 E20.71304
G1 X65.821 Y172.294 E20.73494
G1 X66.211 Y172.278 E20.74546
G1 X66.612 Y172.249 E20.75629
G1 X66.961 Y172.212 E20.76574
G1 X67.316 Y172.159 E20.77541
G1 X67.635 Y172.094 E20.78418
G1 X67.988 Y172 E20.79403
G1 X68.323 Y171.883 E20.80359
G1 X68.628 Y171.743 E20.81263
G1 X68.909 Y171.577 E20.82142
G1 X69.183 Y171.358 E20.83087
G1 F2700 E15.83087
G0 F6000 X70.097 Y172.128
G0 X72.286 Y172.128
G0 X72.753 Y74.362
G0 X77.779 Y63.23
G0 X77.51 Y63.1
;TYPE:WALL-OUTER
G1 F2700 E20.83087
G1 F1200 X75.676 Y63.1 E20.88028
G1 X67.933 Y79.137 E21.36005
G1 X67.933 Y82.5 E21.45065
G1 X69.666 Y82.5 E21.49734
G1 X69.666 Y79.346 E21.58231
G1 X77.51 Y63.1 E22.06833
G0 F6000 X77.779 Y63.23
G0 X77.861 Y62.879
G0 X75.368 Y62.7
;TYPE:WALL-INNER
G1 F1200 X72.645 Y62.7 E22.14169
G1 X72.635 Y62.721 E22.14232
G1 X64.866 Y78.812 E22.62371
G1 X64.866 Y78.97 E22.62796
G1 X64.866 Y82.9 E22.73384
G1 X67.4 Y82.9 E22.80211
G1 X67.4 Y79.204 E22.8353
G1 X67.487 Y79.023 E22.83706
G1 X75.368 Y62.7 E22.89884
G0 F6000 X74.731 Y63.1
;TYPE:WALL-OUTER
G1 F1200 X72.896 Y63.1 E22.94828
G1 X65.266 Y78.904 E23.42107
G1 X65.266 Y82.5 E23.51795
G1 X67 Y82.5 E23.56467
G1 X67 Y79.113 E23.65592
G1 X74.731 Y63.1 E24.13496
G0 F6000 X74.731 Y62.8
G0 X72.589 Y62.7
;TYPE:WALL-INNER
G1 F1200 X69.866 Y62.7 E24.20832
G1 X69.856 Y62.722 E24.20898
G1 X62.2 Y78.58 E24.68338
G1 X62.2 Y78.737 E24.68761
G1 X62.2 Y82.9 E24.79977
G1 X64.733 Y82.9 E24.86801
G1 X64.733 Y78.97 E24.9033
G1 X64.82 Y78.79 E24.90505
G1 X72.589 Y62.7 E24.96537
G0 F6000 X71.952 Y63.1
;TYPE:WALL-OUTER
G1 F1200 X70.117 Y63.1 E25.01481
G1 X62.6 Y78.671 E25.48062
G1 X62.6 Y82.5 E25.58378
G1 X64.333 Y82.5 E25.63047
G1 X64.333 Y78.879 E25.72802
G1 X71.952 Y63.1 E26.20008
G0 F6000 X71.952 Y62.8
G0 X69.809 Y62.7
;TYPE:WALL-INNER
G1 F1200 X67.087 Y62.7 E26.27341
G1 X67.077 Y62.722 E26.27378
G1 X59.533 Y78.345 E26.33295
G1 X59.533 Y78.504 E26.3336
G1 X59.533 Y82.9 E26.37308
G1 X62.066 Y82.9 E26.44132
G1 X62.066 Y78.737 E26.47898
G1 X62.152 Y78.558 E26.48075
G1 X69.809 Y62.7 E26.54198
G0 F6000 X69.172 Y63.1
;TYPE:WALL-OUTER
G1 F1200 X67.338 Y63.1 E26.59139
G1 X59.933 Y78.437 E27.05022
G1 X59.933 Y82.5 E27.15968
G1 X61.666 Y82.5 E27.20637
G1 X61.666 Y78.646 E27.3102
G1 X69.172 Y63.1 E27.77528
G1 F2700 E22.77528
G0 F6000 X69.172 Y62.8
G0 X66.393 Y62.8
G0 X66.393 Y63.1
G1 F2700 E27.77528
G1 F1200 X64.558 Y63.1 E27.82472
G1 X57.266 Y78.204 E28.27657
G1 X57.266 Y82.5 E28.39231
G1 X59 Y82.5 E28.43902
G1 X59 Y78.413 E28.54913
G1 X66.393 Y63.1 E29.00724
G0 F6000 X66.393 Y62.8
G0 X64.251 Y62.7
;TYPE:WALL-INNER
G1 F1200 X59.533 Y62.7 E29.13434
G1 X59.533 Y70.326 E29.20283
G1 X60.465 Y70.542 E29.2286
G1 X64.251 Y62.7 E29.25802
G0 F6000 X63.614 Y63.1
;TYPE:WALL-OUTER
G1 F1200 X59.933 Y63.1 E29.35719
