;FLAVOR:Marlin
;TIME:235
;Filament used: 0.0732793m
;Layer height: 0.2
;MINX:46.399
;MINY:112.75
;MINZ:0.2
;MAXX:72.58
;MAXY:122.249
;MAXZ:4.8
;Generated with Cura_SteamEngine master
M82 ;absolute extrusion mode
; Ender 3 Custom Start G-code
M140 S75 ; Set Heat Bed temperature
M104 S160 ; start warming extruder to 160
G28 ; Home all axes
G29 ; Auto bed-level (BL-Touch)
G92 E0 ; Reset Extruder
M190 S75 ; Wait for Heat Bed temperature
M104 S210 ; Set Extruder temperature
G1 X0 Y0 Z0.3 F5000.0 ; Move to 0 0
M109 S210 ; Wait for Extruder temperature
G1 X3 Y20 Z0.3 F5000.0 ; Move to start position
; G1 Z2.0 F3000 ; Move Z Axis up little to prevent scratching of Heat Bed
G1 X3 Y200.0 Z0.3 F1500.0 E15 ; Draw the first line
G1 X3.3 Y200.0 Z0.3 F5000.0 ; Move to side a little
G1 X3.3 Y20 Z0.3 F1500.0 E30 ; Draw the second line
G92 E0 ; Reset Extruder
G1 Z2.0 F3000 ; Move Z Axis up little to prevent scratching of Heat Bed
G92 E0
G92 E0
G1 F2700 E-5
;LAYER_COUNT:24
;LAYER:0
M107
M204 S500
M205 X8 Y8
;MESH:valve_spring.stl
G0 F6000 X61.09 Y114.801 Z0.2
;TYPE:WALL-INNER
G1 F2700 E0
G1 F1003 X60.891 Y114.801 E0.00536
G1 X57.89 Y114.8 E0.08621
G1 X57.89 Y114.2 E0.10237
G1 X61.09 Y114.2 E0.18858
G1 X61.09 Y114.602 E0.19942
G1 X61.09 Y114.801 E0.20288
G0 F6000 X61.49 Y115.201
G1 F1003 X61.291 Y115.201 E0.20825
G1 X57.49 Y115.2 E0.31065
G1 X57.49 Y113.8 E0.34836
G1 X61.49 Y113.8 E0.45613
G1 X61.49 Y115.002 E0.48851
G1 X61.49 Y115.201 E0.49198
G0 F6000 X61.89 Y115.601
G1 F1003 X61.691 Y115.601 E0.49734
G1 X57.09 Y115.6 E0.62129
G1 X57.09 Y113.4 E0.68056
G1 X61.89 Y113.4 E0.80988
G1 X61.89 Y115.402 E0.86381
G1 X61.89 Y115.601 E0.86728
G0 F6000 X62.29 Y116.001
;TYPE:WALL-OUTER
G1 F1003 X56.69 Y116 E1.01815
G1 X56.69 Y113.182 E1.09407
G1 X56.383 Y113.109 E1.10257
G1 X54.667 Y116.498 E1.20491
G1 X54.567 Y116.79 E1.21322
G1 X54.541 Y117.107 E1.22179
G1 X54.595 Y117.423 E1.23043
G1 X54.729 Y117.716 E1.23911
G1 X54.934 Y117.964 E1.24778
G1 X55.19 Y118.149 E1.25629
G1 X55.383 Y118.233 E1.26196
G1 X57.067 Y118.798 E1.30981
G1 X57.479 Y119.007 E1.32226
G1 X57.816 Y119.308 E1.33443
G1 X58.067 Y119.691 E1.34677
G1 X58.209 Y120.125 E1.35907
G1 X58.234 Y120.587 E1.37154
G1 X58.141 Y121.03 E1.38373
G1 X57.934 Y121.439 E1.39608
G1 X57.624 Y121.782 E1.40854
G1 X57.244 Y122.03 E1.42076
G1 X56.808 Y122.17 E1.4331
G1 X56.35 Y122.194 E1.44545
G1 X56.116 Y122.16 E1.45182
G1 X47.927 Y120.14 E1.67905
G1 X47.612 Y120.111 E1.68758
G1 X47.263 Y120.179 E1.69715
G1 X46.93 Y120.365 E1.70743
G1 X46.736 Y120.492 E1.71368
G1 X46.608 Y120.508 E1.71715
G1 X46.506 Y120.454 E1.72026
G1 X46.453 Y120.347 E1.72348
G1 X46.473 Y120.229 E1.7267
G1 X46.55 Y120.142 E1.72983
G1 X46.77 Y119.991 E1.73702
G1 X47.008 Y119.856 E1.74439
G1 X47.252 Y119.766 E1.7514
G1 X47.516 Y119.719 E1.75862
G1 X47.774 Y119.715 E1.76558
G1 X48.053 Y119.76 E1.77319
G1 X56.178 Y121.764 E1.99864
G1 X56.476 Y121.8 E2.00673
G1 X56.824 Y121.76 E2.01617
G1 X57.153 Y121.628 E2.02572
G1 X57.435 Y121.415 E2.03524
G1 X57.652 Y121.138 E2.04472
G1 X57.781 Y120.844 E2.05337
G1 X57.838 Y120.537 E2.06178
G1 X57.815 Y120.184 E2.07131
G1 X57.701 Y119.85 E2.08082
G1 X57.504 Y119.557 E2.09033
G1 X57.238 Y119.324 E2.09986
G1 X56.932 Y119.174 E2.10904
G1 X55.27 Y118.615 E2.15628
G1 X55.004 Y118.499 E2.16409
G1 X54.77 Y118.346 E2.17163
G1 X54.561 Y118.149 E2.17936
G1 X54.394 Y117.927 E2.18685
G1 X54.264 Y117.675 E2.19449
G1 X54.191 Y117.45 E2.20086
G1 X54.147 Y117.174 E2.20839
G1 X54.151 Y116.891 E2.21602
G1 X54.204 Y116.606 E2.22382
G1 X54.317 Y116.306 E2.23246
G1 X55.988 Y113 E2.33226
G1 X62.99 Y113 E2.5209
G1 X64.683 Y116.351 E2.62204
G1 X64.766 Y116.564 E2.6282
G1 X64.826 Y116.847 E2.636
G1 X64.837 Y117.128 E2.64357
G1 X64.801 Y117.404 E2.65107
G1 X64.715 Y117.676 E2.65876
G1 X64.609 Y117.887 E2.66512
G1 X64.444 Y118.118 E2.67276
G1 X64.244 Y118.316 E2.68035
G1 X64.011 Y118.479 E2.68801
G1 X63.715 Y118.613 E2.69676
G1 X62.048 Y119.173 E2.74414
G1 X61.777 Y119.303 E2.75223
G1 X61.505 Y119.525 E2.76169
G1 X61.299 Y119.812 E2.77121
G1 X61.174 Y120.142 E2.78072
G1 X61.139 Y120.494 E2.79025
G1 X61.189 Y120.81 E2.79887
G1 X61.305 Y121.101 E2.80731
G1 X61.513 Y121.386 E2.81681
G1 X61.789 Y121.607 E2.82634
G1 X62.113 Y121.749 E2.83587
G1 X62.462 Y121.802 E2.84538
G1 X62.8 Y121.764 E2.85454
G1 X70.974 Y119.749 E3.08135
G1 X71.203 Y119.715 E3.08758
G1 X71.464 Y119.719 E3.09462
G1 X71.725 Y119.766 E3.10176
G1 X71.973 Y119.857 E3.10888
G1 X72.21 Y119.991 E3.11621
G1 X72.432 Y120.142 E3.12345
G1 X72.516 Y120.25 E3.12713
G1 X72.52 Y120.373 E3.13045
G1 X72.459 Y120.467 E3.13347
G1 X72.352 Y120.51 E3.13657
G1 X72.213 Y120.477 E3.14042
G1 X71.965 Y120.307 E3.14852
G1 X71.681 Y120.168 E3.15704
G1 X71.334 Y120.109 E3.16652
G1 X71.051 Y120.141 E3.1742
G1 X62.888 Y122.155 E3.40071
G1 X62.43 Y122.199 E3.4131
G1 X61.974 Y122.122 E3.42556
G1 X61.564 Y121.936 E3.43769
G1 X61.21 Y121.643 E3.45007
G1 X60.943 Y121.27 E3.46243
G1 X60.783 Y120.837 E3.47487
G1 X60.741 Y120.386 E3.48707
G1 X60.818 Y119.934 E3.49942
G1 X61.011 Y119.515 E3.51185
G1 X61.303 Y119.163 E3.52417
G1 X61.673 Y118.903 E3.53635
G1 X61.883 Y118.809 E3.54255
G1 X63.6 Y118.231 E3.59136
G1 X63.877 Y118.095 E3.59967
G1 X64.12 Y117.887 E3.60829
G1 X64.302 Y117.622 E3.61695
G1 X64.412 Y117.321 E3.62559
G1 X64.441 Y117.001 E3.63424
G1 X64.388 Y116.688 E3.64279
G1 X64.309 Y116.493 E3.64846
G1 X62.597 Y113.108 E3.75066
G1 X62.29 Y113.181 E3.75916
G1 X62.29 Y116.001 E3.83513
G0 F6000 X62.02 Y115.731
G0 X60.899 Y114.639
;TYPE:SKIN
G1 F1003 X60.619 Y114.359 E3.8458
G0 F6000 X60.333 Y114.639
G1 F1003 X60.053 Y114.359 E3.85647
G0 F6000 X59.768 Y114.639
G1 F1003 X59.488 Y114.359 E3.86714
G0 F6000 X59.202 Y114.639
G1 F1003 X58.922 Y114.359 E3.8778
G0 F6000 X58.636 Y114.639
M104 S210
G1 F1003 X58.356 Y114.359 E3.88847
;MESH:NONMESH
G0 F300 X58.356 Y114.359 Z0.4
G0 F6000 X61.09 Y115.001
;TIME_ELAPSED:14.069313
;LAYER:1
M140 S70
M106 S85
;TYPE:WALL-INNER
;MESH:valve_spring.stl
G1 F1263 X60.891 Y115.001 E3.89443
G1 X57.89 Y115 E3.98426
G1 X57.89 Y114 E4.01419
G1 X60.891 Y113.999 E4.10403
G1 X61.09 Y113.999 E4.10998
G1 X61.09 Y114.198 E4.11384
G1 X61.09 Y114.802 E4.13192
G1 X61.09 Y115.001 E4.13577
G0 F7500 X61.49 Y115.401
G1 F1263 X61.291 Y115.401 E4.14173
G1 X57.49 Y115.4 E4.25551
G1 X57.49 Y113.6 E4.30939
G1 X61.291 Y113.599 E4.42317
G1 X61.49 Y113.599 E4.42913
G1 X61.49 Y113.798 E4.43298
G1 X61.49 Y115.202 E4.47501
G1 X61.49 Y115.401 E4.47886
G0 F7500 X61.89 Y115.801
G1 F1263 X61.691 Y115.801 E4.48482
G1 X57.09 Y115.8 E4.62255
G1 X57.09 Y113.2 E4.70037
G1 X61.691 Y113.199 E4.8381
G1 X61.89 Y113.199 E4.84406
G1 X61.89 Y113.398 E4.84791
G1 X61.89 Y115.602 E4.91389
G1 X61.89 Y115.801 E4.91774
G0 F7500 X62.29 Y116.201
;TYPE:WALL-OUTER
G1 F1263 X56.69 Y116.2 E5.08537
G1 X56.69 Y113.292 E5.17242
G1 X56.383 Y113.219 E5.18187
G1 X54.713 Y116.52 E5.2926
G1 X54.615 Y116.799 E5.30146
G1 X54.59 Y117.105 E5.31065
G1 X54.642 Y117.409 E5.31988
G1 X54.772 Y117.689 E5.32912
G1 X54.968 Y117.927 E5.33835
G1 X55.217 Y118.107 E5.34755
G1 X55.478 Y118.211 E5.35596
G1 X57.133 Y118.769 E5.40824
G1 X57.543 Y118.991 E5.42219
G1 X57.884 Y119.312 E5.43621
G1 X58.131 Y119.712 E5.45029
G1 X58.266 Y120.166 E5.46446
G1 X58.28 Y120.638 E5.4786
G1 X58.171 Y121.094 E5.49263
G1 X57.946 Y121.508 E5.50674
G1 X57.621 Y121.85 E5.52086
G1 X57.218 Y122.095 E5.53498
G1 X56.771 Y122.227 E5.54893
G1 X56.294 Y122.239 E5.56321
G1 X56.063 Y122.199 E5.57023
G1 X47.914 Y120.189 E5.82148
G1 X47.563 Y120.162 E5.83201
G1 X47.202 Y120.259 E5.8432
G1 X47.017 Y120.366 E5.8496
G1 X46.781 Y120.526 E5.85813
G1 X46.64 Y120.563 E5.8625
G1 X46.52 Y120.53 E5.86622
G1 X46.431 Y120.437 E5.87008
G1 X46.399 Y120.315 E5.87385
G1 X46.434 Y120.192 E5.87768
G1 X46.534 Y120.091 E5.88194
G1 X46.741 Y119.949 E5.88945
G1 X46.974 Y119.816 E5.89748
G1 X47.229 Y119.722 E5.90562
G1 X47.5 Y119.671 E5.91387
G1 X47.779 Y119.665 E5.92222
G1 X48.052 Y119.708 E5.9305
G1 X56.191 Y121.715 E6.18143
G1 X56.508 Y121.751 E6.19098
G1 X56.843 Y121.703 E6.20111
G1 X57.158 Y121.568 E6.21137
G1 X57.424 Y121.356 E6.22155
G1 X57.626 Y121.083 E6.23172
G1 X57.752 Y120.767 E6.2419
G1 X57.791 Y120.421 E6.25232
G1 X57.739 Y120.084 E6.26253
G1 X57.601 Y119.773 E6.27271
G1 X57.387 Y119.508 E6.28291
G1 X57.115 Y119.308 E6.29302
G1 X56.852 Y119.201 E6.30152
G1 X55.252 Y118.662 E6.35205
G1 X54.994 Y118.551 E6.36046
G1 X54.749 Y118.392 E6.3692
G1 X54.533 Y118.192 E6.37802
G1 X54.359 Y117.967 E6.38653
G1 X54.225 Y117.71 E6.39521
G1 X54.13 Y117.413 E6.40454
G1 X54.093 Y117.131 E6.41305
G1 X54.104 Y116.84 E6.42177
G1 X54.166 Y116.552 E6.43059
G1 X54.274 Y116.28 E6.43935
G1 X56.033 Y112.8 E6.55607
G1 X62.946 Y112.799 E6.76301
G1 X64.702 Y116.274 E6.87956
G1 X64.811 Y116.541 E6.88819
G1 X64.873 Y116.822 E6.8968
G1 X64.887 Y117.121 E6.90576
G1 X64.852 Y117.405 E6.91433
G1 X64.768 Y117.681 E6.92296
G1 X64.629 Y117.953 E6.93211
G1 X64.456 Y118.183 E6.94072
G1 X64.24 Y118.386 E6.9496
G1 X63.997 Y118.545 E6.95829
G1 X63.744 Y118.655 E6.96655
G1 X62.063 Y119.222 E7.01965
G1 X61.776 Y119.362 E7.02921
G1 X61.518 Y119.584 E7.0394
G1 X61.328 Y119.865 E7.04955
G1 X61.216 Y120.186 E7.05973
G1 X61.19 Y120.526 E7.06994
G1 X61.255 Y120.86 E7.08012
G1 X61.407 Y121.173 E7.09054
G1 X61.632 Y121.429 E7.10074
G1 X61.915 Y121.618 E7.11093
G1 X62.237 Y121.727 E7.1211
G1 X62.572 Y121.749 E7.13115
G1 X62.793 Y121.714 E7.13785
G1 X70.915 Y119.711 E7.38826
G1 X71.189 Y119.667 E7.39657
G1 X71.46 Y119.668 E7.40468
G1 X71.727 Y119.714 E7.41279
G1 X71.996 Y119.811 E7.42135
G1 X72.224 Y119.94 E7.42919
G1 X72.457 Y120.099 E7.43763
G1 X72.556 Y120.215 E7.4422
G1 X72.579 Y120.339 E7.44597
G1 X72.537 Y120.458 E7.44975
G1 X72.44 Y120.54 E7.45355
G1 X72.317 Y120.562 E7.45729
G1 X72.158 Y120.5 E7.4624
G1 X71.934 Y120.347 E7.47052
G1 X71.617 Y120.199 E7.48099
G1 X71.244 Y120.161 E7.49222
G1 X71.058 Y120.191 E7.49786
G1 X62.929 Y122.196 E7.74848
G1 X62.458 Y122.249 E7.76267
G1 X61.998 Y122.182 E7.77659
G1 X61.566 Y121.995 E7.79068
G1 X61.196 Y121.7 E7.80484
G1 X60.918 Y121.323 E7.81887
G1 X60.741 Y120.874 E7.83331
G1 X60.69 Y120.404 E7.84746
G1 X60.763 Y119.944 E7.86141
G1 X60.95 Y119.518 E7.87533
G1 X61.253 Y119.142 E7.88979
G1 X61.626 Y118.872 E7.90357
G1 X62.051 Y118.699 E7.91731
G1 X63.584 Y118.184 E7.96572
G1 X63.85 Y118.055 E7.97457
G1 X64.083 Y117.854 E7.98378
G1 X64.258 Y117.6 E7.99301
G1 X64.363 Y117.31 E8.00224
G1 X64.391 Y117.003 E8.01147
G1 X64.34 Y116.703 E8.02058
G1 X64.264 Y116.516 E8.02662
G1 X62.597 Y113.219 E8.13721
G1 X62.29 Y113.292 E8.14666
G1 X62.29 Y116.201 E8.23374
G0 F7500 X62.02 Y115.931
G0 X60.7 Y114.611
;TYPE:SKIN
G1 F1263 X58.28 Y114.61 E8.30618
G1 X58.28 Y114.39 E8.31276
G1 X60.7 Y114.389 E8.3852
G1 X60.7 Y114.611 E8.39185
G0 F7500 X62.049 Y113.1
G0 X62.05 Y113.029
;TYPE:SKIN
G1 F1263 X62.106 Y112.973 E8.39303
G0 F7500 X62.313 Y113.048
G1 F1263 X62.821 Y113.106 E8.39868
G1 X64.524 Y116.494 E8.44051
G1 X64.621 Y117.246 E8.44888
G1 X64.461 Y117.687 E8.45405
G1 X63.808 Y118.342 E8.46426
G1 X62.052 Y118.966 E8.48482
G1 X61.396 Y119.34 E8.49315
G1 X61.025 Y119.993 E8.50144
G1 X60.958 Y120.626 E8.50846
G1 X61.176 Y121.256 E8.51582
G1 X61.754 Y121.809 E8.52464
G1 X62.425 Y121.987 E8.5323
G1 X63.453 Y121.807 E8.54381
G1 X70.586 Y120.048 E8.62487
G1 X71.287 Y119.913 E8.63275
G1 X71.965 Y120.084 E8.64046
G1 X72.311 Y120.304 E8.64499
G1 F2700 E3.64499
G0 F7500 X72.262 Y120.353
G0 X71.412 Y120.139
G0 X68.322 Y120.359
G0 X62.571 Y121.788
G0 X62.227 Y121.766
G0 X61.898 Y121.654
G0 X61.606 Y121.46
G0 X60.733 Y120.372
G0 X62.504 Y118.588
G0 X63.871 Y118.089
G0 X64.112 Y117.881
G0 X64.293 Y117.618
G0 X64.402 Y117.318
G0 X64.398 Y116.809
G0 X64.3 Y116.5
G0 X62.613 Y113.183
G0 X56.367 Y113.183
G0 X54.576 Y116.791
G0 X54.556 Y117.139
G0 X54.604 Y117.421
G0 X54.738 Y117.71
G0 X54.94 Y117.956
G0 X57.494 Y119.389
G0 X58.096 Y120.377
G0 X58.025 Y120.447
G1 F2700 E8.64499
G1 F1263 X58 Y120.755 E8.64859
G1 X57.544 Y121.494 E8.65873
G1 X56.792 Y121.963 E8.66907
G1 X55.986 Y121.921 E8.67849
G1 X50.314 Y120.522 E8.74666
G1 X47.798 Y119.927 E8.77683
G1 X47.116 Y120.043 E8.7849
G1 X46.626 Y120.25 E8.79111
G0 F7500 X46.589 Y120.288
G0 X48.913 Y119.947
G0 X56.184 Y121.754
G0 X56.625 Y121.774
G0 X57.178 Y121.602
G0 X57.452 Y121.383
G0 X57.66 Y121.102
G0 X57.79 Y120.776
G0 X57.83 Y120.421
G0 X57.678 Y119.85
G0 X57.41 Y119.475
G0 X54.372 Y117.595
G0 X54.427 Y117.54
G1 F1263 X54.37 Y117.314 E8.79367
G1 X54.385 Y116.734 E8.80004
G1 X54.839 Y115.713 E8.8123
G1 X55.997 Y113.424 E8.84046
G1 X56.139 Y112.999 E8.84538
G1 X56.884 Y113.102 E8.85364
G0 F7500 X56.928 Y113.1
G0 X56.367 Y113.183
G0 X54.576 Y116.791
G0 X54.573 Y117.677
G0 X54.518 Y117.732
G1 F1263 X54.628 Y117.905 E8.85602
G1 X55.074 Y118.308 E8.86301
G1 X56.956 Y118.971 E8.88623
G1 X57.638 Y119.42 E8.89573
G1 X57.95 Y119.956 E8.90295
G1 X58.005 Y120.185 E8.90569
G0 F7500 X57.867 Y120.222
;MESH:NONMESH
G0 F300 X57.867 Y120.222 Z0.6
G0 F7500 X57.115 Y118.804
G0 X55.197 Y118.142
G0 X54.94 Y117.956
G0 X54.738 Y117.71
G0 X54.604 Y117.421
G0 X54.551 Y117.106
G0 X54.576 Y116.791
G0 X56.367 Y113.183
G0 X56.815 Y113.29
G0 X61.09 Y115.05
;TIME_ELAPSED:27.558573
;LAYER:2
M106 S170
;TYPE:WALL-INNER
;MESH:valve_spring.stl
G1 F1241.6 X57.89 Y115.05 E9.00148
G1 X57.89 Y113.95 E9.0344
G1 X61.09 Y113.95 E9.13019
G1 X61.09 Y115.05 E9.16312
G0 F9000 X61.49 Y115.45
G1 F1241.6 X57.49 Y115.45 E9.28286
G1 X57.49 Y113.55 E9.33973
G1 X61.49 Y113.55 E9.45947
G1 X61.49 Y115.45 E9.51634
G0 F9000 X61.89 Y115.85
G1 F1241.6 X57.09 Y115.85 E9.66003
G1 X57.09 Y113.15 E9.74085
G1 X61.89 Y113.15 E9.88453
G1 X61.89 Y115.85 E9.96536
G0 F9000 X62.29 Y116.25
;TYPE:WALL-OUTER
G1 F1241.6 X56.69 Y116.25 E10.13299
G1 X56.69 Y113.292 E10.22153
G1 X56.383 Y113.219 E10.23098
G1 X54.713 Y116.52 E10.34172
G1 X54.615 Y116.799 E10.35057
G1 X54.59 Y117.105 E10.35976
G1 X54.642 Y117.409 E10.36899
G1 X54.772 Y117.689 E10.37823
G1 X54.968 Y117.927 E10.38746
G1 X55.218 Y118.108 E10.3967
G1 X55.58 Y118.245 E10.40829
G1 X57.126 Y118.767 E10.45713
G1 X57.35 Y118.87 E10.46451
G1 X57.595 Y119.031 E10.47329
G1 X57.776 Y119.193 E10.48056
G1 X57.939 Y119.383 E10.48805
G1 X58.09 Y119.628 E10.49667
G1 X58.189 Y119.858 E10.50416
G1 X58.254 Y120.094 E10.51149
G1 X58.287 Y120.387 E10.52032
G1 X58.238 Y120.879 E10.53512
G1 X58.165 Y121.106 E10.54225
G1 X58.032 Y121.377 E10.55129
G1 X57.896 Y121.574 E10.55846
G1 X57.724 Y121.759 E10.56602
G1 X57.5 Y121.939 E10.57462
G1 X57.282 Y122.066 E10.58217
G1 X57.055 Y122.159 E10.58951
G1 X56.775 Y122.226 E10.59813
G1 X56.529 Y122.249 E10.60553
G1 X56.278 Y122.237 E10.61305
G1 X56.049 Y122.196 E10.62001
G1 X47.914 Y120.189 E10.87083
G1 X47.577 Y120.161 E10.88095
G1 X47.265 Y120.232 E10.89053
G1 X46.993 Y120.382 E10.89983
G1 X46.784 Y120.525 E10.90741
G1 X46.622 Y120.561 E10.91238
G1 X46.503 Y120.517 E10.91617
G1 X46.42 Y120.415 E10.92011
G1 X46.402 Y120.293 E10.9238
G1 X46.447 Y120.176 E10.92756
G1 X46.743 Y119.948 E10.93874
G1 X46.962 Y119.823 E10.94629
G1 X47.216 Y119.726 E10.95443
G1 X47.481 Y119.674 E10.96251
G1 X47.781 Y119.666 E10.97149
G1 X48.033 Y119.704 E10.97912
G1 X56.191 Y121.715 E11.23064
G1 X56.499 Y121.751 E11.23992
G1 X56.834 Y121.706 E11.25004
G1 X57.149 Y121.573 E11.26027
G1 X57.417 Y121.363 E11.27046
G1 X57.622 Y121.091 E11.28066
G1 X57.748 Y120.775 E11.29084
G1 X57.791 Y120.422 E11.30149
G1 X57.739 Y120.084 E11.31172
G1 X57.601 Y119.773 E11.32191
G1 X57.387 Y119.508 E11.3321
G1 X57.113 Y119.307 E11.34228
G1 X56.772 Y119.174 E11.35323
G1 X55.249 Y118.661 E11.40134
G1 X55.008 Y118.559 E11.40917
G1 X54.763 Y118.403 E11.41787
G1 X54.546 Y118.206 E11.42664
G1 X54.365 Y117.974 E11.43545
G1 X54.231 Y117.723 E11.44397
G1 X54.13 Y117.416 E11.45364
G1 X54.093 Y117.131 E11.46224
G1 X54.104 Y116.84 E11.47096
G1 X54.166 Y116.552 E11.47978
G1 X54.276 Y116.275 E11.4887
G1 X56.058 Y112.75 E11.60693
G1 X62.921 Y112.75 E11.81237
G1 X64.7 Y116.269 E11.93041
G1 X64.804 Y116.525 E11.93868
G1 X64.87 Y116.809 E11.94741
G1 X64.887 Y117.101 E11.95616
G1 X64.854 Y117.39 E11.96487
G1 X64.772 Y117.667 E11.97352
G1 X64.627 Y117.956 E11.98319
G1 X64.456 Y118.183 E11.9917
G1 X64.24 Y118.386 E12.00058
