;FLAVOR:Marlin
;TIME:444
;Filament used: 0.169115m
;Layer height: 0.2
;MINX:38.304
;MINY:102.951
;MINZ:0.2
;MAXX:48.603
;MAXY:132.048
;MAXZ:9.8
;Generated with Cura_SteamEngine master
M82 ;absolute extrusion mode
; Ender 3 Custom Start G-code
M140 S75 ; Set Heat Bed temperature
M104 S160 ; start warming extruder to 160
G28 ; Home all axes
G29 ; Auto bed-level (BL-Touch)
G92 E0 ; Reset Extruder
M190 S75 ; Wait for Heat Bed temperature
M104 S210 ; Set Extruder temperature
G1 X0 Y0 Z0.3 F5000.0 ; Move to 0 0
M109 S210 ; Wait for Extruder temperature
G1 X3 Y20 Z0.3 F5000.0 ; Move to start position
; G1 Z2.0 F3000 ; Move Z Axis up little to prevent scratching of Heat Bed
G1 X3 Y200.0 Z0.3 F1500.0 E15 ; Draw the first line
G1 X3.3 Y200.0 Z0.3 F5000.0 ; Move to side a little
G1 X3.3 Y20 Z0.3 F1500.0 E30 ; Draw the second line
G92 E0 ; Reset Extruder
G1 Z2.0 F3000 ; Move Z Axis up little to prevent scratching of Heat Bed
G92 E0
G92 E0
G1 F2700 E-5
;LAYER_COUNT:49
;LAYER:0
M107
M204 S500
M205 X8 Y8
;MESH:valve_exhaust.stl
G0 F6000 X41.403 Y129.101 Z0.2
;TYPE:WALL-INNER
G1 F2700 E0
G1 F1200 X45.503 Y129.101 E0.11046
G1 X45.503 Y124.001 E0.24785
G1 X41.403 Y124.001 E0.35831
G1 X41.403 Y129.101 E0.49571
G0 F6000 X41.803 Y128.701
;TYPE:WALL-OUTER
G1 F1200 X45.103 Y128.701 E0.58461
G1 X45.103 Y124.401 E0.70046
G1 X41.803 Y124.401 E0.78936
G1 X41.803 Y128.701 E0.90521
G0 F6000 X41.303 Y128.701
G0 X41.396 Y128.072
G0 X41.375 Y123.973
G0 X42.132 Y123.201
;TYPE:WALL-INNER
G1 F1200 X42.132 Y113.102 E1.17728
G1 X41.092 Y113.101 E1.2053
G1 X41.092 Y104.401 E1.43968
G1 X45.814 Y104.401 E1.5669
G1 X45.814 Y112.896 E1.79576
G1 X45.814 Y113.097 E1.80118
G1 X45.613 Y113.095 E1.80467
G1 X44.974 Y113.088 E1.82189
G1 X44.973 Y113.087 E1.82193
G1 X44.773 Y113.087 E1.82731
G1 X44.773 Y113.287 E1.8308
G1 X44.773 Y113.288 E1.83083
G1 X44.773 Y123.201 E2.09789
G1 X42.132 Y123.201 E2.16904
G0 F6000 X41.732 Y123.601
G1 F1200 X41.732 Y113.502 E2.44112
G1 X40.692 Y113.501 E2.46914
G1 X40.692 Y104.001 E2.72507
G1 X46.214 Y104.001 E2.87384
G1 X46.214 Y113.3 E3.12436
G1 X46.214 Y113.501 E3.12978
G1 X46.013 Y113.499 E3.13327
G1 X45.374 Y113.492 E3.15049
G1 X45.373 Y113.491 E3.15053
G1 X45.173 Y113.491 E3.15591
G1 X45.173 Y113.691 E3.1594
G1 X45.173 Y113.692 E3.15943
G1 X45.173 Y123.601 E3.42638
G1 X41.732 Y123.601 E3.51909
G0 F6000 X41.375 Y123.973
G0 X41.375 Y129.129
G0 X42.132 Y130.465
G1 F1200 X42.132 Y130.266 E3.52445
G1 X42.132 Y129.901 E3.53428
G1 X44.773 Y129.901 E3.60543
G1 X44.773 Y130.464 E3.6206
G1 X42.331 Y130.465 E3.68639
G1 X42.132 Y130.465 E3.68986
G0 F6000 X41.732 Y130.865
G1 F1200 X41.732 Y130.666 E3.69522
G1 X41.732 Y129.501 E3.72661
G1 X45.173 Y129.501 E3.81931
G1 X45.173 Y130.864 E3.85603
G1 X41.931 Y130.865 E3.94337
G1 X41.732 Y130.865 E3.94684
G0 F6000 X41.332 Y131.265
G1 F1200 X41.332 Y131.066 E3.9522
G1 X41.332 Y129.101 E4.00514
G1 X41.332 Y124.001 E4.02959
G1 X41.332 Y113.902 E4.30166
G1 X40.292 Y113.901 E4.32968
G1 X40.292 Y103.601 E4.60717
G1 X46.614 Y103.601 E4.77749
G1 X46.614 Y113.862 E5.05393
G1 X46.614 Y113.901 E5.05498
G1 X46.294 Y113.902 E5.0636
G1 X46.255 Y113.902 E5.06465
G1 X45.774 Y113.897 E5.07761
G1 X45.573 Y113.895 E5.08302
G1 X45.573 Y114.096 E5.08652
G1 X45.573 Y124.001 E5.35337
G1 X45.573 Y129.101 E5.37747
G1 X45.573 Y131.264 E5.43575
G1 X41.531 Y131.265 E5.54464
G1 X41.332 Y131.265 E5.54811
G0 F6000 X40.932 Y131.665
;TYPE:WALL-OUTER
G1 F1200 X40.932 Y114.302 E6.01588
G1 X39.892 Y114.301 E6.0439
G1 X39.892 Y103.201 E6.34294
G1 X47.014 Y103.201 E6.53481
G1 X47.014 Y114.3 E6.83383
G1 X46.291 Y114.302 E6.85331
G1 X45.973 Y114.299 E6.86187
G1 X45.973 Y131.664 E7.3297
G1 X40.932 Y131.665 E7.46551
G0 F6000 X41.402 Y131.195
G0 X42.379 Y130.06
;TYPE:SKIN
G1 F1200 X42.622 Y130.303 E7.47476
G0 F6000 X42.944 Y130.06
G1 F1200 X43.187 Y130.303 E7.48402
G0 F6000 X43.51 Y130.06
G1 F1200 X43.752 Y130.302 E7.49324
G0 F6000 X44.076 Y130.06
G1 F1200 X44.318 Y130.302 E7.50246
G0 F6000 X45.531 Y129.129
G0 X45.531 Y123.973
G0 X44.383 Y122.811
G1 F1200 X42.522 Y122.811 E7.5526
G1 X42.522 Y112.712 E7.82467
G1 X41.482 Y112.711 E7.85269
G1 X41.482 Y104.791 E8.06606
G1 X45.424 Y104.791 E8.17226
G1 X45.424 Y112.703 E8.38542
G1 X44.383 Y112.693 E8.41346
G1 X44.383 Y122.811 E8.68605
G0 F6000 X42.888 Y122.649
G1 F1200 X42.682 Y122.444 E8.69388
G0 F6000 X42.682 Y121.878
G1 F1200 X43.453 Y122.649 E8.72326
G0 F6000 X44.019 Y122.649
G1 F1200 X42.682 Y121.312 E8.77419
G0 F6000 X42.682 Y120.746
G1 F1200 X44.223 Y122.287 E8.83291
G0 F6000 X44.223 Y121.722
G1 F1200 X42.682 Y120.181 E8.89162
G0 F6000 X42.682 Y119.615
G1 F1200 X44.223 Y121.156 E8.95033
G0 F6000 X44.223 Y120.59
G1 F1200 X42.682 Y119.049 E9.00904
G0 F6000 X42.682 Y118.484
G1 F1200 X44.223 Y120.025 E9.06775
G0 F6000 X44.223 Y119.459
G1 F1200 X42.682 Y117.918 E9.12647
G0 F6000 X42.682 Y117.352
G1 F1200 X44.223 Y118.893 E9.18518
G0 F6000 X44.223 Y118.327
G1 F1200 X42.682 Y116.787 E9.24387
G0 F6000 X42.682 Y116.221
G1 F1200 X44.223 Y117.762 E9.30258
G0 F6000 X44.223 Y117.196
G1 F1200 X42.682 Y115.655 E9.3613
G0 F6000 X42.682 Y115.09
G1 F1200 X44.223 Y116.63 E9.41999
G0 F6000 X44.223 Y116.065
G1 F1200 X42.682 Y114.524 E9.4787
G0 F6000 X42.682 Y113.958
G1 F1200 X44.223 Y115.499 E9.53741
G0 F6000 X44.223 Y114.933
G1 F1200 X42.682 Y113.393 E9.59611
G0 F6000 X42.682 Y112.827
G1 F1200 X44.223 Y114.368 E9.65482
G0 F6000 X44.223 Y113.802
G1 F1200 X41.641 Y111.22 E9.75319
G0 F6000 X41.641 Y110.655
G1 F1200 X44.223 Y113.236 E9.85155
G0 F6000 X44.223 Y112.671
G1 F1200 X41.641 Y110.089 E9.94992
G0 F6000 X41.641 Y109.523
G1 F1200 X44.651 Y112.533 E10.0646
G0 F6000 X45.223 Y112.539
G1 F1200 X41.641 Y108.958 E10.20106
G0 F6000 X41.641 Y108.392
G1 F1200 X45.264 Y112.014 E10.33907
G0 F6000 X45.264 Y111.449
G1 F1200 X41.641 Y107.826 E10.47711
G0 F6000 X41.641 Y107.261
G1 F1200 X45.264 Y110.883 E10.61513
G0 F6000 X45.264 Y110.317
G1 F1200 X41.641 Y106.695 E10.75314
G0 F6000 X41.641 Y106.129
G1 F1200 X45.264 Y109.752 E10.89118
G0 F6000 X45.264 Y109.186
G1 F1200 X41.641 Y105.563 E11.02921
G0 F6000 X41.641 Y104.998
G1 F1200 X45.264 Y108.62 E11.16723
G0 F6000 X45.264 Y108.055
G1 F1200 X42.159 Y104.95 E11.28553
G0 F6000 X42.725 Y104.95
G1 F1200 X45.264 Y107.489 E11.38227
G0 F6000 X45.264 Y106.923
G1 F1200 X43.291 Y104.95 E11.45744
G0 F6000 X43.856 Y104.95
G1 F1200 X45.264 Y106.358 E11.51108
G0 F6000 X45.264 Y105.792
G1 F1200 X44.422 Y104.95 E11.54316
G0 F6000 X44.988 Y104.95
G1 F1200 X45.264 Y105.226 E11.55368
G0 F6000 X41.641 Y111.786
G1 F1200 X42.405 Y112.55 E11.58279
G0 F6000 X41.839 Y112.55
M104 S210
G1 F1200 X41.641 Y112.352 E11.59033
;MESH:NONMESH
G0 F300 X41.641 Y112.352 Z0.4
G0 F6000 X41.401 Y124.04
G0 X41.303 Y128.901
G0 X41.603 Y128.901
;TIME_ELAPSED:32.572878
;LAYER:1
M140 S70
M106 S85
;TYPE:WALL-INNER
;MESH:valve_exhaust.stl
G1 F1350 X45.303 Y128.901 E11.70109
G1 X45.303 Y124.201 E11.84178
G1 X41.603 Y124.201 E11.95253
G1 X41.603 Y128.901 E12.09322
G0 F7500 X42.003 Y128.501
;TYPE:WALL-OUTER
G1 F1350 X44.903 Y128.501 E12.18003
G1 X44.903 Y124.601 E12.29678
G1 X42.003 Y124.601 E12.38359
G1 X42.003 Y128.501 E12.50033
G0 F7500 X41.503 Y128.501
G0 X41.575 Y124.173
G0 X41.932 Y123.401
;TYPE:WALL-INNER
G1 F1350 X41.932 Y113.305 E12.80254
G1 X41.01 Y113.303 E12.83014
G1 X41.009 Y104.4 E13.09665
G1 X41.009 Y104.201 E13.1026
G1 X41.208 Y104.201 E13.10646
G1 X45.897 Y104.201 E13.24682
G1 X45.897 Y113.099 E13.51317
G1 X45.897 Y113.299 E13.51916
G1 X45.697 Y113.299 E13.52304
G1 X45.172 Y113.297 E13.53875
G1 X44.973 Y113.297 E13.54471
G1 X44.973 Y113.496 E13.54856
G1 X44.973 Y123.401 E13.84506
G1 X41.932 Y123.401 E13.93609
G0 F7500 X41.532 Y123.801
G1 F1350 X41.532 Y113.704 E14.23833
G1 X40.61 Y113.702 E14.26593
G1 X40.609 Y104 E14.55635
G1 X40.609 Y103.801 E14.56231
G1 X40.808 Y103.801 E14.56616
G1 X46.297 Y103.801 E14.73047
G1 X46.297 Y113.5 E15.0208
G1 X46.297 Y113.7 E15.02679
G1 X46.097 Y113.7 E15.03067
G1 X45.572 Y113.698 E15.04638
G1 X45.373 Y113.698 E15.05234
G1 X45.373 Y113.897 E15.05619
G1 X45.373 Y123.801 E15.35266
G1 X41.532 Y123.801 E15.46764
G0 F7500 X41.575 Y128.929
G0 X41.932 Y130.629
G1 F1350 X41.932 Y130.43 E15.4736
G1 X41.932 Y129.701 E15.49542
G1 X44.973 Y129.701 E15.58645
G1 X44.973 Y130.628 E15.6142
G1 X42.131 Y130.629 E15.69927
G1 X41.932 Y130.629 E15.70312
G0 F7500 X41.532 Y131.029
G1 F1350 X41.532 Y130.83 E15.70908
G1 X41.532 Y129.301 E15.75485
G1 X45.373 Y129.301 E15.86983
G1 X45.373 Y131.028 E15.92152
G1 X41.731 Y131.029 E16.03054
G1 X41.532 Y131.029 E16.0344
G0 F7500 X41.132 Y131.429
G1 F1350 X41.132 Y131.23 E16.04035
G1 X41.132 Y114.103 E16.55304
G1 X40.21 Y114.101 E16.58063
G1 X40.209 Y103.6 E16.89497
G1 X40.209 Y103.401 E16.90093
G1 X40.408 Y103.401 E16.90478
G1 X46.697 Y103.401 E17.09304
G1 X46.697 Y113.901 E17.40735
G1 X46.697 Y114.101 E17.41333
G1 X46.497 Y114.101 E17.41721
G1 X45.972 Y114.099 E17.43293
G1 X45.773 Y114.099 E17.43888
G1 X45.773 Y114.298 E17.44274
G1 X45.773 Y131.428 E17.95551
G1 X41.331 Y131.429 E18.08848
G1 X41.132 Y131.429 E18.09233
G0 F7500 X40.732 Y131.829
;TYPE:WALL-OUTER
G1 F1350 X40.732 Y114.502 E18.611
G1 X40.021 Y114.501 E18.63228
G1 X39.81 Y114.352 E18.64001
G1 X39.809 Y103.001 E18.9798
G1 X47.097 Y103.001 E19.19796
G1 X47.097 Y114.351 E19.53771
G1 X46.886 Y114.501 E19.54546
G1 X46.173 Y114.5 E19.5668
G1 X46.173 Y131.828 E20.0855
G1 X40.732 Y131.829 E20.24837
G0 F7500 X41.202 Y131.359
G0 X42.322 Y130.239
;TYPE:SKIN
G1 F1350 X42.322 Y130.091 E20.2528
G1 X44.583 Y130.091 E20.32048
G1 X44.583 Y130.238 E20.32488
G1 X42.322 Y130.239 E20.39256
G0 F7500 X41.575 Y128.929
G0 X41.575 Y124.173
G0 X42.322 Y123.011
G1 F1350 X42.322 Y112.915 E20.69478
G1 X41.4 Y112.913 E20.72238
G1 X41.399 Y104.591 E20.97149
G1 X45.507 Y104.591 E21.09446
G1 X45.507 Y112.909 E21.34345
G1 X44.583 Y112.907 E21.37111
G1 X44.583 Y123.011 E21.67356
G1 X42.322 Y123.011 E21.74125
G0 F7500 X44.026 Y122.85
G1 F1350 X44.422 Y122.454 E21.75801
G0 F7500 X44.422 Y121.888
G1 F1350 X43.46 Y122.85 E21.79873
G0 F7500 X42.895 Y122.85
G1 F1350 X44.422 Y121.323 E21.86338
G0 F7500 X44.422 Y120.757
G1 F1350 X42.482 Y122.697 E21.9455
G0 F7500 X42.482 Y122.132
G1 F1350 X44.422 Y120.191 E22.02765
G0 F7500 X44.422 Y119.626
G1 F1350 X42.482 Y121.566 E22.10978
G0 F7500 X42.482 Y121
G1 F1350 X44.422 Y119.06 E22.1919
G0 F7500 X44.422 Y118.494
G1 F1350 X42.482 Y120.435 E22.27405
G0 F7500 X42.482 Y119.869
G1 F1350 X44.422 Y117.929 E22.35618
G0 F7500 X44.422 Y117.363
G1 F1350 X42.482 Y119.303 E22.4383
G0 F7500 X42.482 Y118.738
G1 F1350 X44.422 Y116.797 E22.52045
G0 F7500 X44.422 Y116.232
G1 F1350 X42.482 Y118.172 E22.60258
G0 F7500 X42.482 Y117.606
G1 F1350 X44.422 Y115.666 E22.68471
G0 F7500 X44.422 Y115.1
G1 F1350 X42.482 Y117.041 E22.76685
G0 F7500 X42.482 Y116.475
G1 F1350 X44.422 Y114.535 E22.84898
G0 F7500 X44.422 Y113.969
G1 F1350 X42.482 Y115.909 E22.93111
G0 F7500 X42.482 Y115.343
G1 F1350 X44.422 Y113.403 E23.01323
G0 F7500 X44.422 Y112.837
G1 F1350 X42.482 Y114.778 E23.09538
G0 F7500 X42.482 Y114.212
G1 F1350 X45.346 Y111.348 E23.21662
G0 F7500 X45.346 Y111.913
G1 F1350 X44.513 Y112.746 E23.25189
G0 F7500 X45.078 Y112.748
G1 F1350 X45.346 Y112.479 E23.26325
G0 F7500 X45.346 Y110.782
G1 F1350 X42.482 Y113.646 E23.3845
G0 F7500 X42.482 Y113.081
G1 F1350 X45.346 Y110.216 E23.50576
G0 F7500 X45.346 Y109.651
G1 F1350 X42.243 Y112.754 E23.63712
G0 F7500 X41.678 Y112.753
G1 F1350 X45.346 Y109.085 E23.7924
G0 F7500 X45.346 Y108.519
G1 F1350 X41.559 Y112.306 E23.95271
G0 F7500 X41.559 Y111.741
G1 F1350 X45.346 Y107.953 E24.11305
G0 F7500 X45.346 Y107.388
G1 F1350 X41.559 Y111.175 E24.27337
G0 F7500 X41.559 Y110.609
G1 F1350 X45.346 Y106.822 E24.43368
G0 F7500 X45.346 Y106.256
G1 F1350 X41.559 Y110.044 E24.59402
G0 F7500 X41.559 Y109.478
G1 F1350 X45.346 Y105.691 E24.75434
G0 F7500 X45.346 Y105.125
G1 F1350 X41.559 Y108.912 E24.91465
G0 F7500 X41.559 Y108.347
G1 F1350 X45.156 Y104.75 E25.06692
G0 F7500 X44.59 Y104.75
G1 F1350 X41.559 Y107.781 E25.19524
G0 F7500 X41.559 Y107.215
G1 F1350 X44.025 Y104.75 E25.29961
G0 F7500 X43.459 Y104.75
G1 F1350 X41.559 Y106.65 E25.38004
G0 F7500 X41.559 Y106.084
G1 F1350 X42.893 Y104.75 E25.43651
G0 F7500 X42.328 Y104.75
G1 F1350 X41.559 Y105.518 E25.46905
G0 F7500 X41.559 Y104.953
G1 F1350 X41.762 Y104.75 E25.47764
G0 F7500 X41.427 Y124.035
G0 X41.367 Y124.095
;TYPE:SKIN
G1 F1350 X41.367 Y124.377 E25.48036
G1 X41.367 Y128.903 E25.52395
G0 F7500 X41.307 Y128.964
G0 X45.478 Y129.035
G0 X45.537 Y128.975
G1 F1350 X45.537 Y128.692 E25.52665
G1 X45.537 Y124.167 E25.56988
G0 F7500 X45.585 Y123.919
;MESH:NONMESH
G0 F300 X45.585 Y123.919 Z0.6
G0 F7500 X41.653 Y124.101
G0 X41.653 Y124.251
;TIME_ELAPSED:60.450967
;LAYER:2
M106 S170
;TYPE:WALL-INNER
;MESH:valve_exhaust.stl
G1 F1500 X41.653 Y128.701 E25.70309
G1 X45.253 Y128.701 E25.81085
G1 X45.253 Y124.251 E25.94405
G1 X41.653 Y124.251 E26.05182
G0 F9000 X42.053 Y124.651
;TYPE:WALL-OUTER
G1 F1500 X42.053 Y128.301 E26.16108
G1 X44.853 Y128.301 E26.24489
G1 X44.853 Y124.651 E26.35415
G1 X42.053 Y124.651 E26.43797
G0 F9000 X42.053 Y124.151
G0 X41.625 Y124.223
G0 X41.625 Y128.729
G0 X41.883 Y129.501
;TYPE:WALL-INNER
G1 F1500 X45.023 Y129.501 E26.53196
G1 X45.023 Y130.739 E26.56902
G1 X42.082 Y130.74 E26.65706
G1 X41.883 Y130.74 E26.66301
G1 X41.883 Y130.541 E26.66687
G1 X41.883 Y129.501 E26.698
G0 F9000 X41.483 Y129.101
G1 F1500 X45.423 Y129.101 E26.81594
G1 X45.423 Y131.139 E26.87694
G1 X41.682 Y131.14 E26.98893
G1 X41.483 Y131.14 E26.99488
G1 X41.483 Y130.941 E26.99874
G1 X41.483 Y129.101 E27.05382
G0 F9000 X41.137 Y104.151
G1 F1500 X45.772 Y104.151 E27.19256
G1 X45.773 Y113.152 E27.462
G1 X45.773 Y113.351 E27.46796
G1 X45.574 Y113.351 E27.47181
G1 X45.023 Y113.351 E27.4883
G1 X45.023 Y123.451 E27.79064
G1 X41.883 Y123.451 E27.88463
G1 X41.883 Y113.351 E28.18697
G1 X41.333 Y113.351 E28.20343
G1 X41.134 Y113.351 E28.20939
G1 X41.134 Y113.152 E28.21324
G1 X41.136 Y104.694 E28.46642
G1 X41.137 Y104.151 E28.48268
G0 F9000 X40.736 Y103.751
G1 F1500 X40.935 Y103.751 E28.48864
G1 X46.172 Y103.751 E28.6454
G1 X46.173 Y113.552 E28.93878
G1 X46.173 Y113.751 E28.94474
G1 X45.974 Y113.751 E28.9486
G1 X45.423 Y113.751 E28.96509
G1 X45.423 Y123.851 E29.26742
G1 X41.483 Y123.851 E29.38536
G1 X41.483 Y113.751 E29.6877
G1 X40.933 Y113.751 E29.70416
G1 X40.734 Y113.751 E29.71012
G1 X40.734 Y113.552 E29.71397
G1 X40.738 Y104.693 E29.97916
G1 X40.736 Y103.95 E30.0014
G1 X40.736 Y103.751 E30.00526
G0 F9000 X40.335 Y103.351
G1 F1500 X40.534 Y103.351 E30.01121
G1 X46.572 Y103.351 E30.19195
G1 X46.573 Y113.944 E30.50905
G1 X46.573 Y114.091 E30.51345
G1 X46.488 Y114.151 E30.51656
G1 X46.341 Y114.151 E30.52096
G1 X45.823 Y114.151 E30.53647
G1 X45.823 Y131.539 E31.05696
G1 X41.282 Y131.54 E31.19289
G1 X41.083 Y131.54 E31.19885
G1 X41.083 Y131.341 E31.2027
G1 X41.083 Y114.151 E31.71727
G1 X40.567 Y114.151 E31.73272
G1 X40.42 Y114.151 E31.73712
G1 X40.334 Y114.09 E31.74027
G1 X40.334 Y113.943 E31.74467
G1 X40.338 Y104.693 E32.02156
G1 X40.335 Y103.55 E32.05578
G1 X40.335 Y103.351 E32.05963
G0 F9000 X39.934 Y102.951
;TYPE:WALL-OUTER
G1 F1500 X46.972 Y102.951 E32.27031
G1 X46.973 Y114.298 E32.60997
G1 X46.614 Y114.551 E32.62312
G1 X46.223 Y114.551 E32.63482
G1 X46.223 Y131.939 E33.15532
G1 X40.683 Y131.94 E33.32115
G1 X40.683 Y114.551 E33.84168
G1 X40.292 Y114.551 E33.85338
G1 X39.934 Y114.298 E33.8665
G1 X39.938 Y104.693 E34.15402
G1 X39.934 Y102.951 E34.20617
G0 F9000 X40.405 Y103.421
G0 X41.527 Y104.541
;TYPE:SKIN
G1 F1500 X45.382 Y104.541 E34.32156
G1 X45.383 Y112.961 E34.57361
G1 X44.633 Y112.961 E34.59606
G1 X44.633 Y123.061 E34.89839
G1 X42.273 Y123.061 E34.96904
G1 X42.273 Y112.961 E35.27137
G1 X41.524 Y112.961 E35.29379
G1 X41.527 Y104.541 E35.54584
G0 F9000 X45.222 Y105.184
G1 F1500 X44.737 Y104.7 E35.56635
G0 F9000 X44.172 Y104.7
G1 F1500 X45.222 Y105.75 E35.6108
G0 F9000 X45.222 Y106.316
G1 F1500 X43.606 Y104.7 E35.67921
G0 F9000 X43.04 Y104.7
G1 F1500 X45.222 Y106.882 E35.77158
G0 F9000 X45.222 Y107.447
G1 F1500 X42.475 Y104.7 E35.88787
G0 F9000 X41.909 Y104.7
G1 F1500 X45.222 Y108.013 E36.02812
G0 F9000 X45.222 Y108.579
