; generated by Slic3r 1.3.0 on 2020-09-26 at 16:08:23

; external perimeters extrusion width = 0.44mm (3.38mm^3/s)
; perimeters extrusion width = 0.48mm (7.54mm^3/s)
; infill extrusion width = 0.48mm (10.05mm^3/s)
; solid infill extrusion width = 0.48mm (2.51mm^3/s)
; top infill extrusion width = 0.15mm (0.39mm^3/s)

M107
M190 S70 ; set bed temperature and wait for it to be reached
M104 S205 ; set temperature
G28 ; home all axes
G1 Z5 F5000 ; lift nozzle

; Filament gcode

M109 S205 ; set temperature and wait for it to be reached
G21 ; set units to millimeters
G90 ; use absolute coordinates
M82 ; use absolute distances for extrusion
G92 E0
G1 Z0.350 F7800.000
G1 E-2.00000 F2400.00000
G92 E0
G1 X113.282 Y40.201 F7800.000
G1 E2.00000 F2400.00000
G1 F1800
G1 X113.722 Y39.337 E2.08810
G1 X114.329 Y38.309 E2.19669
G1 X115.072 Y37.256 E2.31388
G1 X115.838 Y36.340 E2.42245
G1 X116.743 Y35.422 E2.53967
G1 X117.649 Y34.644 E2.64826
G1 X118.691 Y33.886 E2.76545
G1 X119.695 Y33.276 E2.87223
G1 X120.864 Y32.688 E2.99123
G1 X121.972 Y32.242 E3.09983
G1 X123.203 Y31.861 E3.21701
G1 X135.344 Y29.167 E4.34779
G1 X137.841 Y29.020 E4.57529
G1 X140.377 Y29.718 E4.81444
G1 X143.096 Y30.986 E5.08724
G1 X145.167 Y32.390 E5.31474
G1 X146.834 Y34.647 E5.56983
G1 X151.942 Y45.029 E6.62197
G1 X152.236 Y45.704 E6.68891
G1 X152.667 Y46.839 E6.79930
G1 X153.030 Y48.098 E6.91848
G1 X153.264 Y49.270 E7.02712
G1 X153.417 Y50.591 E7.14806
G1 X153.453 Y51.805 E7.25850
G1 X153.384 Y53.114 E7.37764
G1 X153.219 Y54.316 E7.48804
G1 X152.934 Y55.596 E7.60722
G1 X152.571 Y56.755 E7.71765
G1 X152.172 Y57.776 E7.81738
G1 X92.204 Y184.388 E20.55623
G1 X90.787 Y186.451 E20.78373
G1 X88.795 Y187.965 E21.01123
G1 X86.429 Y188.777 E21.23873
G1 X83.927 Y188.806 E21.46623
G1 X81.543 Y188.049 E21.69373
G1 X79.516 Y186.583 E21.92123
G1 X78.051 Y184.554 E22.14873
G1 X77.541 Y183.270 E22.27438
G1 X67.618 Y150.021 E25.42948
G1 X67.292 Y147.540 E25.65698
G1 X67.940 Y144.633 E25.92786
G1 X113.258 Y40.256 E36.27477
G1 X113.856 Y40.450 F7800.000
G1 F1800
G1 X114.260 Y39.655 E36.35588
G1 X114.867 Y38.626 E36.46447
G1 X115.551 Y37.657 E36.57236
G1 X116.317 Y36.741 E36.68093
G1 X117.151 Y35.896 E36.78885
G1 X118.056 Y35.117 E36.89744
G1 X119.016 Y34.420 E37.00532
G1 X120.019 Y33.810 E37.11210
G1 X121.097 Y33.268 E37.22180
G1 X122.205 Y32.822 E37.33040
G1 X123.339 Y32.471 E37.43828
G1 X135.479 Y29.777 E38.56904
G1 X137.876 Y29.653 E38.78727
G1 X140.113 Y30.284 E38.99866
G1 X142.832 Y31.552 E39.27146
G1 X144.809 Y32.913 E39.48969
G1 X146.273 Y34.922 E39.71577
G1 X151.381 Y45.305 E40.76791
G1 X151.652 Y45.926 E40.82954
G1 X152.083 Y47.061 E40.93994
G1 X152.417 Y48.221 E41.04966
G1 X152.651 Y49.391 E41.15823
G1 X152.792 Y50.610 E41.26978
G1 X152.829 Y51.824 E41.38022
G1 X152.765 Y53.029 E41.48990
G1 X152.600 Y54.231 E41.60030
G1 X152.337 Y55.409 E41.71002
G1 X151.975 Y56.568 E41.82045
G1 X151.607 Y57.509 E41.91226
G1 X91.639 Y184.121 E54.65111
G1 X90.267 Y186.090 E54.86934
G1 X88.327 Y187.503 E55.08757
G1 X86.032 Y188.206 E55.30579
G1 X83.634 Y188.120 E55.52402
G1 X81.395 Y187.257 E55.74225
G1 X79.560 Y185.709 E55.96048
G1 X78.140 Y183.091 E56.23131
G1 X68.217 Y149.842 E59.38641
G1 X67.920 Y147.461 E59.60464
G1 X68.513 Y144.881 E59.84528
G1 X113.832 Y40.505 E70.19219
G1 X114.429 Y40.698 F7800.000
G1 F1800
G1 X114.799 Y39.972 E70.26631
G1 X115.405 Y38.943 E70.37490
G1 X116.031 Y38.058 E70.47349
G1 X116.797 Y37.142 E70.58206
G1 X117.558 Y36.370 E70.68067
G1 X118.464 Y35.591 E70.78926
G1 X119.341 Y34.954 E70.88785
G1 X120.344 Y34.344 E70.99462
G1 X121.331 Y33.848 E71.09502
G1 X122.439 Y33.402 E71.20362
G1 X123.474 Y33.081 E71.30221
G1 X135.614 Y30.387 E72.43295
G1 X137.906 Y30.286 E72.64149
G1 X139.849 Y30.851 E72.82552
G1 X142.568 Y32.119 E73.09831
G1 X144.447 Y33.433 E73.30686
G1 X145.712 Y35.198 E73.50433
G1 X150.820 Y45.581 E74.55647
G1 X151.068 Y46.149 E74.61279
G1 X151.499 Y47.283 E74.72318
G1 X151.805 Y48.343 E74.82344
G1 X152.038 Y49.514 E74.93201
G1 X152.167 Y50.629 E75.03411
G1 X152.204 Y51.843 E75.14454
G1 X152.146 Y52.944 E75.24477
G1 X151.981 Y54.147 E75.35516
G1 X151.741 Y55.223 E75.45543
G1 X151.379 Y56.382 E75.56586
G1 X151.043 Y57.241 E75.64975
G1 X91.074 Y183.853 E88.38860
G1 X89.749 Y185.725 E88.59715
G1 X87.864 Y187.032 E88.80569
G1 X85.647 Y187.619 E89.01423
G1 X83.363 Y187.414 E89.22277
G1 X81.285 Y186.443 E89.43132
G1 X79.663 Y184.822 E89.63986
G1 X78.739 Y182.912 E89.83274
G1 X68.815 Y149.663 E92.98784
G1 X68.550 Y147.385 E93.19638
G1 X69.087 Y145.130 E93.40717
G1 X114.405 Y40.753 E103.75408
G1 E101.75408 F2400.00000
G92 E0
G1 X141.816 Y53.298 F7800.000
G1 E2.00000 F2400.00000
G1 F1800
G1 X141.271 Y54.152 E2.09210
G1 X140.525 Y54.836 E2.18421
G1 X139.626 Y55.304 E2.27631
G1 X138.637 Y55.523 E2.36841
G1 X137.625 Y55.479 E2.46052
G1 X136.659 Y55.175 E2.55262
G1 X135.805 Y54.630 E2.64472
G1 X135.121 Y53.884 E2.73682
G1 X134.653 Y52.985 E2.82893
G1 X134.434 Y51.996 E2.92103
G1 X134.478 Y50.984 E3.01313
G1 X134.783 Y50.018 E3.10524
G1 X135.327 Y49.164 E3.19734
G1 X136.074 Y48.480 E3.28944
G1 X136.972 Y48.012 E3.38154
G1 X137.948 Y47.796 E3.47244
G1 X138.970 Y47.836 E3.56541
G1 X139.939 Y48.142 E3.65782
G1 X140.793 Y48.686 E3.74993
G1 X141.478 Y49.433 E3.84203
G1 X141.945 Y50.331 E3.93413
G1 X142.164 Y51.320 E4.02624
G1 X142.120 Y52.332 E4.11834
G1 X141.834 Y53.241 E4.20499
G1 X141.244 Y53.032 F7800.000
G1 F1800
G1 X140.789 Y53.747 E4.28213
G1 X140.163 Y54.320 E4.35927
G1 X139.411 Y54.712 E4.43641
G1 X138.582 Y54.896 E4.51355
G1 X137.735 Y54.859 E4.59070
G1 X136.926 Y54.603 E4.66784
G1 X136.210 Y54.148 E4.74498
G1 X135.637 Y53.522 E4.82212
G1 X135.245 Y52.770 E4.89926
G1 X135.062 Y51.941 E4.97640
G1 X135.099 Y51.094 E5.05355
G1 X135.354 Y50.285 E5.13069
G1 X135.810 Y49.569 E5.20783
G1 X136.435 Y48.996 E5.28497
G1 X137.188 Y48.604 E5.36211
G1 X138.004 Y48.423 E5.43817
G1 X138.861 Y48.457 E5.51618
G1 X139.673 Y48.713 E5.59351
G1 X140.388 Y49.169 E5.67065
G1 X140.961 Y49.794 E5.74779
G1 X141.353 Y50.547 E5.82493
G1 X141.537 Y51.375 E5.90208
G1 X141.500 Y52.222 E5.97922
G1 X141.262 Y52.974 E6.05090
G1 X140.673 Y52.765 F7800.000
G1 F1800
G1 X140.306 Y53.342 E6.11308
G1 X139.802 Y53.804 E6.17526
G1 X139.195 Y54.120 E6.23744
G1 X138.527 Y54.268 E6.29962
G1 X137.844 Y54.238 E6.36181
G1 X137.192 Y54.032 E6.42399
G1 X136.615 Y53.665 E6.48617
G1 X136.153 Y53.161 E6.54835
G1 X135.838 Y52.554 E6.61053
G1 X135.690 Y51.886 E6.67271
G1 X135.719 Y51.203 E6.73489
G1 X135.925 Y50.551 E6.79707
G1 X136.292 Y49.974 E6.85925
G1 X136.797 Y49.512 E6.92143
G1 X137.403 Y49.197 E6.98361
G1 X138.061 Y49.051 E7.04483
G1 X138.753 Y49.078 E7.10787
G1 X139.406 Y49.284 E7.17012
G1 X139.983 Y49.651 E7.23230
G1 X140.445 Y50.156 E7.29448
G1 X140.761 Y50.762 E7.35666
G1 X140.909 Y51.430 E7.41884
G1 X140.879 Y52.113 E7.48103
G1 X140.691 Y52.708 E7.53775
G1 X140.673 Y52.765 F7800.000
G1 E5.53775 F2400.00000
G92 E0
G1 X130.594 Y48.135 F7800.000
G1 E2.00000 F2400.00000
G1 F1800
G1 X130.087 Y48.944 E2.08679
G1 X129.398 Y49.605 E2.17357
G1 X128.569 Y50.077 E2.26036
G1 X127.649 Y50.332 E2.34714
G1 X126.634 Y50.357 E2.43948
G1 X125.777 Y50.172 E2.51922
G1 X124.895 Y49.727 E2.60903
G1 X124.152 Y49.068 E2.69938
G1 X123.608 Y48.263 E2.78769
G1 X123.279 Y47.336 E2.87719
G1 X123.194 Y46.355 E2.96669
G1 X123.359 Y45.385 E3.05619
G1 X123.763 Y44.487 E3.14569
G1 X124.380 Y43.720 E3.23519
G1 X125.173 Y43.131 E3.32499
G1 X126.095 Y42.762 E3.41533
G1 X127.058 Y42.635 E3.50366
G1 X128.035 Y42.757 E3.59316
G1 X128.949 Y43.121 E3.68266
G1 X129.218 Y43.317 E3.71291
G1 X129.485 Y43.341 E3.73732
G1 X130.384 Y44.467 E3.86837
G1 X130.781 Y45.339 E3.95545
G1 X130.950 Y46.287 E4.04306
G1 X130.888 Y47.227 E4.12871
G1 X130.613 Y48.078 E4.21004
G1 X130.023 Y47.869 F7800.000
G1 F1800
G1 X129.599 Y48.547 E4.28273
G1 X129.022 Y49.100 E4.35543
G1 X128.327 Y49.496 E4.42813
G1 X127.557 Y49.710 E4.50082
G1 X126.694 Y49.730 E4.57935
G1 X125.987 Y49.578 E4.64506
G1 X125.249 Y49.206 E4.72021
G1 X124.626 Y48.652 E4.79602
G1 X124.170 Y47.979 E4.86993
G1 X123.895 Y47.202 E4.94489
G1 X123.824 Y46.381 E5.01986
G1 X123.962 Y45.568 E5.09482
G1 X124.300 Y44.816 E5.16979
G1 X124.817 Y44.174 E5.24475
G1 X125.480 Y43.681 E5.31990
G1 X126.254 Y43.371 E5.39571
G1 X127.060 Y43.265 E5.46962
G1 X127.878 Y43.367 E5.54458
G1 X128.644 Y43.672 E5.61955
G1 X128.989 Y43.925 E5.65841
G1 X129.164 Y43.940 E5.67437
G1 X129.848 Y44.797 E5.77405
G1 X130.180 Y45.526 E5.84693
G1 X130.322 Y46.322 E5.92044
G1 X130.270 Y47.108 E5.99212
G1 X130.042 Y47.812 E6.05936
G1 X129.453 Y47.603 F7800.000
G1 F1800
G1 X129.111 Y48.149 E6.11796
G1 X128.645 Y48.595 E6.17657
G1 X128.085 Y48.914 E6.23518
G1 X127.464 Y49.087 E6.29378
G1 X126.753 Y49.104 E6.35850
G1 X126.197 Y48.984 E6.41018
G1 X125.603 Y48.684 E6.47068
G1 X125.099 Y48.237 E6.53196
G1 X124.732 Y47.695 E6.59145
G1 X124.510 Y47.069 E6.65188
G1 X124.453 Y46.407 E6.71231
G1 X124.565 Y45.752 E6.77274
G1 X124.837 Y45.145 E6.83317
G1 X125.254 Y44.628 E6.89360
G1 X125.788 Y44.231 E6.95410
G1 X126.413 Y43.980 E7.01537
G1 X127.062 Y43.895 E7.07486
G1 X127.722 Y43.977 E7.13529
G1 X128.339 Y44.223 E7.19573
G1 X128.760 Y44.532 E7.24319
G1 X128.842 Y44.539 E7.25071
G1 X129.311 Y45.126 E7.31901
G1 X129.578 Y45.713 E7.37769
G1 X129.693 Y46.357 E7.43711
G1 X129.651 Y46.990 E7.49481
G1 X129.471 Y47.546 E7.54796
G1 X129.453 Y47.603 F7800.000
G1 E5.54796 F2400.00000
G92 E0
G1 X134.108 Y46.476 F7800.000
G1 E2.00000 F2400.00000
G1 F1800
G1 X138.056 Y45.975 E2.36188
G1 X139.002 Y46.014 E2.44797
G1 X139.929 Y46.208 E2.53407
G1 X140.810 Y46.554 E2.62016
G1 X141.607 Y47.032 E2.70464
G1 X142.343 Y47.658 E2.79252
G1 X142.949 Y48.382 E2.87841
G1 X143.428 Y49.199 E2.96451
G1 X143.765 Y50.084 E3.05060
G1 X143.947 Y50.995 E3.13507
G1 X143.979 Y51.961 E3.22296
G1 X143.851 Y52.897 E3.30885
G1 X143.568 Y53.801 E3.39495
G1 X143.140 Y54.645 E3.48104
G1 X142.577 Y55.407 E3.56713
G1 X141.896 Y56.064 E3.65323
G1 X141.116 Y56.600 E3.73932
G1 X140.257 Y56.999 E3.82541
G1 X139.344 Y57.249 E3.91151
G1 X138.402 Y57.345 E3.99760
G1 X136.191 Y57.201 E4.19910
G1 X99.203 Y144.339 E12.80681
G1 X98.978 Y144.243 E12.82901
G1 X85.351 Y176.307 E15.99694
G1 X76.876 Y147.913 E18.69140
G1 X124.251 Y51.730 E28.44062
G1 X122.707 Y50.163 E28.64065
G1 X122.170 Y49.402 E28.72532
G1 X121.764 Y48.564 E28.81000
G1 X121.501 Y47.671 E28.89467
G1 X121.387 Y46.747 E28.97934
G1 X121.425 Y45.816 E29.06402
G1 X121.615 Y44.905 E29.14869
G1 X121.950 Y44.036 E29.23336
G1 X122.423 Y43.234 E29.31803
G1 X123.021 Y42.520 E29.40271
G1 X123.727 Y41.913 E29.48738
G1 X124.507 Y41.438 E29.57046
G1 X125.388 Y41.081 E29.65689
G1 X126.295 Y40.879 E29.74137
G1 X127.225 Y40.828 E29.82605
G1 X128.151 Y40.930 E29.91072
G1 X129.047 Y41.181 E29.99539
G1 X129.891 Y41.575 E30.08006
G1 X130.659 Y42.101 E30.16474
G1 X131.331 Y42.746 E30.24941
G1 X132.208 Y43.919 E30.38257
G1 X134.748 Y45.103 E30.63736
G1 X134.133 Y46.421 E30.76964
G1 X135.153 Y45.713 F7800.000
G1 F1800
G1 X138.029 Y45.349 E31.03328
G1 X139.080 Y45.391 E31.12887
G1 X140.108 Y45.608 E31.22445
G1 X141.087 Y45.991 E31.32003
G1 X141.972 Y46.523 E31.41393
G1 X142.788 Y47.216 E31.51130
G1 X143.462 Y48.021 E31.60676
G1 X143.994 Y48.928 E31.70235
G1 X144.368 Y49.911 E31.79793
G1 X144.570 Y50.923 E31.89181
G1 X144.605 Y51.993 E31.98919
G1 X144.463 Y53.034 E32.08466
G1 X144.149 Y54.037 E32.18024
G1 X143.674 Y54.974 E32.27583
G1 X143.049 Y55.820 E32.37141
G1 X142.293 Y56.550 E32.46699
G1 X141.426 Y57.145 E32.56258
G1 X140.473 Y57.588 E32.65816
G1 X139.459 Y57.866 E32.75375
G1 X138.413 Y57.972 E32.84933
G1 X136.592 Y57.853 E33.01524
G1 X99.534 Y145.158 E41.63944
G1 X99.309 Y145.063 E41.66167
G1 X85.248 Y178.147 E44.93043
G1 X76.207 Y147.856 E47.80482
G1 X123.494 Y51.852 E57.53594
G1 X122.226 Y50.566 E57.70024
G1 X121.630 Y49.721 E57.79425
G1 X121.179 Y48.790 E57.88825
G1 X120.887 Y47.799 E57.98226
G1 X120.760 Y46.772 E58.07626
G1 X120.803 Y45.740 E58.17027
G1 X121.013 Y44.727 E58.26428
G1 X121.386 Y43.763 E58.35828
G1 X121.911 Y42.872 E58.45229
G1 X122.574 Y42.080 E58.54629
G1 X123.358 Y41.405 E58.64030
G1 X124.226 Y40.878 E58.73263
G1 X125.202 Y40.482 E58.82840
G1 X126.210 Y40.258 E58.92229
G1 X127.242 Y40.202 E59.01630
G1 X128.270 Y40.314 E59.11030
G1 X129.265 Y40.593 E59.20431
G1 X130.202 Y41.030 E59.29831
G1 X131.055 Y41.615 E59.39232
G1 X131.801 Y42.330 E59.48632
G1 X132.615 Y43.419 E59.60988
G1 X134.627 Y44.357 E59.81172
G1 X137.521 Y38.151 E60.43438
G1 X138.472 Y38.594 E60.52987
G1 X135.178 Y45.659 E61.23864
G1 X136.198 Y44.951 F7800.000
G1 F1800
G1 X138.003 Y44.722 E61.40406
G1 X139.157 Y44.769 E61.50913
G1 X140.288 Y45.007 E61.61421
G1 X141.364 Y45.429 E61.71928
G1 X142.338 Y46.013 E61.82259
G1 X143.233 Y46.775 E61.92945
G1 X143.975 Y47.660 E62.03448
G1 X144.559 Y48.657 E62.13956
G1 X144.970 Y49.737 E62.24463
G1 X145.193 Y50.851 E62.34793
G1 X145.232 Y52.026 E62.45480
G1 X145.075 Y53.170 E62.55983
G1 X144.730 Y54.273 E62.66491
G1 X144.207 Y55.304 E62.76998
G1 X143.521 Y56.233 E62.87506
G1 X142.689 Y57.036 E62.98013
G1 X141.737 Y57.690 E63.08521
G1 X140.688 Y58.176 E63.19028
G1 X139.574 Y58.482 E63.29536
G1 X138.425 Y58.599 E63.40043
G1 X136.994 Y58.506 E63.53076
G1 X99.865 Y145.978 E72.17144
G1 X99.639 Y145.882 E72.19369
G1 X85.145 Y179.987 E75.56329
G1 X75.538 Y147.800 E78.61762
G1 X122.737 Y51.975 E88.33063
G1 X121.745 Y50.968 E88.45920
G1 X121.089 Y50.039 E88.56254
G1 X120.595 Y49.016 E88.66588
G1 X120.273 Y47.926 E88.76922
G1 X120.134 Y46.798 E88.87256
G1 X120.181 Y45.663 E88.97590
G1 X120.412 Y44.550 E89.07923
G1 X120.822 Y43.490 E89.18257
G1 X121.399 Y42.511 E89.28591
G1 X122.128 Y41.639 E89.38925
G1 X122.990 Y40.898 E89.49259
G1 X123.944 Y40.318 E89.59418
G1 X125.016 Y39.883 E89.69928
G1 X126.124 Y39.637 E89.80258
G1 X127.259 Y39.575 E89.90592
G1 X128.389 Y39.699 E90.00926
G1 X129.483 Y40.005 E90.11260
G1 X130.513 Y40.486 E90.21593
G1 X131.450 Y41.128 E90.31927
G1 X132.271 Y41.915 E90.42261
G1 X133.021 Y42.919 E90.53656
G1 X134.324 Y43.526 E90.66731
G1 X137.218 Y37.320 E91.28996
G1 X139.303 Y38.292 E91.49910
G1 X136.223 Y44.896 E92.16171
G1 X136.214 Y45.351 F7800.000
G1 X134.971 Y44.862 F7800.000
G1 F1800
G1 X137.864 Y38.656 E92.51069
G1 E90.51069 F2400.00000
G92 E0
G1 X136.792 Y46.553 F7800.000
G1 E2.00000 F2400.00000
G1 F1800
G1 X137.812 Y46.424 E2.09416
G1 X136.590 Y47.646 E2.25251
G1 X137.649 Y47.411 E2.35188
G1 X137.713 Y47.414 E2.35773
G1 X138.750 Y46.376 E2.49219
G1 X139.168 Y46.393 E2.53045
G1 X139.545 Y46.472 E2.56574
G1 X138.569 Y47.447 E2.69212
G1 X138.835 Y47.458 E2.71647
G1 X139.302 Y47.605 E2.76134
G1 X140.243 Y46.664 E2.88323
G1 X140.776 Y46.874 E2.93575
G1 X140.868 Y46.929 E2.94559
G1 X139.976 Y47.822 E3.06127
G1 X140.519 Y48.168 E3.12036
G1 X141.425 Y47.263 E3.23766
G1 X141.914 Y47.664 E3.29563
G1 X141.040 Y48.538 E3.40891
G1 X141.466 Y49.003 E3.46664
G1 X142.356 Y48.113 E3.58194
G1 X142.680 Y48.501 E3.62823
G1 X142.746 Y48.613 E3.64019
G1 X141.851 Y49.508 E3.75608
G1 X142.156 Y50.093 E3.81656
G1 X143.075 Y49.174 E3.93559
G1 X143.328 Y49.812 E3.99840
G1 X142.383 Y50.757 E4.12092
G1 X142.544 Y51.486 E4.18931
G1 X143.507 Y50.523 E4.31406
G1 X143.567 Y50.824 E4.34217
G1 X143.584 Y51.337 E4.38915
G1 X142.510 Y52.411 E4.52835
G1 X142.498 Y52.684 E4.55342
G1 X142.208 Y53.603 E4.64166
G1 X143.512 Y52.300 E4.81052
G1 X143.482 Y52.517 E4.83067
G1 X143.230 Y53.322 E4.90786
G1 X143.076 Y53.625 E4.93906
G1 X140.266 Y56.436 E5.30322
G1 X138.929 Y56.882 F7800.000
G1 F1800
G1 X140.237 Y55.574 E5.47266
G1 X140.085 Y55.653 E5.48839
G1 X139.035 Y55.886 E5.58695
G1 X137.971 Y56.950 E5.72476
G1 X137.135 Y56.895 E5.80149
G1 X138.156 Y55.874 E5.93378
G1 X137.759 Y55.857 E5.97020
G1 X137.397 Y55.743 E6.00496
G1 X136.299 Y56.841 E6.14720
G1 X135.546 Y56.791 E6.21640
G1 X134.953 Y58.187 E6.35526
G1 E4.35526 F2400.00000
G92 E0
G1 X130.557 Y49.227 F7800.000
G1 E2.00000 F2400.00000
G1 F1800
G1 X133.758 Y46.026 E2.41478
G1 X134.161 Y45.162 E2.50211
G1 X133.868 Y45.025 E2.53171
G1 X131.244 Y47.650 E2.87173
G1 X131.263 Y47.589 E2.87759
G1 X131.324 Y46.679 E2.96111
G1 X133.261 Y44.742 E3.21207
G1 X132.653 Y44.459 E3.27346
