; generated by Slic3r 1.3.0 on 2020-09-26 at 16:08:49

; external perimeters extrusion width = 0.44mm (3.38mm^3/s)
; perimeters extrusion width = 0.48mm (7.54mm^3/s)
; infill extrusion width = 0.48mm (10.05mm^3/s)
; solid infill extrusion width = 0.48mm (2.51mm^3/s)
; top infill extrusion width = 0.15mm (0.39mm^3/s)
; support material extrusion width = 0.44mm (6.76mm^3/s)

M107
M190 S70 ; set bed temperature and wait for it to be reached
M104 S205 ; set temperature
G28 ; home all axes
G1 Z5 F5000 ; lift nozzle

; Filament gcode

M109 S205 ; set temperature and wait for it to be reached
G21 ; set units to millimeters
G90 ; use absolute coordinates
M82 ; use absolute distances for extrusion
G92 E0
G1 Z0.350 F7800.000
G1 E-2.00000 F2400.00000
G92 E0
G1 X124.657 Y37.863 F7800.000
G1 E2.00000 F2400.00000
G1 F1800
G1 X125.038 Y37.125 E2.07553
G1 X126.007 Y35.804 E2.22449
G1 X126.118 Y35.681 E2.23961
G1 X127.610 Y34.401 E2.41836
G1 X129.667 Y33.433 E2.62504
G1 X129.808 Y33.390 E2.63845
G1 X132.675 Y33.071 E2.90076
G1 X134.074 Y33.278 E3.02930
G1 X139.338 Y34.545 E3.52165
G1 X140.823 Y35.064 E3.66472
G1 X148.322 Y38.561 E4.41706
G1 X150.393 Y39.965 E4.64456
G1 X151.235 Y40.896 E4.75869
G1 X152.723 Y42.830 E4.98063
G1 X153.737 Y44.569 E5.16361
G1 X153.794 Y44.705 E5.17705
G1 X154.367 Y46.907 E5.38395
G1 X154.380 Y48.520 E5.53065
G1 X154.083 Y51.649 E5.81641
G1 X153.289 Y54.421 E6.07862
G1 X91.661 Y177.826 E18.62120
G1 X89.531 Y182.035 E19.05016
G1 X87.488 Y184.577 E19.34674
G1 X86.238 Y185.599 E19.49351
G1 X85.424 Y186.182 E19.58460
G1 X84.411 Y186.783 E19.69173
G1 X83.433 Y187.223 E19.78926
G1 X82.751 Y187.477 E19.85539
G1 X81.730 Y187.780 E19.95221
G1 X79.966 Y188.158 E20.11625
G1 X79.048 Y188.273 E20.20037
G1 X77.996 Y188.294 E20.29611
G1 X77.132 Y188.253 E20.37468
G1 X75.923 Y188.101 E20.48555
G1 X74.314 Y187.762 E20.63504
G1 X73.655 Y187.575 E20.69736
G1 X72.574 Y187.147 E20.80304
G1 X71.249 Y186.493 E20.93737
G1 X70.002 Y185.653 E21.07416
G1 X68.752 Y184.624 E21.22135
G1 X67.817 Y183.715 E21.33988
G1 X67.087 Y182.864 E21.44185
G1 X66.335 Y181.762 E21.56318
G1 X65.953 Y181.088 E21.63363
G1 X65.474 Y180.078 E21.73527
G1 X64.972 Y178.793 E21.86071
G1 X64.699 Y177.983 E21.93847
G1 X64.407 Y176.566 E22.06995
G1 X64.266 Y175.287 E22.18699
G1 X64.259 Y173.785 E22.32353
G1 X64.378 Y172.486 E22.44215
G1 X65.010 Y170.056 E22.67046
G1 X66.579 Y166.490 E23.02472
G1 X124.632 Y37.918 E35.85224
G1 X125.226 Y38.120 F7800.000
G1 F1800
G1 X125.578 Y37.440 E35.92186
G1 X126.469 Y36.224 E36.05899
G1 X126.581 Y36.101 E36.07412
G1 X127.955 Y34.922 E36.23873
G1 X129.849 Y34.031 E36.42901
G1 X129.990 Y33.988 E36.44242
G1 X132.629 Y33.694 E36.68391
G1 X133.927 Y33.886 E36.80322
G1 X139.192 Y35.153 E37.29556
G1 X140.559 Y35.631 E37.42728
G1 X148.058 Y39.127 E38.17962
G1 X150.740 Y41.277 E38.49214
G1 X152.228 Y43.211 E38.71409
G1 X153.161 Y44.812 E38.88254
G1 X153.218 Y44.948 E38.89599
G1 X153.746 Y46.975 E39.08646
G1 X153.758 Y48.461 E39.22158
G1 X153.461 Y51.590 E39.50734
G1 X152.730 Y54.142 E39.74874
G1 X91.102 Y177.546 E52.29130
G1 X88.974 Y181.753 E52.71997
G1 X87.093 Y184.094 E52.99301
G1 X85.843 Y185.115 E53.13978
G1 X85.093 Y185.652 E53.22365
G1 X84.125 Y186.227 E53.32608
G1 X83.215 Y186.638 E53.41685
G1 X82.533 Y186.891 E53.48298
G1 X81.593 Y187.170 E53.57211
G1 X79.870 Y187.541 E53.73238
G1 X78.994 Y187.651 E53.81263
G1 X78.025 Y187.670 E53.90078
G1 X77.162 Y187.629 E53.97935
G1 X76.048 Y187.489 E54.08142
G1 X74.468 Y187.156 E54.22825
G1 X73.841 Y186.978 E54.28751
G1 X72.846 Y186.584 E54.38480
G1 X71.547 Y185.944 E54.51649
G1 X70.399 Y185.170 E54.64243
G1 X69.149 Y184.142 E54.78962
G1 X68.289 Y183.305 E54.89874
G1 X67.572 Y182.469 E54.99889
G1 X66.879 Y181.455 E55.11058
G1 X66.497 Y180.780 E55.18104
G1 X66.056 Y179.851 E55.27462
G1 X65.554 Y178.566 E55.40005
G1 X65.296 Y177.801 E55.47341
G1 X65.028 Y176.497 E55.59445
G1 X64.888 Y175.224 E55.71088
G1 X64.881 Y173.842 E55.83658
G1 X65.000 Y172.545 E55.95499
G1 X65.582 Y170.308 E56.16519
G1 X67.149 Y166.748 E56.51890
G1 X125.202 Y38.175 E69.34643
G1 X125.796 Y38.377 F7800.000
G1 F1800
G1 X126.118 Y37.755 E69.41013
G1 X126.932 Y36.644 E69.53544
G1 X127.044 Y36.520 E69.55057
G1 X128.300 Y35.443 E69.70105
G1 X130.030 Y34.629 E69.87493
G1 X130.172 Y34.586 E69.88834
G1 X132.584 Y34.317 E70.10901
G1 X133.781 Y34.493 E70.21908
G1 X139.045 Y35.760 E70.71142
G1 X140.295 Y36.197 E70.83179
G1 X147.794 Y39.694 E71.58412
G1 X150.244 Y41.658 E71.86971
G1 X151.733 Y43.592 E72.09165
G1 X152.585 Y45.055 E72.24559
G1 X152.643 Y45.191 E72.25903
G1 X153.125 Y47.044 E72.43309
G1 X153.136 Y48.402 E72.55662
G1 X152.839 Y51.531 E72.84238
G1 X152.171 Y53.863 E73.06297
G1 X90.543 Y177.267 E85.60551
G1 X88.416 Y181.471 E86.03389
G1 X86.697 Y183.610 E86.28340
G1 X85.448 Y184.631 E86.43017
G1 X84.762 Y185.122 E86.50681
G1 X83.839 Y185.672 E86.60455
G1 X82.997 Y186.052 E86.68855
G1 X82.315 Y186.306 E86.75468
G1 X81.456 Y186.560 E86.83613
G1 X79.774 Y186.923 E86.99262
G1 X78.940 Y187.028 E87.06902
G1 X78.055 Y187.045 E87.14957
G1 X77.192 Y187.004 E87.22813
G1 X76.174 Y186.877 E87.32141
G1 X74.622 Y186.551 E87.46558
G1 X74.028 Y186.382 E87.52177
G1 X73.119 Y186.022 E87.61068
G1 X71.845 Y185.395 E87.73973
G1 X70.796 Y184.688 E87.85481
G1 X69.546 Y183.659 E88.00200
G1 X68.760 Y182.894 E88.10172
G1 X68.056 Y182.074 E88.20004
G1 X67.423 Y181.147 E88.30211
G1 X67.041 Y180.472 E88.37256
G1 X66.638 Y179.623 E88.45807
G1 X66.136 Y178.338 E88.58351
G1 X65.894 Y177.619 E88.65246
G1 X65.649 Y176.428 E88.76307
G1 X65.510 Y175.162 E88.87888
G1 X65.504 Y173.899 E88.99375
G1 X65.622 Y172.604 E89.11196
G1 X66.154 Y170.560 E89.30403
G1 X67.718 Y167.005 E89.65721
G1 X125.771 Y38.432 E102.48473
G1 E100.48473 F2400.00000
G92 E0
G1 X91.969 Y151.508 F7800.000
G1 E2.00000 F2400.00000
G1 F1800
G1 X92.198 Y151.948 E2.04507
G1 X92.306 Y152.432 E2.09014
G1 X92.284 Y152.927 E2.13521
G1 X92.135 Y153.398 E2.18017
G1 X88.580 Y158.846 E2.77168
G1 X88.103 Y159.311 E2.83231
G1 X87.524 Y159.651 E2.89330
G1 X86.881 Y159.842 E2.95429
G1 X86.211 Y159.873 E3.01527
G1 X85.553 Y159.744 E3.07626
G1 X84.945 Y159.461 E3.13724
G1 X84.423 Y159.040 E3.19822
G1 X84.016 Y158.507 E3.25921
G1 X83.749 Y157.892 E3.32019
G1 X83.636 Y157.230 E3.38118
G1 X83.684 Y156.578 E3.44066
G1 X84.906 Y151.129 E3.94841
G1 X85.044 Y150.723 E3.98745
G1 X85.333 Y150.269 E4.03636
G1 X85.729 Y149.907 E4.08513
G1 X86.207 Y149.658 E4.13414
G1 X86.733 Y149.541 E4.18317
G1 X87.263 Y149.564 E4.23138
G1 X87.563 Y149.642 E4.25952
G1 X91.219 Y150.879 E4.61054
G1 X91.634 Y151.143 E4.65527
G1 X91.929 Y151.464 E4.69489
G1 X91.969 Y151.508 F7800.000
G1 E2.69489 F2400.00000
G92 E0
G1 X79.599 Y171.835 F7800.000
G1 E2.00000 F2400.00000
G1 F1800
G1 X80.222 Y172.313 E2.07141
G1 X80.701 Y172.936 E2.14282
G1 X80.990 Y173.636 E2.21166
G1 X81.105 Y174.435 E2.28509
G1 X81.002 Y175.219 E2.35698
G1 X80.712 Y175.918 E2.42581
G1 X80.228 Y176.564 E2.49924
G1 X79.601 Y177.046 E2.57114
G1 X78.875 Y177.347 E2.64255
G1 X78.097 Y177.449 E2.71396
G1 X77.318 Y177.347 E2.78537
G1 X76.619 Y177.058 E2.85419
G1 X75.972 Y176.573 E2.92763
G1 X75.491 Y175.946 E2.99953
G1 X75.190 Y175.221 E3.07094
G1 X75.087 Y174.442 E3.14235
G1 X75.190 Y173.663 E3.21376
G1 X75.479 Y172.964 E3.28259
G1 X75.964 Y172.318 E3.35602
G1 X76.591 Y171.836 E3.42792
G1 X77.316 Y171.536 E3.49933
G1 X78.067 Y171.437 E3.56817
G1 X78.869 Y171.533 E3.64159
G1 X79.544 Y171.813 E3.70803
G1 X79.284 Y172.381 F7800.000
G1 F1800
G1 X79.777 Y172.759 E3.76448
G1 X80.155 Y173.252 E3.82093
G1 X80.383 Y173.802 E3.87512
G1 X80.474 Y174.439 E3.93358
G1 X80.393 Y175.056 E3.99020
G1 X80.165 Y175.607 E4.04439
G1 X79.779 Y176.121 E4.10286
G1 X79.285 Y176.500 E4.15948
G1 X78.712 Y176.738 E4.21593
G1 X78.096 Y176.819 E4.27237
G1 X77.481 Y176.738 E4.32882
G1 X76.930 Y176.511 E4.38300
G1 X76.416 Y176.125 E4.44147
G1 X76.037 Y175.631 E4.49810
G1 X75.799 Y175.057 E4.55455
G1 X75.718 Y174.442 E4.61099
G1 X75.799 Y173.826 E4.66744
G1 X76.026 Y173.276 E4.72163
G1 X76.412 Y172.761 E4.78010
G1 X76.906 Y172.382 E4.83672
G1 X77.480 Y172.144 E4.89317
G1 X78.070 Y172.066 E4.94736
G1 X78.709 Y172.143 E5.00582
G1 X79.229 Y172.358 E5.05699
G1 X79.284 Y172.381 F7800.000
G1 E3.05699 F2400.00000
G92 E0
G1 X81.898 Y173.707 F7800.000
G1 E2.00000 F2400.00000
G1 F1800
G1 X81.626 Y173.663 E2.02507
G1 X81.598 Y173.469 E2.04285
G1 X81.246 Y172.621 E2.12634
G1 X80.668 Y171.868 E2.21271
G1 X79.914 Y171.290 E2.29908
G1 X79.028 Y170.923 E2.38625
G1 X78.063 Y170.807 E2.47463
G1 X77.153 Y170.927 E2.55813
G1 X76.246 Y171.303 E2.64735
G1 X82.194 Y157.797 E3.98924
G1 X82.471 Y157.831 E4.01460
G1 X82.542 Y158.251 E4.05329
G1 X82.930 Y159.144 E4.14187
G1 X83.521 Y159.919 E4.23044
G1 X84.280 Y160.529 E4.31902
G1 X85.163 Y160.941 E4.40759
G1 X86.119 Y161.129 E4.49617
G1 X87.092 Y161.083 E4.58474
G1 X88.399 Y160.695 E4.70871
G1 X81.925 Y173.653 E6.02588
G1 E4.02588 F2400.00000
G92 E0
G1 X90.899 Y157.089 F7800.000
G1 E2.00000 F2400.00000
G1 F1800
G1 X81.477 Y175.948 E3.91694
G1 X81.062 Y176.644 E3.99066
G1 X80.558 Y177.196 E4.05864
G1 X79.953 Y177.636 E4.12662
G1 X79.272 Y177.944 E4.19459
G1 X78.541 Y178.110 E4.26278
G1 X77.795 Y178.125 E4.33056
G1 X77.060 Y177.989 E4.39857
G1 X76.367 Y177.708 E4.46656
G1 X75.745 Y177.293 E4.53454
G1 X75.219 Y176.761 E4.60253
G1 X74.811 Y176.135 E4.67052
G1 X74.538 Y175.439 E4.73851
G1 X74.410 Y174.702 E4.80649
G1 X74.446 Y173.841 E4.88491
G1 X83.370 Y153.575 E6.89838
G1 X83.693 Y153.682 E6.92932
G1 X83.064 Y156.486 E7.19068
G1 X83.008 Y157.260 E7.26125
G1 X83.145 Y158.071 E7.33603
G1 X83.473 Y158.825 E7.41082
G1 X83.972 Y159.479 E7.48560
G1 X84.613 Y159.995 E7.56037
G1 X85.358 Y160.342 E7.63515
G1 X86.165 Y160.501 E7.70993
G1 X86.986 Y160.462 E7.78471
G1 X87.775 Y160.228 E7.85950
G1 X88.484 Y159.812 E7.93428
G1 X89.066 Y159.246 E8.00808
G1 X90.592 Y156.912 E8.26162
G1 X90.847 Y157.059 E8.28834
G1 E6.28834 F2400.00000
G92 E0
G1 X93.179 Y151.126 F7800.000
G1 E2.00000 F2400.00000
G1 F1800
G1 X93.002 Y150.785 E2.03493
G1 X92.444 Y150.177 E2.10993
G1 X91.763 Y149.743 E2.18338
G1 X87.920 Y148.443 E2.55224
G1 X87.449 Y148.321 E2.59650
G1 X86.387 Y148.275 E2.69317
G1 X89.759 Y140.617 E3.45402
G1 X90.242 Y141.251 E3.52647
G1 X91.030 Y141.884 E3.61833
G1 X91.866 Y142.274 E3.70225
G1 X95.418 Y143.383 E4.04059
G1 X96.273 Y143.546 E4.11974
G1 X96.983 Y143.513 E4.18436
G1 X93.206 Y151.072 E4.95275
G1 X93.032 Y152.819 F7800.000
G1 F1800
G1 X92.791 Y151.732 E5.05399
G1 X92.486 Y151.147 E5.11403
G1 X92.039 Y150.660 E5.17407
G1 X91.491 Y150.311 E5.23316
G1 X87.741 Y149.043 E5.59309
G1 X87.356 Y148.943 E5.62930
G1 X86.678 Y148.913 E5.69100
G1 X85.991 Y149.066 E5.75500
G1 X85.522 Y149.310 E5.80306
G1 X85.328 Y149.129 E5.82722
G1 X89.735 Y139.122 E6.82145
G1 X90.173 Y140.129 E6.92129
G1 X90.693 Y140.812 E6.99936
G1 X91.362 Y141.350 E7.07744
G1 X92.092 Y141.690 E7.15066
G1 X95.570 Y142.776 E7.48195
G1 X96.317 Y142.918 E7.55112
G1 X97.172 Y142.878 E7.62892
G1 X98.142 Y142.590 E7.72098
G1 X93.058 Y152.766 E8.75532
G1 E6.75532 F2400.00000
G92 E0
G1 X95.722 Y142.169 F7800.000
G1 E2.00000 F2400.00000
G1 F1800
G1 X92.318 Y141.106 E2.32424
G1 X91.695 Y140.816 E2.38677
G1 X91.144 Y140.372 E2.45105
G1 X90.716 Y139.810 E2.51532
G1 X90.434 Y139.162 E2.57960
G1 X90.315 Y138.465 E2.64388
G1 X90.367 Y137.760 E2.70817
G1 X90.586 Y137.088 E2.77245
G1 X90.960 Y136.487 E2.83674
G1 X91.466 Y135.994 E2.90104
G1 X92.076 Y135.636 E2.96533
G1 X92.754 Y135.434 E3.02963
G1 X93.459 Y135.401 E3.09383
G1 X94.099 Y135.523 E3.15305
G1 X97.503 Y136.585 E3.47729
G1 X98.126 Y136.876 E3.53986
G1 X98.677 Y137.320 E3.60417
G1 X99.106 Y137.882 E3.66847
G1 X99.388 Y138.531 E3.73277
G1 X99.506 Y139.228 E3.79707
G1 X99.454 Y139.933 E3.86137
G1 X99.234 Y140.605 E3.92566
G1 X98.861 Y141.205 E3.98995
G1 X98.354 Y141.698 E4.05423
G1 X97.744 Y142.056 E4.11852
G1 X97.067 Y142.257 E4.18280
G1 X96.362 Y142.291 E4.24697
G1 X95.781 Y142.180 E4.30072
G1 X95.722 Y142.169 F7800.000
G1 E2.30072 F2400.00000
G92 E0
G1 X100.145 Y137.183 F7800.000
G1 E2.00000 F2400.00000
G1 F1800
G1 X99.620 Y136.495 E2.07870
G1 X100.470 Y136.532 E2.15608
G1 X100.172 Y137.130 E2.21683
G1 E0.21683 F2400.00000
G92 E0
G1 X93.538 Y134.146 F7800.000
G1 E2.00000 F2400.00000
G1 F1800
G1 X92.589 Y134.191 E2.08636
G1 X92.910 Y133.462 E2.15881
G1 X93.497 Y134.102 E2.23778
G1 E0.23778 F2400.00000
G92 E0
G1 X92.770 Y132.230 F7800.000
G1 E2.00000 F2400.00000
G1 F1800
G1 X93.041 Y132.256 E2.02470
G1 X93.079 Y132.428 E2.04068
G1 X93.433 Y133.107 E2.11030
G1 X93.950 Y133.671 E2.17992
G1 X94.561 Y134.060 E2.24575
G1 X94.829 Y134.170 E2.27213
G1 X99.255 Y135.752 E2.69949
G1 X99.715 Y135.874 E2.74275
G1 X100.457 Y135.906 E2.81029
G1 X101.609 Y135.650 E2.91764
G1 X100.116 Y138.639 E3.22147
G1 X99.649 Y137.563 E3.32811
G1 X99.128 Y136.880 E3.40622
G1 X98.459 Y136.342 E3.48432
G1 X97.729 Y136.001 E3.55759
G1 X94.251 Y134.916 E3.88888
G1 X93.503 Y134.773 E3.95808
G1 X92.648 Y134.814 E4.03590
G1 X91.479 Y135.162 E4.14684
G1 X92.746 Y132.284 E4.43270
G1 X93.632 Y132.038 F7800.000
G1 F1800
G1 X93.540 Y131.625 E4.47118
G1 X93.566 Y131.024 E4.52585
G1 X93.747 Y130.451 E4.58052
G1 X94.070 Y129.943 E4.63520
G1 X94.513 Y129.537 E4.68988
G1 X95.046 Y129.259 E4.74456
G1 X95.633 Y129.129 E4.79924
G1 X96.226 Y129.154 E4.85318
G1 X96.595 Y129.252 E4.88791
G1 X100.982 Y130.820 E5.31154
G1 X101.186 Y130.903 E5.33157
G1 X101.681 Y131.218 E5.38489
G1 X102.087 Y131.662 E5.43958
G1 X102.365 Y132.195 E5.49427
G1 X102.495 Y132.782 E5.54895
G1 X102.469 Y133.383 E5.60363
G1 X102.288 Y133.957 E5.65831
G1 X101.965 Y134.464 E5.71299
G1 X101.522 Y134.870 E5.76766
G1 X100.989 Y135.148 E5.82233
G1 X100.402 Y135.278 E5.87699
G1 X99.809 Y135.252 E5.93091
G1 X99.440 Y135.154 E5.96563
G1 X94.849 Y133.503 E6.40925
G1 X94.355 Y133.188 E6.46256
G1 X93.949 Y132.745 E6.51722
G1 X93.671 Y132.212 E6.57188
G1 X93.645 Y132.097 E6.58262
G1 X93.243 Y131.944 F7800.000
G1 E4.58262 F2400.00000
G92 E0
G1 X102.509 Y130.272 F7800.000
G1 E2.00000 F2400.00000
G1 F1800
G1 X102.642 Y130.035 E2.02469
G1 X102.755 Y130.058 E2.03519
G1 X103.728 Y130.012 E2.12373
G1 X103.213 Y131.041 E2.22834
G1 X102.549 Y130.316 E2.31772
G1 E0.31772 F2400.00000
G92 E0
G1 X96.206 Y127.902 F7800.000
G1 E2.00000 F2400.00000
G1 F1800
G1 X95.374 Y127.867 E2.07573
G1 X95.756 Y127.001 E2.16176
G1 X96.167 Y127.539 E2.22337
G1 X96.302 Y127.648 E2.23920
G1 X96.228 Y127.846 E2.25843
G1 E0.25843 F2400.00000
G92 E0
G1 X94.354 Y128.632 F7800.000
G1 E2.00000 F2400.00000
G1 F1800
G1 X95.723 Y125.523 E2.30891
G1 X96.132 Y126.464 E2.40218
G1 X96.617 Y127.100 E2.47492
G1 X97.240 Y127.601 E2.54757
G1 X97.902 Y127.911 E2.61404
G1 X102.073 Y129.287 E3.01342
G1 X102.801 Y129.430 E3.08091
G1 X103.600 Y129.392 E3.15364
G1 X104.367 Y129.164 E3.22638
G1 X104.625 Y129.013 E3.25360
G1 X104.830 Y129.204 E3.27904
G1 X103.107 Y132.653 E3.62962
G1 X102.957 Y131.980 E3.69237
G1 X102.603 Y131.300 E3.76202
G1 X102.086 Y130.736 E3.83167
G1 X101.475 Y130.347 E3.89753
G1 X101.206 Y130.236 E3.92392
G1 X96.780 Y128.655 E4.35128
G1 X96.320 Y128.533 E4.39456
G1 X95.578 Y128.501 E4.46212
G1 X94.830 Y128.667 E4.53177
G1 X94.548 Y128.814 E4.56069
G1 X94.398 Y128.673 E4.57939
G1 E2.57939 F2400.00000
G92 E0
G1 X97.021 Y126.599 F7800.000
G1 E2.00000 F2400.00000
G1 F1800
G1 X96.675 Y126.145 E2.05184
G1 X96.417 Y125.551 E2.11078
G1 X96.308 Y124.912 E2.16972
G1 X96.356 Y124.265 E2.22867
G1 X96.557 Y123.649 E2.28762
G1 X96.899 Y123.098 E2.34657
G1 X97.364 Y122.646 E2.40553
G1 X97.923 Y122.318 E2.46449
G1 X98.544 Y122.133 E2.52345
G1 X99.131 Y122.105 E2.57689
G1 X99.804 Y122.222 E2.63900
G1 X103.907 Y123.575 E3.03181
G1 X104.467 Y123.837 E3.08807
G1 X104.972 Y124.244 E3.14701
G1 X105.365 Y124.759 E3.20597
G1 X105.623 Y125.354 E3.26494
G1 X105.732 Y125.994 E3.32390
G1 X105.684 Y126.640 E3.38286
G1 X105.483 Y127.257 E3.44181
G1 X105.140 Y127.807 E3.50077
G1 X104.676 Y128.259 E3.55971
G1 X104.116 Y128.587 E3.61866
G1 X103.495 Y128.772 E3.67761
G1 X102.848 Y128.802 E3.73655
G1 X102.232 Y128.681 E3.79360
G1 X98.133 Y127.329 E4.18606
G1 X97.573 Y127.067 E4.24229
G1 X97.057 Y126.646 E4.30280
