; generated by Slic3r 1.3.0 on 2020-09-26 at 16:09:09

; external perimeters extrusion width = 0.44mm (3.38mm^3/s)
; perimeters extrusion width = 0.48mm (7.54mm^3/s)
; infill extrusion width = 0.48mm (10.05mm^3/s)
; solid infill extrusion width = 0.48mm (2.51mm^3/s)
; top infill extrusion width = 0.15mm (0.39mm^3/s)

M107
M190 S70 ; set bed temperature and wait for it to be reached
M104 S205 ; set temperature
G28 ; home all axes
G1 Z5 F5000 ; lift nozzle

; Filament gcode

M109 S205 ; set temperature and wait for it to be reached
G21 ; set units to millimeters
G90 ; use absolute coordinates
M82 ; use absolute distances for extrusion
G92 E0
G1 Z0.350 F7800.000
G1 E-2.00000 F2400.00000
G92 E0
G1 X103.056 Y102.958 F7800.000
G1 E2.00000 F2400.00000
G1 F1800
G1 X103.830 Y102.271 E2.09413
G1 X104.672 Y101.668 E2.18827
G1 X105.571 Y101.157 E2.28237
G1 X106.519 Y100.742 E2.37644
G1 X107.711 Y100.378 E2.48980
G1 X108.729 Y100.191 E2.58392
G1 X109.761 Y100.112 E2.67804
G1 X110.796 Y100.141 E2.77215
G1 X111.614 Y100.241 E2.84710
G1 X112.624 Y100.463 E2.94113
G1 X113.607 Y100.790 E3.03531
G1 X114.550 Y101.217 E3.12946
G1 X115.443 Y101.741 E3.22357
G1 X116.276 Y102.355 E3.31769
G1 X117.040 Y103.052 E3.41176
G1 X117.728 Y103.827 E3.50594
G1 X118.331 Y104.668 E3.60001
G1 X118.935 Y105.758 E3.71335
G1 X119.329 Y106.715 E3.80748
G1 X119.621 Y107.708 E3.90157
G1 X119.808 Y108.726 E3.99570
G1 X119.887 Y109.758 E4.08981
G1 X119.872 Y110.591 E4.16553
G1 X119.757 Y111.611 E4.25888
G1 X119.535 Y112.622 E4.35298
G1 X119.209 Y113.604 E4.44713
G1 X118.781 Y114.547 E4.54125
G1 X118.258 Y115.440 E4.63537
G1 X117.644 Y116.273 E4.72945
G1 X116.946 Y117.037 E4.82361
G1 X116.172 Y117.725 E4.91769
G1 X115.331 Y118.327 E5.01181
G1 X114.431 Y118.839 E5.10597
G1 X113.482 Y119.254 E5.20008
G1 X112.291 Y119.618 E5.31338
G1 X111.273 Y119.805 E5.40750
G1 X110.241 Y119.884 E5.50161
G1 X109.206 Y119.855 E5.59574
G1 X108.180 Y119.718 E5.68984
G1 X107.174 Y119.474 E5.78398
G1 X106.199 Y119.127 E5.87808
G1 X105.266 Y118.679 E5.97221
G1 X104.384 Y118.137 E6.06633
G1 X103.726 Y117.640 E6.14129
G1 X102.961 Y116.943 E6.23541
G1 X102.274 Y116.169 E6.32951
G1 X101.671 Y115.328 E6.42360
G1 X101.160 Y114.428 E6.51774
G1 X100.745 Y113.479 E6.61185
G1 X100.432 Y112.493 E6.70595
G1 X100.224 Y111.479 E6.80009
G1 X100.115 Y110.237 E6.91341
G1 X100.144 Y109.203 E7.00750
G1 X100.245 Y108.385 E7.08248
G1 X100.467 Y107.374 E7.17658
G1 X100.793 Y106.392 E7.27067
G1 X101.220 Y105.449 E7.36476
G1 X101.744 Y104.556 E7.45896
G1 X102.358 Y103.723 E7.55307
G1 X103.015 Y103.002 E7.64171
G1 X103.490 Y103.408 F7800.000
G1 F1800
G1 X104.215 Y102.763 E7.72989
G1 X105.003 Y102.198 E7.81808
G1 X105.845 Y101.718 E7.90623
G1 X106.733 Y101.329 E7.99436
G1 X107.862 Y100.984 E8.10176
G1 X108.816 Y100.810 E8.18993
G1 X109.783 Y100.736 E8.27811
G1 X110.752 Y100.764 E8.36627
G1 X111.714 Y100.893 E8.45445
G1 X112.656 Y101.122 E8.54263
G1 X113.381 Y101.373 E8.61240
G1 X114.257 Y101.769 E8.69980
G1 X115.094 Y102.259 E8.78796
G1 X115.875 Y102.834 E8.87613
G1 X116.591 Y103.486 E8.96426
G1 X117.236 Y104.211 E9.05248
G1 X117.801 Y104.999 E9.14061
G1 X118.373 Y106.032 E9.24800
G1 X118.742 Y106.929 E9.33618
G1 X119.015 Y107.859 E9.42433
G1 X119.189 Y108.813 E9.51251
G1 X119.262 Y109.780 E9.60067
G1 X119.249 Y110.547 E9.67048
G1 X119.142 Y111.502 E9.75785
G1 X118.935 Y112.449 E9.84600
G1 X118.629 Y113.370 E9.93421
G1 X118.230 Y114.254 E10.02238
G1 X117.740 Y115.090 E10.11055
G1 X117.165 Y115.871 E10.19869
G1 X116.512 Y116.588 E10.28689
G1 X115.788 Y117.232 E10.37503
G1 X115.000 Y117.797 E10.46320
G1 X114.157 Y118.277 E10.55141
G1 X113.269 Y118.666 E10.63958
G1 X112.140 Y119.012 E10.74693
G1 X111.186 Y119.186 E10.83510
G1 X110.219 Y119.259 E10.92326
G1 X109.250 Y119.231 E11.01144
G1 X108.289 Y119.102 E11.09960
G1 X107.346 Y118.873 E11.18779
G1 X106.433 Y118.547 E11.27595
G1 X105.559 Y118.127 E11.36413
G1 X104.734 Y117.619 E11.45230
G1 X104.127 Y117.162 E11.52131
G1 X103.411 Y116.509 E11.60948
G1 X102.766 Y115.784 E11.69764
G1 X102.201 Y114.996 E11.78579
G1 X101.721 Y114.154 E11.87398
G1 X101.332 Y113.265 E11.96214
G1 X101.038 Y112.342 E12.05029
G1 X100.842 Y111.392 E12.13849
G1 X100.740 Y110.215 E12.24586
G1 X100.768 Y109.247 E12.33400
G1 X100.860 Y108.493 E12.40303
G1 X101.067 Y107.546 E12.49118
G1 X101.372 Y106.626 E12.57933
G1 X101.772 Y105.743 E12.66747
G1 X102.262 Y104.905 E12.75572
G1 X102.837 Y104.124 E12.84388
G1 X103.449 Y103.452 E12.92658
G1 X103.924 Y103.857 F7800.000
G1 F1800
G1 X104.599 Y103.256 E13.00881
G1 X105.334 Y102.728 E13.09105
G1 X106.119 Y102.280 E13.17326
G1 X106.947 Y101.917 E13.25544
G1 X108.014 Y101.590 E13.35690
G1 X108.903 Y101.429 E13.43912
G1 X109.805 Y101.361 E13.52134
G1 X110.709 Y101.388 E13.60356
G1 X111.397 Y101.472 E13.66662
G1 X112.280 Y101.665 E13.74877
G1 X113.139 Y101.949 E13.83104
G1 X113.963 Y102.321 E13.91330
G1 X114.744 Y102.777 E13.99552
G1 X115.473 Y103.312 E14.07774
G1 X116.141 Y103.921 E14.15992
G1 X116.743 Y104.596 E14.24220
G1 X117.271 Y105.330 E14.32438
G1 X117.812 Y106.306 E14.42582
G1 X118.155 Y107.143 E14.50805
G1 X118.408 Y108.010 E14.59025
G1 X118.570 Y108.900 E14.67249
G1 X118.638 Y109.802 E14.75471
G1 X118.625 Y110.504 E14.81856
G1 X118.527 Y111.394 E14.89999
G1 X118.334 Y112.277 E14.98219
G1 X118.050 Y113.136 E15.06445
G1 X117.678 Y113.960 E15.14667
G1 X117.222 Y114.741 E15.22890
G1 X116.687 Y115.469 E15.31109
G1 X116.078 Y116.138 E15.39334
G1 X115.403 Y116.740 E15.47554
G1 X114.669 Y117.268 E15.55776
G1 X113.883 Y117.716 E15.64002
G1 X113.055 Y118.079 E15.72224
G1 X111.988 Y118.405 E15.82364
G1 X111.099 Y118.567 E15.90587
G1 X110.197 Y118.635 E15.98808
G1 X109.293 Y118.608 E16.07032
G1 X108.397 Y118.487 E16.15253
G1 X107.518 Y118.273 E16.23477
G1 X106.667 Y117.968 E16.31698
G1 X105.852 Y117.576 E16.39922
G1 X105.083 Y117.100 E16.48144
G1 X104.529 Y116.683 E16.54450
G1 X103.860 Y116.074 E16.62673
G1 X103.259 Y115.399 E16.70894
G1 X102.731 Y114.665 E16.79114
G1 X102.283 Y113.880 E16.87338
G1 X101.920 Y113.052 E16.95560
G1 X101.645 Y112.190 E17.03781
G1 X101.461 Y111.305 E17.12005
G1 X101.364 Y110.194 E17.22147
G1 X101.391 Y109.290 E17.30367
G1 X101.475 Y108.602 E17.36675
G1 X101.668 Y107.718 E17.44896
G1 X101.952 Y106.860 E17.53116
G1 X102.324 Y106.036 E17.61336
G1 X102.780 Y105.255 E17.69565
G1 X103.316 Y104.526 E17.77787
G1 X103.883 Y103.901 E17.85461
G1 E15.85461 F2400.00000
G92 E0
G1 X110.398 Y110.090 F7800.000
G1 E2.00000 F2400.00000
G1 F1800
G1 X110.327 Y110.243 E2.01542
G1 X110.199 Y110.354 E2.03084
G1 X110.100 Y110.396 E2.04056
G1 X109.909 Y110.395 E2.05793
G1 X109.737 Y110.312 E2.07531
G1 X109.667 Y110.232 E2.08503
G1 X109.601 Y110.076 E2.10044
G1 X109.604 Y109.906 E2.11586
G1 X109.675 Y109.752 E2.13129
G1 X109.803 Y109.641 E2.14670
G1 X109.988 Y109.587 E2.16417
G1 X110.092 Y109.600 E2.17372
G1 X110.246 Y109.672 E2.18922
G1 X110.325 Y109.746 E2.19903
G1 X110.401 Y109.920 E2.21632
G1 X110.406 Y110.030 E2.22633
G1 X111.019 Y110.166 F7800.000
G1 F1800
G1 X110.940 Y110.436 E2.25190
G1 X110.829 Y110.621 E2.27160
G1 X110.681 Y110.780 E2.29129
G1 X110.503 Y110.904 E2.31099
G1 X110.224 Y111.013 E2.33821
G1 X109.983 Y111.034 E2.36025
G1 X109.768 Y111.007 E2.37995
G1 X109.563 Y110.937 E2.39964
G1 X109.355 Y110.812 E2.42168
G1 X109.152 Y110.592 E2.44890
G1 X109.047 Y110.403 E2.46860
G1 X108.984 Y110.195 E2.48830
G1 X108.965 Y109.980 E2.50799
G1 X108.991 Y109.765 E2.52769
G1 X109.062 Y109.560 E2.54739
G1 X109.174 Y109.374 E2.56708
G1 X109.321 Y109.216 E2.58678
G1 X109.499 Y109.092 E2.60648
G1 X109.698 Y109.007 E2.62617
G1 X109.934 Y108.961 E2.64803
G1 X110.234 Y108.988 E2.67538
G1 X110.439 Y109.059 E2.69512
G1 X110.625 Y109.170 E2.71482
G1 X110.841 Y109.386 E2.74259
G1 X110.955 Y109.592 E2.76402
G1 X111.018 Y109.800 E2.78377
G1 X111.037 Y110.016 E2.80346
G1 X111.026 Y110.106 E2.81173
G1 X111.639 Y110.242 F7800.000
G1 F1800
G1 X111.623 Y110.372 E2.82368
G1 X111.510 Y110.701 E2.85532
G1 X111.330 Y110.999 E2.88696
G1 X111.093 Y111.254 E2.91860
G1 X110.808 Y111.454 E2.95024
G1 X110.479 Y111.593 E2.98272
G1 X110.328 Y111.631 E2.99690
G1 X109.972 Y111.662 E3.02938
G1 X109.627 Y111.620 E3.06102
G1 X109.298 Y111.506 E3.09267
G1 X108.991 Y111.322 E3.12515
G1 X108.872 Y111.222 E3.13933
G1 X108.638 Y110.952 E3.17181
G1 X108.469 Y110.648 E3.20345
G1 X108.367 Y110.315 E3.23509
G1 X108.337 Y109.969 E3.26673
G1 X108.379 Y109.623 E3.29837
G1 X108.493 Y109.294 E3.33001
G1 X108.672 Y108.996 E3.36166
G1 X108.909 Y108.742 E3.39330
G1 X109.194 Y108.542 E3.42494
G1 X109.514 Y108.406 E3.45658
G1 X109.864 Y108.338 E3.48899
G1 X110.029 Y108.333 E3.50394
G1 X110.375 Y108.376 E3.53570
G1 X110.704 Y108.489 E3.56736
G1 X111.003 Y108.668 E3.59900
G1 X111.263 Y108.912 E3.63142
G1 X111.364 Y109.042 E3.64636
G1 X111.533 Y109.347 E3.67812
G1 X111.635 Y109.680 E3.70978
G1 X111.665 Y110.027 E3.74142
G1 X111.646 Y110.182 E3.75567
G1 X111.520 Y110.298 F7800.000
M104 S200 ; set temperature
M140 S65 ; set bed temperature
G1 Z0.650 F7800.000
G1 X110.968 Y110.117 F7800.000
G1 F600
G1 X110.922 Y110.315 E3.76631
G1 X110.836 Y110.500 E3.77695
G1 X110.714 Y110.663 E3.78760
G1 X110.560 Y110.796 E3.79824
G1 X110.296 Y110.929 E3.81368
G1 X110.088 Y110.969 E3.82476
G1 X109.882 Y110.965 E3.83550
G1 X109.684 Y110.919 E3.84614
G1 X109.499 Y110.833 E3.85679
G1 X109.336 Y110.711 E3.86743
G1 X109.203 Y110.557 E3.87808
G1 X109.104 Y110.379 E3.88872
G1 X109.038 Y110.163 E3.90049
G1 X109.033 Y109.881 E3.91525
G1 X109.080 Y109.681 E3.92598
G1 X109.166 Y109.496 E3.93663
G1 X109.288 Y109.333 E3.94727
G1 X109.458 Y109.185 E3.95905
G1 X109.714 Y109.066 E3.97380
G1 X109.916 Y109.027 E3.98453
G1 X110.141 Y109.031 E3.99631
G1 X110.411 Y109.114 E4.01106
G1 X110.588 Y109.220 E4.02180
G1 X110.737 Y109.358 E4.03244
G1 X110.853 Y109.525 E4.04309
G1 X110.933 Y109.713 E4.05373
G1 X110.972 Y109.913 E4.06438
G1 X110.969 Y110.057 E4.07189
G1 X111.387 Y110.124 F7800.000
G1 F600
G1 X111.321 Y110.452 E4.08939
G1 X111.197 Y110.717 E4.10463
G1 X111.022 Y110.950 E4.11988
G1 X110.802 Y111.141 E4.13512
G1 X110.535 Y111.289 E4.15104
G1 X110.405 Y111.335 E4.15823
G1 X110.124 Y111.388 E4.17321
G1 X109.831 Y111.383 E4.18850
G1 X109.547 Y111.318 E4.20375
G1 X109.282 Y111.194 E4.21899
G1 X109.049 Y111.019 E4.23424
G1 X108.858 Y110.798 E4.24948
G1 X108.716 Y110.543 E4.26473
G1 X108.627 Y110.252 E4.28064
G1 X108.609 Y110.115 E4.28783
G1 X108.615 Y109.829 E4.30281
G1 X108.681 Y109.543 E4.31811
G1 X108.805 Y109.279 E4.33336
G1 X108.980 Y109.046 E4.34860
G1 X109.210 Y108.846 E4.36452
G1 X109.328 Y108.774 E4.37170
G1 X109.592 Y108.663 E4.38669
G1 X109.879 Y108.607 E4.40198
G1 X110.184 Y108.613 E4.41790
G1 X110.319 Y108.638 E4.42509
G1 X110.590 Y108.732 E4.44007
G1 X110.841 Y108.883 E4.45537
G1 X111.054 Y109.082 E4.47061
G1 X111.222 Y109.321 E4.48586
G1 X111.336 Y109.590 E4.50110
G1 X111.391 Y109.876 E4.51635
G1 X111.388 Y110.064 E4.52616
G1 X111.784 Y110.131 F7800.000
G1 F900
G1 X111.783 Y110.217 E4.53017
G1 X111.698 Y110.582 E4.54776
G1 X111.540 Y110.922 E4.56534
G1 X111.314 Y111.222 E4.58292
G1 X111.031 Y111.468 E4.60050
G1 X110.698 Y111.653 E4.61830
G1 X110.509 Y111.719 E4.62771
G1 X110.158 Y111.786 E4.64446
G1 X109.782 Y111.780 E4.66206
G1 X109.417 Y111.695 E4.67964
G1 X109.076 Y111.537 E4.69722
G1 X108.777 Y111.311 E4.71481
G1 X108.530 Y111.028 E4.73239
G1 X108.349 Y110.699 E4.74997
G1 X108.237 Y110.336 E4.76777
G1 X108.212 Y110.137 E4.77717
G1 X108.219 Y109.779 E4.79392
G1 X108.304 Y109.413 E4.81152
G1 X108.462 Y109.073 E4.82911
G1 X108.688 Y108.774 E4.84669
G1 X108.975 Y108.524 E4.86449
G1 X109.146 Y108.420 E4.87389
G1 X109.476 Y108.281 E4.89064
G1 X109.845 Y108.209 E4.90824
G1 X110.224 Y108.216 E4.92604
G1 X110.422 Y108.253 E4.93544
G1 X110.759 Y108.371 E4.95220
G1 X111.081 Y108.564 E4.96980
G1 X111.356 Y108.820 E4.98738
G1 X111.571 Y109.128 E5.00496
G1 X111.718 Y109.473 E5.02254
G1 X111.789 Y109.841 E5.04013
G1 X111.785 Y110.071 E5.05088
G1 X111.711 Y110.175 F7800.000
G1 X110.582 Y109.798 F7800.000
G1 F600
G1 X110.256 Y109.472 E5.07977
G1 X109.619 Y110.257 F7800.000
G1 F600
G1 X109.654 Y110.377 E5.08764
G1 X109.786 Y110.565 E5.10206
G1 X109.879 Y110.635 E5.10932
G1 X110.065 Y110.703 E5.12171
G1 X109.293 Y109.931 E5.19015
G1 X109.290 Y109.762 E5.20073
G1 X109.315 Y109.655 E5.20764
G1 X109.364 Y109.550 E5.21489
G1 X109.485 Y109.412 E5.22640
G1 X110.587 Y110.514 E5.32407
G1 Z0.950 F7800.000
G1 X110.973 Y110.031 F7800.000
G1 F600
G1 X110.951 Y110.217 E5.33385
G1 X110.884 Y110.410 E5.34449
G1 X110.779 Y110.584 E5.35514
G1 X110.640 Y110.733 E5.36578
G1 X110.473 Y110.850 E5.37643
G1 X110.261 Y110.941 E5.38850
G1 X109.984 Y110.972 E5.40306
G1 X109.782 Y110.948 E5.41370
G1 X109.589 Y110.881 E5.42434
G1 X109.354 Y110.731 E5.43890
G1 X109.203 Y110.557 E5.45097
G1 X109.104 Y110.379 E5.46162
G1 X109.044 Y110.184 E5.47226
G1 X109.027 Y109.981 E5.48291
G1 X109.051 Y109.779 E5.49355
G1 X109.118 Y109.586 E5.50419
G1 X109.223 Y109.411 E5.51484
G1 X109.362 Y109.262 E5.52548
G1 X109.528 Y109.146 E5.53613
G1 X109.716 Y109.066 E5.54677
G1 X110.019 Y109.022 E5.56277
G1 X110.217 Y109.047 E5.57322
G1 X110.413 Y109.115 E5.58402
G1 X110.587 Y109.220 E5.59466
G1 X110.736 Y109.359 E5.60531
G1 X110.900 Y109.617 E5.62130
G1 X110.957 Y109.809 E5.63176
G1 X110.972 Y109.972 E5.64027
G1 X111.389 Y110.082 F7800.000
G1 F600
G1 X111.361 Y110.312 E5.65236
G1 X111.266 Y110.588 E5.66760
G1 X111.116 Y110.838 E5.68285
G1 X110.917 Y111.051 E5.69809
G1 X110.678 Y111.219 E5.71334
G1 X110.394 Y111.339 E5.72943
G1 X110.284 Y111.367 E5.73538
G1 X109.977 Y111.393 E5.75148
G1 X109.687 Y111.358 E5.76673
G1 X109.411 Y111.263 E5.78197
G1 X109.147 Y111.104 E5.79807
G1 X109.060 Y111.031 E5.80402
G1 X108.858 Y110.799 E5.82011
G1 X108.716 Y110.543 E5.83536
G1 X108.631 Y110.264 E5.85060
G1 X108.605 Y109.974 E5.86585
G1 X108.641 Y109.684 E5.88109
G1 X108.736 Y109.408 E5.89634
G1 X108.886 Y109.158 E5.91158
G1 X109.085 Y108.945 E5.92683
G1 X109.324 Y108.777 E5.94207
G1 X109.593 Y108.663 E5.95732
G1 X109.890 Y108.605 E5.97314
G1 X110.042 Y108.603 E5.98107
G1 X110.313 Y108.637 E5.99536
G1 X110.591 Y108.733 E6.01070
G1 X110.841 Y108.883 E6.02594
G1 X111.054 Y109.082 E6.04119
G1 X111.228 Y109.330 E6.05701
G1 X111.292 Y109.468 E6.06494
G1 X111.371 Y109.730 E6.07923
G1 X111.396 Y110.023 E6.09459
G1 X111.783 Y110.131 F7800.000
G1 F900
G1 X111.750 Y110.402 E6.10739
G1 X111.628 Y110.757 E6.12497
G1 X111.435 Y111.078 E6.14255
G1 X111.179 Y111.353 E6.16013
G1 X110.871 Y111.568 E6.17772
G1 X110.520 Y111.717 E6.19557
G1 X110.349 Y111.760 E6.20384
G1 X109.970 Y111.793 E6.22169
G1 X109.597 Y111.747 E6.23927
G1 X109.242 Y111.625 E6.25686
G1 X108.916 Y111.429 E6.27471
G1 X108.780 Y111.315 E6.28298
G1 X108.530 Y111.028 E6.30083
G1 X108.348 Y110.699 E6.31841
G1 X108.239 Y110.340 E6.33600
G1 X108.206 Y109.967 E6.35358
G1 X108.252 Y109.594 E6.37116
G1 X108.374 Y109.239 E6.38874
G1 X108.567 Y108.918 E6.40633
G1 X108.823 Y108.643 E6.42391
G1 X109.131 Y108.428 E6.44149
G1 X109.476 Y108.281 E6.45907
G1 X109.848 Y108.209 E6.47684
G1 X110.064 Y108.205 E6.48693
G1 X110.404 Y108.249 E6.50301
G1 X110.760 Y108.371 E6.52062
G1 X111.081 Y108.564 E6.53821
G1 X111.356 Y108.820 E6.55579
G1 X111.573 Y109.131 E6.57356
G1 X111.665 Y109.326 E6.58365
G1 X111.763 Y109.655 E6.59973
G1 X111.791 Y110.071 E6.61928
G1 X111.538 Y110.251 F7800.000
G1 X110.201 Y110.579 F7800.000
G1 F600
G1 X110.606 Y110.168 E6.65545
G1 X110.665 Y110.069 E6.66271
G1 X110.703 Y109.960 E6.66996
G1 X110.708 Y109.735 E6.68406
G1 X110.650 Y109.570 E6.69496
G1 X110.588 Y109.481 E6.70182
G1 X109.484 Y110.585 E6.79967
G1 X109.382 Y110.473 E6.80915
G1 X109.295 Y110.266 E6.82321
G1 X109.296 Y110.062 E6.83602
G1 X110.064 Y109.294 E6.90414
M106 S255
G1 Z1.250 F7800.000
G1 X110.973 Y110.031 F7800.000
G1 F600
G1 X110.951 Y110.217 E6.91393
G1 X110.875 Y110.436 E6.92600
G1 X110.714 Y110.663 E6.94056
G1 X110.560 Y110.796 E6.95120
G1 X110.382 Y110.895 E6.96184
G1 X110.187 Y110.955 E6.97249
G1 X109.984 Y110.972 E6.98313
G1 X109.708 Y110.931 E6.99769
G1 X109.499 Y110.833 E7.00976
G1 X109.336 Y110.711 E7.02041
G1 X109.203 Y110.557 E7.03105
