;FLAVOR:Marlin
;TIME:2170
;Filament used: 1.4853m
;Layer height: 0.2
;MINX:25.2
;MINY:42.7
;MINZ:0.2
;MAXX:174.8
;MAXY:192.3
;MAXZ:2
;Generated with Cura_SteamEngine master
M82 ;absolute extrusion mode
; Ender 3 Custom Start G-code
M140 S75 ; Set Heat Bed temperature
M104 S160 ; start warming extruder to 160
G28 ; Home all axes
G29 ; Auto bed-level (BL-Touch)
G92 E0 ; Reset Extruder
M190 S75 ; Wait for Heat Bed temperature
M104 S210 ; Set Extruder temperature
G1 X0 Y0 Z0.3 F5000.0 ; Move to 0 0
M109 S210 ; Wait for Extruder temperature
G1 X3 Y20 Z0.3 F5000.0 ; Move to start position
; G1 Z2.0 F3000 ; Move Z Axis up little to prevent scratching of Heat Bed
G1 X3 Y200.0 Z0.3 F1500.0 E15 ; Draw the first line
G1 X3.3 Y200.0 Z0.3 F5000.0 ; Move to side a little
G1 X3.3 Y20 Z0.3 F1500.0 E30 ; Draw the second line
G92 E0 ; Reset Extruder
G1 Z2.0 F3000 ; Move Z Axis up little to prevent scratching of Heat Bed
G92 E0
G92 E0
G1 F2700 E-5
;LAYER_COUNT:10
;LAYER:0
M107
M204 S500
M205 X8 Y8
;MESH:CHEP_bed_level_print.stl
G0 F6000 X114.7 Y132.2 Z0.2
;TYPE:WALL-OUTER
G1 F2700 E0
G1 F1200 X114.7 Y102.8 E0.79206
G1 X85.3 Y102.8 E1.58411
G1 X85.3 Y132.2 E2.37617
G1 X114.7 Y132.2 E3.16823
G0 F6000 X114.8 Y132.3
G1 F1200 X85.2 Y132.3 E3.96567
G1 X85.2 Y102.7 E4.76312
G1 X114.8 Y102.7 E5.56056
G1 X114.8 Y132.3 E6.35801
G1 F2700 E1.35801
G0 F6000 X114.77 Y132.27
G0 X114.786 Y133.165
G0 X114.786 Y141.335
G0 X114.786 Y142.2
G0 X124.7 Y142.27
G0 X124.7 Y142.2
G1 F2700 E6.35801
G1 F1200 X124.7 Y92.8 E7.68888
G1 X75.3 Y92.8 E9.01975
G1 X75.3 Y142.2 E10.35062
G1 X124.7 Y142.2 E11.68149
G0 F6000 X124.8 Y142.3
G1 F1200 X75.2 Y142.3 E13.01775
G1 X75.2 Y92.7 E14.35401
G1 X124.8 Y92.7 E15.69027
G1 X124.8 Y142.3 E17.02653
G1 F2700 E12.02653
G0 F6000 X124.77 Y142.27
G0 X124.786 Y143.165
G0 X124.786 Y151.335
G0 X124.786 Y152.2
G0 X134.7 Y152.27
G0 X134.7 Y152.2
G1 F2700 E17.02653
G1 F1200 X134.7 Y82.8 E18.89621
G1 X65.3 Y82.8 E20.7659
G1 X65.3 Y152.2 E22.63558
G1 X134.7 Y152.2 E24.50527
G0 F6000 X134.8 Y152.3
G1 F1200 X65.2 Y152.3 E26.38034
G1 X65.2 Y82.7 E28.25542
G1 X134.8 Y82.7 E30.13049
G1 X134.8 Y152.3 E32.00556
G1 F2700 E27.00556
G0 F6000 X134.77 Y152.27
G0 X134.786 Y153.165
G0 X134.786 Y161.335
G0 X134.786 Y162.2
G0 X144.7 Y162.27
G0 X144.7 Y162.2
G1 F2700 E32.00556
G1 F1200 X144.7 Y72.8 E34.41406
G1 X55.3 Y72.8 E36.82256
G1 X55.3 Y162.2 E39.23106
G1 X144.7 Y162.2 E41.63956
G0 F6000 X144.8 Y162.3
G1 F1200 X55.2 Y162.3 E44.05345
G1 X55.2 Y72.7 E46.46734
G1 X144.8 Y72.7 E48.88122
G1 X144.8 Y162.3 E51.29511
G1 F2700 E46.29511
G0 F6000 X144.77 Y162.27
G0 X144.786 Y163.165
G0 X144.786 Y171.335
G0 X144.786 Y172.2
G0 X154.7 Y172.27
G0 X154.7 Y172.2
G1 F2700 E51.29511
G1 F1200 X154.7 Y62.8 E54.24242
G1 X45.3 Y62.8 E57.18974
G1 X45.3 Y172.2 E60.13705
G1 X154.7 Y172.2 E63.08437
G0 F6000 X154.8 Y172.3
G1 F1200 X45.2 Y172.3 E66.03707
G1 X45.2 Y62.7 E68.98977
G1 X154.8 Y62.7 E71.94247
G1 X154.8 Y172.3 E74.89517
G1 F2700 E69.89517
G0 F6000 X154.77 Y172.27
G0 X154.786 Y173.165
G0 X154.786 Y181.335
G0 X154.786 Y182.2
G0 X164.7 Y182.27
G0 X164.7 Y182.2
G1 F2700 E74.89517
G1 F1200 X164.7 Y52.8 E78.3813
G1 X35.3 Y52.8 E81.86743
G1 X35.3 Y182.2 E85.35356
G1 X164.7 Y182.2 E88.83968
G0 F6000 X164.8 Y182.3
G1 F1200 X35.2 Y182.3 E92.3312
G1 X35.2 Y52.7 E95.82272
G1 X164.8 Y52.7 E99.31423
G1 X164.8 Y182.3 E102.80575
G1 F2700 E97.80575
G0 F6000 X164.77 Y182.27
G0 X164.786 Y183.165
G0 X164.786 Y191.335
G0 X164.786 Y192.2
G0 X174.7 Y192.27
G0 X174.7 Y192.2
G1 F2700 E102.80575
G1 F1200 X174.7 Y42.8 E106.83069
G1 X25.3 Y42.8 E110.85563
G1 X25.3 Y192.2 E114.88057
G1 X174.7 Y192.2 E118.90551
G0 F6000 X174.8 Y192.3
M104 S210
G1 F1200 X25.2 Y192.3 E122.93585
G1 X25.2 Y42.7 E126.96618
G1 X174.8 Y42.7 E130.99651
G1 X174.8 Y192.3 E135.02684
G1 F2700 E130.02684
;MESH:NONMESH
G0 F300 X174.8 Y192.3 Z0.4
G0 F6000 X174.77 Y192.27
G0 X114.7 Y192.2
G0 X114.7 Y191.335
G0 X114.7 Y133.165
G0 X114.7 Y132.28
G0 X114.7 Y132.2
;TIME_ELAPSED:263.665725
;LAYER:1
M140 S70
M106 S85
;TYPE:WALL-OUTER
;MESH:CHEP_bed_level_print.stl
G1 F2700 E135.02684
G1 F1350 X114.7 Y102.8 E135.9069
G1 X85.3 Y102.8 E136.78696
G1 X85.3 Y132.2 E137.66702
G1 X114.7 Y132.2 E138.54709
G0 F7500 X114.8 Y132.3
G1 F1350 X85.2 Y132.3 E139.43314
G1 X85.2 Y102.7 E140.31919
G1 X114.8 Y102.7 E141.20524
G1 X114.8 Y132.3 E142.09129
G1 F2700 E137.09129
G0 F7500 X114.77 Y132.27
G0 X114.786 Y133.165
G0 X114.786 Y141.335
G0 X114.786 Y142.2
G0 X124.7 Y142.27
G0 X124.7 Y142.2
G1 F2700 E142.09129
G1 F1350 X124.7 Y92.8 E143.57003
G1 X75.3 Y92.8 E145.04878
G1 X75.3 Y142.2 E146.52752
G1 X124.7 Y142.2 E148.00627
G0 F7500 X124.8 Y142.3
G1 F1350 X75.2 Y142.3 E149.491
G1 X75.2 Y92.7 E150.97574
G1 X124.8 Y92.7 E152.46047
G1 X124.8 Y142.3 E153.9452
G1 F2700 E148.9452
G0 F7500 X124.77 Y142.27
G0 X124.786 Y143.165
G0 X124.786 Y151.335
G0 X124.786 Y152.2
G0 X134.7 Y152.27
G0 X134.7 Y152.2
G1 F2700 E153.9452
G1 F1350 X134.7 Y82.8 E156.02263
G1 X65.3 Y82.8 E158.10006
G1 X65.3 Y152.2 E160.17748
G1 X134.7 Y152.2 E162.25491
G0 F7500 X134.8 Y152.3
G1 F1350 X65.2 Y152.3 E164.33833
G1 X65.2 Y82.7 E166.42174
G1 X134.8 Y82.7 E168.50516
G1 X134.8 Y152.3 E170.58857
G1 F2700 E165.58857
G0 F7500 X134.77 Y152.27
G0 X134.786 Y153.165
G0 X134.786 Y161.335
G0 X134.786 Y162.2
G0 X144.7 Y162.27
G0 X144.7 Y162.2
G1 F2700 E170.58857
G1 F1350 X144.7 Y72.8 E173.26468
G1 X55.3 Y72.8 E175.94079
G1 X55.3 Y162.2 E178.6169
G1 X144.7 Y162.2 E181.29301
G0 F7500 X144.8 Y162.3
G1 F1350 X55.2 Y162.3 E183.97511
G1 X55.2 Y72.7 E186.65721
G1 X144.8 Y72.7 E189.33931
G1 X144.8 Y162.3 E192.0214
G1 F2700 E187.0214
G0 F7500 X144.77 Y162.27
G0 X144.786 Y163.165
G0 X144.786 Y171.335
G0 X144.786 Y172.2
G0 X154.7 Y172.27
G0 X154.7 Y172.2
G1 F2700 E192.0214
G1 F1350 X154.7 Y62.8 E195.2962
G1 X45.3 Y62.8 E198.57099
G1 X45.3 Y172.2 E201.84578
G1 X154.7 Y172.2 E205.12057
G0 F7500 X154.8 Y172.3
G1 F1350 X45.2 Y172.3 E208.40135
G1 X45.2 Y62.7 E211.68213
G1 X154.8 Y62.7 E214.96291
G1 X154.8 Y172.3 E218.24369
G1 F2700 E213.24369
G0 F7500 X154.77 Y172.27
G0 X154.786 Y173.165
G0 X154.786 Y181.335
G0 X154.786 Y182.2
G0 X164.7 Y182.27
G0 X164.7 Y182.2
G1 F2700 E218.24369
G1 F1350 X164.7 Y52.8 E222.11717
G1 X35.3 Y52.8 E225.99064
G1 X35.3 Y182.2 E229.86412
G1 X164.7 Y182.2 E233.73759
G0 F7500 X164.8 Y182.3
G1 F1350 X35.2 Y182.3 E237.61706
G1 X35.2 Y52.7 E241.49652
G1 X164.8 Y52.7 E245.37598
G1 X164.8 Y182.3 E249.25544
G1 F2700 E244.25544
G0 F7500 X164.77 Y182.27
G0 X164.786 Y183.165
G0 X164.786 Y191.335
G0 X164.786 Y192.2
G0 X174.7 Y192.27
G0 X174.7 Y192.2
G1 F2700 E249.25544
G1 F1350 X174.7 Y42.8 E253.7276
G1 X25.3 Y42.8 E258.19976
G1 X25.3 Y192.2 E262.67192
G1 X174.7 Y192.2 E267.14407
G0 F7500 X174.8 Y192.3
G1 F1350 X25.2 Y192.3 E271.62222
G1 X25.2 Y42.7 E276.10036
G1 X174.8 Y42.7 E280.57851
G1 X174.8 Y192.3 E285.05665
G1 F2700 E280.05665
;MESH:NONMESH
G0 F300 X174.8 Y192.3 Z0.6
G0 F7500 X174.77 Y192.27
G0 X114.7 Y192.2
G0 X114.7 Y191.335
G0 X114.7 Y133.165
G0 X114.7 Y132.28
G0 X114.7 Y132.2
;TIME_ELAPSED:495.383180
;LAYER:2
M106 S170
;TYPE:WALL-OUTER
;MESH:CHEP_bed_level_print.stl
G1 F2700 E285.05665
G1 F1500 X114.7 Y102.8 E285.93672
G1 X85.3 Y102.8 E286.81678
G1 X85.3 Y132.2 E287.69684
G1 X114.7 Y132.2 E288.57691
G0 F9000 X114.8 Y132.3
G1 F1500 X85.2 Y132.3 E289.46296
G1 X85.2 Y102.7 E290.34901
G1 X114.8 Y102.7 E291.23506
G1 X114.8 Y132.3 E292.12111
G1 F2700 E287.12111
G0 F9000 X114.77 Y132.27
G0 X114.786 Y133.165
G0 X114.786 Y141.335
G0 X114.786 Y142.2
G0 X124.7 Y142.27
G0 X124.7 Y142.2
G1 F2700 E292.12111
G1 F1500 X124.7 Y92.8 E293.59985
G1 X75.3 Y92.8 E295.0786
G1 X75.3 Y142.2 E296.55734
G1 X124.7 Y142.2 E298.03609
G0 F9000 X124.8 Y142.3
G1 F1500 X75.2 Y142.3 E299.52082
G1 X75.2 Y92.7 E301.00555
G1 X124.8 Y92.7 E302.49029
G1 X124.8 Y142.3 E303.97502
G1 F2700 E298.97502
G0 F9000 X124.77 Y142.27
G0 X124.786 Y143.165
G0 X124.786 Y151.335
G0 X124.786 Y152.2
G0 X134.7 Y152.27
G0 X134.7 Y152.2
G1 F2700 E303.97502
G1 F1500 X134.7 Y82.8 E306.05245
G1 X65.3 Y82.8 E308.12987
G1 X65.3 Y152.2 E310.2073
G1 X134.7 Y152.2 E312.28473
G0 F9000 X134.8 Y152.3
G1 F1500 X65.2 Y152.3 E314.36814
G1 X65.2 Y82.7 E316.45156
G1 X134.8 Y82.7 E318.53497
G1 X134.8 Y152.3 E320.61839
G1 F2700 E315.61839
G0 F9000 X134.77 Y152.27
G0 X134.786 Y153.165
G0 X134.786 Y161.335
G0 X134.786 Y162.2
G0 X144.7 Y162.27
G0 X144.7 Y162.2
G1 F2700 E320.61839
G1 F1500 X144.7 Y72.8 E323.2945
G1 X55.3 Y72.8 E325.97061
G1 X55.3 Y162.2 E328.64672
G1 X144.7 Y162.2 E331.32283
G0 F9000 X144.8 Y162.3
G1 F1500 X55.2 Y162.3 E334.00493
G1 X55.2 Y72.7 E336.68703
G1 X144.8 Y72.7 E339.36912
G1 X144.8 Y162.3 E342.05122
G1 F2700 E337.05122
G0 F9000 X144.77 Y162.27
G0 X144.786 Y163.165
G0 X144.786 Y171.335
G0 X144.786 Y172.2
G0 X154.7 Y172.27
G0 X154.7 Y172.2
G1 F2700 E342.05122
G1 F1500 X154.7 Y62.8 E345.32601
G1 X45.3 Y62.8 E348.60081
G1 X45.3 Y172.2 E351.8756
G1 X154.7 Y172.2 E355.15039
G0 F9000 X154.8 Y172.3
G1 F1500 X45.2 Y172.3 E358.43117
G1 X45.2 Y62.7 E361.71195
G1 X154.8 Y62.7 E364.99273
G1 X154.8 Y172.3 E368.27351
G1 F2700 E363.27351
G0 F9000 X154.77 Y172.27
G0 X154.786 Y173.165
G0 X154.786 Y181.335
G0 X154.786 Y182.2
G0 X164.7 Y182.27
G0 X164.7 Y182.2
G1 F2700 E368.27351
G1 F1500 X164.7 Y52.8 E372.14699
G1 X35.3 Y52.8 E376.02046
G1 X35.3 Y182.2 E379.89394
G1 X164.7 Y182.2 E383.76741
G0 F9000 X164.8 Y182.3
G1 F1500 X35.2 Y182.3 E387.64687
G1 X35.2 Y52.7 E391.52634
G1 X164.8 Y52.7 E395.4058
G1 X164.8 Y182.3 E399.28526
G1 F2700 E394.28526
G0 F9000 X164.77 Y182.27
G0 X164.786 Y183.165
G0 X164.786 Y191.335
G0 X164.786 Y192.2
G0 X174.7 Y192.27
G0 X174.7 Y192.2
G1 F2700 E399.28526
G1 F1500 X174.7 Y42.8 E403.75742
G1 X25.3 Y42.8 E408.22958
G1 X25.3 Y192.2 E412.70173
G1 X174.7 Y192.2 E417.17389
G0 F9000 X174.8 Y192.3
G1 F1500 X25.2 Y192.3 E421.65204
G1 X25.2 Y42.7 E426.13018
G1 X174.8 Y42.7 E430.60833
G1 X174.8 Y192.3 E435.08647
G1 F2700 E430.08647
;MESH:NONMESH
G0 F300 X174.8 Y192.3 Z0.8
G0 F9000 X174.77 Y192.27
G0 X114.7 Y192.2
G0 X114.7 Y191.335
G0 X114.7 Y133.165
G0 X114.7 Y132.28
G0 X114.7 Y132.2
;TIME_ELAPSED:705.034288
;LAYER:3
M106 S255
;TYPE:WALL-OUTER
;MESH:CHEP_bed_level_print.stl
G1 F2700 E435.08647
G1 F1500 X114.7 Y102.8 E435.96653
G1 X85.3 Y102.8 E436.8466
G1 X85.3 Y132.2 E437.72666
G1 X114.7 Y132.2 E438.60672
G0 F9000 X114.8 Y132.3
G1 F1500 X85.2 Y132.3 E439.49277
G1 X85.2 Y102.7 E440.37882
G1 X114.8 Y102.7 E441.26487
G1 X114.8 Y132.3 E442.15092
G1 F2700 E437.15092
G0 F9000 X114.77 Y132.27
G0 X114.786 Y133.165
G0 X114.786 Y141.335
G0 X114.786 Y142.2
G0 X124.7 Y142.27
G0 X124.7 Y142.2
G1 F2700 E442.15092
G1 F1500 X124.7 Y92.8 E443.62967
G1 X75.3 Y92.8 E445.10841
G1 X75.3 Y142.2 E446.58716
G1 X124.7 Y142.2 E448.0659
G0 F9000 X124.8 Y142.3
G1 F1500 X75.2 Y142.3 E449.55064
G1 X75.2 Y92.7 E451.03537
G1 X124.8 Y92.7 E452.5201
G1 X124.8 Y142.3 E454.00483
G1 F2700 E449.00483
G0 F9000 X124.77 Y142.27
G0 X124.786 Y143.165
G0 X124.786 Y151.335
G0 X124.786 Y152.2
G0 X134.7 Y152.27
G0 X134.7 Y152.2
G1 F2700 E454.00483
G1 F1500 X134.7 Y82.8 E456.08226
G1 X65.3 Y82.8 E458.15969
G1 X65.3 Y152.2 E460.23712
G1 X134.7 Y152.2 E462.31455
G0 F9000 X134.8 Y152.3
G1 F1500 X65.2 Y152.3 E464.39796
G1 X65.2 Y82.7 E466.48138
G1 X134.8 Y82.7 E468.56479
G1 X134.8 Y152.3 E470.64821
G1 F2700 E465.64821
G0 F9000 X134.77 Y152.27
G0 X134.786 Y153.165
G0 X134.786 Y161.335
G0 X134.786 Y162.2
G0 X144.7 Y162.27
G0 X144.7 Y162.2
G1 F2700 E470.64821
G1 F1500 X144.7 Y72.8 E473.32432
G1 X55.3 Y72.8 E476.00043
G1 X55.3 Y162.2 E478.67654
G1 X144.7 Y162.2 E481.35265
G0 F9000 X144.8 Y162.3
G1 F1500 X55.2 Y162.3 E484.03475
G1 X55.2 Y72.7 E486.71684
G1 X144.8 Y72.7 E489.39894
G1 X144.8 Y162.3 E492.08104
G1 F2700 E487.08104
G0 F9000 X144.77 Y162.27
G0 X144.786 Y163.165
G0 X144.786 Y171.335
G0 X144.786 Y172.2
G0 X154.7 Y172.27
G0 X154.7 Y172.2
G1 F2700 E492.08104
G1 F1500 X154.7 Y62.8 E495.35583
G1 X45.3 Y62.8 E498.63062
G1 X45.3 Y172.2 E501.90542
G1 X154.7 Y172.2 E505.18021
G0 F9000 X154.8 Y172.3
G1 F1500 X45.2 Y172.3 E508.46099
G1 X45.2 Y62.7 E511.74177
G1 X154.8 Y62.7 E515.02255
G1 X154.8 Y172.3 E518.30333
G1 F2700 E513.30333
G0 F9000 X154.77 Y172.27
G0 X154.786 Y173.165
G0 X154.786 Y181.335
G0 X154.786 Y182.2
G0 X164.7 Y182.27
G0 X164.7 Y182.2
G1 F2700 E518.30333
G1 F1500 X164.7 Y52.8 E522.1768
G1 X35.3 Y52.8 E526.05028
G1 X35.3 Y182.2 E529.92375
G1 X164.7 Y182.2 E533.79723
G0 F9000 X164.8 Y182.3
G1 F1500 X35.2 Y182.3 E537.67669
G1 X35.2 Y52.7 E541.55615
G1 X164.8 Y52.7 E545.43562
G1 X164.8 Y182.3 E549.31508
G1 F2700 E544.31508
G0 F9000 X164.77 Y182.27
G0 X164.786 Y183.165
G0 X164.786 Y191.335
G0 X164.786 Y192.2
G0 X174.7 Y192.27
G0 X174.7 Y192.2
G1 F2700 E549.31508
G1 F1500 X174.7 Y42.8 E553.78724
G1 X25.3 Y42.8 E558.25939
G1 X25.3 Y192.2 E562.73155
G1 X174.7 Y192.2 E567.20371
G0 F9000 X174.8 Y192.3
G1 F1500 X25.2 Y192.3 E571.68185
G1 X25.2 Y42.7 E576.16
G1 X174.8 Y42.7 E580.63814
G1 X174.8 Y192.3 E585.11629
G1 F2700 E580.11629
;MESH:NONMESH
G0 F300 X174.8 Y192.3 Z1
G0 F9000 X174.77 Y192.27
G0 X114.7 Y192.2
G0 X114.7 Y191.335
G0 X114.7 Y133.165
G0 X114.7 Y132.28
G0 X114.7 Y132.2
;TIME_ELAPSED:914.685396
;LAYER:4
;TYPE:WALL-OUTER
;MESH:CHEP_bed_level_print.stl
G1 F2700 E585.11629
G1 F1500 X114.7 Y102.8 E585.99635
G1 X85.3 Y102.8 E586.87641
G1 X85.3 Y132.2 E587.75648
G1 X114.7 Y132.2 E588.63654
G0 F9000 X114.8 Y132.3
G1 F1500 X85.2 Y132.3 E589.52259
G1 X85.2 Y102.7 E590.40864
G1 X114.8 Y102.7 E591.29469
G1 X114.8 Y132.3 E592.18074
G1 F2700 E587.18074
G0 F9000 X114.77 Y132.27
G0 X114.786 Y133.165
G0 X114.786 Y141.335
G0 X114.786 Y142.2
G0 X124.7 Y142.27
G0 X124.7 Y142.2
G1 F2700 E592.18074
G1 F1500 X124.7 Y92.8 E593.65949
G1 X75.3 Y92.8 E595.13823
G1 X75.3 Y142.2 E596.61698
G1 X124.7 Y142.2 E598.09572
G0 F9000 X124.8 Y142.3
G1 F1500 X75.2 Y142.3 E599.58045
G1 X75.2 Y92.7 E601.06519
G1 X124.8 Y92.7 E602.54992
G1 X124.8 Y142.3 E604.03465
G1 F2700 E599.03465
G0 F9000 X124.77 Y142.27
G0 X124.786 Y143.165
G0 X124.786 Y151.335
G0 X124.786 Y152.2
G0 X134.7 Y152.27
G0 X134.7 Y152.2
G1 F2700 E604.03465
G1 F1500 X134.7 Y82.8 E606.11208
G1 X65.3 Y82.8 E608.18951
G1 X65.3 Y152.2 E610.26694
G1 X134.7 Y152.2 E612.34436
G0 F9000 X134.8 Y152.3
G1 F1500 X65.2 Y152.3 E614.42778
G1 X65.2 Y82.7 E616.51119
G1 X134.8 Y82.7 E618.59461
G1 X134.8 Y152.3 E620.67802
G1 F2700 E615.67802
G0 F9000 X134.77 Y152.27
G0 X134.786 Y153.165
G0 X134.786 Y161.335
G0 X134.786 Y162.2
G0 X144.7 Y162.27
G0 X144.7 Y162.2
G1 F2700 E620.67802
G1 F1500 X144.7 Y72.8 E623.35413
G1 X55.3 Y72.8 E626.03024
G1 X55.3 Y162.2 E628.70635
G1 X144.7 Y162.2 E631.38247
G0 F9000 X144.8 Y162.3
G1 F1500 X55.2 Y162.3 E634.06456
G1 X55.2 Y72.7 E636.74666
G1 X144.8 Y72.7 E639.42876
G1 X144.8 Y162.3 E642.11085
G1 F2700 E637.11085
G0 F9000 X144.77 Y162.27
G0 X144.786 Y163.165
G0 X144.786 Y171.335
G0 X144.786 Y172.2
G0 X154.7 Y172.27
G0 X154.7 Y172.2
G1 F2700 E642.11085
G1 F1500 X154.7 Y62.8 E645.38565
G1 X45.3 Y62.8 E648.66044
G1 X45.3 Y172.2 E651.93523
G1 X154.7 Y172.2 E655.21003
G0 F9000 X154.8 Y172.3
G1 F1500 X45.2 Y172.3 E658.49081
G1 X45.2 Y62.7 E661.77159
G1 X154.8 Y62.7 E665.05237
G1 X154.8 Y172.3 E668.33314
G1 F2700 E663.33314
G0 F9000 X154.77 Y172.27
G0 X154.786 Y173.165
G0 X154.786 Y181.335
G0 X154.786 Y182.2
G0 X164.7 Y182.27
G0 X164.7 Y182.2
G1 F2700 E668.33314
G1 F1500 X164.7 Y52.8 E672.20662
G1 X35.3 Y52.8 E676.0801
G1 X35.3 Y182.2 E679.95357
G1 X164.7 Y182.2 E683.82705
G0 F9000 X164.8 Y182.3
G1 F1500 X35.2 Y182.3 E687.70651
G1 X35.2 Y52.7 E691.58597
G1 X164.8 Y52.7 E695.46543
G1 X164.8 Y182.3 E699.34489
G1 F2700 E694.34489
G0 F9000 X164.77 Y182.27
G0 X164.786 Y183.165
G0 X164.786 Y191.335
G0 X164.786 Y192.2
G0 X174.7 Y192.27
G0 X174.7 Y192.2
G1 F2700 E699.34489
G1 F1500 X174.7 Y42.8 E703.81705
G1 X25.3 Y42.8 E708.28921
G1 X25.3 Y192.2 E712.76137
G1 X174.7 Y192.2 E717.23353
G0 F9000 X174.8 Y192.3
G1 F1500 X25.2 Y192.3 E721.71167
G1 X25.2 Y42.7 E726.18981
G1 X174.8 Y42.7 E730.66796
G1 X174.8 Y192.3 E735.1461
G1 F2700 E730.1461
;MESH:NONMESH
G0 F300 X174.8 Y192.3 Z1.2
G0 F9000 X174.77 Y192.27
G0 X114.7 Y192.2
G0 X114.7 Y191.335
G0 X114.7 Y133.165
G0 X114.7 Y132.28
G0 X114.7 Y132.2
;TIME_ELAPSED:1124.336504
;LAYER:5
