;FLAVOR:Marlin
;TIME:38649
;Filament used: 32.7036m
;Layer height: 0.2
;MINX:13.748
;MINY:10.249
;MINZ:0.2
;MAXX:227.144
;MAXY:223.628
;MAXZ:20
;Generated with Cura_SteamEngine master
M82 ;absolute extrusion mode
; Ender 3 Custom Start G-code
M140 S75 ; Set Heat Bed temperature
M104 S160 ; start warming extruder to 160
G28 ; Home all axes
G29 ; Auto bed-level (BL-Touch)
G92 E0 ; Reset Extruder
M190 S75 ; Wait for Heat Bed temperature
M104 S210 ; Set Extruder temperature
G1 X0 Y0 Z0.3 F5000.0 ; Move to 0 0
M109 S210 ; Wait for Extruder temperature
G1 X1 Y20 Z0.3 F5000.0 ; Move to start position
; G1 Z2.0 F3000 ; Move Z Axis up little to prevent scratching of Heat Bed
G1 X3 Y200.0 Z0.3 F1500.0 E15 ; Draw the first line
G1 X3.3 Y200.0 Z0.3 F5000.0 ; Move to side a little
G1 X3.3 Y20 Z0.3 F1500.0 E30 ; Draw the second line
G92 E0 ; Reset Extruder
G1 Z2.0 F3000 ; Move Z Axis up little to prevent scratching of Heat Bed
G92 E0
G92 E0
G1 F2700 E-1
;LAYER_COUNT:100
;LAYER:0
M107
M204 S500
M205 X6 Y6
;MESH:Shoe_Sole.stl
G0 F6000 X76.351 Y26.167 Z0.2
;TYPE:WALL-INNER
G1 F2700 E0
G1 F1200 X77.227 Y27.545 E0.05431
G1 X77.262 Y27.522 E0.0557
G1 X77.271 Y27.515 E0.05608
G1 X77.446 Y27.791 E0.06371
G1 X85.839 Y39.342 E0.53861
G1 X94.939 Y50.344 E1.01349
G1 X104.713 Y60.75 E1.48832
G1 X115.119 Y70.524 E1.96316
G1 X126.122 Y79.624 E2.43806
G1 X137.672 Y88.017 E2.91293
G1 X149.726 Y95.666 E3.38776
G1 X162.237 Y102.547 E3.86266
G1 X167.689 Y105.112 E4.06306
G1 X167.619 Y105.261 E4.06853
G1 X172.068 Y107.354 E4.23206
G1 X178.09 Y110.665 E4.46063
G1 X183.821 Y114.3 E4.68636
G1 X189.375 Y118.335 E4.91469
G1 X193.857 Y122.045 E5.1082
G1 X196.385 Y124.336 E5.22168
G1 X198.902 Y126.7 E5.33653
G1 X201.249 Y129.113 E5.44849
G1 X203.613 Y131.631 E5.56336
G1 X205.809 Y134.19 E5.67552
G1 X208.002 Y136.841 E5.78995
G1 X210.033 Y139.538 E5.90224
G1 X212.063 Y142.332 E6.01711
G1 X213.917 Y145.142 E6.12908
G1 X215.762 Y148.05 E6.24362
G1 X217.443 Y150.985 E6.35612
G1 X219.092 Y153.984 E6.46995
G1 X220.592 Y157.028 E6.58282
G1 X222.058 Y160.145 E6.69738
G1 X223.132 Y162.724 E6.7903
G1 X225.944 Y172.543 E7.13001
G1 X225.944 Y186.204 E7.58438
G1 X221.733 Y199.162 E8.03755
G1 X213.713 Y210.197 E8.49127
G1 X202.678 Y218.217 E8.94499
G1 X189.72 Y222.428 E9.39816
G1 X176.073 Y222.428 E9.85206
G1 X164.249 Y218.691 E10.2645
G1 X161.796 Y217.536 E10.35468
G1 X156.154 Y214.541 E10.56714
G1 X149.445 Y210.853 E10.82177
G1 X143.332 Y207.111 E11.06016
G1 X137.26 Y203.257 E11.29936
G1 X131.411 Y199.148 E11.53711
G1 X125.571 Y194.904 E11.77722
G1 X119.984 Y190.432 E12.01524
G1 X114.471 Y185.869 E12.25326
G1 X109.155 Y181.037 E12.4922
G1 X103.893 Y176.095 E12.7323
G1 X98.924 Y170.97 E12.96972
G1 X93.982 Y165.708 E13.20982
G1 X89.33 Y160.266 E13.44795
G1 X84.771 Y154.756 E13.68581
G1 X80.445 Y148.998 E13.92535
G1 X75.135 Y141.689 E14.22583
G1 X67.449 Y129.576 E14.70297
G1 X60.835 Y117.547 E15.15954
G1 X60.744 Y117.594 E15.16295
G1 X56.114 Y109.174 E15.48255
G1 X49.251 Y98.36 E15.90854
G1 X41.722 Y87.997 E16.33458
G1 X33.557 Y78.126 E16.76065
G1 X24.79 Y68.79 E17.18662
G1 X22.985 Y67.094 E17.26899
G1 X20.642 Y63.745 E17.40494
G1 X17.51 Y57.884 E17.62596
G1 X15.599 Y51.582 E17.84499
G1 X14.954 Y45.031 E18.06393
G1 X15.599 Y38.48 E18.28287
G1 X17.51 Y32.178 E18.5019
G1 X20.619 Y26.367 E18.7211
G1 X24.793 Y21.277 E18.94004
G1 X29.869 Y17.112 E19.15843
G1 X29.903 Y17.091 E19.15976
G1 X35.649 Y14.019 E19.37647
G1 X35.766 Y13.973 E19.38065
G1 X41.915 Y12.108 E19.59437
G1 X42.096 Y12.073 E19.6005
G1 X48.439 Y11.449 E19.81248
G1 X48.656 Y11.449 E19.8197
G1 X54.994 Y12.073 E20.03152
G1 X55.184 Y12.109 E20.03796
G1 X61.338 Y13.976 E20.25185
G1 X61.442 Y14.017 E20.25557
G1 X67.197 Y17.092 E20.47259
G1 X67.212 Y17.102 E20.47319
G1 X72.33 Y21.302 E20.6934
G1 X73.779 Y22.844 E20.76377
G1 X75.081 Y24.418 E20.83172
G1 X76.351 Y26.167 E20.90361
G0 F6000 X76.675 Y25.932
G1 F1200 X77.343 Y26.982 E20.945
G1 X77.387 Y26.952 E20.94677
G1 X77.777 Y27.566 E20.97096
G1 X86.155 Y39.097 E21.44503
G1 X95.239 Y50.079 E21.91905
G1 X104.996 Y60.467 E22.39307
G1 X115.384 Y70.224 E22.86708
G1 X126.367 Y79.308 E23.34113
G1 X137.897 Y87.686 E23.81517
G1 X149.93 Y95.322 E24.28917
G1 X162.419 Y102.19 E24.76323
G1 X168.221 Y104.92 E24.9765
G1 X168.151 Y105.069 E24.98197
G1 X172.261 Y107.003 E25.13305
G1 X178.287 Y110.316 E25.36177
G1 X184.049 Y113.971 E25.58872
G1 X189.615 Y118.015 E25.81755
G1 X194.121 Y121.744 E26.01208
G1 X196.659 Y124.044 E26.126
G1 X199.176 Y126.408 E26.24085
G1 X201.541 Y128.839 E26.35366
G1 X203.905 Y131.357 E26.46853
G1 X206.117 Y133.935 E26.58151
G1 X208.31 Y136.586 E26.69594
G1 X210.357 Y139.303 E26.80909
G1 X212.387 Y142.097 E26.92396
G1 X214.255 Y144.928 E27.03677
G1 X216.1 Y147.836 E27.15131
G1 X217.794 Y150.792 E27.26463
G1 X219.443 Y153.791 E27.37846
G1 X220.954 Y156.858 E27.49218
G1 X222.42 Y159.975 E27.60674
G1 X222.426 Y159.991 E27.60731
G1 X223.512 Y162.596 E27.70118
G1 X226.344 Y172.485 E28.04331
G1 X226.344 Y186.266 E28.50167
G1 X222.093 Y199.347 E28.95914
G1 X214 Y210.484 E29.41703
G1 X202.863 Y218.577 E29.87492
G1 X202.802 Y218.596 E29.87705
G1 X189.782 Y222.828 E30.3324
G1 X176.012 Y222.828 E30.79039
G1 X164.102 Y219.064 E31.20583
G1 X161.617 Y217.894 E31.29718
G1 X155.961 Y214.892 E31.51016
G1 X149.252 Y211.204 E31.76479
G1 X143.123 Y207.452 E32.00381
G1 X137.046 Y203.595 E32.2432
G1 X131.176 Y199.472 E32.48179
G1 X125.336 Y195.228 E32.7219
G1 X119.734 Y190.744 E32.96056
G1 X114.207 Y186.17 E33.19918
G1 X108.881 Y181.329 E33.43856
G1 X103.619 Y176.387 E33.67866
G1 X98.632 Y171.244 E33.91693
G1 X93.69 Y165.982 E34.15703
G1 X89.026 Y160.526 E34.39577
G1 X84.455 Y155.001 E34.63427
G1 X80.125 Y149.238 E34.87402
G1 X74.806 Y141.917 E35.175
G1 X67.111 Y129.79 E35.65269
G1 X67.1 Y129.769 E35.65348
G1 X60.672 Y118.081 E36.09714
G1 X60.581 Y118.128 E36.10054
G1 X55.77 Y109.378 E36.43266
G1 X48.92 Y98.585 E36.85783
G1 X41.406 Y88.242 E37.28304
G1 X33.257 Y78.391 E37.70826
G1 X24.507 Y69.073 E38.1334
G1 X22.68 Y67.356 E38.21679
G1 X20.299 Y63.952 E38.35495
G1 X17.139 Y58.039 E38.57794
G1 X15.205 Y51.662 E38.79958
G1 X14.552 Y45.031 E39.0212
G1 X15.205 Y38.4 E39.24281
G1 X17.139 Y32.023 E39.46445
G1 X20.283 Y26.145 E39.68617
G1 X24.509 Y20.993 E39.90779
G1 X29.638 Y16.784 E40.12847
G1 X29.703 Y16.744 E40.13101
G1 X35.477 Y13.657 E40.34878
G1 X35.637 Y13.594 E40.3545
G1 X41.818 Y11.719 E40.56933
G1 X42.037 Y11.677 E40.57675
G1 X48.42 Y11.049 E40.79007
G1 X48.675 Y11.049 E40.79855
G1 X55.056 Y11.677 E41.01181
G1 X55.279 Y11.72 E41.01936
G1 X61.463 Y13.596 E41.2343
G1 X61.616 Y13.656 E41.23977
G1 X67.401 Y16.747 E41.45792
G1 X67.449 Y16.779 E41.45984
G1 X72.608 Y21.013 E41.68182
G1 X74.071 Y22.57 E41.75288
G1 X75.401 Y24.178 E41.82228
G1 X76.675 Y25.932 E41.89439
G0 F6000 X77.506 Y26.393
G1 F1200 X78.108 Y27.341 E41.93174
G1 X86.471 Y38.852 E42.40497
G1 X95.539 Y49.814 E42.87815
G1 X105.279 Y60.184 E43.35134
G1 X115.649 Y69.924 E43.82452
G1 X126.612 Y78.992 E44.29773
G1 X138.122 Y87.355 E44.77093
G1 X150.134 Y94.978 E45.24411
G1 X162.601 Y101.833 E45.71732
G1 X168.753 Y104.728 E45.94346
G1 X168.683 Y104.877 E45.94893
G1 X172.454 Y106.652 E46.08755
G1 X178.484 Y109.967 E46.31642
G1 X184.277 Y113.642 E46.5446
G1 X189.855 Y117.695 E46.77393
G1 X194.385 Y121.443 E46.96948
G1 X196.933 Y123.752 E47.08385
G1 X199.45 Y126.116 E47.1987
G1 X201.833 Y128.565 E47.31235
G1 X204.197 Y131.083 E47.42722
G1 X206.425 Y133.68 E47.54103
G1 X208.618 Y136.331 E47.65546
G1 X210.681 Y139.068 E47.76946
G1 X212.711 Y141.862 E47.88433
G1 X214.593 Y144.714 E47.99798
G1 X216.438 Y147.622 E48.11252
G1 X218.145 Y150.599 E48.22666
G1 X219.794 Y153.598 E48.34049
G1 X221.316 Y156.688 E48.45505
G1 X222.782 Y159.805 E48.56962
G1 X222.788 Y159.821 E48.57019
G1 X223.892 Y162.468 E48.66558
G1 X226.744 Y172.427 E49.01013
G1 X226.744 Y186.328 E49.47248
G1 X222.453 Y199.532 E49.93426
G1 X214.287 Y210.771 E50.39632
G1 X203.048 Y218.937 E50.85838
G1 X202.987 Y218.956 E50.86051
G1 X189.844 Y223.228 E51.32016
G1 X175.951 Y223.228 E51.78224
G1 X163.955 Y219.437 E52.20068
G1 X161.447 Y218.256 E52.29288
G1 X155.768 Y215.243 E52.5067
G1 X149.059 Y211.555 E52.76134
G1 X142.914 Y207.793 E53.00098
G1 X136.832 Y203.933 E53.24057
G1 X130.941 Y199.796 E53.47999
G1 X125.101 Y195.552 E53.7201
G1 X119.484 Y191.056 E53.9594
G1 X113.943 Y186.471 E54.19861
G1 X108.607 Y181.621 E54.43844
G1 X103.345 Y176.679 E54.67854
G1 X98.34 Y171.518 E54.91766
G1 X93.398 Y166.256 E55.15776
G1 X88.722 Y160.786 E55.39711
G1 X84.139 Y155.246 E55.63625
G1 X79.805 Y149.478 E55.87621
G1 X74.477 Y142.145 E56.17769
G1 X66.762 Y129.987 E56.65661
G1 X60.509 Y118.615 E57.08825
G1 X60.418 Y118.662 E57.09166
G1 X55.426 Y109.582 E57.43629
G1 X48.589 Y98.81 E57.86064
G1 X41.09 Y88.487 E58.28502
G1 X32.957 Y78.656 E58.70939
G1 X24.224 Y69.356 E59.13371
G1 X22.375 Y67.618 E59.21811
G1 X19.956 Y64.159 E59.3585
G1 X16.768 Y58.194 E59.58345
G1 X14.811 Y51.742 E59.8077
G1 X14.15 Y45.031 E60.03199
G1 X14.811 Y38.32 E60.25628
G1 X16.768 Y31.868 E60.48053
G1 X19.947 Y25.923 E60.70475
G1 X24.225 Y20.709 E60.92907
G1 X29.405 Y16.458 E61.15195
G1 X29.514 Y16.391 E61.1562
G1 X35.305 Y13.295 E61.37461
G1 X35.508 Y13.215 E61.38187
G1 X41.72 Y11.33 E61.59778
G1 X41.98 Y11.281 E61.60658
G1 X48.401 Y10.649 E61.82118
G1 X48.694 Y10.649 E61.83092
G1 X55.115 Y11.281 E62.04552
G1 X55.376 Y11.331 E62.05436
G1 X61.593 Y13.217 E62.27044
G1 X61.788 Y13.294 E62.27741
G1 X67.602 Y16.401 E62.49667
G1 X67.683 Y16.453 E62.49987
G1 X72.884 Y20.722 E62.72367
G1 X74.363 Y22.296 E62.7955
G1 X75.721 Y23.938 E62.86637
G1 X76.999 Y25.697 E62.93869
G1 X77.461 Y26.423 E62.96731
G1 X77.506 Y26.393 E62.96911
G0 F6000 X77.624 Y25.833
;TYPE:WALL-OUTER
G1 F1200 X78.439 Y27.116 E63.01967
G1 X86.787 Y38.607 E63.49207
G1 X95.839 Y49.549 E63.96439
G1 X105.562 Y59.901 E64.43676
G1 X115.914 Y69.624 E64.90912
G1 X126.857 Y78.676 E65.38147
G1 X138.347 Y87.024 E65.85385
G1 X150.338 Y94.634 E66.32621
G1 X162.783 Y101.476 E66.79856
G1 X169.285 Y104.536 E67.03757
G1 X169.215 Y104.685 E67.04304
G1 X172.647 Y106.301 E67.16921
G1 X178.681 Y109.618 E67.39823
G1 X184.505 Y113.313 E67.62763
G1 X190.095 Y117.375 E67.85746
G1 X194.649 Y121.142 E68.05403
G1 X197.207 Y123.46 E68.16885
G1 X199.724 Y125.824 E68.2837
G1 X202.125 Y128.291 E68.3982
G1 X204.489 Y130.809 E68.51307
G1 X206.733 Y133.425 E68.6277
G1 X208.926 Y136.076 E68.74214
G1 X211.005 Y138.833 E68.85698
G1 X213.035 Y141.627 E68.97185
G1 X214.931 Y144.5 E69.08634
G1 X216.776 Y147.408 E69.20088
G1 X218.495 Y150.406 E69.31583
G1 X220.153 Y153.421 E69.43027
G1 X221.678 Y156.518 E69.54509
G1 X223.144 Y159.635 E69.65965
G1 X224.272 Y162.34 E69.75713
G1 X227.144 Y172.369 E70.1041
G1 X227.144 Y186.39 E70.57044
G1 X222.813 Y199.717 E71.03652
G1 X214.574 Y211.058 E71.50276
G1 X203.233 Y219.297 E71.96899
G1 X189.906 Y223.628 E72.43507
G1 X175.89 Y223.628 E72.90124
G1 X163.808 Y219.81 E73.32268
G1 X161.277 Y218.618 E73.41573
G1 X155.575 Y215.594 E73.6304
G1 X148.866 Y211.906 E73.88503
G1 X142.705 Y208.134 E74.1253
G1 X136.618 Y204.271 E74.36508
G1 X130.706 Y200.12 E74.60535
G1 X124.866 Y195.876 E74.84546
G1 X119.234 Y191.368 E75.0854
G1 X113.679 Y186.772 E75.3252
G1 X108.333 Y181.913 E75.56548
G1 X103.071 Y176.971 E75.80558
G1 X98.048 Y171.792 E76.04554
G1 X93.106 Y166.53 E76.28564
G1 X88.418 Y161.046 E76.5256
G1 X83.823 Y155.491 E76.76538
G1 X79.485 Y149.718 E77.00556
G1 X74.148 Y142.373 E77.30753
G1 X66.413 Y130.184 E77.78768
G1 X60.346 Y119.149 E78.20652
G1 X60.255 Y119.196 E78.20993
G1 X55.082 Y109.786 E78.56708
G1 X48.258 Y99.035 E78.99061
G1 X40.774 Y88.732 E79.41415
G1 X32.657 Y78.921 E79.83767
G1 X23.941 Y69.639 E80.26117
G1 X22.072 Y67.883 E80.34646
G1 X19.613 Y64.366 E80.48919
G1 X16.397 Y58.349 E80.71611
G1 X14.417 Y51.822 E80.94297
G1 X13.748 Y45.031 E81.16993
G1 X14.417 Y38.24 E81.3969
G1 X16.397 Y31.713 E81.62375
G1 X19.611 Y25.701 E81.85049
G1 X23.941 Y20.425 E82.07751
G1 X29.172 Y16.132 E82.30258
G1 X29.325 Y16.038 E82.30855
G1 X35.133 Y12.933 E82.5276
G1 X35.378 Y12.836 E82.53636
G1 X41.622 Y10.942 E82.75338
G1 X41.923 Y10.885 E82.76357
G1 X48.382 Y10.249 E82.97944
G1 X48.713 Y10.249 E82.99045
G1 X55.174 Y10.885 E83.20638
G1 X55.473 Y10.942 E83.2165
G1 X61.723 Y12.838 E83.43373
G1 X61.96 Y12.932 E83.44221
G1 X67.796 Y16.051 E83.6623
G1 X67.92 Y16.13 E83.66719
G1 X73.16 Y20.431 E83.89267
G1 X74.655 Y22.022 E83.96528
G1 X76.041 Y23.698 E84.03762
G1 X77.333 Y25.476 E84.11072
G1 X77.579 Y25.863 E84.12597
G1 X77.624 Y25.833 E84.12777
G0 F6000 X77.156 Y26.129
G0 X76.035 Y26.397
;TYPE:SKIN
G1 F1200 X77.114 Y28.095 E84.19468
G1 X77.161 Y28.063 E84.19657
G1 X85.531 Y39.582 E84.67016
G1 X94.646 Y50.602 E85.14582
G1 X104.438 Y61.025 E85.62147
G1 X114.861 Y70.817 E86.09713
G1 X125.882 Y79.932 E86.57282
G1 X137.453 Y88.339 E87.04852
G1 X149.527 Y96.002 E87.52416
G1 X162.06 Y102.894 E87.99988
G1 X167.17 Y105.299 E88.18772
G1 X167.1 Y105.448 E88.1932
G1 X171.902 Y107.707 E88.3697
G1 X177.887 Y110.998 E88.59687
G1 X183.591 Y114.616 E88.82153
G1 X189.145 Y118.651 E89.04986
G1 X193.601 Y122.34 E89.24227
G1 X196.121 Y124.622 E89.35534
G1 X198.629 Y126.979 E89.46982
G1 X200.903 Y129.315 E89.57825
G1 X203.328 Y131.898 E89.69609
G1 X205.513 Y134.444 E89.80768
G1 X207.69 Y137.075 E89.92125
G1 X209.717 Y139.768 E90.03336
G1 X211.742 Y142.555 E90.14794
G1 X213.59 Y145.354 E90.2595
G1 X215.423 Y148.243 E90.3733
G1 X217.103 Y151.176 E90.48572
G1 X218.743 Y154.156 E90.59885
G1 X220.239 Y157.194 E90.71148
G1 X221.701 Y160.303 E90.82575
G1 X222.764 Y162.854 E90.91767
G1 X225.554 Y172.598 E91.25478
G1 X225.554 Y186.142 E91.70525
G1 X221.381 Y198.98 E92.15424
G1 X213.434 Y209.918 E92.60392
G1 X202.496 Y217.865 E93.0536
G1 X189.658 Y222.038 E93.50259
G1 X176.134 Y222.038 E93.9524
G1 X164.392 Y218.328 E94.36197
G1 X161.971 Y217.187 E94.45099
G1 X156.271 Y214.161 E94.66563
G1 X149.641 Y210.516 E94.91727
G1 X143.535 Y206.778 E95.15539
G1 X137.477 Y202.933 E95.39404
G1 X131.638 Y198.83 E95.6314
G1 X125.801 Y194.588 E95.87139
G1 X120.231 Y190.13 E96.10868
G1 X114.727 Y185.574 E96.34632
G1 X109.417 Y180.749 E96.58495
G1 X104.16 Y175.811 E96.82484
G1 X99.204 Y170.699 E97.06166
G1 X94.266 Y165.441 E97.30157
G1 X89.626 Y160.013 E97.53908
G1 X85.083 Y154.522 E97.77611
G1 X80.761 Y148.768 E98.01546
G1 X75.451 Y141.459 E98.31594
G1 X67.782 Y129.373 E98.79202
G1 X60.993 Y117.026 E99.26067
G1 X60.902 Y117.073 E99.26408
G1 X56.45 Y108.975 E99.57144
G1 X49.573 Y98.141 E99.99824
G1 X42.03 Y87.757 E100.42512
G1 X33.85 Y77.868 E100.85197
G1 X25.066 Y68.515 E101.27874
G1 X23.285 Y66.841 E101.36003
G1 X20.973 Y63.537 E101.49416
G1 X17.871 Y57.733 E101.71304
G1 X15.983 Y51.507 E101.92943
G1 X15.346 Y45.031 E102.14586
G1 X15.983 Y38.555 E102.36229
G1 X17.871 Y32.329 E102.57868
G1 X20.945 Y26.585 E102.79537
G1 X25.068 Y21.556 E103.01166
G1 X30.101 Y17.427 E103.22818
G1 X35.813 Y14.374 E103.4436
G1 X35.899 Y14.34 E103.44667
G1 X42.007 Y12.487 E103.65897
G1 X42.151 Y12.46 E103.66384
G1 X48.458 Y11.839 E103.87463
G1 X48.637 Y11.839 E103.88058
G1 X54.931 Y12.459 E104.09093
G1 X55.1 Y12.49 E104.09665
G1 X61.211 Y14.345 E104.30906
G1 X61.273 Y14.37 E104.31128
G1 X66.984 Y17.421 E104.52664
G1 X72.069 Y21.593 E104.74541
G1 X73.487 Y23.102 E104.81428
G1 X74.765 Y24.648 E104.88099
G1 X76.035 Y26.397 E104.95288
G1 F2700 E103.95288
G0 F6000 X106.711 Y177.987
G1 F2700 E104.95288
G1 F1200 X99.586 Y170.863 E105.288
G0 F6000 X92.983 Y163.694
G1 F1200 X113.839 Y184.549 E106.26898
G0 F6000 X117.589 Y187.734
G1 F1200 X89.673 Y159.818 E107.58206
G0 F6000 X86.96 Y156.54
G1 F1200 X120.801 Y190.38 E109.17381
G0 F6000 X123.634 Y192.648
G1 F1200 X84.606 Y153.619 E111.00959
G0 F6000 X82.899 Y151.347
G1 F1200 X126.314 Y194.761 E113.05168
G0 F6000 X128.384 Y196.266
G1 F1200 X81.193 Y149.075 E115.2714
G0 F6000 X79.654 Y146.97
G1 F1200 X130.455 Y197.772 E117.66095
G0 F6000 X132.461 Y199.212
G1 F1200 X78.15 Y144.901 E120.21557
G0 F6000 X76.646 Y142.832
G1 F1200 X134.362 Y200.547 E122.93033
G0 F6000 X136.263 Y201.882
G1 F1200 X75.294 Y140.914 E125.7981
G0 F6000 X74.312 Y139.366
G1 F1200 X138.054 Y203.107 E128.7963
