;FLAVOR:Marlin
;TIME:3920
;Filament used: 2.29406m
;Layer height: 0.2
;MINX:101.595
;MINY:103.702
;MINZ:0.2
;MAXX:141.394
;MAXY:137.117
;MAXZ:47.6
;Generated with Cura_SteamEngine master
M82 ;absolute extrusion mode
; Ender 3 Custom Start G-code
M140 S60 ; Set Heat Bed temperature
M104 S160 ; start warming extruder to 160
G28 ; Home all axes
G29 ; Auto bed-level (BL-Touch)
G92 E0 ; Reset Extruder
M190 S60 ; Wait for Heat Bed temperature
M104 S220 ; Set Extruder temperature
G1 X0 Y0 Z0.3 F5000.0 ; Move to 0 0
M109 S220 ; Wait for Extruder temperature
G1 X1 Y20 Z0.3 F5000.0 ; Move to start position
; G1 Z2.0 F3000 ; Move Z Axis up little to prevent scratching of Heat Bed
G1 X3 Y200.0 Z0.3 F1500.0 E15 ; Draw the first line
G1 X3.3 Y200.0 Z0.3 F5000.0 ; Move to side a little
G1 X3.3 Y20 Z0.3 F1500.0 E30 ; Draw the second line
G92 E0 ; Reset Extruder
G1 Z2.0 F3000 ; Move Z Axis up little to prevent scratching of Heat Bed
G92 E0
G92 E0
G1 F2700 E-5
;LAYER_COUNT:238
;LAYER:0
M107
G0 F6000 X136.221 Y124.75 Z0.2
;TYPE:SKIRT
G1 F2700 E0
G1 F1200 X136.29 Y125.073 E0.01099
G1 X136.369 Y125.316 E0.01948
G1 X135.913 Y125.598 E0.03732
G1 X136.221 Y124.75 E0.06732
G0 F6000 X136.547 Y124.402
G1 F1200 X136.67 Y124.949 E0.08597
G1 X136.801 Y125.353 E0.1001
G1 X136.734 Y125.561 E0.10737
G1 X135.477 Y126.337 E0.1565
G1 X135.106 Y126.611 E0.17184
G1 X135.207 Y126.372 E0.18047
G1 X136.539 Y122.7 E0.31039
G1 X136.639 Y122.364 E0.32205
G1 X137.22 Y119.893 E0.40647
G1 X137.293 Y119.409 E0.42275
G1 X137.286 Y118.919 E0.43905
G1 X137.284 Y118.909 E0.43939
G1 X137.429 Y118.463 E0.45499
G1 X137.713 Y118.257 E0.46666
G1 X138.057 Y118.257 E0.4781
G1 X138.341 Y118.463 E0.48977
G1 X138.448 Y118.794 E0.50134
G1 X138.33 Y119.156 E0.514
G1 X138.186 Y119.266 E0.52003
G1 X137.821 Y119.592 E0.53631
G1 X137.515 Y119.974 E0.55259
G1 X137.275 Y120.401 E0.56888
G1 X137.059 Y121.062 E0.59201
G1 X136.582 Y123.427 E0.67225
G1 X136.525 Y123.913 E0.68853
G1 X136.547 Y124.402 E0.70481
G0 F6000 X136.953 Y124.413
G1 F1200 X137.051 Y124.825 E0.71889
G1 X137.223 Y125.353 E0.73736
G1 X137.069 Y125.825 E0.75388
G1 X135.687 Y126.678 E0.80789
G1 X135.322 Y126.95 E0.82303
G1 X135.01 Y127.282 E0.83819
G1 X134.76 Y127.663 E0.85334
G1 X134.621 Y127.992 E0.86522
G1 X134.343 Y128.234 E0.87748
G1 X134.057 Y128.588 E0.89262
G1 X133.838 Y128.988 E0.90778
G1 X133.806 Y129.07 E0.91071
G1 X133.691 Y129.154 E0.91545
G1 X133.348 Y129.454 E0.9306
G1 X133.062 Y129.809 E0.94577
G1 X132.843 Y130.208 E0.96091
G1 X132.75 Y130.451 E0.96956
G1 X132.719 Y130.546 E0.97288
G1 X131.973 Y131.375 E1.00998
G1 X131.699 Y131.739 E1.02513
G1 X131.549 Y132.017 E1.03564
G1 X131.14 Y132.897 E1.06791
G1 X129.028 Y134.368 E1.15352
G1 X128.441 Y134.368 E1.17304
G1 X128.042 Y134.077 E1.18946
G1 X127.91 Y133.672 E1.20363
G1 X128.148 Y133.032 E1.22634
G1 X130.558 Y131.19 E1.32723
G1 X130.848 Y130.932 E1.34014
G1 X133.322 Y128.375 E1.45848
G1 X133.608 Y128.021 E1.47362
G1 X133.829 Y127.622 E1.48879
G1 X133.917 Y127.451 E1.49518
G1 X134.26 Y127.152 E1.51032
G1 X134.546 Y126.797 E1.52548
G1 X134.831 Y126.236 E1.54641
G1 X136.163 Y122.564 E1.67633
G1 X136.25 Y122.272 E1.68646
G1 X136.831 Y119.801 E1.77089
G1 X136.896 Y119.35 E1.78604
G1 X136.881 Y118.895 E1.80118
G1 X136.875 Y118.87 E1.80204
G1 X137.088 Y118.218 E1.82485
G1 X137.583 Y117.857 E1.84523
G1 X138.187 Y117.857 E1.86532
G1 X138.682 Y118.218 E1.8857
G1 X138.87 Y118.794 E1.90585
G1 X138.673 Y119.398 E1.92698
G1 X138.428 Y119.584 E1.93721
G1 X138.09 Y119.89 E1.95237
G1 X137.812 Y120.251 E1.96753
G1 X137.6 Y120.654 E1.98267
G1 X137.451 Y121.141 E1.99961
G1 X136.974 Y123.506 E2.07986
G1 X136.924 Y123.959 E2.09502
G1 X136.953 Y124.413 E2.11015
G0 F6000 X137.36 Y124.419
G1 F1200 X137.431 Y124.701 E2.11982
G1 X137.643 Y125.353 E2.14262
G1 X137.404 Y126.088 E2.16833
G1 X135.897 Y127.018 E2.22723
G1 X135.563 Y127.271 E2.24116
G1 X135.283 Y127.583 E2.25511
G1 X135.068 Y127.942 E2.26902
G1 X134.961 Y128.209 E2.27859
G1 X134.922 Y128.258 E2.28067
G1 X134.608 Y128.535 E2.2946
G1 X134.353 Y128.868 E2.30855
G1 X134.141 Y129.322 E2.32522
G1 X133.927 Y129.478 E2.33402
G1 X133.613 Y129.756 E2.34797
G1 X133.358 Y130.088 E2.3619
G1 X133.13 Y130.574 E2.37975
G1 X133.072 Y130.752 E2.38598
G1 X132.271 Y131.642 E2.4258
G1 X132.021 Y131.979 E2.43976
G1 X131.911 Y132.186 E2.44756
G1 X131.456 Y133.163 E2.4834
G1 X129.152 Y134.768 E2.57679
G1 X128.31 Y134.768 E2.6048
G1 X127.703 Y134.326 E2.62977
G1 X127.487 Y133.663 E2.65297
G1 X127.815 Y132.783 E2.6842
G1 X130.315 Y130.872 E2.78886
G1 X130.56 Y130.654 E2.79977
G1 X133.034 Y128.097 E2.91811
G1 X133.295 Y127.769 E2.93205
G1 X133.545 Y127.247 E2.9513
G1 X133.681 Y127.128 E2.95731
G1 X133.995 Y126.85 E2.97126
G1 X134.251 Y126.518 E2.9852
G1 X134.455 Y126.099 E3.0007
G1 X135.787 Y122.427 E3.13062
G1 X135.861 Y122.181 E3.13916
G1 X136.442 Y119.71 E3.22359
G1 X136.498 Y119.294 E3.23755
G1 X136.475 Y118.876 E3.25148
G1 X136.466 Y118.837 E3.25281
G1 X136.748 Y117.969 E3.28316
G1 X137.452 Y117.457 E3.31212
G1 X138.318 Y117.457 E3.34092
G1 X139.022 Y117.969 E3.36987
G1 X139.29 Y118.794 E3.39872
G1 X139.014 Y119.642 E3.42838
G1 X138.67 Y119.903 E3.44275
G1 X138.362 Y120.187 E3.45668
G1 X138.113 Y120.524 E3.47062
G1 X137.933 Y120.902 E3.48454
G1 X137.843 Y121.22 E3.49553
G1 X137.366 Y123.585 E3.57578
G1 X137.323 Y124.002 E3.58972
G1 X137.36 Y124.419 E3.60364
G0 F6000 X137.811 Y124.577
G1 F1200 X138.064 Y125.353 E3.63079
G1 X137.739 Y126.351 E3.6657
G1 X136.107 Y127.358 E3.72948
G1 X135.808 Y127.59 E3.74207
G1 X135.563 Y127.88 E3.7547
G1 X135.341 Y128.333 E3.77148
G1 X135.292 Y128.482 E3.77669
G1 X135.157 Y128.581 E3.78226
G1 X134.876 Y128.835 E3.79486
G1 X134.655 Y129.142 E3.80744
G1 X134.505 Y129.479 E3.81971
G1 X134.474 Y129.574 E3.82303
G1 X134.162 Y129.801 E3.83587
G1 X133.881 Y130.055 E3.84846
G1 X133.659 Y130.362 E3.86107
G1 X133.511 Y130.698 E3.87328
G1 X133.427 Y130.955 E3.88227
G1 X132.568 Y131.91 E3.92499
G1 X132.274 Y132.355 E3.94273
G1 X131.774 Y133.429 E3.98213
G1 X129.361 Y135.111 E4.07996
G1 X129.267 Y135.168 E4.08362
G1 X128.18 Y135.168 E4.11978
G1 X127.362 Y134.572 E4.15344
G1 X127.063 Y133.654 E4.18555
G1 X127.48 Y132.535 E4.22527
G1 X130.072 Y130.554 E4.33377
G1 X130.273 Y130.376 E4.3427
G1 X132.747 Y127.819 E4.46104
G1 X132.98 Y127.52 E4.47365
G1 X133.165 Y127.123 E4.48822
G1 X133.214 Y126.973 E4.49346
G1 X133.446 Y126.804 E4.50301
G1 X133.727 Y126.55 E4.51561
G1 X133.949 Y126.243 E4.52821
G1 X134.079 Y125.963 E4.53848
G1 X135.411 Y122.291 E4.6684
G1 X135.471 Y122.089 E4.6754
G1 X136.052 Y119.618 E4.75983
G1 X136.1 Y119.242 E4.77244
G1 X136.067 Y118.864 E4.78506
G1 X136.054 Y118.812 E4.78684
G1 X136.408 Y117.723 E4.82493
G1 X137.322 Y117.057 E4.86254
G1 X138.448 Y117.057 E4.89999
G1 X139.362 Y117.723 E4.93761
G1 X139.711 Y118.794 E4.97507
G1 X139.355 Y119.884 E5.01321
G1 X138.912 Y120.221 E5.03172
G1 X138.636 Y120.481 E5.04433
G1 X138.42 Y120.793 E5.05696
G1 X138.236 Y121.299 E5.07486
G1 X137.759 Y123.664 E5.15511
G1 X137.723 Y124.041 E5.1677
G1 X137.811 Y124.577 E5.18577
G0 F6000 X138.192 Y124.453
G1 F1200 X138.485 Y125.352 E5.21722
G1 X138.074 Y126.615 E5.2614
G1 X136.318 Y127.699 E5.33003
G1 X136.056 Y127.907 E5.34116
G1 X135.852 Y128.171 E5.35226
G1 X135.722 Y128.457 E5.3627
G1 X135.634 Y128.729 E5.37221
G1 X135.393 Y128.904 E5.38212
G1 X135.148 Y129.132 E5.39325
G1 X134.964 Y129.411 E5.40437
G1 X134.815 Y129.82 E5.41884
G1 X134.398 Y130.124 E5.43601
G1 X134.153 Y130.352 E5.44714
G1 X133.969 Y130.631 E5.45825
G1 X133.891 Y130.822 E5.46512
G1 X133.781 Y131.16 E5.47694
G1 X132.865 Y132.178 E5.52249
G1 X132.637 Y132.523 E5.53624
G1 X132.091 Y133.696 E5.57927
G1 X129.569 Y135.453 E5.68151
G1 X129.381 Y135.568 E5.68884
G1 X128.05 Y135.568 E5.73311
G1 X127.021 Y134.819 E5.77544
G1 X126.639 Y133.646 E5.81647
G1 X127.145 Y132.287 E5.8647
G1 X129.829 Y130.236 E5.97705
G1 X129.985 Y130.097 E5.984
G1 X132.459 Y127.54 E6.10234
G1 X132.661 Y127.274 E6.11345
G1 X132.785 Y127 E6.12345
G1 X132.874 Y126.726 E6.13303
G1 X133.211 Y126.481 E6.14689
G1 X133.455 Y126.254 E6.15797
G1 X133.703 Y125.826 E6.17443
G1 X135.035 Y122.154 E6.30434
G1 X135.082 Y121.997 E6.30979
G1 X135.663 Y119.526 E6.39422
G1 X135.7 Y119.194 E6.40533
G1 X135.636 Y118.802 E6.41854
G1 X136.068 Y117.476 E6.46493
G1 X137.192 Y116.657 E6.51118
G1 X138.578 Y116.657 E6.55728
G1 X139.702 Y117.476 E6.60354
G1 X140.132 Y118.794 E6.64965
G1 X139.698 Y120.126 E6.69624
G1 X139.153 Y120.54 E6.71901
G1 X138.913 Y120.772 E6.73011
G1 X138.735 Y121.055 E6.74123
G1 X138.628 Y121.378 E6.75255
G1 X138.151 Y123.743 E6.83279
G1 X138.124 Y124.076 E6.8439
G1 X138.192 Y124.453 E6.85664
G0 F6000 X138.572 Y124.33
G1 F1200 X138.905 Y125.353 E6.89243
G1 X138.408 Y126.878 E6.94577
G1 X136.528 Y128.039 E7.01927
G1 X136.311 Y128.22 E7.02866
G1 X136.102 Y128.581 E7.04254
G1 X135.973 Y128.977 E7.05639
G1 X135.628 Y129.228 E7.07058
G1 X135.426 Y129.424 E7.07994
G1 X135.266 Y129.727 E7.09134
G1 X135.155 Y130.068 E7.10327
G1 X134.633 Y130.448 E7.12474
G1 X134.431 Y130.644 E7.1341
G1 X134.271 Y130.946 E7.14547
G1 X134.134 Y131.366 E7.16016
G1 X133.163 Y132.445 E7.20844
G1 X132.999 Y132.692 E7.2183
G1 X132.408 Y133.962 E7.26489
G1 X129.788 Y135.787 E7.37109
G1 X129.492 Y135.968 E7.38263
G1 X127.919 Y135.968 E7.43495
G1 X126.682 Y135.067 E7.48585
G1 X126.216 Y133.636 E7.53591
G1 X126.811 Y132.039 E7.59259
G1 X129.586 Y129.918 E7.70876
G1 X129.698 Y129.819 E7.71373
G1 X132.172 Y127.262 E7.83207
G1 X132.337 Y127.034 E7.84143
G1 X132.404 Y126.876 E7.84714
G1 X132.533 Y126.48 E7.86099
G1 X132.975 Y126.158 E7.87918
G1 X133.178 Y125.961 E7.88858
G1 X133.327 Y125.69 E7.89887
G1 X134.659 Y122.018 E8.02879
G1 X134.692 Y121.906 E8.03267
G1 X135.273 Y119.435 E8.1171
G1 X135.299 Y119.154 E8.12649
G1 X135.251 Y118.897 E8.13518
G1 X135.218 Y118.795 E8.13875
G1 X135.728 Y117.228 E8.19356
G1 X137.061 Y116.257 E8.24841
G1 X138.709 Y116.257 E8.30322
G1 X140.042 Y117.228 E8.35807
G1 X140.552 Y118.794 E8.41285
G1 X140.039 Y120.37 E8.46797
G1 X139.395 Y120.859 E8.49487
G1 X139.197 Y121.059 E8.50423
G1 X139.062 Y121.307 E8.51362
G1 X139.02 Y121.457 E8.5188
G1 X138.543 Y123.822 E8.59905
G1 X138.527 Y124.104 E8.60844
G1 X138.572 Y124.33 E8.61611
G0 F6000 X138.952 Y124.206
G1 F1200 X139.325 Y125.353 E8.65622
G1 X138.743 Y127.141 E8.71876
G1 X136.738 Y128.379 E8.79714
G1 X136.576 Y128.526 E8.80441
G1 X136.482 Y128.704 E8.81111
G1 X136.313 Y129.224 E8.82929
G1 X135.864 Y129.551 E8.84777
G1 X135.714 Y129.709 E8.85501
G1 X135.646 Y129.85 E8.86022
G1 X135.495 Y130.315 E8.87648
G1 X134.869 Y130.771 E8.90224
G1 X134.719 Y130.929 E8.90949
G1 X134.652 Y131.07 E8.91468
G1 X134.489 Y131.569 E8.93214
G1 X133.46 Y132.713 E8.98332
G1 X133.362 Y132.861 E8.98922
G1 X132.725 Y134.23 E9.03944
G1 X130.019 Y136.114 E9.14911
G1 X129.605 Y136.368 E9.16526
G1 X127.789 Y136.368 E9.22566
G1 X126.342 Y135.314 E9.2852
G1 X125.792 Y133.626 E9.34425
G1 X126.475 Y131.793 E9.40931
G1 X129.343 Y129.601 E9.52937
G1 X129.41 Y129.541 E9.53236
G1 X131.884 Y126.984 E9.6507
G1 X132.024 Y126.752 E9.65971
G1 X132.193 Y126.232 E9.6779
G1 X132.74 Y125.834 E9.7004
G1 X132.951 Y125.554 E9.71206
G1 X134.283 Y121.882 E9.84198
G1 X134.303 Y121.814 E9.84434
G1 X134.884 Y119.343 E9.92876
G1 X134.871 Y119.02 E9.93952
G1 X134.798 Y118.794 E9.94741
G1 X135.388 Y116.981 E10.01083
G1 X136.931 Y115.857 E10.07432
G1 X138.839 Y115.857 E10.13778
G1 X140.382 Y116.981 E10.20127
G1 X140.972 Y118.794 E10.26469
G1 X140.38 Y120.613 E10.32831
G1 X139.637 Y121.177 E10.35934
G1 X139.49 Y121.338 E10.36659
G1 X139.412 Y121.536 E10.37367
G1 X138.935 Y123.901 E10.45391
G1 X138.952 Y124.206 E10.46407
G0 F6000 X139.333 Y124.082
G1 F1200 X139.747 Y125.353 E10.50853
G1 X139.079 Y127.405 E10.58031
G1 X136.948 Y128.72 E10.66359
G1 X136.863 Y128.828 E10.66816
G1 X136.654 Y129.47 E10.69062
G1 X136.099 Y129.874 E10.71345
G1 X136.027 Y129.974 E10.71755
G1 X135.836 Y130.561 E10.73808
G1 X135.104 Y131.094 E10.7682
G1 X135.032 Y131.194 E10.7723
G1 X134.844 Y131.773 E10.79254
G1 X133.757 Y132.98 E10.84657
G1 X133.725 Y133.03 E10.84854
G1 X133.043 Y134.496 E10.90232
G1 X130.239 Y136.449 E11.01597
G1 X129.717 Y136.768 E11.03632
G1 X127.66 Y136.768 E11.10474
G1 X126.001 Y135.56 E11.17299
G1 X125.369 Y133.618 E11.24092
G1 X126.141 Y131.545 E11.31449
G1 X129.1 Y129.283 E11.43837
G1 X129.123 Y129.263 E11.43939
G1 X131.597 Y126.706 E11.55772
G1 X131.643 Y126.629 E11.56071
G1 X131.852 Y125.986 E11.58319
G1 X132.505 Y125.511 E11.61005
G1 X132.575 Y125.417 E11.61395
G1 X133.914 Y121.723 E11.74463
G1 X134.495 Y119.252 E11.82906
G1 X134.49 Y119.144 E11.83266
G1 X134.376 Y118.794 E11.8449
G1 X135.047 Y116.735 E11.91693
G1 X136.802 Y115.457 E11.98914
G1 X138.968 Y115.457 E12.06118
G1 X140.723 Y116.735 E12.13339
G1 X141.394 Y118.794 E12.20541
G1 X140.722 Y120.856 E12.27755
G1 X139.879 Y121.496 E12.31275
G1 X139.804 Y121.615 E12.31743
G1 X139.327 Y123.98 E12.39767
G1 X139.333 Y124.082 E12.40107
G0 F6000 X137.69 Y119.172
G1 F1200 X137.69 Y118.954 E12.40832
G1 X137.769 Y118.711 E12.41682
G1 X137.843 Y118.657 E12.41987
G1 X137.927 Y118.657 E12.42266
G1 X138.001 Y118.711 E12.42571
G1 X138.028 Y118.794 E12.42861
G1 X137.944 Y118.947 E12.43442
G1 X137.69 Y119.172 E12.4457
G0 F6000 X134.367 Y127.59
G1 F1200 X134.299 Y127.742 E12.45124
G1 X134.164 Y127.851 E12.45701
G1 X134.216 Y127.72 E12.4617
G1 X134.367 Y127.59 E12.46833
G0 F6000 X132.813 Y129.476
G1 F1200 X132.771 Y129.526 E12.4705
G1 X132.522 Y129.948 E12.48679
G1 X132.37 Y130.327 E12.50038
G1 X132.366 Y130.341 E12.50086
G1 X131.676 Y131.107 E12.53515
G1 X131.379 Y131.497 E12.55145
G1 X131.186 Y131.848 E12.56478
G1 X130.822 Y132.629 E12.59344
G1 X128.901 Y133.968 E12.67132
G1 X128.57 Y133.968 E12.68233
G1 X128.383 Y133.832 E12.69002
G1 X128.334 Y133.679 E12.69536
G1 X128.483 Y133.279 E12.70956
G1 X130.801 Y131.507 E12.8066
G1 X131.135 Y131.21 E12.82147
G1 X132.813 Y129.476 E12.90172
G0 F6000 X130.596 Y132.167
G1 F1200 X130.505 Y132.364 E12.90894
G1 X128.812 Y133.543 E12.97756
G1 X128.818 Y133.527 E12.97813
G1 X130.596 Y132.167 E13.05258
G1 F2700 E8.05258
;MESH:chess_knight.stl
G0 F6000 X131.748 Y124.46
G0 X130.646 Y123.8
G0 X132.143 Y117.5
G0 X132.243 Y117.5
;TYPE:WALL-INNER
G1 F2700 E13.05258
G1 F1200 X132.177 Y118.806 E13.09607
G1 X131.983 Y120.118 E13.14019
G1 X131.665 Y121.389 E13.18376
G1 X131.223 Y122.625 E13.22742
G1 X130.663 Y123.809 E13.27098
G1 X129.983 Y124.945 E13.31502
G1 X129.196 Y126.004 E13.3589
G1 X128.318 Y126.974 E13.40242
G1 X127.345 Y127.856 E13.4461
G1 X126.291 Y128.638 E13.48975
G1 X125.158 Y129.316 E13.53367
G1 X123.974 Y129.877 E13.57724
G1 X122.734 Y130.32 E13.62104
G1 X121.463 Y130.638 E13.66461
G1 X120.161 Y130.832 E13.7084
G1 X118.845 Y130.897 E13.75222
G1 X117.529 Y130.832 E13.79604
G1 X116.227 Y130.638 E13.83983
G1 X114.955 Y130.32 E13.88344
G1 X113.725 Y129.88 E13.92688
G1 X112.523 Y129.311 E13.97112
G1 X111.399 Y128.638 E14.01469
G1 X110.344 Y127.856 E14.05837
G1 X109.371 Y126.974 E14.10205
G1 X108.489 Y126 E14.14575
G1 X107.703 Y124.94 E14.18964
G1 X107.032 Y123.821 E14.23304
G1 X106.466 Y122.624 E14.27708
G1 X106.024 Y121.389 E14.3207
G1 X105.706 Y120.118 E14.36428
G1 X105.512 Y118.806 E14.40839
G1 X105.446 Y117.5 E14.45189
G1 X105.512 Y116.194 E14.49538
G1 X105.706 Y114.882 E14.53949
G1 X106.025 Y113.607 E14.58321
G1 X106.466 Y112.376 E14.6267
G1 X107.032 Y111.179 E14.67074
G1 X107.703 Y110.06 E14.71413
G1 X108.489 Y109 E14.75802
G1 X109.371 Y108.026 E14.80173
G1 X110.344 Y107.144 E14.84541
G1 X111.399 Y106.362 E14.88908
G1 X112.523 Y105.689 E14.93266
G1 X113.725 Y105.12 E14.97689
G1 X114.955 Y104.68 E15.02034
G1 X116.227 Y104.362 E15.06395
G1 X117.529 Y104.168 E15.10773
G1 X118.845 Y104.103 E15.15155
G1 X120.161 Y104.168 E15.19538
G1 X121.463 Y104.362 E15.23916
G1 X122.734 Y104.68 E15.28274
G1 X123.974 Y105.123 E15.32653
G1 X125.158 Y105.684 E15.37011
G1 X126.291 Y106.362 E15.41402
G1 X127.345 Y107.144 E15.45768
G1 X128.318 Y108.026 E15.50135
G1 X129.196 Y108.996 E15.54487
G1 X129.983 Y110.055 E15.58875
G1 X130.663 Y111.191 E15.63279
G1 X131.223 Y112.376 E15.67638
G1 X131.664 Y113.607 E15.71987
G1 X131.983 Y114.882 E15.76359
