; generated by Slic3r 1.3.0 on 2020-11-25 at 13:56:47

; external perimeters extrusion width = 0.44mm (2.38mm^3/s)
; perimeters extrusion width = 0.56mm (6.20mm^3/s)
; infill extrusion width = 0.50mm (7.31mm^3/s)
; solid infill extrusion width = 0.56mm (2.07mm^3/s)
; top infill extrusion width = 0.56mm (1.55mm^3/s)

M107
G28 ; home all axes
M104 S150  ; start extruder heating
M190 S65 ; set bed temp
G29; ABL
G1 X0 Y0 Z5 F{Z_TRAVEL_SPEED}
M107 ; Turn off fan
G90 ; Absolute positioning
G1 X0 Y0 F2400 ; move to the X=0 Y=0 position on the bed at a speed of 2400 mm/min
M140 S65  ;wait for bed temp
M109 S205  ; Wait for all used extruders to reach temperature
G92 E0 ; Reset extruder position
G1 X5 Y15 Z0.25 F1000.0 ; go intro start pos
G1 X60.0 E9.0 F600.0 ; intro line to prime extruder
G1 X100.0 E16 F800.0 ; intro line
G92 E0.0 ; reset extruder distance position
; G1 Z5 F5000 ; lift nozzle

; Filament gcode

G21 ; set units to millimeters
G90 ; use absolute coordinates
M82 ; use absolute distances for extrusion
G92 E0
G1 E-2.00000 F2400.00000
G92 E0
G1 Z0.200 F7800.000
G1 X83.665 Y83.696 F7800.000
G1 E2.00000 F2400.00000
G1 F1800
G1 X84.625 Y82.769 E2.03565
G1 X85.457 Y82.013 E2.06571
G1 X86.508 Y81.114 E2.10266
G1 X87.772 Y80.116 E2.14569
G1 X89.159 Y79.152 E2.19082
G1 X90.395 Y78.359 E2.23007
G1 X91.470 Y77.719 E2.26350
G1 X92.810 Y76.978 E2.30442
G1 X94.386 Y76.184 E2.35158
G1 X95.882 Y75.551 E2.39498
G1 X97.659 Y74.884 E2.44570
G1 X99.243 Y74.362 E2.49028
G1 X100.883 Y73.891 E2.53587
G1 X102.545 Y73.522 E2.58135
G1 X104.572 Y73.176 E2.63631
G1 X106.368 Y72.951 E2.68469
G1 X108.211 Y72.796 E2.73410
G1 X110.032 Y72.771 E2.78277
G1 X111.940 Y72.829 E2.83376
G1 X113.880 Y72.972 E2.88575
G1 X115.226 Y73.130 E2.92197
G1 X116.397 Y73.318 E2.95366
G1 X118.363 Y73.729 E3.00733
G1 X120.342 Y74.240 E3.06194
G1 X122.327 Y74.855 E3.11748
G1 X124.169 Y75.571 E3.17029
G1 X126.101 Y76.440 E3.22690
G1 X128.014 Y77.420 E3.28434
G1 X129.603 Y78.337 E3.33336
G1 X130.378 Y78.830 E3.35790
G1 X132.171 Y80.097 E3.41659
G1 X133.617 Y81.229 E3.46565
G1 X135.308 Y82.694 E3.52545
G1 X136.677 Y84.018 E3.57634
G1 X137.317 Y84.688 E3.60111
G1 X138.800 Y86.411 E3.66183
G1 X140.193 Y88.230 E3.72306
G1 X141.262 Y89.791 E3.77362
G1 X142.468 Y91.770 E3.83555
G1 X143.271 Y93.278 E3.88119
G1 X143.786 Y94.335 E3.91262
G1 X144.536 Y96.092 E3.96366
G1 X145.337 Y98.294 E4.02629
G1 X146.004 Y100.552 E4.08919
G1 X146.532 Y102.855 E4.15234
G1 X146.615 Y103.291 E4.16419
G1 X146.972 Y105.639 E4.22766
G1 X147.153 Y107.562 E4.27928
G1 X147.238 Y109.944 E4.34297
G1 X147.237 Y110.399 E4.35512
G1 X147.139 Y112.788 E4.41902
G1 X146.948 Y114.715 E4.47075
G1 X146.887 Y115.171 E4.48306
G1 X146.563 Y117.098 E4.53528
G1 X146.033 Y119.422 E4.59898
G1 X145.917 Y119.855 E4.61096
G1 X145.213 Y122.134 E4.67468
G1 X144.504 Y124.035 E4.72891
G1 X143.558 Y126.154 E4.79091
G1 X143.356 Y126.564 E4.80313
G1 X142.448 Y128.272 E4.85483
G1 X141.205 Y130.311 E4.91863
G1 X140.956 Y130.687 E4.93068
G1 X139.568 Y132.618 E4.99424
G1 X138.065 Y134.452 E5.05760
G1 X136.457 Y136.183 E5.12074
G1 X135.071 Y137.514 E5.17208
G1 X133.290 Y139.045 E5.23484
G1 X132.956 Y139.312 E5.24627
G1 X131.083 Y140.701 E5.30858
G1 X129.367 Y141.804 E5.36308
G1 X127.339 Y142.941 E5.42521
G1 X124.888 Y144.115 E5.49783
G1 X123.147 Y144.828 E5.54811
G1 X121.002 Y145.578 E5.60883
G1 X120.112 Y145.839 E5.63361
G1 X118.265 Y146.300 E5.68449
G1 X116.447 Y146.659 E5.73401
G1 X114.249 Y146.981 E5.79336
G1 X112.063 Y147.182 E5.85203
G1 X111.146 Y147.221 E5.87657
G1 X109.311 Y147.221 E5.92560
G1 X107.164 Y147.113 E5.98304
G1 X105.055 Y146.900 E6.03968
G1 X103.381 Y146.649 E6.08491
G1 X102.767 Y146.530 E6.10162
G1 X101.076 Y146.139 E6.14801
G1 X99.107 Y145.592 E6.20260
G1 X97.199 Y144.965 E6.25628
G1 X96.313 Y144.632 E6.28158
G1 X94.847 Y144.006 E6.32419
G1 X93.094 Y143.160 E6.37618
G1 X91.414 Y142.256 E6.42717
G1 X89.847 Y141.323 E6.47589
G1 X88.331 Y140.269 E6.52525
G1 X86.888 Y139.175 E6.57363
G1 X85.305 Y137.862 E6.62858
G1 X84.051 Y136.712 E6.67404
G1 X82.866 Y135.484 E6.71966
G1 X81.755 Y134.240 E6.76424
G1 X80.550 Y132.774 E6.81494
G1 X79.571 Y131.478 E6.85834
G1 X78.603 Y130.002 E6.90552
G1 X77.812 Y128.690 E6.94645
G1 X77.202 Y127.599 E6.97984
G1 X76.527 Y126.293 E7.01914
G1 X75.809 Y124.766 E7.06424
G1 X75.213 Y123.269 E7.10728
G1 X74.827 Y122.187 E7.13799
G1 X74.409 Y120.893 E7.17431
G1 X73.981 Y119.385 E7.21619
G1 X73.721 Y118.338 E7.24503
G1 X73.448 Y117.076 E7.27954
G1 X73.182 Y115.595 E7.31976
G1 X73.001 Y114.218 E7.35685
G1 X72.906 Y113.210 E7.38392
G1 X72.826 Y111.998 E7.41637
G1 X72.781 Y110.578 E7.45433
G1 X72.780 Y109.607 E7.48028
G1 X72.813 Y108.429 E7.51177
G1 X72.897 Y107.044 E7.54885
G1 X72.984 Y106.105 E7.57404
G1 X73.122 Y104.959 E7.60489
G1 X73.332 Y103.608 E7.64143
G1 X73.502 Y102.696 E7.66622
G1 X73.743 Y101.579 E7.69676
G1 X74.018 Y100.471 E7.72727
G1 X74.327 Y99.372 E7.75777
G1 X74.740 Y98.075 E7.79413
G1 X75.049 Y97.200 E7.81894
G1 X75.461 Y96.127 E7.84965
G1 X75.908 Y95.062 E7.88052
G1 X76.391 Y94.007 E7.91151
G1 X77.010 Y92.766 E7.94859
G1 X77.571 Y91.729 E7.98010
G1 X78.057 Y90.889 E8.00603
G1 X78.806 Y89.681 E8.04400
G1 X79.482 Y88.671 E8.07648
G1 X80.068 Y87.845 E8.10354
G1 X80.912 Y86.745 E8.14059
G1 X81.883 Y85.595 E8.18082
G1 X82.751 Y84.638 E8.21534
G1 X83.623 Y83.738 E8.24882
G1 X83.914 Y83.952 F7800.000
G1 F1800
G1 X84.865 Y83.033 E8.28415
G1 X85.697 Y82.277 E8.31421
G1 X86.740 Y81.386 E8.35084
G1 X87.986 Y80.402 E8.39329
G1 X89.352 Y79.452 E8.43775
G1 X90.578 Y78.666 E8.47666
G1 X91.653 Y78.026 E8.51009
G1 X92.982 Y77.291 E8.55067
G1 X94.536 Y76.508 E8.59718
G1 X96.020 Y75.880 E8.64022
G1 X97.772 Y75.223 E8.69023
G1 X99.343 Y74.705 E8.73444
G1 X100.970 Y74.238 E8.77966
G1 X102.619 Y73.871 E8.82481
G1 X104.618 Y73.530 E8.87899
G1 X106.399 Y73.306 E8.92698
G1 X108.227 Y73.153 E8.97600
G1 X110.036 Y73.128 E9.02432
G1 X111.928 Y73.186 E9.07490
G1 X113.852 Y73.328 E9.12647
G1 X115.182 Y73.485 E9.16227
G1 X116.325 Y73.668 E9.19319
G1 X118.275 Y74.075 E9.24642
G1 X120.237 Y74.581 E9.30058
G1 X122.206 Y75.191 E9.35565
G1 X124.037 Y75.903 E9.40816
G1 X125.953 Y76.765 E9.46429
G1 X127.850 Y77.737 E9.52125
G1 X129.422 Y78.646 E9.56978
G1 X130.173 Y79.122 E9.59354
G1 X131.951 Y80.378 E9.65171
G1 X133.397 Y81.510 E9.70078
G1 X135.073 Y82.963 E9.76006
G1 X136.428 Y84.273 E9.81041
G1 X137.048 Y84.923 E9.83441
G1 X138.517 Y86.629 E9.89459
G1 X139.898 Y88.432 E9.95527
G1 X140.968 Y89.993 E10.00583
G1 X142.162 Y91.954 E10.06720
G1 X142.954 Y93.443 E10.11226
G1 X143.458 Y94.475 E10.14295
G1 X144.208 Y96.232 E10.19399
G1 X145.000 Y98.415 E10.25604
G1 X145.661 Y100.651 E10.31836
G1 X146.183 Y102.933 E10.38091
G1 X146.262 Y103.347 E10.39217
G1 X146.617 Y105.672 E10.45503
G1 X146.797 Y107.596 E10.50665
G1 X146.881 Y109.955 E10.56973
G1 X146.880 Y110.386 E10.58127
G1 X146.784 Y112.753 E10.64456
G1 X146.592 Y114.679 E10.69629
G1 X146.211 Y117.039 E10.76016
G1 X145.685 Y119.341 E10.82326
G1 X145.575 Y119.752 E10.83463
G1 X144.879 Y122.009 E10.89775
G1 X144.171 Y123.906 E10.95185
G1 X143.233 Y126.007 E11.01334
G1 X143.041 Y126.396 E11.02494
G1 X142.132 Y128.104 E11.07664
G1 X140.902 Y130.123 E11.13982
G1 X140.665 Y130.480 E11.15126
G1 X139.291 Y132.393 E11.21422
G1 X137.802 Y134.211 E11.27698
G1 X136.209 Y135.925 E11.33953
G1 X134.824 Y137.257 E11.39087
G1 X133.059 Y138.772 E11.45304
G1 X130.886 Y140.403 E11.52563
G1 X129.176 Y141.503 E11.57996
G1 X127.167 Y142.628 E11.64151
G1 X124.753 Y143.784 E11.71302
G1 X123.012 Y144.497 E11.76330
G1 X120.886 Y145.241 E11.82348
G1 X120.024 Y145.493 E11.84748
G1 X118.196 Y145.950 E11.89783
G1 X116.378 Y146.309 E11.94735
G1 X114.199 Y146.627 E12.00618
G1 X112.032 Y146.826 E12.06435
G1 X111.144 Y146.864 E12.08810
G1 X109.327 Y146.865 E12.13665
G1 X107.199 Y146.758 E12.19360
G1 X105.107 Y146.546 E12.24977
G1 X103.445 Y146.298 E12.29469
G1 X102.848 Y146.182 E12.31094
G1 X101.156 Y145.791 E12.35733
G1 X99.204 Y145.249 E12.41147
G1 X97.312 Y144.626 E12.46470
G1 X96.441 Y144.298 E12.48956
G1 X95.001 Y143.684 E12.53142
G1 X93.263 Y142.845 E12.58298
G1 X91.595 Y141.948 E12.63357
G1 X90.040 Y141.022 E12.68195
G1 X88.535 Y139.976 E12.73091
G1 X87.104 Y138.891 E12.77890
G1 X85.544 Y137.597 E12.83308
G1 X84.299 Y136.455 E12.87820
G1 X83.124 Y135.237 E12.92345
G1 X82.022 Y134.003 E12.96766
G1 X80.834 Y132.558 E13.01764
G1 X79.863 Y131.273 E13.06069
G1 X78.908 Y129.817 E13.10722
G1 X78.124 Y128.516 E13.14781
G1 X77.514 Y127.425 E13.18120
G1 X76.844 Y126.130 E13.22017
G1 X76.137 Y124.625 E13.26460
G1 X75.549 Y123.149 E13.30705
G1 X75.163 Y122.067 E13.33776
G1 X74.749 Y120.784 E13.37376
G1 X74.328 Y119.299 E13.41501
G1 X74.068 Y118.252 E13.44385
G1 X73.797 Y117.001 E13.47805
G1 X73.535 Y115.543 E13.51764
G1 X73.356 Y114.185 E13.55424
G1 X73.261 Y113.176 E13.58132
G1 X73.183 Y111.976 E13.61347
G1 X73.138 Y110.578 E13.65083
G1 X73.138 Y109.607 E13.67678
G1 X73.170 Y108.440 E13.70798
G1 X73.253 Y107.077 E13.74447
G1 X73.340 Y106.138 E13.76966
G1 X73.476 Y105.003 E13.80021
G1 X73.683 Y103.673 E13.83617
G1 X73.853 Y102.761 E13.86096
G1 X74.092 Y101.655 E13.89120
G1 X74.364 Y100.558 E13.92142
G1 X74.671 Y99.470 E13.95162
G1 X75.077 Y98.194 E13.98740
G1 X75.385 Y97.319 E14.01221
G1 X75.794 Y96.256 E14.04262
G1 X76.237 Y95.202 E14.07319
G1 X76.715 Y94.157 E14.10390
G1 X77.324 Y92.935 E14.14038
G1 X77.880 Y91.908 E14.17159
G1 X78.366 Y91.067 E14.19753
G1 X79.104 Y89.879 E14.23491
G1 X79.773 Y88.877 E14.26709
G1 X80.359 Y88.052 E14.29414
G1 X81.192 Y86.966 E14.33072
G1 X82.148 Y85.834 E14.37032
G1 X83.008 Y84.886 E14.40452
G1 X83.872 Y83.995 E14.43768
G1 X84.163 Y84.208 F7800.000
G1 F1800
G1 X85.105 Y83.298 E14.47271
G1 X85.938 Y82.541 E14.50276
G1 X86.971 Y81.658 E14.53908
G1 X88.200 Y80.688 E14.58094
G1 X89.546 Y79.752 E14.62473
G1 X90.761 Y78.973 E14.66330
G1 X91.835 Y78.332 E14.69673
G1 X93.154 Y77.604 E14.73697
G1 X94.687 Y76.832 E14.78284
G1 X96.158 Y76.210 E14.82552
G1 X97.884 Y75.562 E14.87481
G1 X99.443 Y75.048 E14.91865
G1 X101.056 Y74.584 E14.96351
G1 X102.693 Y74.220 E15.00832
G1 X104.663 Y73.884 E15.06173
G1 X106.430 Y73.662 E15.10933
G1 X108.244 Y73.509 E15.15795
G1 X110.039 Y73.485 E15.20593
G1 X111.916 Y73.542 E15.25610
G1 X113.825 Y73.684 E15.30725
G1 X115.139 Y73.839 E15.34262
G1 X116.254 Y74.018 E15.37278
G1 X118.187 Y74.421 E15.42556
G1 X120.133 Y74.923 E15.47926
G1 X122.086 Y75.527 E15.53388
G1 X123.906 Y76.235 E15.58607
G1 X125.805 Y77.090 E15.64173
G1 X127.686 Y78.054 E15.69821
G1 X129.242 Y78.954 E15.74624
G1 X129.968 Y79.415 E15.76923
G1 X131.731 Y80.660 E15.82689
G1 X133.177 Y81.791 E15.87596
G1 X134.838 Y83.232 E15.93471
G1 X136.178 Y84.528 E15.98454
G1 X136.779 Y85.157 E16.00777
G1 X138.235 Y86.848 E16.06740
G1 X139.604 Y88.634 E16.12753
G1 X140.673 Y90.195 E16.17809
G1 X141.856 Y92.139 E16.23890
G1 X142.638 Y93.609 E16.28338
G1 X143.129 Y94.616 E16.31333
G1 X143.879 Y96.372 E16.36437
G1 X144.664 Y98.535 E16.42584
G1 X145.318 Y100.750 E16.48757
G1 X145.909 Y103.402 E16.56019
G1 X146.261 Y105.706 E16.62245
G1 X146.442 Y107.629 E16.67407
G1 X146.524 Y109.965 E16.73654
G1 X146.523 Y110.374 E16.74746
G1 X146.429 Y112.717 E16.81013
G1 X146.237 Y114.644 E16.86187
G1 X145.859 Y116.979 E16.92509
G1 X145.338 Y119.260 E16.98759
G1 X145.233 Y119.649 E16.99836
G1 X144.544 Y121.884 E17.06087
G1 X143.838 Y123.777 E17.11485
G1 X142.907 Y125.860 E17.17581
G1 X142.726 Y126.229 E17.18680
G1 X141.817 Y127.936 E17.23849
G1 X140.598 Y129.935 E17.30107
G1 X140.374 Y130.273 E17.31190
G1 X139.013 Y132.169 E17.37425
G1 X137.540 Y133.969 E17.43642
G1 X135.962 Y135.668 E17.49837
G1 X134.576 Y136.999 E17.54971
G1 X132.828 Y138.500 E17.61130
G1 X130.689 Y140.105 E17.68274
G1 X128.985 Y141.201 E17.73689
G1 X126.994 Y142.316 E17.79787
G1 X124.618 Y143.454 E17.86827
G1 X122.876 Y144.167 E17.91855
G1 X120.770 Y144.903 E17.97819
G1 X119.935 Y145.147 E18.00141
G1 X118.469 Y145.522 E18.04185
G1 X116.309 Y145.959 E18.10076
G1 X114.149 Y146.274 E18.15907
G1 X112.001 Y146.471 E18.21672
G1 X111.142 Y146.506 E18.23970
G1 X109.344 Y146.508 E18.28775
G1 X107.233 Y146.402 E18.34422
G1 X105.159 Y146.193 E18.39991
G1 X103.508 Y145.946 E18.44452
G1 X102.928 Y145.834 E18.46031
G1 X101.237 Y145.443 E18.50670
G1 X99.301 Y144.905 E18.56039
G1 X97.425 Y144.287 E18.61317
G1 X96.570 Y143.965 E18.63759
G1 X95.155 Y143.361 E18.67870
G1 X93.431 Y142.530 E18.72985
G1 X91.777 Y141.641 E18.78002
G1 X90.232 Y140.721 E18.82806
G1 X88.740 Y139.684 E18.87663
G1 X87.321 Y138.608 E18.92422
G1 X85.783 Y137.332 E18.97763
G1 X84.547 Y136.199 E19.02242
G1 X83.382 Y134.990 E19.06730
G1 X82.289 Y133.766 E19.11115
G1 X81.118 Y132.342 E19.16041
G1 X80.155 Y131.067 E19.20310
G1 X79.213 Y129.631 E19.24898
G1 X78.435 Y128.341 E19.28923
G1 X77.826 Y127.251 E19.32262
G1 X77.162 Y125.967 E19.36125
G1 X76.465 Y124.485 E19.40501
G1 X75.886 Y123.029 E19.44687
G1 X75.500 Y121.947 E19.47758
G1 X75.089 Y120.676 E19.51327
G1 X74.675 Y119.213 E19.55389
G1 X74.414 Y118.166 E19.58273
G1 X74.146 Y116.927 E19.61662
G1 X73.888 Y115.491 E19.65558
G1 X73.712 Y114.151 E19.69169
G1 X73.617 Y113.143 E19.71876
G1 X73.539 Y111.953 E19.75062
G1 X73.495 Y110.578 E19.78740
G1 X73.495 Y109.607 E19.81335
G1 X73.526 Y108.451 E19.84425
G1 X73.608 Y107.110 E19.88015
G1 X73.695 Y106.171 E19.90534
G1 X73.831 Y105.047 E19.93560
G1 X74.034 Y103.739 E19.97097
G1 X74.204 Y102.827 E19.99576
G1 X74.441 Y101.732 E20.02570
G1 X74.711 Y100.645 E20.05562
G1 X75.014 Y99.568 E20.08553
G1 X75.413 Y98.313 E20.12072
G1 X75.722 Y97.437 E20.14553
G1 X76.127 Y96.385 E20.17564
G1 X76.566 Y95.341 E20.20592
G1 X77.039 Y94.306 E20.23633
G1 X77.639 Y93.104 E20.27223
G1 X78.189 Y92.086 E20.30315
G1 X78.675 Y91.246 E20.32908
G1 X79.401 Y90.076 E20.36587
G1 X80.064 Y89.084 E20.39776
G1 X80.650 Y88.259 E20.42481
G1 X81.472 Y87.187 E20.46089
G1 X82.413 Y86.073 E20.49987
G1 X83.265 Y85.134 E20.53376
G1 X84.120 Y84.251 E20.56660
G1 F6240
G1 X84.838 Y83.553 E20.20092
G1 F6240
G1 X84.838 Y83.553 E20.20090
G1 F6240
G1 X84.952 Y83.441 E20.14247
G1 F6240
G1 X85.105 Y83.298 E20.06577
G1 F6240
G1 X85.660 Y82.794 E19.79211
G1 F6240
G1 X85.660 Y82.794 E19.79195
G1 F6240
G1 X85.938 Y82.541 E19.65488
G1 F6240
G1 X86.095 Y82.402 E19.57810
G1 F6240
G1 X86.971 Y81.658 E19.15820
G1 F6240
G1 X87.135 Y81.524 E19.08081
G1 F6240
G1 X87.895 Y80.920 E18.72618
G1 F6240
G1 X88.024 Y80.820 E18.66661
G1 E18.56660 F2400.00000
G92 E0
G1 X130.903 Y130.445 F7800.000
G1 E2.00000 F2400.00000
G1 F1800
G1 X129.559 Y131.737 E2.04981
G1 X128.141 Y132.941 E2.09951
G1 X126.662 Y134.050 E2.14893
G1 X125.111 Y135.048 E2.19820
G1 X123.497 Y135.941 E2.24749
G1 X121.839 Y136.735 E2.29662
G1 X120.146 Y137.427 E2.34550
G1 X118.436 Y138.016 E2.39384
G1 X116.690 Y138.472 E2.44203
G1 X114.924 Y138.821 E2.49014
G1 X113.155 Y139.071 E2.53789
G1 X111.403 Y139.224 E2.58489
G1 X109.653 Y139.243 E2.63165
G1 X107.912 Y139.163 E2.67822
G1 X106.200 Y138.997 E2.72419
G1 X104.532 Y138.742 E2.76927
G1 X102.896 Y138.364 E2.81415
G1 X101.294 Y137.912 E2.85862
G1 X99.743 Y137.395 E2.90231
G1 X99.198 Y137.185 E2.91792
G1 X98.274 Y136.793 E2.94474
G1 X96.835 Y136.105 E2.98735
G1 X95.458 Y135.370 E3.02907
G1 X94.155 Y134.598 E3.06955
G1 X92.925 Y133.737 E3.10967
G1 X91.747 Y132.838 E3.14926
G1 X90.636 Y131.917 E3.18783
G1 X89.601 Y130.970 E3.22530
G1 X88.642 Y129.970 E3.26233
G1 X87.738 Y128.951 E3.29875
G1 X86.894 Y127.925 E3.33426
G1 X86.100 Y126.880 E3.36930
G1 X85.422 Y125.847 E3.40235
G1 X84.774 Y124.779 E3.43570
G1 X84.180 Y123.717 E3.46823
G1 X83.639 Y122.662 E3.49992
G1 X83.070 Y121.436 E3.53604
G1 X82.729 Y120.572 E3.56085
G1 X82.353 Y119.518 E3.59075
G1 X82.020 Y118.476 E3.61998
G1 X81.728 Y117.446 E3.64859
G1 X81.475 Y116.428 E3.67662
G1 X81.261 Y115.427 E3.70399
G1 X81.011 Y113.940 E3.74427
G1 X80.857 Y112.473 E3.78368
G1 X80.797 Y111.512 E3.80942
G1 X80.767 Y110.558 E3.83492
G1 X80.766 Y109.616 E3.86010
G1 X80.794 Y108.685 E3.88500
G1 X80.850 Y107.764 E3.90964
G1 X80.934 Y106.853 E3.93408
G1 X81.046 Y105.952 E3.95835
G1 X81.184 Y105.060 E3.98247
G1 X81.349 Y104.176 E4.00650
G1 X81.541 Y103.300 E4.03046
G1 X81.759 Y102.432 E4.05438
