;FLAVOR:Marlin
;TIME:3273
;Filament used: 2.11452m
;Layer height: 0.2
;MINX:94.335
;MINY:105.336
;MINZ:0.2
;MAXX:140.477
;MAXY:129.663
;MAXZ:10
;Generated with Cura_SteamEngine master
M82 ;absolute extrusion mode
; Ender 3 Custom Start G-code
M140 S80 ; Set Heat Bed temperature
M104 S160 ; start warming extruder to 160
G28 ; Home all axes
G29 ; Auto bed-level (BL-Touch)
G92 E0 ; Reset Extruder
M190 S80 ; Wait for Heat Bed temperature
M104 S270 ; Set Extruder temperature
G1 X0 Y0 Z0.3 F5000.0 ; Move to 0 0
M109 S270 ; Wait for Extruder temperature
G1 X1 Y20 Z0.3 F5000.0 ; Move to start position
; G1 Z2.0 F3000 ; Move Z Axis up little to prevent scratching of Heat Bed
G1 X3 Y200.0 Z0.3 F1500.0 E15 ; Draw the first line
G1 X3.3 Y200.0 Z0.3 F5000.0 ; Move to side a little
G1 X3.3 Y20 Z0.3 F1500.0 E30 ; Draw the second line
G92 E0 ; Reset Extruder
G1 Z2.0 F3000 ; Move Z Axis up little to prevent scratching of Heat Bed
G92 E0
G92 E0
G1 F2700 E-5
;LAYER_COUNT:50
;LAYER:0
M107
G0 F6000 X102.535 Y112.856 Z0.2
;TYPE:SKIRT
G1 F2700 E0
G1 F1200 X135.83 Y112.857 E1.21814
G1 X135.83 Y122.143 E1.55787
G1 X102.535 Y122.143 E2.77601
G1 X102.535 Y112.856 E3.11579
G0 F6000 X102.135 Y112.456
G1 F1200 X136.23 Y112.457 E4.36319
G1 X136.23 Y122.543 E4.7322
G1 X102.135 Y122.543 E5.9796
G1 X102.135 Y112.456 E6.34865
G0 F6000 X101.735 Y112.056
G1 F1200 X136.63 Y112.057 E7.62532
G1 X136.63 Y122.943 E8.0236
G1 X101.735 Y122.943 E9.30027
G1 X101.735 Y112.056 E9.69859
G0 F6000 X101.335 Y111.656
G1 F1200 X137.03 Y111.657 E11.00453
G1 X137.03 Y123.343 E11.43207
G1 X101.335 Y123.343 E12.73802
G1 X101.335 Y111.656 E13.1656
G0 F6000 X100.935 Y111.256
G1 F1200 X137.43 Y111.257 E14.50081
G1 X137.43 Y123.743 E14.95762
G1 X100.935 Y123.743 E16.29284
G1 X100.935 Y111.256 E16.74969
G0 F6000 X100.535 Y110.856
G1 F1200 X137.836 Y110.857 E18.11439
G1 X137.83 Y110.901 E18.11601
G1 X137.83 Y124.081 E18.59822
G1 X137.837 Y124.143 E18.6005
G1 X100.535 Y124.143 E19.96524
G1 X100.535 Y110.856 E20.45136
G0 F6000 X100.135 Y110.456
G1 F1200 X138.312 Y110.457 E21.84811
G1 X138.27 Y110.569 E21.85248
G1 X138.23 Y110.901 E21.86472
G1 X138.23 Y124.081 E22.34692
G1 X138.27 Y124.413 E22.35916
G1 X138.318 Y124.543 E22.36423
G1 X100.135 Y124.543 E23.7612
G1 X100.135 Y110.456 E24.27659
G0 F6000 X99.735 Y110.597
G1 F1200 X99.734 Y110.056 E24.29638
G1 X138.784 Y110.057 E25.72507
G1 X138.799 Y110.33 E25.73507
G1 X138.742 Y110.441 E25.73964
G1 X138.649 Y110.707 E25.74995
G1 X138.63 Y110.901 E25.75708
G1 X138.63 Y124.081 E26.23928
G1 X138.67 Y124.36 E26.24959
G1 X138.8 Y124.653 E26.26132
G1 X138.731 Y124.943 E26.27223
G1 X99.734 Y124.943 E27.69898
G1 X99.735 Y110.597 E28.22384
G0 F6000 X99.335 Y110.598
G1 F1200 X99.333 Y109.656 E28.25831
G1 X138.966 Y109.657 E29.70833
G1 X139.091 Y109.695 E29.71311
G1 X139.168 Y109.777 E29.71722
G1 X139.205 Y110.417 E29.74068
G1 X139.097 Y110.625 E29.74925
G1 X139.03 Y110.901 E29.75964
G1 X139.03 Y124.081 E30.24185
G1 X139.096 Y124.354 E30.25212
G1 X139.206 Y124.57 E30.26099
G1 X139.201 Y124.696 E30.2656
G1 X139.056 Y125.306 E30.28854
G1 X138.917 Y125.343 E30.29381
G1 X99.334 Y125.343 E31.742
G1 X99.335 Y110.598 E32.28146
G0 F6000 X98.935 Y110.599
G1 F1200 X98.932 Y109.256 E32.33059
G1 X139.004 Y109.257 E33.79667
G1 X139.325 Y109.365 E33.80906
G1 X139.47 Y109.501 E33.81634
G1 X139.562 Y109.661 E33.82309
G1 X139.61 Y110.504 E33.85398
G1 X139.452 Y110.809 E33.86655
G1 X139.43 Y110.901 E33.87001
G1 X139.43 Y124.081 E34.35222
G1 X139.452 Y124.172 E34.35564
G1 X139.61 Y124.482 E34.36837
G1 X139.598 Y124.754 E34.37833
G1 X139.441 Y125.415 E34.40319
G1 X139.454 Y125.509 E34.40666
G1 X139.235 Y125.673 E34.41667
G1 X138.971 Y125.743 E34.42666
G1 X98.933 Y125.743 E35.8915
G1 X98.935 Y124.401 E35.9406
G1 X98.935 Y110.599 E36.44556
G1 F2700 E31.44556
G0 F6000 X102.07 Y113.256
G0 X102.935 Y113.256
;TYPE:SUPPORT
G1 F2700 E36.44556
G1 F1200 X135.43 Y113.257 E37.63443
G1 X135.43 Y121.743 E37.9449
G1 X102.935 Y121.743 E39.13376
G1 X102.935 Y113.256 E39.44427
G0 F6000 X103.335 Y113.656
G1 F1200 X135.03 Y113.657 E40.60387
G1 X135.03 Y121.343 E40.88507
G1 X103.335 Y121.343 E42.04467
G1 X103.335 Y113.656 E42.32591
G0 F6000 X103.295 Y114
G1 F1200 X135.07 Y114 E43.48843
G0 F6000 X134 Y113.617
G1 F1200 X134 Y121.383 E43.77256
G0 F6000 X135.07 Y120
G1 F1200 X103.294 Y120 E44.93512
G0 F6000 X104 Y121.383
G1 F1200 X104 Y113.617 E45.21925
G0 F6000 X106 Y113.617
G1 F1200 X106 Y121.383 E45.50338
G0 F6000 X108 Y121.383
G1 F1200 X108 Y113.617 E45.7875
G0 F6000 X110 Y113.617
G1 F1200 X110 Y121.383 E46.07163
G0 F6000 X112 Y121.383
G1 F1200 X112 Y113.617 E46.35576
G0 F6000 X114 Y113.617
G1 F1200 X114 Y121.383 E46.63989
G0 F6000 X116 Y121.383
G1 F1200 X116 Y113.617 E46.92402
G0 F6000 X118 Y113.617
G1 F1200 X118 Y121.383 E47.20814
G0 F6000 X120 Y121.383
G1 F1200 X120 Y113.617 E47.49227
G0 F6000 X122 Y113.617
G1 F1200 X122 Y121.383 E47.7764
G0 F6000 X124 Y121.383
G1 F1200 X124 Y113.617 E48.06053
G0 F6000 X126 Y113.617
G1 F1200 X126 Y121.383 E48.34466
G0 F6000 X128 Y121.383
G1 F1200 X128 Y113.617 E48.62878
G0 F6000 X130 Y113.617
G1 F1200 X130 Y121.383 E48.91291
G0 F6000 X132 Y121.383
G1 F1200 X132 Y113.617 E49.19704
G1 F2700 E44.19704
G0 F6000 X132 Y112.391
G0 X136.283 Y112.404
G0 X136.295 Y116
G0 X135.07 Y116
G1 F2700 E49.19704
G1 F1200 X103.295 Y116 E50.35956
G0 F6000 X103.295 Y118
G1 F1200 X135.07 Y118 E51.52209
G1 F2700 E46.52209
;MESH:Door_Gaurd_Small.stl
G0 F6000 X136.295 Y118
G0 X136.283 Y122.596
G0 X98.6 Y124.399
G0 X97.315 Y124.399
G0 X95.67 Y128.33
G0 X95.6 Y128.4
;TYPE:WALL-INNER
G1 F2700 E51.52209
G1 F1200 X95.6 Y106.6 E52.31967
G1 X97.328 Y106.6 E52.38289
G1 X97.335 Y110.601 E52.52927
G1 X97.335 Y124.399 E53.03409
G1 X97.329 Y128.4 E53.18047
G1 X95.6 Y128.4 E53.24372
G0 F6000 X95.2 Y128.8
;TYPE:WALL-OUTER
G1 F1200 X95.2 Y106.2 E54.07057
G1 X97.485 Y106.2 E54.15417
G1 X97.727 Y106.248 E54.1632
G1 X97.735 Y110.6 E54.32242
G1 X97.735 Y124.4 E54.82731
G1 X97.728 Y128.749 E54.98642
G1 X97.465 Y128.8 E54.99622
G1 X95.2 Y128.8 E55.07909
G0 F6000 X95.67 Y128.33
G0 X95.99 Y128.01
;TYPE:SKIN
G1 F1200 X95.99 Y106.99 E55.84813
G1 X96.938 Y106.99 E55.88282
G1 X96.945 Y110.601 E56.01493
G1 X96.945 Y124.399 E56.51974
G1 X96.939 Y128.01 E56.65186
G1 X95.99 Y128.01 E56.68658
G0 F6000 X96.736 Y127.849
G1 F1200 X96.149 Y127.262 E56.71695
G0 F6000 X96.149 Y126.696
G1 F1200 X96.78 Y127.327 E56.7496
G0 F6000 X96.78 Y126.762
G1 F1200 X96.149 Y126.13 E56.78227
G0 F6000 X96.149 Y125.565
G1 F1200 X96.781 Y126.197 E56.81497
G0 F6000 X96.783 Y125.633
G1 F1200 X96.149 Y124.999 E56.84778
G0 F6000 X96.149 Y124.433
G1 F1200 X96.783 Y125.068 E56.8806
G0 F6000 X96.784 Y124.503
G1 F1200 X96.149 Y123.868 E56.91346
G0 F6000 X96.149 Y123.302
G1 F1200 X96.785 Y123.938 E56.94637
G0 F6000 X96.785 Y123.372
G1 F1200 X96.149 Y122.736 E56.97927
G0 F6000 X96.149 Y122.171
G1 F1200 X96.785 Y122.806 E57.01216
G0 F6000 X96.785 Y122.241
G1 F1200 X96.149 Y121.605 E57.04506
G0 F6000 X96.149 Y121.039
G1 F1200 X96.785 Y121.675 E57.07797
G0 F6000 X96.785 Y121.109
G1 F1200 X96.149 Y120.474 E57.11085
G0 F6000 X96.149 Y119.908
G1 F1200 X96.785 Y120.544 E57.14376
G0 F6000 X96.785 Y119.978
G1 F1200 X96.149 Y119.342 E57.17666
G0 F6000 X96.149 Y118.776
G1 F1200 X96.785 Y119.412 E57.20957
G0 F6000 X96.785 Y118.846
G1 F1200 X96.149 Y118.211 E57.24245
G0 F6000 X96.149 Y117.645
G1 F1200 X96.785 Y118.281 E57.27536
G0 F6000 X96.785 Y117.715
G1 F1200 X96.149 Y117.079 E57.30827
G0 F6000 X96.149 Y116.514
G1 F1200 X96.785 Y117.149 E57.34115
G0 F6000 X96.785 Y116.584
G1 F1200 X96.149 Y115.948 E57.37406
G0 F6000 X96.149 Y115.382
G1 F1200 X96.785 Y116.018 E57.40696
G0 F6000 X96.785 Y115.452
G1 F1200 X96.149 Y114.817 E57.43984
G0 F6000 X96.149 Y114.251
G1 F1200 X96.785 Y114.887 E57.47275
G0 F6000 X96.785 Y114.321
G1 F1200 X96.149 Y113.685 E57.50566
G0 F6000 X96.149 Y113.12
G1 F1200 X96.785 Y113.755 E57.53854
G0 F6000 X96.785 Y113.19
G1 F1200 X96.149 Y112.554 E57.57145
G0 F6000 X96.149 Y111.988
G1 F1200 X96.785 Y112.624 E57.60435
G0 F6000 X96.785 Y112.058
G1 F1200 X96.149 Y111.423 E57.63723
G0 F6000 X96.149 Y110.857
G1 F1200 X96.785 Y111.493 E57.67014
G0 F6000 X96.785 Y110.927
G1 F1200 X96.149 Y110.291 E57.70305
G0 F6000 X96.149 Y109.726
G1 F1200 X96.785 Y110.361 E57.73593
G0 F6000 X96.783 Y109.794
G1 F1200 X96.149 Y109.16 E57.76873
G0 F6000 X96.149 Y108.594
G1 F1200 X96.782 Y109.227 E57.80148
G0 F6000 X96.78 Y108.66
G1 F1200 X96.149 Y108.028 E57.83416
G0 F6000 X96.149 Y107.463
G1 F1200 X96.78 Y108.093 E57.86678
G0 F6000 X96.778 Y107.526
M104 S270
G1 F1200 X96.401 Y107.149 E57.88629
G1 F2700 E52.88629
;MESH:NONMESH
G0 F300 X96.401 Y107.149 Z0.4
G0 F6000 X97.332 Y109.259
G0 X99.208 Y109.256
;TIME_ELAPSED:93.311497
;LAYER:1
;TYPE:SUPPORT
G1 F2700 E57.88629
G1 F1050 X139.002 Y109.257 E59.3422
G1 X139.168 Y109.287 E59.34837
G1 X139.323 Y109.364 E59.3547
G1 X139.47 Y109.502 E59.36208
G1 X139.562 Y109.663 E59.36886
G1 X139.61 Y110.506 E59.39975
G1 X139.43 Y110.853 E59.41406
G1 X139.43 Y124.129 E59.89977
G1 X139.61 Y124.482 E59.91427
G1 X139.598 Y124.753 E59.92419
G1 X139.424 Y125.491 E59.95194
G1 X139.44 Y125.52 E59.95315
G1 X139.233 Y125.674 E59.96259
G1 X138.975 Y125.743 E59.97236
G1 X99.208 Y125.743 E61.42728
G1 X99.205 Y124.4 E61.47641
G1 X99.206 Y110.601 E61.98127
G1 X99.208 Y109.256 E62.03048
G0 F7500 X99.368 Y109.416
G1 F1050 X99.366 Y110.601 E62.07383
G1 X99.365 Y124.4 E62.57868
G1 X99.368 Y125.583 E62.62196
G1 X100 Y125.583 E62.64509
G1 X100 Y109.417 E63.23654
G1 X99.368 Y109.416 E63.25966
G0 F7500 X100 Y109.417
G1 F1050 X102 Y109.417 E63.33283
G1 X102 Y125.583 E63.92428
G1 X104 Y125.583 E63.99746
G1 X104 Y109.417 E64.58891
G1 X106 Y109.417 E64.66208
G1 X106 Y125.583 E65.25353
G1 X108 Y125.583 E65.3267
G1 X108 Y109.417 E65.91816
G1 X110 Y109.417 E65.99133
G1 X110 Y125.583 E66.58278
G1 X112 Y125.583 E66.65595
G1 X112 Y109.417 E67.2474
G1 X114 Y109.417 E67.32058
G1 X114 Y125.583 E67.91203
G1 X116 Y125.583 E67.9852
G1 X116 Y109.417 E68.57665
G1 X118 Y109.417 E68.64982
G1 X118 Y125.583 E69.24128
G1 X120 Y125.583 E69.31445
G1 X120 Y109.417 E69.9059
G1 X122 Y109.417 E69.97907
G1 X122 Y125.583 E70.57052
G1 X124 Y125.583 E70.6437
G1 X124 Y109.417 E71.23515
G1 X126 Y109.417 E71.30832
G1 X126 Y125.583 E71.89977
G1 X128 Y125.583 E71.97294
G1 X128 Y109.417 E72.5644
G1 X130 Y109.417 E72.63757
G1 X130 Y125.583 E73.22902
G1 X132 Y125.583 E73.30219
G1 X132 Y109.417 E73.89364
G1 X134 Y109.417 E73.96682
G1 X134 Y125.583 E74.55827
G1 X136 Y125.583 E74.63144
G1 X136 Y109.417 E75.22289
G1 X138 Y109.417 E75.29606
G1 X138 Y125.583 E75.88752
G1 X138.954 Y125.583 E75.92242
G1 X139.164 Y125.527 E75.93037
G1 X139.27 Y125.447 E75.93523
G1 X139.439 Y124.731 E75.96214
G1 X139.448 Y124.516 E75.97002
G1 X139.27 Y124.167 E75.98435
G1 X139.27 Y110.814 E76.47289
G1 X139.448 Y110.471 E76.48702
G1 X139.404 Y109.709 E76.51495
G1 X139.343 Y109.602 E76.51946
G1 X139.23 Y109.496 E76.52512
G1 X139.119 Y109.441 E76.52966
G1 X138.987 Y109.417 E76.53456
G1 X138 Y109.417 E76.57068
G1 F2700 E71.57068
;MESH:Door_Gaurd_Small.stl
G0 F7500 X138 Y108.391
G0 X98.862 Y108.403
G0 X97.588 Y109.354
G0 X95.67 Y106.67
G0 X95.6 Y106.6
;TYPE:WALL-INNER
G1 F2700 E76.57068
G1 F1050 X95.799 Y106.6 E76.57796
G1 X97.336 Y106.601 E76.63419
G1 X97.456 Y106.601 E76.63858
G1 X97.612 Y106.632 E76.6444
G1 X97.612 Y106.752 E76.64879
G1 X97.606 Y110.6 E76.78957
G1 X97.605 Y124.401 E77.2945
G1 X97.614 Y128.279 E77.43638
G1 X97.614 Y128.362 E77.43942
G1 X97.384 Y128.4 E77.44794
G1 X97.301 Y128.4 E77.45098
G1 X95.6 Y128.4 E77.51321
G1 X95.6 Y106.799 E78.30351
G1 X95.6 Y106.6 E78.30822
G0 F7500 X95.2 Y106.2
;TYPE:WALL-OUTER
G1 F1050 X97.494 Y106.201 E78.39215
G1 X97.797 Y106.261 E78.40345
G1 X98.012 Y106.404 E78.4129
G1 X98.006 Y110.601 E78.56645
G1 X98.005 Y124.401 E79.07134
G1 X98.014 Y128.346 E79.21567
G1 X98.013 Y128.594 E79.22475
G1 X97.803 Y128.737 E79.23404
G1 X97.417 Y128.8 E79.24835
G1 X95.2 Y128.8 E79.32946
G1 X95.2 Y106.2 E80.15631
G0 F7500 X95.67 Y106.67
G0 X95.99 Y106.99
;TYPE:SKIN
G1 F900 X97.222 Y106.991 E80.20138
G1 X97.216 Y110.6 E80.33342
G1 X97.215 Y124.401 E80.83835
G1 X97.224 Y128.01 E80.97039
G1 X95.99 Y128.01 E81.01553
G1 X95.99 Y106.99 E81.78458
G0 F7500 X96.149 Y107.497
G1 F900 X96.497 Y107.149 E81.80258
G0 F7500 X97.061 Y107.15
G1 F900 X96.149 Y108.062 E81.84977
G0 F7500 X96.149 Y108.628
G1 F900 X97.06 Y107.717 E81.8969
G0 F7500 X97.059 Y108.284
G1 F900 X96.149 Y109.194 E81.94399
G0 F7500 X96.149 Y109.759
G1 F900 X97.058 Y108.851 E81.991
G0 F7500 X97.057 Y109.417
G1 F900 X96.149 Y110.325 E82.03798
G0 F7500 X96.149 Y110.891
G1 F900 X97.056 Y109.984 E82.0849
G0 F7500 X97.055 Y110.551
G1 F900 X96.149 Y111.456 E82.13176
G0 F7500 X96.149 Y112.022
G1 F900 X97.055 Y111.116 E82.17863
G0 F7500 X97.055 Y111.682
G1 F900 X96.149 Y112.588 E82.22551
G0 F7500 X96.149 Y113.154
G1 F900 X97.055 Y112.248 E82.27239
G0 F7500 X97.055 Y112.813
G1 F900 X96.149 Y113.719 E82.31926
G0 F7500 X96.149 Y114.285
G1 F900 X97.055 Y113.379 E82.36614
G0 F7500 X97.055 Y113.945
G1 F900 X96.149 Y114.851 E82.41302
G0 F7500 X96.149 Y115.416
G1 F900 X97.055 Y114.51 E82.45989
G0 F7500 X97.055 Y115.076
G1 F900 X96.149 Y115.982 E82.50677
G0 F7500 X96.149 Y116.548
G1 F900 X97.055 Y115.642 E82.55365
G0 F7500 X97.055 Y116.208
G1 F900 X96.149 Y117.113 E82.6005
G0 F7500 X96.149 Y117.679
G1 F900 X97.055 Y116.773 E82.64738
G0 F7500 X97.055 Y117.339
G1 F900 X96.149 Y118.245 E82.69425
G0 F7500 X96.149 Y118.81
G1 F900 X97.055 Y117.905 E82.7411
G0 F7500 X97.055 Y118.47
G1 F900 X96.149 Y119.376 E82.78798
G0 F7500 X96.149 Y119.942
G1 F900 X97.055 Y119.036 E82.83486
G0 F7500 X97.055 Y119.602
G1 F900 X96.149 Y120.507 E82.88171
G0 F7500 X96.149 Y121.073
G1 F900 X97.055 Y120.167 E82.92859
G0 F7500 X97.055 Y120.733
G1 F900 X96.149 Y121.639 E82.97546
G0 F7500 X96.149 Y122.205
G1 F900 X97.055 Y121.299 E83.02234
G0 F7500 X97.055 Y121.864
G1 F900 X96.149 Y122.77 E83.06922
G0 F7500 X96.149 Y123.336
G1 F900 X97.055 Y122.43 E83.11609
G0 F7500 X97.055 Y122.996
G1 F900 X96.149 Y123.902 E83.16297
G0 F7500 X96.149 Y124.467
G1 F900 X97.055 Y123.561 E83.20985
G0 F7500 X97.055 Y124.127
G1 F900 X96.149 Y125.033 E83.25673
G0 F7500 X96.149 Y125.599
G1 F900 X97.056 Y124.692 E83.30365
G0 F7500 X97.057 Y125.256
G1 F900 X96.149 Y126.164 E83.35064
G0 F7500 X96.149 Y126.73
G1 F900 X97.058 Y125.821 E83.39767
G0 F7500 X97.06 Y126.385
G1 F900 X96.149 Y127.296 E83.4448
G0 F7500 X96.162 Y127.849
G1 F900 X97.061 Y126.949 E83.49134
G0 F7500 X97.063 Y127.513
G1 F900 X96.727 Y127.849 E83.50873
G1 F2700 E78.50873
;MESH:NONMESH
G0 F300 X96.727 Y127.849 Z0.6
G0 F7500 X97.586 Y110.6
G0 X99.362 Y109.256
;TIME_ELAPSED:139.685329
;LAYER:2
;TYPE:SUPPORT
G1 F2700 E83.50873
G1 F900 X139.001 Y109.257 E84.95897
G1 X139.166 Y109.287 E84.9651
G1 X139.323 Y109.365 E84.97152
G1 X139.472 Y109.504 E84.97897
G1 X139.562 Y109.662 E84.98562
G1 X139.61 Y110.506 E85.01655
G1 X139.43 Y110.853 E85.03085
G1 X139.43 Y124.129 E85.51657
G1 X139.61 Y124.482 E85.53107
G1 X139.598 Y124.758 E85.54118
G1 X139.427 Y125.494 E85.56882
G1 X139.441 Y125.519 E85.56987
G1 X139.231 Y125.675 E85.57944
G1 X138.974 Y125.743 E85.58917
G1 X99.362 Y125.743 E87.03842
G1 X99.359 Y124.401 E87.08752
G1 X99.36 Y112.207 E87.53365
G1 X99.362 Y109.256 E87.64161
G0 F9000 X99.522 Y109.416
G1 F900 X99.52 Y112.207 E87.74373
G1 X99.519 Y124.401 E88.18986
G1 X99.522 Y125.583 E88.2331
G1 X100 Y125.583 E88.25059
G1 X100 Y109.417 E88.84204
G1 X99.522 Y109.416 E88.85953
G0 F9000 X100 Y109.417
G1 F900 X102 Y109.417 E88.9327
G1 X102 Y125.583 E89.52415
G1 X104 Y125.583 E89.59733
G1 X104 Y109.417 E90.18878
G1 X106 Y109.417 E90.26195
G1 X106 Y125.583 E90.8534
G1 X108 Y125.583 E90.92657
G1 X108 Y109.417 E91.51803
G1 X110 Y109.417 E91.5912
G1 X110 Y125.583 E92.18265
G1 X112 Y125.583 E92.25582
G1 X112 Y109.417 E92.84727
G1 X114 Y109.417 E92.92045
G1 X114 Y125.583 E93.5119
G1 X116 Y125.583 E93.58507
G1 X116 Y109.417 E94.17652
G1 X118 Y109.417 E94.24969
G1 X118 Y125.583 E94.84115
G1 X120 Y125.583 E94.91432
G1 X120 Y109.417 E95.50577
G1 X122 Y109.417 E95.57894
G1 X122 Y125.583 E96.17039
G1 X124 Y125.583 E96.24357
G1 X124 Y109.417 E96.83502
