;FLAVOR:Marlin
;TIME:4644
;Filament used: 3.94525m
;Layer height: 0.2
;MINX:94.335
;MINY:105.336
;MINZ:0.2
;MAXX:140.506
;MAXY:129.664
;MAXZ:15.4
;Generated with Cura_SteamEngine master
M82 ;absolute extrusion mode
; Ender 3 Custom Start G-code
M140 S80 ; Set Heat Bed temperature
M104 S160 ; start warming extruder to 160
G28 ; Home all axes
G29 ; Auto bed-level (BL-Touch)
G92 E0 ; Reset Extruder
M190 S80 ; Wait for Heat Bed temperature
M104 S270 ; Set Extruder temperature
G1 X0 Y0 Z0.3 F5000.0 ; Move to 0 0
M109 S270 ; Wait for Extruder temperature
G1 X1 Y20 Z0.3 F5000.0 ; Move to start position
; G1 Z2.0 F3000 ; Move Z Axis up little to prevent scratching of Heat Bed
G1 X3 Y200.0 Z0.3 F1500.0 E15 ; Draw the first line
G1 X3.3 Y200.0 Z0.3 F5000.0 ; Move to side a little
G1 X3.3 Y20 Z0.3 F1500.0 E30 ; Draw the second line
G92 E0 ; Reset Extruder
G1 Z2.0 F3000 ; Move Z Axis up little to prevent scratching of Heat Bed
G92 E0
G92 E0
G1 F2700 E-5
;LAYER_COUNT:77
;LAYER:0
M107
G0 F6000 X102.519 Y112.853 Z0.2
;TYPE:SKIRT
G1 F2700 E0
G1 F1200 X135.858 Y112.855 E1.21975
G1 X135.852 Y115.219 E1.30624
G1 X135.851 Y119.915 E1.47804
G1 X135.859 Y122.189 E1.56124
G1 X102.518 Y122.189 E2.78106
G1 X102.519 Y112.853 E3.12263
G0 F6000 X102.119 Y112.453
G1 F1200 X136.259 Y112.455 E4.37168
G1 X136.252 Y115.219 E4.4728
G1 X136.251 Y119.914 E4.64458
G1 X136.26 Y122.589 E4.74244
G1 X102.118 Y122.589 E5.99157
G1 X102.119 Y112.453 E6.36241
G0 F6000 X101.719 Y112.053
G1 F1200 X136.658 Y112.055 E7.64069
G1 X136.659 Y112.44 E7.65478
G1 X136.652 Y115.219 E7.75645
G1 X136.651 Y119.913 E7.92818
G1 X136.66 Y122.444 E8.02078
G1 X136.659 Y122.989 E8.04072
G1 X101.718 Y122.989 E9.31908
G1 X101.719 Y112.053 E9.71919
G0 F6000 X101.319 Y111.653
G1 F1200 X137.058 Y111.655 E11.02674
G1 X137.059 Y112.441 E11.0555
G1 X137.052 Y115.219 E11.15713
G1 X137.051 Y119.911 E11.32879
G1 X137.06 Y122.444 E11.42147
G1 X137.058 Y123.389 E11.45604
G1 X101.319 Y123.389 E12.76359
G1 X101.319 Y111.653 E13.19297
G0 F6000 X100.919 Y111.761
G1 F1200 X100.921 Y111.253 E13.21155
G1 X137.457 Y111.255 E14.54827
G1 X137.459 Y112.442 E14.59169
G1 X137.452 Y115.22 E14.69333
G1 X137.451 Y119.91 E14.86492
G1 X137.46 Y122.445 E14.95767
G1 X137.457 Y123.789 E15.00684
G1 X100.92 Y123.789 E16.34359
G1 X100.918 Y123.251 E16.36327
G1 X100.919 Y111.761 E16.78364
G0 F6000 X100.519 Y111.76
G1 F1200 X100.522 Y110.853 E16.81683
G1 X137.856 Y110.855 E18.18274
G1 X137.859 Y112.443 E18.24083
G1 X137.852 Y115.22 E18.34243
G1 X137.851 Y119.908 E18.51395
G1 X137.86 Y122.446 E18.60681
G1 X137.856 Y124.189 E18.67058
G1 X100.522 Y124.189 E20.03648
G1 X100.518 Y123.251 E20.0708
G1 X100.519 Y111.76 E20.49121
G0 F6000 X100.119 Y111.758
G1 F1200 X100.124 Y110.453 E20.53896
G1 X138.279 Y110.455 E21.9349
G1 X138.256 Y110.712 E21.94434
G1 X138.259 Y112.444 E22.00771
G1 X138.252 Y115.22 E22.10927
G1 X138.251 Y119.907 E22.28075
G1 X138.26 Y122.447 E22.37368
G1 X138.256 Y124.329 E22.44254
G1 X138.287 Y124.589 E22.45212
G1 X100.124 Y124.589 E23.84836
G1 X100.118 Y123.251 E23.89731
G1 X100.119 Y111.758 E24.31779
G0 F6000 X99.719 Y111.757
G1 F1200 X99.725 Y110.053 E24.38014
G1 X138.76 Y110.055 E25.80828
G1 X138.785 Y110.209 E25.81398
G1 X138.744 Y110.3 E25.81764
G1 X138.656 Y110.712 E25.83305
G1 X138.659 Y112.445 E25.89645
G1 X138.652 Y115.22 E25.99798
G1 X138.651 Y119.906 E26.16942
G1 X138.66 Y122.448 E26.26243
G1 X138.656 Y124.33 E26.33128
G1 X138.74 Y124.733 E26.34634
G1 X138.803 Y124.877 E26.35209
G1 X138.796 Y124.989 E26.3562
G1 X99.726 Y124.989 E27.78562
G1 X99.718 Y123.251 E27.84921
G1 X99.719 Y111.757 E28.26973
G0 F6000 X99.319 Y111.755
G1 F1200 X99.327 Y109.653 E28.34663
G1 X138.949 Y109.655 E29.79625
G1 X139.128 Y109.73 E29.80335
G1 X139.152 Y109.972 E29.81225
G1 X139.199 Y110.263 E29.82303
G1 X139.109 Y110.464 E29.83109
G1 X139.056 Y110.711 E29.84033
G1 X139.059 Y112.446 E29.90381
G1 X139.052 Y115.22 E30.0053
G1 X139.051 Y119.904 E30.17667
G1 X139.06 Y122.449 E30.26978
G1 X139.056 Y124.331 E30.33863
G1 X139.106 Y124.572 E30.34764
G1 X139.208 Y124.805 E30.35695
G1 X139.18 Y125.254 E30.3734
G1 X139.056 Y125.367 E30.37954
G1 X138.934 Y125.389 E30.38408
G1 X99.327 Y125.389 E31.83315
G1 X99.318 Y123.251 E31.91137
G1 X99.319 Y111.755 E32.33196
G0 F6000 X98.919 Y111.754
G1 F1200 X98.928 Y109.253 E32.42346
G1 X138.987 Y109.255 E33.88907
G1 X139.182 Y109.289 E33.89631
G1 X139.375 Y109.405 E33.90455
G1 X139.516 Y109.566 E33.91238
G1 X139.547 Y109.908 E33.92494
G1 X139.613 Y110.318 E33.94014
G1 X139.474 Y110.628 E33.95257
G1 X139.456 Y110.71 E33.95564
G1 X139.459 Y112.448 E34.01922
G1 X139.452 Y115.22 E34.12064
G1 X139.451 Y119.902 E34.29194
G1 X139.46 Y122.45 E34.38516
G1 X139.456 Y124.332 E34.45402
G1 X139.473 Y124.412 E34.45701
G1 X139.613 Y124.732 E34.46979
G1 X139.572 Y125.388 E34.49383
G1 X139.379 Y125.638 E34.50539
G1 X139.19 Y125.748 E34.51339
G1 X138.967 Y125.789 E34.52168
G1 X98.929 Y125.789 E35.98652
G1 X98.918 Y123.25 E36.07941
G1 X98.919 Y111.754 E36.50001
G1 F2700 E31.50001
G0 F6000 X102.053 Y113.253
G0 X102.919 Y113.253
;TYPE:SUPPORT
G1 F2700 E36.50001
G1 F1200 X135.457 Y113.255 E37.69045
G1 X135.452 Y115.215 E37.76216
G1 X135.451 Y119.909 E37.93389
G1 X135.457 Y121.789 E38.00268
G1 X102.918 Y121.789 E39.19315
G1 X102.919 Y113.253 E39.50545
G0 F6000 X103.319 Y113.653
G1 F1200 X135.056 Y113.655 E40.66659
G1 X135.052 Y115.214 E40.72362
G1 X135.051 Y119.909 E40.8954
G1 X135.056 Y121.389 E40.94954
G1 X103.318 Y121.389 E42.11072
G1 X103.319 Y113.653 E42.39375
G0 F6000 X103.279 Y114
G1 F1200 X135.095 Y114 E43.55777
G0 F6000 X134 Y113.615
G1 F1200 X134 Y121.429 E43.84365
G0 F6000 X135.092 Y120
G1 F1200 X103.278 Y120 E45.00761
G0 F6000 X104 Y121.429
G1 F1200 X104 Y113.614 E45.29353
G0 F6000 X106 Y113.614
G1 F1200 X106 Y121.429 E45.57945
G0 F6000 X108 Y121.429
G1 F1200 X108 Y113.614 E45.86537
G0 F6000 X110 Y113.614
G1 F1200 X110 Y121.429 E46.15129
G0 F6000 X112 Y121.429
G1 F1200 X112 Y113.614 E46.43721
G0 F6000 X114 Y113.614
G1 F1200 X114 Y121.429 E46.72313
G0 F6000 X116 Y121.429
G1 F1200 X116 Y113.614 E47.00905
G0 F6000 X118 Y113.614
G1 F1200 X118 Y121.429 E47.29497
G0 F6000 X120 Y121.429
G1 F1200 X120 Y113.615 E47.58086
G0 F6000 X122 Y113.615
G1 F1200 X122 Y121.429 E47.86674
G0 F6000 X124 Y121.429
G1 F1200 X124 Y113.615 E48.15262
G0 F6000 X126 Y113.615
G1 F1200 X126 Y121.429 E48.43851
G0 F6000 X128 Y121.429
G1 F1200 X128 Y113.615 E48.72439
G0 F6000 X130 Y113.615
G1 F1200 X130 Y121.429 E49.01028
G0 F6000 X132 Y121.429
G1 F1200 X132 Y113.615 E49.29616
G1 F2700 E44.29616
G0 F6000 X132 Y112.389
G0 X136.311 Y112.402
G0 X136.317 Y116
G0 X135.091 Y116
G1 F2700 E49.29616
G1 F1200 X103.279 Y116 E50.46004
G0 F6000 X103.279 Y118
G1 F1200 X135.091 Y118 E51.62392
G1 F2700 E46.62392
;MESH:Door_Gaurd_Big.stl
G0 F6000 X136.317 Y118
G0 X136.313 Y122.642
G0 X98.596 Y126.568
G0 X97.312 Y126.574
G0 X95.67 Y128.33
G0 X95.6 Y128.4
;TYPE:WALL-INNER
G1 F2700 E51.62392
G1 F1200 X95.6 Y106.6 E52.4215
G1 X97.328 Y106.6 E52.48472
G1 X97.331 Y108.422 E52.55138
G1 X97.319 Y111.748 E52.67306
G1 X97.318 Y123.251 E53.09391
G1 X97.332 Y126.574 E53.21549
G1 X97.328 Y128.4 E53.2823
G1 X95.6 Y128.4 E53.34552
G0 F6000 X95.2 Y128.8
;TYPE:WALL-OUTER
G1 F1200 X95.2 Y106.2 E54.17237
G1 X97.486 Y106.2 E54.256
G1 X97.727 Y106.248 E54.26499
G1 X97.731 Y108.423 E54.34457
G1 X97.719 Y111.749 E54.46625
G1 X97.718 Y123.25 E54.88703
G1 X97.732 Y126.575 E55.00868
G1 X97.727 Y128.75 E55.08826
G1 X97.474 Y128.8 E55.09769
G1 X95.2 Y128.8 E55.18089
G0 F6000 X95.67 Y128.33
G0 X95.99 Y128.01
;TYPE:SKIN
G1 F1200 X95.99 Y106.99 E55.94993
G1 X96.938 Y106.99 E55.98461
G1 X96.941 Y108.42 E56.03693
G1 X96.929 Y111.746 E56.15862
G1 X96.928 Y123.251 E56.57954
G1 X96.942 Y126.574 E56.70112
G1 X96.938 Y128.01 E56.75366
G1 X95.99 Y128.01 E56.78834
G0 F6000 X96.736 Y127.849
G1 F1200 X96.149 Y127.262 E56.81871
G0 F6000 X96.149 Y126.696
G1 F1200 X96.78 Y127.327 E56.85136
G0 F6000 X96.781 Y126.763
G1 F1200 X96.149 Y126.13 E56.88409
G0 F6000 X96.149 Y125.565
G1 F1200 X96.78 Y126.195 E56.91671
G0 F6000 X96.778 Y125.628
G1 F1200 X96.149 Y124.999 E56.94925
G0 F6000 X96.149 Y124.433
G1 F1200 X96.775 Y125.059 E56.98164
G0 F6000 X96.773 Y124.491
G1 F1200 X96.149 Y123.868 E57.0139
G0 F6000 X96.149 Y123.302
G1 F1200 X96.771 Y123.923 E57.04606
G0 F6000 X96.768 Y123.355
G1 F1200 X96.149 Y122.736 E57.07809
G0 F6000 X96.149 Y122.171
G1 F1200 X96.768 Y122.789 E57.11009
G0 F6000 X96.768 Y122.224
G1 F1200 X96.149 Y121.605 E57.14212
G0 F6000 X96.149 Y121.039
G1 F1200 X96.768 Y121.658 E57.17414
G0 F6000 X96.768 Y121.092
G1 F1200 X96.149 Y120.474 E57.20614
G0 F6000 X96.149 Y119.908
G1 F1200 X96.768 Y120.527 E57.23817
G0 F6000 X96.768 Y119.961
G1 F1200 X96.149 Y119.342 E57.2702
G0 F6000 X96.149 Y118.776
G1 F1200 X96.768 Y119.395 E57.30223
G0 F6000 X96.768 Y118.83
G1 F1200 X96.149 Y118.211 E57.33425
G0 F6000 X96.149 Y117.645
G1 F1200 X96.768 Y118.264 E57.36628
G0 F6000 X96.768 Y117.698
G1 F1200 X96.149 Y117.079 E57.39831
G0 F6000 X96.149 Y116.514
G1 F1200 X96.768 Y117.133 E57.43034
G0 F6000 X96.768 Y116.567
G1 F1200 X96.149 Y115.948 E57.46236
G0 F6000 X96.149 Y115.382
G1 F1200 X96.768 Y116.002 E57.49442
G0 F6000 X96.768 Y115.436
G1 F1200 X96.149 Y114.817 E57.52645
G0 F6000 X96.149 Y114.251
G1 F1200 X96.768 Y114.87 E57.55847
G0 F6000 X96.768 Y114.305
G1 F1200 X96.149 Y113.685 E57.59053
G0 F6000 X96.149 Y113.12
G1 F1200 X96.768 Y113.739 E57.62255
G0 F6000 X96.768 Y113.173
G1 F1200 X96.149 Y112.554 E57.65458
G0 F6000 X96.149 Y111.988
G1 F1200 X96.768 Y112.608 E57.68663
G0 F6000 X96.768 Y112.042
G1 F1200 X96.149 Y111.423 E57.71866
G0 F6000 X96.149 Y110.857
G1 F1200 X96.77 Y111.478 E57.75079
G0 F6000 X96.772 Y110.914
G1 F1200 X96.149 Y110.291 E57.78303
G0 F6000 X96.149 Y109.726
G1 F1200 X96.774 Y110.351 E57.81536
G0 F6000 X96.776 Y109.787
G1 F1200 X96.149 Y109.16 E57.84781
G0 F6000 X96.149 Y108.594
G1 F1200 X96.778 Y109.223 E57.88035
G0 F6000 X96.78 Y108.659
G1 F1200 X96.149 Y108.028 E57.913
G0 F6000 X96.149 Y107.463
G1 F1200 X96.78 Y108.093 E57.94562
G0 F6000 X96.778 Y107.526
M104 S270
G1 F1200 X96.401 Y107.149 E57.96513
G1 F2700 E52.96513
;MESH:NONMESH
G0 F300 X96.401 Y107.149 Z0.4
G0 F6000 X97.309 Y109.245
G0 X99.212 Y109.253
;TIME_ELAPSED:93.357579
;LAYER:1
;TYPE:SUPPORT
G1 F2700 E57.96513
G1 F1050 X138.985 Y109.255 E59.42027
G1 X139.18 Y109.288 E59.4275
G1 X139.369 Y109.399 E59.43552
G1 X139.516 Y109.565 E59.44364
G1 X139.545 Y109.902 E59.45601
G1 X139.613 Y110.319 E59.47147
G1 X139.456 Y110.668 E59.48547
G1 X139.459 Y112.452 E59.55074
G1 X139.452 Y115.218 E59.65194
G1 X139.451 Y119.899 E59.8232
G1 X139.46 Y122.455 E59.91671
G1 X139.456 Y124.375 E59.98696
G1 X139.613 Y124.734 E60.00129
G1 X139.572 Y125.389 E60.0253
G1 X139.527 Y125.462 E60.02844
G1 X139.381 Y125.637 E60.03678
G1 X139.361 Y125.653 E60.03772
G1 X139.203 Y125.744 E60.04439
G1 X139.189 Y125.749 E60.04493
G1 X138.969 Y125.789 E60.05311
G1 X99.213 Y125.789 E61.50763
G1 X99.212 Y109.253 E62.11262
G0 F7500 X99.372 Y109.413
G1 F1050 X99.373 Y125.629 E62.7059
G1 X100 Y125.629 E62.72884
G1 X100 Y109.414 E63.32208
G1 X99.372 Y109.413 E63.34506
G0 F7500 X100 Y109.414
G1 F1050 X102 Y109.414 E63.41823
G1 X102 Y125.629 E64.01148
G1 X104 Y125.629 E64.08465
G1 X104 Y109.414 E64.67789
G1 X106 Y109.414 E64.75107
G1 X106 Y125.629 E65.34431
G1 X108 Y125.629 E65.41748
G1 X108 Y109.414 E66.01073
G1 X110 Y109.414 E66.0839
G1 X110 Y125.629 E66.67714
G1 X112 Y125.629 E66.75032
G1 X112 Y109.414 E67.34356
G1 X114 Y109.414 E67.41673
G1 X114 Y125.629 E68.00998
G1 X116 Y125.629 E68.08315
G1 X116 Y109.414 E68.67639
G1 X118 Y109.414 E68.74957
G1 X118 Y125.629 E69.34281
G1 X120 Y125.629 E69.41598
G1 X120 Y109.415 E70.00919
G1 X122 Y109.415 E70.08236
G1 X122 Y125.629 E70.67557
G1 X124 Y125.629 E70.74874
G1 X124 Y109.415 E71.34195
G1 X126 Y109.415 E71.41512
G1 X126 Y125.629 E72.00833
G1 X128 Y125.629 E72.0815
G1 X128 Y109.415 E72.67471
G1 X130 Y109.415 E72.74788
G1 X130 Y125.629 E73.34109
G1 X132 Y125.629 E73.41426
G1 X132 Y109.415 E74.00747
G1 X134 Y109.415 E74.08064
G1 X134 Y125.629 E74.67385
G1 X136 Y125.629 E74.74702
G1 X136 Y109.415 E75.34023
G1 X138 Y109.415 E75.4134
G1 X138 Y125.629 E76.00661
G1 X138.954 Y125.629 E76.04152
G1 X139.142 Y125.595 E76.04851
G1 X139.268 Y125.522 E76.05383
G1 X139.398 Y125.366 E76.06126
G1 X139.414 Y125.341 E76.06235
G1 X139.451 Y124.762 E76.08357
G1 X139.296 Y124.408 E76.09771
G1 X139.3 Y122.455 E76.16917
G1 X139.291 Y119.899 E76.26268
G1 X139.292 Y115.218 E76.43394
G1 X139.299 Y112.452 E76.53514
G1 X139.296 Y110.632 E76.60173
G1 X139.447 Y110.297 E76.61517
G1 X139.386 Y109.924 E76.629
G1 X139.362 Y109.632 E76.63972
G1 X139.264 Y109.522 E76.64511
G1 X139.125 Y109.441 E76.65099
G1 X138.973 Y109.415 E76.65663
G1 X138 Y109.415 E76.69223
G1 F2700 E71.69223
;MESH:Door_Gaurd_Big.stl
G0 F7500 X138 Y108.389
G0 X98.865 Y108.4
G0 X97.612 Y109.416
G0 X95.67 Y106.67
G0 X95.6 Y106.6
;TYPE:WALL-INNER
G1 F2700 E76.69223
G1 F1050 X95.799 Y106.6 E76.69951
G1 X97.45 Y106.601 E76.75992
G1 X97.612 Y106.632 E76.76595
G1 X97.613 Y128.269 E77.55757
G1 X97.613 Y128.363 E77.561
G1 X97.406 Y128.4 E77.5687
G1 X97.312 Y128.4 E77.57214
G1 X95.6 Y128.4 E77.63477
G1 X95.6 Y106.799 E78.42507
G1 X95.6 Y106.6 E78.42978
G0 F7500 X95.2 Y106.2
;TYPE:WALL-OUTER
G1 F1050 X97.49 Y106.201 E78.51356
G1 X97.799 Y106.261 E78.52508
G1 X98.012 Y106.403 E78.53445
G1 X98.013 Y128.594 E79.34633
G1 X97.806 Y128.735 E79.35549
G1 X97.443 Y128.8 E79.36898
G1 X95.2 Y128.8 E79.45105
G1 X95.2 Y106.2 E80.27789
G0 F7500 X95.67 Y106.67
G0 X95.99 Y106.99
;TYPE:SKIN
G1 F900 X97.222 Y106.991 E80.32297
G1 X97.223 Y128.01 E81.09197
G1 X95.99 Y128.01 E81.13708
G1 X95.99 Y106.99 E81.90612
G0 F7500 X96.149 Y107.497
G1 F900 X96.497 Y107.149 E81.92413
G0 F7500 X97.061 Y107.15
G1 F900 X96.149 Y108.062 E81.97132
G0 F7500 X96.149 Y108.628
G1 F900 X97.061 Y107.716 E82.0185
G0 F7500 X97.061 Y108.282
G1 F900 X96.149 Y109.194 E82.06569
G0 F7500 X96.149 Y109.759
G1 F900 X97.061 Y108.847 E82.11288
G0 F7500 X97.061 Y109.413
G1 F900 X96.149 Y110.325 E82.16007
G0 F7500 X96.149 Y110.891
G1 F900 X97.061 Y109.979 E82.20725
G0 F7500 X97.061 Y110.544
G1 F900 X96.149 Y111.456 E82.25444
G0 F7500 X96.149 Y112.022
G1 F900 X97.061 Y111.11 E82.30163
G0 F7500 X97.061 Y111.676
G1 F900 X96.149 Y112.588 E82.34882
G0 F7500 X96.149 Y113.154
G1 F900 X97.061 Y112.241 E82.39603
G0 F7500 X97.061 Y112.807
G1 F900 X96.149 Y113.719 E82.44322
G0 F7500 X96.149 Y114.285
G1 F900 X97.061 Y113.373 E82.4904
G0 F7500 X97.061 Y113.938
G1 F900 X96.149 Y114.851 E82.53762
G0 F7500 X96.149 Y115.416
G1 F900 X97.061 Y114.504 E82.58481
G0 F7500 X97.061 Y115.07
G1 F900 X96.149 Y115.982 E82.63199
G0 F7500 X96.149 Y116.548
G1 F900 X97.061 Y115.636 E82.67918
G0 F7500 X97.061 Y116.201
G1 F900 X96.149 Y117.113 E82.72637
G0 F7500 X96.149 Y117.679
G1 F900 X97.061 Y116.767 E82.77356
G0 F7500 X97.061 Y117.333
G1 F900 X96.149 Y118.245 E82.82074
G0 F7500 X96.149 Y118.81
G1 F900 X97.062 Y117.898 E82.86796
G0 F7500 X97.062 Y118.463
G1 F900 X96.149 Y119.376 E82.9152
G0 F7500 X96.149 Y119.942
G1 F900 X97.062 Y119.029 E82.96243
G0 F7500 X97.062 Y119.595
G1 F900 X96.149 Y120.507 E83.00965
G0 F7500 X96.149 Y121.073
G1 F900 X97.062 Y120.16 E83.05689
G0 F7500 X97.062 Y120.726
G1 F900 X96.149 Y121.639 E83.10413
G0 F7500 X96.149 Y122.205
G1 F900 X97.062 Y121.292 E83.15137
G0 F7500 X97.062 Y121.857
G1 F900 X96.149 Y122.77 E83.1986
G0 F7500 X96.149 Y123.336
G1 F900 X97.062 Y122.423 E83.24584
G0 F7500 X97.062 Y122.989
G1 F900 X96.149 Y123.902 E83.29308
G0 F7500 X96.149 Y124.467
G1 F900 X97.062 Y123.554 E83.34032
G0 F7500 X97.062 Y124.12
G1 F900 X96.149 Y125.033 E83.38756
G0 F7500 X96.149 Y125.599
G1 F900 X97.062 Y124.686 E83.4348
G0 F7500 X97.062 Y125.251
G1 F900 X96.149 Y126.164 E83.48204
G0 F7500 X96.149 Y126.73
G1 F900 X97.062 Y125.817 E83.52928
G0 F7500 X97.062 Y126.383
G1 F900 X96.149 Y127.296 E83.57652
G0 F7500 X96.162 Y127.849
G1 F900 X97.062 Y126.949 E83.62308
G0 F7500 X97.062 Y127.514
G1 F900 X96.727 Y127.849 E83.64042
G1 F2700 E78.64042
;MESH:NONMESH
G0 F300 X96.727 Y127.849 Z0.6
G0 F7500 X97.612 Y109.253
G0 X99.364 Y109.253
