;FLAVOR:Marlin
;TIME:26112
;Filament used: 15.3021m
;Layer height: 0.2
;MINX:94.335
;MINY:105.335
;MINZ:0.2
;MAXX:140.473
;MAXY:129.665
;MAXZ:94
;Generated with Cura_SteamEngine master
M82 ;absolute extrusion mode
; Ender 3 Custom Start G-code
M140 S80 ; Set Heat Bed temperature
M104 S160 ; start warming extruder to 160
G28 ; Home all axes
G29 ; Auto bed-level (BL-Touch)
G92 E0 ; Reset Extruder
M190 S80 ; Wait for Heat Bed temperature
M104 S270 ; Set Extruder temperature
G1 X0 Y0 Z0.3 F5000.0 ; Move to 0 0
M109 S270 ; Wait for Extruder temperature
G1 X1 Y20 Z0.3 F5000.0 ; Move to start position
; G1 Z2.0 F3000 ; Move Z Axis up little to prevent scratching of Heat Bed
G1 X3 Y200.0 Z0.3 F1500.0 E15 ; Draw the first line
G1 X3.3 Y200.0 Z0.3 F5000.0 ; Move to side a little
G1 X3.3 Y20 Z0.3 F1500.0 E30 ; Draw the second line
G92 E0 ; Reset Extruder
G1 Z2.0 F3000 ; Move Z Axis up little to prevent scratching of Heat Bed
G92 E0
G92 E0
G1 F2700 E-5
;LAYER_COUNT:470
;LAYER:0
M107
G0 F6000 X102.519 Y112.857 Z0.2
;TYPE:SKIRT
G1 F2700 E0
G1 F1200 X106.242 Y112.85 E0.13621
G1 X108.653 Y112.856 E0.22442
G1 X128.851 Y112.856 E0.96339
G1 X131.241 Y112.851 E1.05083
G1 X135.819 Y112.858 E1.21832
G1 X135.818 Y122.142 E1.55799
G1 X131.259 Y122.15 E1.72478
G1 X128.847 Y122.144 E1.81303
G1 X108.649 Y122.144 E2.552
G1 X106.259 Y122.149 E2.63944
G1 X102.518 Y122.143 E2.77631
G1 X102.519 Y112.857 E3.11604
G0 F6000 X102.119 Y112.457
G1 F1200 X106.242 Y112.45 E3.26689
G1 X108.654 Y112.456 E3.35514
G1 X128.85 Y112.456 E4.09403
G1 X131.241 Y112.451 E4.18151
G1 X136.219 Y112.459 E4.36363
G1 X136.218 Y122.542 E4.73253
G1 X131.258 Y122.55 E4.914
G1 X128.846 Y122.544 E5.00224
G1 X108.65 Y122.544 E5.74114
G1 X106.259 Y122.549 E5.82862
G1 X102.118 Y122.543 E5.98012
G1 X102.119 Y112.457 E6.34913
G0 F6000 X101.719 Y112.058
G1 F1200 X106.242 Y112.05 E6.51461
G1 X108.655 Y112.056 E6.60289
G1 X128.849 Y112.056 E7.34171
G1 X131.24 Y112.051 E7.42919
G1 X136.619 Y112.059 E7.62598
G1 X136.618 Y122.941 E8.02412
G1 X131.258 Y122.95 E8.22022
G1 X128.845 Y122.944 E8.3085
G1 X108.651 Y122.944 E9.04732
G1 X106.26 Y122.949 E9.1348
G1 X101.718 Y122.942 E9.30097
G1 X101.719 Y112.058 E9.69918
G0 F6000 X101.319 Y111.659
G1 F1200 X106.243 Y111.65 E9.87933
G1 X108.656 Y111.656 E9.96761
G1 X128.848 Y111.656 E10.70636
G1 X131.24 Y111.651 E10.79387
G1 X137.019 Y111.66 E11.0053
G1 X137.018 Y123.34 E11.43263
G1 X131.258 Y123.35 E11.64337
G1 X128.844 Y123.344 E11.73168
G1 X108.652 Y123.344 E12.47043
G1 X106.26 Y123.349 E12.55795
G1 X101.318 Y123.341 E12.73876
G1 X101.319 Y111.659 E13.16616
G0 F6000 X100.919 Y111.761
G1 F1200 X100.921 Y111.26 E13.18448
G1 X106.243 Y111.25 E13.3792
G1 X108.657 Y111.256 E13.46752
G1 X128.848 Y111.256 E14.20623
G1 X131.241 Y111.251 E14.29378
G1 X137.419 Y111.261 E14.51981
G1 X137.418 Y123.74 E14.97637
G1 X131.257 Y123.75 E15.20177
G1 X128.843 Y123.744 E15.29009
G1 X108.652 Y123.744 E16.0288
G1 X106.259 Y123.749 E16.11635
G1 X100.92 Y123.741 E16.31169
G1 X100.918 Y123.251 E16.32962
G1 X100.919 Y111.761 E16.74999
G0 F6000 X100.519 Y111.759
G1 F1200 X100.522 Y110.86 E16.78288
G1 X106.243 Y110.85 E16.99219
G1 X108.658 Y110.856 E17.08055
G1 X128.847 Y110.856 E17.81918
G1 X131.24 Y110.851 E17.90674
G1 X137.839 Y110.861 E18.14817
G1 X137.819 Y111 E18.15331
G1 X137.818 Y123.99 E18.62856
G1 X137.834 Y124.139 E18.63404
G1 X131.257 Y124.15 E18.87467
G1 X128.842 Y124.144 E18.96303
G1 X108.653 Y124.144 E19.70166
G1 X106.26 Y124.149 E19.78921
G1 X100.522 Y124.14 E19.99915
G1 X100.518 Y123.251 E20.03167
G1 X100.519 Y111.759 E20.45212
G0 F6000 X100.119 Y111.758
G1 F1200 X100.124 Y110.461 E20.49957
G1 X106.244 Y110.45 E20.72348
G1 X108.659 Y110.456 E20.81184
G1 X128.846 Y110.456 E21.5504
G1 X131.24 Y110.451 E21.63799
G1 X138.337 Y110.462 E21.89764
G1 X138.265 Y110.644 E21.9048
G1 X138.219 Y111 E21.91793
G1 X138.218 Y123.99 E22.39319
G1 X138.258 Y124.322 E22.40542
G1 X138.341 Y124.538 E22.41389
G1 X131.257 Y124.55 E22.67306
G1 X128.841 Y124.544 E22.76146
G1 X108.654 Y124.544 E23.50002
G1 X106.26 Y124.549 E23.58761
G1 X100.123 Y124.539 E23.81214
G1 X100.118 Y123.251 E23.85926
G1 X100.119 Y111.758 E24.27975
G0 F6000 X99.719 Y111.757
G1 F1200 X99.725 Y109.975 E24.34494
G1 X100.107 Y110.061 E24.35927
G1 X106.244 Y110.05 E24.5838
G1 X108.66 Y110.056 E24.67219
G1 X128.845 Y110.056 E25.41068
G1 X131.239 Y110.051 E25.49827
G1 X138.763 Y110.063 E25.77354
G1 X138.797 Y110.419 E25.78663
G1 X138.74 Y110.524 E25.791
G1 X138.642 Y110.789 E25.80134
G1 X138.619 Y111 E25.8091
G1 X138.618 Y123.99 E26.28436
G1 X138.658 Y124.269 E26.29467
G1 X138.795 Y124.571 E26.3068
G1 X138.76 Y124.937 E26.32025
G1 X131.256 Y124.95 E26.59479
G1 X128.84 Y124.944 E26.68319
G1 X108.655 Y124.944 E27.42168
G1 X106.261 Y124.949 E27.50927
G1 X99.811 Y124.939 E27.74525
G1 X99.725 Y124.951 E27.74842
G1 X99.718 Y123.251 E27.81062
G1 X99.719 Y111.757 E28.23114
G0 F6000 X99.319 Y111.755
G1 F1200 X99.328 Y109.246 E28.32294
G1 X99.457 Y109.377 E28.32966
G1 X99.802 Y109.579 E28.34429
G1 X100.106 Y109.661 E28.35581
G1 X106.244 Y109.65 E28.58038
G1 X108.661 Y109.656 E28.66881
G1 X128.844 Y109.656 E29.40722
G1 X131.239 Y109.651 E29.49485
G1 X138.938 Y109.664 E29.77652
G1 X139.098 Y109.71 E29.78262
G1 X139.145 Y109.768 E29.78535
G1 X139.158 Y109.984 E29.79326
G1 X139.207 Y110.5 E29.81223
G1 X139.091 Y110.714 E29.82113
G1 X139.019 Y111 E29.83192
G1 X139.018 Y123.99 E30.30718
G1 X139.09 Y124.275 E30.31793
G1 X139.205 Y124.489 E30.32682
G1 X139.134 Y125.242 E30.35449
G1 X139.035 Y125.326 E30.35924
G1 X138.956 Y125.337 E30.36216
G1 X131.256 Y125.35 E30.64387
G1 X128.839 Y125.344 E30.7323
G1 X108.656 Y125.344 E31.47072
G1 X106.261 Y125.349 E31.55834
G1 X99.81 Y125.339 E31.79436
G1 X99.487 Y125.432 E31.80666
G1 X99.328 Y125.533 E31.81355
G1 X99.318 Y123.251 E31.89704
G1 X99.319 Y111.755 E32.31764
G0 F6000 X98.919 Y111.754
G1 F1200 X98.931 Y108.424 E32.43947
G1 X98.93 Y107.784 E32.46288
G1 X99.585 Y108.957 E32.51204
G1 X99.659 Y109.032 E32.51589
G1 X100.004 Y109.234 E32.53052
G1 X100.105 Y109.261 E32.53434
G1 X106.244 Y109.25 E32.75895
G1 X108.662 Y109.256 E32.84741
G1 X128.843 Y109.256 E33.58576
G1 X131.239 Y109.251 E33.67342
G1 X138.944 Y109.263 E33.95531
G1 X139.197 Y109.297 E33.96465
G1 X139.376 Y109.418 E33.97256
G1 X139.532 Y109.614 E33.98172
G1 X139.537 Y109.626 E33.9822
G1 X139.556 Y109.946 E33.99393
G1 X139.609 Y110.504 E34.01443
G1 X139.609 Y110.598 E34.01787
G1 X139.443 Y110.905 E34.03064
G1 X139.419 Y111 E34.03423
G1 X139.418 Y123.99 E34.50948
G1 X139.442 Y124.085 E34.51307
G1 X139.608 Y124.393 E34.52587
G1 X139.608 Y124.477 E34.52894
G1 X139.52 Y125.4 E34.56286
G1 X139.372 Y125.585 E34.57153
G1 X139.17 Y125.71 E34.58022
G1 X138.986 Y125.737 E34.58702
G1 X131.256 Y125.75 E34.86984
G1 X128.838 Y125.744 E34.9583
G1 X108.657 Y125.744 E35.69665
G1 X106.261 Y125.749 E35.78431
G1 X99.809 Y125.739 E36.02036
G1 X99.702 Y125.77 E36.02444
G1 X99.365 Y125.984 E36.03904
G1 X99.291 Y126.068 E36.04314
G1 X98.931 Y126.839 E36.07427
G1 X98.932 Y126.573 E36.084
G1 X98.918 Y123.25 E36.20558
G1 X98.919 Y111.754 E36.62617
G1 F2700 E31.62617
G0 F6000 X102.053 Y113.256
G0 X102.919 Y113.256
;TYPE:SUPPORT
G1 F2700 E36.62617
G1 F1200 X106.241 Y113.25 E36.74771
G1 X108.657 Y113.256 E36.8361
G1 X128.847 Y113.256 E37.57478
G1 X131.241 Y113.251 E37.66237
G1 X135.419 Y113.258 E37.81522
G1 X135.418 Y121.743 E38.12566
G1 X131.259 Y121.75 E38.27782
G1 X128.843 Y121.744 E38.36621
G1 X108.653 Y121.744 E39.10489
G1 X106.259 Y121.749 E39.19247
G1 X102.918 Y121.743 E39.31471
G1 X102.919 Y113.256 E39.62521
G0 F6000 X103.319 Y113.655
G1 F1200 X106.241 Y113.65 E39.73212
G1 X108.656 Y113.656 E39.82047
G1 X128.847 Y113.656 E40.55919
G1 X131.241 Y113.651 E40.64677
G1 X135.019 Y113.657 E40.785
G1 X135.018 Y121.344 E41.06623
G1 X131.259 Y121.35 E41.20376
G1 X128.844 Y121.344 E41.29212
G1 X108.653 Y121.344 E42.03083
G1 X106.259 Y121.349 E42.11842
G1 X103.318 Y121.344 E42.22602
G1 X103.319 Y113.655 E42.50733
G0 F6000 X103.279 Y114
G1 F1200 X135.058 Y114 E43.67
G0 F6000 X134 Y113.615
G1 F1200 X134 Y121.386 E43.95431
G0 F6000 X135.058 Y120
G1 F1200 X103.278 Y120 E45.11702
G0 F6000 X104 Y121.385
G1 F1200 X104 Y113.613 E45.40136
G0 F6000 X106 Y113.61
G1 F1200 X106 Y121.388 E45.68593
G0 F6000 X108 Y121.386
G1 F1200 X108 Y113.615 E45.97024
G0 F6000 X110 Y113.616
G1 F1200 X110 Y121.384 E46.25444
G0 F6000 X112 Y121.384
G1 F1200 X112 Y113.616 E46.53864
G0 F6000 X114 Y113.616
G1 F1200 X114 Y121.384 E46.82285
G0 F6000 X116 Y121.384
G1 F1200 X116 Y113.616 E47.10705
G0 F6000 X118 Y113.616
G1 F1200 X118 Y121.384 E47.39125
G0 F6000 X120 Y121.384
G1 F1200 X120 Y113.616 E47.67545
G0 F6000 X122 Y113.616
G1 F1200 X122 Y121.384 E47.95965
G0 F6000 X124 Y121.384
G1 F1200 X124 Y113.616 E48.24385
G0 F6000 X126 Y113.616
G1 F1200 X126 Y121.384 E48.52805
G0 F6000 X128 Y121.384
G1 F1200 X128 Y113.616 E48.81225
G0 F6000 X130 Y113.613
G1 F1200 X130 Y121.386 E49.09664
G0 F6000 X132 Y121.389
G1 F1200 X132 Y113.612 E49.38117
G1 F2700 E44.38117
G0 F6000 X132.001 Y112.387
G0 X136.272 Y112.406
G0 X136.284 Y116
G0 X135.058 Y116
G1 F2700 E49.38117
G1 F1200 X103.279 Y116 E50.54384
G0 F6000 X103.279 Y118
G1 F1200 X135.058 Y118 E51.70651
G1 F2700 E46.70651
;MESH:Sliding_Door_Gaurd_Skinny.stl
G0 F6000 X136.284 Y118
G0 X136.271 Y122.595
G0 X98.596 Y126.568
G0 X97.312 Y126.574
G0 X95.67 Y128.33
G0 X95.6 Y128.4
;TYPE:WALL-INNER
G1 F2700 E51.70651
G1 F1200 X95.6 Y106.6 E52.50409
G1 X97.328 Y106.6 E52.56731
G1 X97.331 Y108.422 E52.63397
G1 X97.319 Y111.748 E52.75566
G1 X97.318 Y123.251 E53.17651
G1 X97.332 Y126.574 E53.29808
G1 X97.328 Y128.4 E53.36489
G1 X95.6 Y128.4 E53.42811
G0 F6000 X95.2 Y128.8
;TYPE:WALL-OUTER
G1 F1200 X95.2 Y106.2 E54.25496
G1 X97.486 Y106.2 E54.33859
G1 X97.727 Y106.248 E54.34758
G1 X97.731 Y108.423 E54.42716
G1 X97.719 Y111.749 E54.54885
G1 X97.718 Y123.25 E54.96962
G1 X97.732 Y126.575 E55.09127
G1 X97.727 Y128.75 E55.17085
G1 X97.468 Y128.8 E55.1805
G1 X95.2 Y128.8 E55.26348
G0 F6000 X95.67 Y128.33
G0 X95.99 Y128.01
;TYPE:SKIN
G1 F1200 X95.99 Y106.99 E56.03252
G1 X96.938 Y106.99 E56.0672
G1 X96.941 Y108.42 E56.11952
G1 X96.929 Y111.746 E56.24121
G1 X96.928 Y123.251 E56.66213
G1 X96.942 Y126.574 E56.78371
G1 X96.938 Y128.01 E56.83624
G1 X95.99 Y128.01 E56.87093
G0 F6000 X96.736 Y127.849
G1 F1200 X96.149 Y127.262 E56.9013
G0 F6000 X96.149 Y126.696
G1 F1200 X96.78 Y127.327 E56.93395
G0 F6000 X96.781 Y126.763
G1 F1200 X96.149 Y126.13 E56.96667
G0 F6000 X96.149 Y125.565
G1 F1200 X96.78 Y126.195 E56.9993
G0 F6000 X96.778 Y125.628
G1 F1200 X96.149 Y124.999 E57.03184
G0 F6000 X96.149 Y124.433
G1 F1200 X96.775 Y125.059 E57.06423
G0 F6000 X96.773 Y124.491
G1 F1200 X96.149 Y123.868 E57.09649
G0 F6000 X96.149 Y123.302
G1 F1200 X96.771 Y123.923 E57.12865
G0 F6000 X96.768 Y123.355
G1 F1200 X96.149 Y122.736 E57.16067
G0 F6000 X96.149 Y122.171
G1 F1200 X96.768 Y122.789 E57.19268
G0 F6000 X96.768 Y122.224
G1 F1200 X96.149 Y121.605 E57.2247
G0 F6000 X96.149 Y121.039
G1 F1200 X96.768 Y121.658 E57.25673
G0 F6000 X96.768 Y121.092
G1 F1200 X96.149 Y120.474 E57.28873
G0 F6000 X96.149 Y119.908
G1 F1200 X96.768 Y120.527 E57.32076
G0 F6000 X96.768 Y119.961
G1 F1200 X96.149 Y119.342 E57.35279
G0 F6000 X96.149 Y118.776
G1 F1200 X96.768 Y119.395 E57.38482
G0 F6000 X96.768 Y118.83
G1 F1200 X96.149 Y118.211 E57.41684
G0 F6000 X96.149 Y117.645
G1 F1200 X96.768 Y118.264 E57.44887
G0 F6000 X96.768 Y117.698
G1 F1200 X96.149 Y117.079 E57.4809
G0 F6000 X96.149 Y116.514
G1 F1200 X96.768 Y117.133 E57.51292
G0 F6000 X96.768 Y116.567
G1 F1200 X96.149 Y115.948 E57.54495
G0 F6000 X96.149 Y115.382
G1 F1200 X96.768 Y116.002 E57.57701
G0 F6000 X96.768 Y115.436
G1 F1200 X96.149 Y114.817 E57.60903
G0 F6000 X96.149 Y114.251
G1 F1200 X96.768 Y114.87 E57.64106
G0 F6000 X96.768 Y114.305
G1 F1200 X96.149 Y113.685 E57.67311
G0 F6000 X96.149 Y113.12
G1 F1200 X96.768 Y113.739 E57.70514
G0 F6000 X96.768 Y113.173
G1 F1200 X96.149 Y112.554 E57.73717
G0 F6000 X96.149 Y111.988
G1 F1200 X96.768 Y112.608 E57.76922
G0 F6000 X96.768 Y112.042
G1 F1200 X96.149 Y111.423 E57.80125
G0 F6000 X96.149 Y110.857
G1 F1200 X96.77 Y111.478 E57.83338
G0 F6000 X96.772 Y110.914
G1 F1200 X96.149 Y110.291 E57.86562
G0 F6000 X96.149 Y109.726
G1 F1200 X96.774 Y110.351 E57.89795
G0 F6000 X96.776 Y109.787
G1 F1200 X96.149 Y109.16 E57.93039
G0 F6000 X96.149 Y108.594
G1 F1200 X96.778 Y109.223 E57.96294
G0 F6000 X96.78 Y108.659
G1 F1200 X96.149 Y108.028 E57.99559
G0 F6000 X96.149 Y107.463
G1 F1200 X96.78 Y108.093 E58.02821
G0 F6000 X96.778 Y107.526
M104 S270
G1 F1200 X96.401 Y107.149 E58.04772
G1 F2700 E53.04772
;MESH:NONMESH
G0 F300 X96.401 Y107.149 Z0.4
G0 F6000 X97.33 Y108.291
G0 X99.212 Y108.288
;TIME_ELAPSED:93.448517
;LAYER:1
;TYPE:SUPPORT
G1 F2700 E58.04772
G1 F1050 X99.612 Y109.004 E58.07772
G1 X100.051 Y109.261 E58.09633
G1 X106.245 Y109.25 E58.32295
G1 X108.659 Y109.256 E58.41127
G1 X128.845 Y109.256 E59.1498
G1 X131.239 Y109.251 E59.23738
G1 X138.943 Y109.263 E59.51924
G1 X138.986 Y109.266 E59.52082
G1 X139.196 Y109.297 E59.52859
G1 X139.356 Y109.399 E59.53553
G1 X139.377 Y109.418 E59.53656
G1 X139.523 Y109.6 E59.5451
G1 X139.537 Y109.624 E59.54612
G1 X139.557 Y109.948 E59.55799
G1 X139.609 Y110.506 E59.5785
G1 X139.609 Y110.598 E59.58186
G1 X139.419 Y110.949 E59.59647
G1 X139.418 Y124.041 E60.07545
G1 X139.608 Y124.393 E60.09009
G1 X139.608 Y124.477 E60.09316
G1 X139.521 Y125.399 E60.12704
G1 X139.371 Y125.586 E60.13581
G1 X139.184 Y125.705 E60.14392
G1 X139.173 Y125.709 E60.14435
G1 X138.983 Y125.737 E60.15138
G1 X131.255 Y125.75 E60.43412
G1 X128.841 Y125.744 E60.52243
G1 X108.655 Y125.744 E61.26096
G1 X106.261 Y125.749 E61.34855
G1 X99.751 Y125.739 E61.58673
G1 X99.315 Y126.015 E61.60561
G1 X99.213 Y126.234 E61.61444
G1 X99.212 Y108.288 E62.27102
G0 F7500 X99.432 Y109.009
G1 F1050 X99.372 Y109.025 E62.27329
G1 X99.373 Y125.74 E62.88483
G1 X99.414 Y125.762 E62.88653
G1 X99.704 Y125.579 E62.89908
G1 X100 Y125.579 E62.90991
G1 X100 Y109.417 E63.50121
G1 X99.494 Y109.12 E63.52268
G1 X99.432 Y109.009 E63.52733
G0 F7500 X100 Y109.417
G1 F1050 X100.008 Y109.421 E63.52766
G1 X102 Y109.417 E63.60054
G1 X102 Y125.582 E64.19195
G1 X104 Y125.585 E64.26512
G1 X104 Y109.413 E64.85679
G1 X106 Y109.41 E64.92997
G1 X106 Y125.588 E65.52186
G1 X106.261 Y125.589 E65.53141
G1 X108 Y125.586 E65.59503
G1 X108 Y109.415 E66.18666
G1 X108.659 Y109.416 E66.21077
G1 X110 Y109.416 E66.25984
G1 X110 Y125.584 E66.85136
G1 X112 Y125.584 E66.92453
G1 X112 Y109.416 E67.51606
G1 X114 Y109.416 E67.58923
G1 X114 Y125.584 E68.18076
G1 X116 Y125.584 E68.25393
G1 X116 Y109.416 E68.84545
G1 X118 Y109.416 E68.91863
G1 X118 Y125.584 E69.51015
G1 X120 Y125.584 E69.58332
G1 X120 Y109.416 E70.17485
G1 X122 Y109.416 E70.24802
G1 X122 Y125.584 E70.83954
G1 X124 Y125.584 E70.91272
G1 X124 Y109.416 E71.50424
G1 X126 Y109.416 E71.57741
G1 X126 Y125.584 E72.16894
G1 X128 Y125.584 E72.24211
G1 X128 Y109.416 E72.83364
G1 X128.845 Y109.416 E72.86455
G1 X130 Y109.413 E72.90681
G1 X130 Y125.586 E73.49852
G1 X131.255 Y125.59 E73.54443
G1 X132 Y125.589 E73.57169
G1 X132 Y109.413 E74.16351
G1 X134 Y109.416 E74.23668
G1 X134 Y125.586 E74.82828
G1 X136 Y125.583 E74.90145
G1 X136 Y109.419 E75.49283
G1 X138 Y109.422 E75.566
G1 X138 Y125.579 E76.15712
G1 X138.97 Y125.577 E76.19261
G1 X139.122 Y125.554 E76.19824
G1 X139.263 Y125.465 E76.20434
G1 X139.367 Y125.337 E76.21037
G1 X139.448 Y124.471 E76.24219
G1 X139.448 Y124.434 E76.24355
G1 X139.258 Y124.082 E76.25818
G1 X139.259 Y110.908 E76.74017
G1 X139.449 Y110.557 E76.75477
G1 X139.449 Y110.512 E76.75641
G1 X139.398 Y109.959 E76.77673
G1 X139.38 Y109.677 E76.78707
G1 X139.261 Y109.529 E76.79402
G1 X139.137 Y109.451 E76.79938
G1 X138.973 Y109.426 E76.80545
G1 X138.93 Y109.423 E76.80703
G1 X138 Y109.422 E76.84105
G1 F2700 E71.84105
;MESH:Sliding_Door_Gaurd_Skinny.stl
G0 F7500 X138.001 Y108.396
G0 X139 Y108.399
G0 X139.473 Y108.463
G0 X140.006 Y108.82
G0 X140.389 Y109.404
G0 X140.472 Y110.816
G0 X140.472 Y124.516
G0 X140.362 Y125.673
G0 X139.954 Y126.239
G0 X139.525 Y126.512
G0 X139.264 Y126.562
G0 X98.878 Y128.362
G0 X97.583 Y128.337
