;FLAVOR:Marlin
;TIME:9646
;Filament used: 6.58747m
;Layer height: 0.2
;MINX:73.05
;MINY:106.775
;MINZ:0.2
;MAXX:161.95
;MAXY:128.225
;MAXZ:42.6
;Generated with Cura_SteamEngine master
M82 ;absolute extrusion mode
; Ender 3 Custom Start G-code
M140 S80 ; Set Heat Bed temperature
M104 S160 ; start warming extruder to 160
G28 ; Home all axes
G29 ; Auto bed-level (BL-Touch)
G92 E0 ; Reset Extruder
M190 S80 ; Wait for Heat Bed temperature
M104 S270 ; Set Extruder temperature
G1 X0 Y0 Z0.3 F5000.0 ; Move to 0 0
M109 S270 ; Wait for Extruder temperature
G1 X1 Y20 Z0.3 F5000.0 ; Move to start position
; G1 Z2.0 F3000 ; Move Z Axis up little to prevent scratching of Heat Bed
G1 X1 Y200.0 Z0.3 F1500.0 E15 ; Draw the first line
G1 X1.3 Y200.0 Z0.3 F5000.0 ; Move to side a little
G1 X1.3 Y20 Z0.3 F1500.0 E30 ; Draw the second line
G92 E0 ; Reset Extruder
G1 Z2.0 F3000 ; Move Z Axis up little to prevent scratching of Heat Bed
G92 E0
G92 E0
G1 F2700 E-5
;LAYER_COUNT:213
;LAYER:0
M107
;MESH:Sliding Door Gaurd.stl
G0 F6000 X161.55 Y127.825 Z0.2
;TYPE:WALL-INNER
G1 F2700 E0
G1 F1200 X152.015 Y127.825 E0.34885
G1 X143.784 Y108.409 E1.1204
G1 X142.99 Y108.409 E1.14945
G1 X134.76 Y127.825 E1.92099
G1 X133.49 Y127.825 E1.96745
G1 X125.222 Y108.322 E2.74246
G1 X124.262 Y108.52 E2.77832
G1 X124.262 Y127.825 E3.48462
G1 X109.503 Y127.825 E4.0246
G1 X101.272 Y108.409 E4.79615
G1 X100.478 Y108.409 E4.8252
G1 X92.247 Y127.825 E5.59675
G1 X90.978 Y127.825 E5.64318
G1 X82.71 Y108.322 E6.41819
G1 X81.75 Y108.52 E6.45405
G1 X81.75 Y127.825 E7.16034
G1 X73.45 Y127.825 E7.46401
G1 X73.45 Y107.175 E8.21951
G1 X82.985 Y107.175 E8.56836
G1 X91.216 Y126.591 E9.33991
G1 X92.01 Y126.591 E9.36896
G1 X100.24 Y107.175 E10.1405
G1 X101.51 Y107.175 E10.18697
G1 X109.778 Y126.678 E10.96198
G1 X110.738 Y126.48 E10.99784
G1 X110.738 Y107.175 E11.70413
G1 X125.497 Y107.175 E12.24411
G1 X133.728 Y126.591 E13.01566
G1 X134.522 Y126.591 E13.04471
G1 X142.753 Y107.175 E13.81626
G1 X144.022 Y107.175 E13.86269
G1 X152.29 Y126.678 E14.6377
G1 X153.25 Y126.48 E14.67356
G1 X153.25 Y107.175 E15.37986
G1 X161.55 Y107.175 E15.68352
G1 X161.55 Y127.825 E16.43903
G0 F6000 X161.95 Y128.225
;TYPE:WALL-OUTER
G1 F1200 X151.75 Y128.225 E16.81221
G1 X143.519 Y108.809 E17.58376
G1 X143.255 Y108.809 E17.59342
G1 X135.025 Y128.225 E18.36495
G1 X133.225 Y128.225 E18.43081
G1 X124.982 Y108.78 E19.20351
G1 X124.662 Y108.846 E19.21546
G1 X124.662 Y128.225 E19.92447
G1 X109.238 Y128.225 E20.48877
G1 X101.007 Y108.809 E21.26032
G1 X100.743 Y108.809 E21.26998
G1 X92.512 Y128.225 E22.04153
G1 X90.713 Y128.225 E22.10735
G1 X82.47 Y108.78 E22.88005
G1 X82.15 Y108.846 E22.89201
G1 X82.15 Y128.225 E23.60101
G1 X73.05 Y128.225 E23.93394
G1 X73.05 Y106.775 E24.71872
G1 X83.25 Y106.775 E25.09189
G1 X91.481 Y126.191 E25.86345
G1 X91.745 Y126.191 E25.8731
G1 X99.975 Y106.775 E26.64464
G1 X101.775 Y106.775 E26.7105
G1 X110.018 Y126.22 E27.4832
G1 X110.338 Y126.154 E27.49515
G1 X110.338 Y106.775 E28.20415
G1 X125.762 Y106.775 E28.76846
G1 X133.993 Y126.191 E29.54001
G1 X134.257 Y126.191 E29.54967
G1 X142.488 Y106.775 E30.32122
G1 X144.287 Y106.775 E30.38704
G1 X152.53 Y126.22 E31.15974
G1 X152.85 Y126.154 E31.17169
G1 X152.85 Y106.775 E31.8807
G1 X161.95 Y106.775 E32.21363
G1 X161.95 Y128.225 E32.9984
G0 F6000 X161.48 Y127.755
G0 X161.16 Y127.435
;TYPE:SKIN
G1 F1200 X152.273 Y127.435 E33.32355
G1 X152.135 Y127.109 E33.3365
G1 X153.64 Y126.798 E33.39272
G1 X153.64 Y107.565 E34.09638
G1 X161.16 Y107.565 E34.37151
G1 X161.16 Y127.435 E35.09848
G0 F6000 X152.272 Y126.713
G0 X143.957 Y108.019
G1 F1200 X142.818 Y108.019 E35.14015
G1 X143.011 Y107.565 E35.1582
G1 X143.764 Y107.565 E35.18575
G1 X143.957 Y108.019 E35.2038
G0 F6000 X142.968 Y108.376
G0 X134.695 Y126.981
G1 F1200 X134.502 Y127.435 E35.22185
G1 X133.748 Y127.435 E35.24943
G1 X133.555 Y126.981 E35.26748
G1 X134.695 Y126.981 E35.30919
G1 F2700 E30.30919
G0 F6000 X133.199 Y127.043
G0 X125.24 Y108.287
G0 X124.231 Y108.495
G0 X123.872 Y127.435
G1 F2700 E35.30919
G1 F1200 X109.761 Y127.435 E35.82546
G1 X109.623 Y127.109 E35.83841
G1 X111.128 Y126.798 E35.89463
G1 X111.128 Y107.565 E36.59829
G1 X125.239 Y107.565 E37.11456
G1 X125.377 Y107.891 E37.12751
G1 X123.872 Y108.202 E37.18374
G1 X123.872 Y127.435 E37.8874
G1 F2700 E32.8874
G0 F6000 X109.76 Y126.713
G0 X101.445 Y108.019
G1 F2700 E37.8874
G1 F1200 X100.305 Y108.019 E37.92911
G1 X100.498 Y107.565 E37.94716
G1 X101.252 Y107.565 E37.97474
G1 X101.445 Y108.019 E37.99279
G0 F6000 X100.456 Y108.376
G0 X92.182 Y126.981
G1 F1200 X91.989 Y127.435 E38.01084
G1 X91.236 Y127.435 E38.03839
G1 X91.043 Y126.981 E38.05644
G1 X92.182 Y126.981 E38.09811
G1 F2700 E33.09811
G0 F6000 X90.687 Y127.043
G0 X82.728 Y108.287
G0 X81.719 Y108.495
G0 X81.36 Y127.435
G1 F2700 E38.09811
G1 F1200 X73.84 Y127.435 E38.37324
G1 X73.84 Y107.565 E39.1002
G1 X82.727 Y107.565 E39.42535
G1 X82.865 Y107.891 E39.4383
G1 X81.36 Y108.202 E39.49452
G1 X81.36 Y127.435 E40.19818
G0 F6000 X74.099 Y127.274
G1 F1200 X73.999 Y127.173 E40.20338
G0 F6000 X73.999 Y126.608
G1 F1200 X74.665 Y127.274 E40.23784
G0 F6000 X75.231 Y127.274
G1 F1200 X73.999 Y126.042 E40.30159
G0 F6000 X73.999 Y125.476
G1 F1200 X75.796 Y127.274 E40.39459
G0 F6000 X76.362 Y127.274
G1 F1200 X73.999 Y124.911 E40.51685
G0 F6000 X73.999 Y124.345
G1 F1200 X76.928 Y127.274 E40.6684
G0 F6000 X77.493 Y127.274
G1 F1200 X73.999 Y123.779 E40.84921
G0 F6000 X73.999 Y123.214
G1 F1200 X78.059 Y127.274 E41.05928
G0 F6000 X78.625 Y127.274
G1 F1200 X73.999 Y122.648 E41.29863
G0 F6000 X73.999 Y122.082
G1 F1200 X79.191 Y127.274 E41.56727
G0 F6000 X79.756 Y127.274
G1 F1200 X73.999 Y121.517 E41.86514
G0 F6000 X73.999 Y120.951
G1 F1200 X80.322 Y127.274 E42.19229
G0 F6000 X80.888 Y127.274
G1 F1200 X73.999 Y120.385 E42.54873
G0 F6000 X73.999 Y119.819
G1 F1200 X81.2 Y127.021 E42.92134
G0 F6000 X81.2 Y126.455
G1 F1200 X73.999 Y119.254 E43.29393
G0 F6000 X73.999 Y118.688
G1 F1200 X81.2 Y125.889 E43.66651
G0 F6000 X81.2 Y125.324
G1 F1200 X73.999 Y118.122 E44.03912
G0 F6000 X73.999 Y117.557
G1 F1200 X81.2 Y124.758 E44.41171
G0 F6000 X81.2 Y124.192
G1 F1200 X73.999 Y116.991 E44.78429
G0 F6000 X73.999 Y116.425
G1 F1200 X81.2 Y123.627 E45.1569
G0 F6000 X81.2 Y123.061
G1 F1200 X73.999 Y115.86 E45.52949
G0 F6000 X73.999 Y115.294
G1 F1200 X81.2 Y122.495 E45.90207
G0 F6000 X81.2 Y121.929
G1 F1200 X73.999 Y114.728 E46.27466
G0 F6000 X73.999 Y114.163
G1 F1200 X81.2 Y121.364 E46.64724
G0 F6000 X81.2 Y120.798
G1 F1200 X73.999 Y113.597 E47.01982
G0 F6000 X73.999 Y113.031
G1 F1200 X81.2 Y120.232 E47.39241
G0 F6000 X81.2 Y119.667
G1 F1200 X73.999 Y112.466 E47.76499
G0 F6000 X73.999 Y111.9
G1 F1200 X81.2 Y119.101 E48.13758
G0 F6000 X81.2 Y118.535
G1 F1200 X73.999 Y111.334 E48.51016
G0 F6000 X73.999 Y110.768
G1 F1200 X81.2 Y117.97 E48.88277
G0 F6000 X81.2 Y117.404
G1 F1200 X73.999 Y110.203 E49.25535
G0 F6000 X73.999 Y109.637
G1 F1200 X81.2 Y116.838 E49.62794
G0 F6000 X81.2 Y116.273
G1 F1200 X73.999 Y109.071 E50.00055
G0 F6000 X73.999 Y108.506
G1 F1200 X81.2 Y115.707 E50.37313
G0 F6000 X81.2 Y115.141
G1 F1200 X73.999 Y107.94 E50.74572
G0 F6000 X74.348 Y107.724
G1 F1200 X81.2 Y114.576 E51.10024
G0 F6000 X81.2 Y114.01
G1 F1200 X74.914 Y107.724 E51.42549
G0 F6000 X75.48 Y107.724
G1 F1200 X81.2 Y113.444 E51.72144
G0 F6000 X81.2 Y112.878
G1 F1200 X76.045 Y107.724 E51.98814
G0 F6000 X76.611 Y107.724
G1 F1200 X81.2 Y112.313 E52.22558
G0 F6000 X81.2 Y111.747
G1 F1200 X77.177 Y107.724 E52.43373
G0 F6000 X77.742 Y107.724
G1 F1200 X81.2 Y111.181 E52.61262
G0 F6000 X81.2 Y110.616
G1 F1200 X78.308 Y107.724 E52.76226
G0 F6000 X78.874 Y107.724
G1 F1200 X81.2 Y110.05 E52.88261
G0 F6000 X81.2 Y109.484
G1 F1200 X79.439 Y107.724 E52.9737
G0 F6000 X80.005 Y107.724
G1 F1200 X81.2 Y108.919 E53.03553
G0 F6000 X81.2 Y108.353
G1 F1200 X80.571 Y107.724 E53.06807
G0 F6000 X81.136 Y107.724
G1 F1200 X81.433 Y108.021 E53.08344
G0 F6000 X81.702 Y107.724
G1 F1200 X81.903 Y107.925 E53.09384
G0 F6000 X82.268 Y107.724
G1 F1200 X82.372 Y107.828 E53.09922
G1 F2700 E48.09922
G0 F6000 X84.016 Y109.703
G0 X91.194 Y126.624
G0 X92.032 Y126.624
G0 X98.521 Y111.319
G0 X100.936 Y107.724
G1 F2700 E53.09922
G1 F1200 X101.069 Y107.857 E53.1061
G1 F2700 E48.1061
G0 F6000 X109.76 Y126.713
G0 X110.769 Y126.505
G0 X111.287 Y107.893
G1 F2700 E53.1061
G1 F1200 X123.711 Y120.317 E53.74893
G0 F6000 X123.711 Y119.752
G1 F1200 X111.684 Y107.724 E54.37124
G0 F6000 X112.25 Y107.724
G1 F1200 X123.711 Y119.186 E54.96426
G0 F6000 X123.711 Y118.62
G1 F1200 X112.816 Y107.724 E55.528
G0 F6000 X113.381 Y107.724
G1 F1200 X123.711 Y118.055 E56.06251
G0 F6000 X123.711 Y117.489
G1 F1200 X113.947 Y107.724 E56.56773
G0 F6000 X114.513 Y107.724
G1 F1200 X123.711 Y116.923 E57.04366
G0 F6000 X123.711 Y116.357
G1 F1200 X115.078 Y107.724 E57.49034
G0 F6000 X115.644 Y107.724
G1 F1200 X123.711 Y115.792 E57.90776
G0 F6000 X123.711 Y115.226
G1 F1200 X116.21 Y107.724 E58.29589
G0 F6000 X116.775 Y107.724
G1 F1200 X123.711 Y114.66 E58.65476
G0 F6000 X123.711 Y114.095
G1 F1200 X117.341 Y107.724 E58.98438
G0 F6000 X117.907 Y107.724
G1 F1200 X123.711 Y113.529 E59.28471
G0 F6000 X123.711 Y112.963
G1 F1200 X118.472 Y107.724 E59.55578
G0 F6000 X119.038 Y107.724
G1 F1200 X123.711 Y112.398 E59.79759
G0 F6000 X123.711 Y111.832
G1 F1200 X119.604 Y107.724 E60.01011
G0 F6000 X120.169 Y107.724
G1 F1200 X123.711 Y111.266 E60.19338
G0 F6000 X123.711 Y110.701
G1 F1200 X120.735 Y107.724 E60.34738
G0 F6000 X121.301 Y107.724
G1 F1200 X123.711 Y110.135 E60.4721
G0 F6000 X123.711 Y109.569
G1 F1200 X121.867 Y107.724 E60.56754
G0 F6000 X122.432 Y107.724
G1 F1200 X123.711 Y109.004 E60.63374
G0 F6000 X123.711 Y108.438
G1 F1200 X122.998 Y107.724 E60.67066
G0 F6000 X123.564 Y107.724
G1 F1200 X123.875 Y108.036 E60.68677
G0 F6000 X124.129 Y107.724
G1 F1200 X124.344 Y107.939 E60.6979
G0 F6000 X124.695 Y107.724
G1 F1200 X124.814 Y107.843 E60.70406
G0 F6000 X124.231 Y108.495
G0 X123.711 Y120.883
G1 F1200 X111.287 Y108.458 E61.34691
G0 F6000 X111.287 Y109.024
G1 F1200 X123.711 Y121.449 E61.98976
G0 F6000 X123.711 Y122.014
G1 F1200 X111.287 Y109.59 E62.63258
G0 F6000 X111.287 Y110.155
G1 F1200 X123.711 Y122.58 E63.27544
G0 F6000 X123.711 Y123.146
G1 F1200 X111.287 Y110.721 E63.91829
G0 F6000 X111.287 Y111.287
G1 F1200 X123.711 Y123.711 E64.56111
G0 F6000 X123.711 Y124.277
G1 F1200 X111.287 Y111.852 E65.20396
G0 F6000 X111.287 Y112.418
G1 F1200 X123.711 Y124.843 E65.84682
G0 F6000 X123.711 Y125.408
G1 F1200 X111.287 Y112.984 E66.48964
G0 F6000 X111.287 Y113.55
G1 F1200 X123.711 Y125.974 E67.13247
G0 F6000 X123.711 Y126.54
G1 F1200 X111.287 Y114.115 E67.77532
G0 F6000 X111.287 Y114.681
G1 F1200 X123.711 Y127.105 E68.41814
G0 F6000 X123.314 Y127.274
G1 F1200 X111.287 Y115.247 E69.04043
G0 F6000 X111.287 Y115.812
G1 F1200 X122.748 Y127.274 E69.63345
G0 F6000 X122.183 Y127.274
G1 F1200 X111.287 Y116.378 E70.19722
G0 F6000 X111.287 Y116.944
G1 F1200 X121.617 Y127.274 E70.7317
G0 F6000 X121.051 Y127.274
G1 F1200 X111.287 Y117.509 E71.23692
G0 F6000 X111.287 Y118.075
G1 F1200 X120.486 Y127.274 E71.71288
G0 F6000 X119.92 Y127.274
G1 F1200 X111.287 Y118.641 E72.15956
G0 F6000 X111.287 Y119.206
G1 F1200 X119.354 Y127.274 E72.57698
G0 F6000 X118.788 Y127.274
G1 F1200 X111.287 Y119.772 E72.96511
G0 F6000 X111.287 Y120.338
G1 F1200 X118.223 Y127.274 E73.32398
G0 F6000 X117.657 Y127.274
G1 F1200 X111.287 Y120.903 E73.6536
G0 F6000 X111.287 Y121.469
G1 F1200 X117.091 Y127.274 E73.95392
G0 F6000 X116.526 Y127.274
G1 F1200 X111.287 Y122.035 E74.22499
G0 F6000 X111.287 Y122.601
G1 F1200 X115.96 Y127.274 E74.46678
G0 F6000 X115.394 Y127.274
G1 F1200 X111.287 Y123.166 E74.6793
G0 F6000 X111.287 Y123.732
G1 F1200 X114.829 Y127.274 E74.86257
G0 F6000 X114.263 Y127.274
G1 F1200 X111.287 Y124.298 E75.01655
G0 F6000 X111.287 Y124.863
G1 F1200 X113.697 Y127.274 E75.14127
G0 F6000 X113.132 Y127.274
G1 F1200 X111.287 Y125.429 E75.23673
G0 F6000 X111.287 Y125.995
G1 F1200 X112.566 Y127.274 E75.30291
G0 F6000 X112 Y127.274
G1 F1200 X111.287 Y126.56 E75.33982
G0 F6000 X111.123 Y126.962
G1 F1200 X111.435 Y127.274 E75.35597
G0 F6000 X110.869 Y127.274
G1 F1200 X110.654 Y127.059 E75.36709
G0 F6000 X110.303 Y127.274
G1 F1200 X110.184 Y127.155 E75.37325
G1 F2700 E70.37325
G0 F6000 X108.465 Y125.281
G0 X101.294 Y108.376
G0 X100.456 Y108.376
G0 X93.967 Y123.677
G0 X91.636 Y127.274
G1 F2700 E75.37325
G1 F1200 X91.502 Y127.14 E75.38018
G1 F2700 E70.38018
G0 F6000 X93.294 Y125.262
G0 X100.456 Y108.376
G0 X101.294 Y108.376
G0 X109.253 Y127.139
G0 X124.221 Y127.139
G0 X124.231 Y108.495
G0 X125.24 Y108.287
G0 X133.929 Y127.141
G1 F2700 E75.38018
G1 F1200 X134.063 Y127.274 E75.38709
G1 F2700 E70.38709
G0 F6000 X135.757 Y125.378
G0 X142.968 Y108.376
G0 X143.806 Y108.376
G0 X150.981 Y125.294
G0 X152.626 Y127.171
G1 F2700 E75.38709
G1 F1200 X152.73 Y127.274 E75.39244
G0 F6000 X153.095 Y127.074
G1 F1200 X153.296 Y127.274 E75.40282
G0 F6000 X153.565 Y126.977
G1 F1200 X153.862 Y127.274 E75.41818
G0 F6000 X154.427 Y127.274
G1 F1200 X153.799 Y126.646 E75.45068
G0 F6000 X153.799 Y126.08
G1 F1200 X154.993 Y127.274 E75.51246
G0 F6000 X155.559 Y127.274
G1 F1200 X153.799 Y125.514 E75.60352
G0 F6000 X153.799 Y124.949
G1 F1200 X156.124 Y127.274 E75.72382
G0 F6000 X156.69 Y127.274
G1 F1200 X153.799 Y124.383 E75.8734
G0 F6000 X153.799 Y123.817
G1 F1200 X157.256 Y127.274 E76.05227
G0 F6000 X157.821 Y127.274
G1 F1200 X153.799 Y123.252 E76.26037
G0 F6000 X153.799 Y122.686
G1 F1200 X158.387 Y127.274 E76.49775
G0 F6000 X158.953 Y127.274
G1 F1200 X153.799 Y122.12 E76.76442
G0 F6000 X153.799 Y121.555
G1 F1200 X159.519 Y127.274 E77.06035
G0 F6000 X160.084 Y127.274
G1 F1200 X153.799 Y120.989 E77.38554
G0 F6000 X153.799 Y120.423
G1 F1200 X160.65 Y127.274 E77.74002
G0 F6000 X160.999 Y127.058
G1 F1200 X153.799 Y119.858 E78.11255
G0 F6000 X153.799 Y119.292
G1 F1200 X160.999 Y126.492 E78.48508
G0 F6000 X160.999 Y125.927
G1 F1200 X153.799 Y118.726 E78.85764
G0 F6000 X153.799 Y118.161
G1 F1200 X160.999 Y125.361 E79.23018
G0 F6000 X160.999 Y124.795
G1 F1200 X153.799 Y117.595 E79.60271
G0 F6000 X153.799 Y117.029
G1 F1200 X160.999 Y124.23 E79.97527
G0 F6000 X160.999 Y123.664
G1 F1200 X153.799 Y116.464 E80.3478
G0 F6000 X153.799 Y115.898
G1 F1200 X160.999 Y123.098 E80.72033
G0 F6000 X160.999 Y122.533
G1 F1200 X153.799 Y115.332 E81.09289
G0 F6000 X153.799 Y114.766
G1 F1200 X160.999 Y121.967 E81.46545
G0 F6000 X160.999 Y121.401
G1 F1200 X153.799 Y114.201 E81.83798
G0 F6000 X153.799 Y113.635
G1 F1200 X160.999 Y120.836 E82.21054
G0 F6000 X160.999 Y120.27
G1 F1200 X153.799 Y113.069 E82.5831
G0 F6000 X153.799 Y112.504
G1 F1200 X160.999 Y119.704 E82.95563
G0 F6000 X160.999 Y119.139
G1 F1200 X153.799 Y111.938 E83.32819
G0 F6000 X153.799 Y111.372
G1 F1200 X160.999 Y118.573 E83.70075
G0 F6000 X160.999 Y118.007
G1 F1200 X153.799 Y110.807 E84.07328
G0 F6000 X153.799 Y110.241
G1 F1200 X160.999 Y117.441 E84.44581
G0 F6000 X160.999 Y116.876
G1 F1200 X153.799 Y109.675 E84.81837
G0 F6000 X153.799 Y109.11
G1 F1200 X160.999 Y116.31 E85.1909
G0 F6000 X160.999 Y115.744
G1 F1200 X153.799 Y108.544 E85.56344
G0 F6000 X153.799 Y107.978
G1 F1200 X160.999 Y115.179 E85.93599
G0 F6000 X160.999 Y114.613
G1 F1200 X154.111 Y107.725 E86.29238
G0 F6000 X154.677 Y107.725
G1 F1200 X160.999 Y114.047 E86.61949
G0 F6000 X160.999 Y113.482
G1 F1200 X155.243 Y107.725 E86.91733
G0 F6000 X155.808 Y107.725
G1 F1200 X160.999 Y112.916 E87.18592
G0 F6000 X160.999 Y112.35
G1 F1200 X156.374 Y107.725 E87.42522
G0 F6000 X156.94 Y107.725
G1 F1200 X160.999 Y111.785 E87.63526
G0 F6000 X160.999 Y111.219
G1 F1200 X157.505 Y107.725 E87.81604
G0 F6000 X158.071 Y107.725
G1 F1200 X160.999 Y110.653 E87.96754
G0 F6000 X160.999 Y110.088
G1 F1200 X158.637 Y107.725 E88.08977
G0 F6000 X159.202 Y107.725
G1 F1200 X160.999 Y109.522 E88.18275
G0 F6000 X160.999 Y108.956
G1 F1200 X159.768 Y107.725 E88.24645
G0 F6000 X160.334 Y107.725
G1 F1200 X160.999 Y108.39 E88.28085
G0 F6000 X160.999 Y107.825
G1 F1200 X160.9 Y107.725 E88.286
G1 F2700 E83.286
G0 F6000 X153.281 Y126.505
G0 X152.272 Y126.713
G0 X145.789 Y111.436
G0 X143.496 Y107.858
G1 F2700 E88.286
