;FLAVOR:Marlin
;TIME:6112
;Filament used: 3.68808m
;Layer height: 0.2
;MINX:70.7
;MINY:106.2
;MINZ:0.2
;MAXX:164.3
;MAXY:128.8
;MAXZ:45
;Generated with Cura_SteamEngine master
M82 ;absolute extrusion mode
; Ender 3 Custom Start G-code
M140 S60 ; Set Heat Bed temperature
M190 S60 ; Wait for Heat Bed temperature
M104 S160; start warming extruder to 160
G28 ; Home all axes
G29 ; Auto bed-level (BL-Touch)
G92 E0 ; Reset Extruder
M104 S220 ; Set Extruder temperature
G1 X0 Y0 Z0.3 F5000.0 ; Move to 0 0
M109 S220 ; Wait for Extruder temperature
G1 X0.1 Y20 Z0.3 F5000.0 ; Move to start position
; G1 Z2.0 F3000 ; Move Z Axis up little to prevent scratching of Heat Bed
G1 X0.1 Y200.0 Z0.3 F1500.0 E15 ; Draw the first line
G1 X0.4 Y200.0 Z0.3 F5000.0 ; Move to side a little
G1 X0.4 Y20 Z0.3 F1500.0 E30 ; Draw the second line
G92 E0 ; Reset Extruder
G1 Z2.0 F3000 ; Move Z Axis up little to prevent scratching of Heat Bed
G92 E0
G92 E0
G1 F2700 E-5
;LAYER_COUNT:225
;LAYER:0
M107
;MESH:Sliding Door Gaurd.stl
G0 F6000 X163.9 Y128.4 Z0.2
;TYPE:WALL-INNER
G1 F2700 E0
G1 F1200 X153.811 Y128.4 E0.33556
G1 X145.147 Y107.962 E1.07389
G1 X144.353 Y107.962 E1.1003
G1 X135.689 Y128.4 E1.83863
G1 X134.311 Y128.4 E1.88446
G1 X125.61 Y107.875 E2.62593
G1 X124.65 Y108.073 E2.65853
G1 X124.65 Y128.4 E3.33461
G1 X109.061 Y128.4 E3.8531
G1 X100.397 Y107.962 E4.59143
G1 X99.603 Y107.962 E4.61784
G1 X90.939 Y128.4 E5.35617
G1 X89.561 Y128.4 E5.402
G1 X80.86 Y107.875 E6.14347
G1 X79.9 Y108.073 E6.17607
G1 X79.9 Y128.4 E6.85215
G1 X71.1 Y128.4 E7.14484
G1 X71.1 Y106.6 E7.86991
G1 X81.189 Y106.6 E8.20547
G1 X89.853 Y127.038 E8.9438
G1 X90.647 Y127.038 E8.97021
G1 X99.311 Y106.6 E9.70854
G1 X100.689 Y106.6 E9.75437
G1 X109.39 Y127.125 E10.49584
G1 X110.35 Y126.927 E10.52844
G1 X110.35 Y106.6 E11.20452
G1 X125.939 Y106.6 E11.72301
G1 X134.603 Y127.038 E12.46134
G1 X135.397 Y127.038 E12.48775
G1 X144.061 Y106.6 E13.22608
G1 X145.439 Y106.6 E13.27191
G1 X154.14 Y127.125 E14.01338
G1 X155.1 Y126.927 E14.04598
G1 X155.1 Y106.6 E14.72206
G1 X163.9 Y106.6 E15.01475
G1 X163.9 Y128.4 E15.73982
G0 F6000 X164.3 Y128.8
;TYPE:WALL-OUTER
G1 F1200 X153.546 Y128.8 E16.0975
G1 X144.882 Y108.362 E16.83583
G1 X144.618 Y108.362 E16.84461
G1 X135.954 Y128.8 E17.58294
G1 X134.046 Y128.8 E17.6464
G1 X125.37 Y108.333 E18.38577
G1 X125.05 Y108.399 E18.39664
G1 X125.05 Y128.8 E19.07518
G1 X108.796 Y128.8 E19.61579
G1 X100.132 Y108.362 E20.35412
G1 X99.868 Y108.362 E20.3629
G1 X91.204 Y128.8 E21.10122
G1 X89.296 Y128.8 E21.16468
G1 X80.62 Y108.333 E21.90406
G1 X80.3 Y108.399 E21.91492
G1 X80.3 Y128.8 E22.59346
G1 X70.7 Y128.8 E22.91276
G1 X70.7 Y106.2 E23.66444
G1 X81.454 Y106.2 E24.02212
G1 X90.118 Y126.638 E24.76045
G1 X90.382 Y126.638 E24.76923
G1 X99.046 Y106.2 E25.50755
G1 X100.954 Y106.2 E25.57101
G1 X109.63 Y126.667 E26.31039
G1 X109.95 Y126.601 E26.32125
G1 X109.95 Y106.2 E26.99979
G1 X126.204 Y106.2 E27.5404
G1 X134.868 Y126.638 E28.27873
G1 X135.132 Y126.638 E28.28751
G1 X143.796 Y106.2 E29.02584
G1 X145.704 Y106.2 E29.0893
G1 X154.38 Y126.667 E29.82867
G1 X154.7 Y126.601 E29.83954
G1 X154.7 Y106.2 E30.51808
G1 X164.3 Y106.2 E30.83738
G1 X164.3 Y128.8 E31.58905
G0 F6000 X163.83 Y128.33
G0 X163.51 Y128.01
;TYPE:SKIN
G1 F1200 X154.069 Y128.01 E31.90306
G1 X145.405 Y107.572 E32.64139
G1 X144.095 Y107.572 E32.68496
G1 X135.431 Y128.01 E33.42329
G1 X134.569 Y128.01 E33.45196
G1 X125.844 Y107.428 E34.19549
G1 X124.26 Y107.755 E34.24928
G1 X124.26 Y128.01 E34.92297
G1 X109.319 Y128.01 E35.41991
G1 X100.655 Y107.572 E36.15824
G1 X99.345 Y107.572 E36.20181
G1 X90.681 Y128.01 E36.94013
G1 X89.819 Y128.01 E36.9688
G1 X81.094 Y107.428 E37.71233
G1 X79.51 Y107.755 E37.76613
G1 X79.51 Y128.01 E38.43981
G1 X71.49 Y128.01 E38.70656
G1 X71.49 Y106.99 E39.40569
G1 X80.931 Y106.99 E39.7197
G1 X89.595 Y127.428 E40.45802
G1 X90.905 Y127.428 E40.50159
G1 X99.569 Y106.99 E41.23992
G1 X100.431 Y106.99 E41.26859
G1 X109.156 Y127.572 E42.01212
G1 X110.74 Y127.245 E42.06592
G1 X110.74 Y106.99 E42.7396
G1 X125.681 Y106.99 E43.23654
G1 X134.345 Y127.428 E43.97487
G1 X135.655 Y127.428 E44.01844
G1 X144.319 Y106.99 E44.75677
G1 X145.181 Y106.99 E44.78544
G1 X153.906 Y127.572 E45.52896
G1 X155.49 Y127.245 E45.58276
G1 X155.49 Y106.99 E46.25644
G1 X163.51 Y106.99 E46.52319
G1 X163.51 Y128.01 E47.22232
G0 F6000 X163.349 Y107.346
G1 F1200 X163.152 Y107.15 E47.23156
G0 F6000 X162.587 Y107.15
G1 F1200 X163.349 Y107.912 E47.2674
G0 F6000 X163.349 Y108.477
G1 F1200 X162.021 Y107.15 E47.32984
G0 F6000 X161.455 Y107.15
G1 F1200 X163.349 Y109.043 E47.41891
G0 F6000 X163.349 Y109.609
G1 F1200 X160.89 Y107.15 E47.53457
G0 F6000 X160.324 Y107.15
G1 F1200 X163.349 Y110.175 E47.67686
G0 F6000 X163.349 Y110.74
G1 F1200 X159.758 Y107.15 E47.84575
G0 F6000 X159.193 Y107.15
G1 F1200 X163.349 Y111.306 E48.04123
G0 F6000 X163.349 Y111.872
G1 F1200 X158.627 Y107.15 E48.26334
G0 F6000 X158.061 Y107.15
G1 F1200 X163.349 Y112.437 E48.51205
G0 F6000 X163.349 Y113.003
G1 F1200 X157.496 Y107.15 E48.78735
G0 F6000 X156.93 Y107.15
G1 F1200 X163.349 Y113.569 E49.08928
G0 F6000 X163.349 Y114.134
G1 F1200 X156.364 Y107.15 E49.41781
G0 F6000 X155.798 Y107.15
G1 F1200 X163.349 Y114.7 E49.77297
G0 F6000 X163.349 Y115.266
G1 F1200 X155.649 Y107.565 E50.13517
G0 F6000 X155.649 Y108.131
G1 F1200 X163.349 Y115.831 E50.49736
G0 F6000 X163.349 Y116.397
G1 F1200 X155.649 Y108.697 E50.85954
G0 F6000 X155.649 Y109.262
G1 F1200 X163.349 Y116.963 E51.22175
G0 F6000 X163.349 Y117.528
G1 F1200 X155.649 Y109.828 E51.58394
G0 F6000 X155.649 Y110.394
G1 F1200 X163.349 Y118.094 E51.94612
G0 F6000 X163.349 Y118.66
G1 F1200 X155.649 Y110.959 E52.30833
G0 F6000 X155.649 Y111.525
G1 F1200 X163.349 Y119.225 E52.67051
G0 F6000 X163.349 Y119.791
G1 F1200 X155.649 Y112.091 E53.0327
G0 F6000 X155.649 Y112.656
G1 F1200 X163.349 Y120.357 E53.3949
G0 F6000 X163.349 Y120.923
G1 F1200 X155.649 Y113.222 E53.75711
G0 F6000 X155.649 Y113.788
G1 F1200 X163.349 Y121.488 E54.1193
G0 F6000 X163.349 Y122.054
G1 F1200 X155.649 Y114.354 E54.48148
G0 F6000 X155.649 Y114.919
G1 F1200 X163.349 Y122.62 E54.84369
G0 F6000 X163.349 Y123.185
G1 F1200 X155.649 Y115.485 E55.20587
G0 F6000 X155.649 Y116.051
G1 F1200 X163.349 Y123.751 E55.56806
G0 F6000 X163.349 Y124.317
G1 F1200 X155.649 Y116.616 E55.93027
G0 F6000 X155.649 Y117.182
G1 F1200 X163.349 Y124.882 E56.29245
G0 F6000 X163.349 Y125.448
G1 F1200 X155.649 Y117.748 E56.65463
G0 F6000 X155.649 Y118.313
G1 F1200 X163.349 Y126.014 E57.01684
G0 F6000 X163.349 Y126.579
G1 F1200 X155.649 Y118.879 E57.37903
G0 F6000 X155.649 Y119.445
G1 F1200 X163.349 Y127.145 E57.74121
G0 F6000 X163.349 Y127.711
G1 F1200 X155.649 Y120.01 E58.10342
G0 F6000 X155.649 Y120.576
G1 F1200 X162.922 Y127.849 E58.44552
G0 F6000 X162.356 Y127.849
G1 F1200 X155.649 Y121.142 E58.761
G0 F6000 X155.649 Y121.707
G1 F1200 X161.79 Y127.849 E59.04987
G0 F6000 X161.225 Y127.849
G1 F1200 X155.649 Y122.273 E59.31215
G0 F6000 X155.649 Y122.839
G1 F1200 X160.659 Y127.849 E59.54781
G0 F6000 X160.093 Y127.849
G1 F1200 X155.649 Y123.404 E59.75686
G0 F6000 X155.649 Y123.97
G1 F1200 X159.528 Y127.849 E59.93932
G0 F6000 X158.962 Y127.849
G1 F1200 X155.649 Y124.536 E60.09515
G0 F6000 X155.649 Y125.102
G1 F1200 X158.396 Y127.849 E60.22436
G0 F6000 X157.831 Y127.849
G1 F1200 X155.649 Y125.667 E60.327
G0 F6000 X155.649 Y126.233
G1 F1200 X157.265 Y127.849 E60.40301
G0 F6000 X156.699 Y127.849
G1 F1200 X155.649 Y126.799 E60.4524
G0 F6000 X155.649 Y127.364
G1 F1200 X156.134 Y127.849 E60.47521
G0 F6000 X155.568 Y127.849
G1 F1200 X155.19 Y127.471 E60.49299
G0 F6000 X155.002 Y127.849
G1 F1200 X154.721 Y127.568 E60.50621
G0 F6000 X154.437 Y127.849
G1 F1200 X154.251 Y127.664 E60.51493
G1 F2700 E55.51493
G0 F6000 X145.169 Y107.929
G0 X144.331 Y107.929
G0 X135.203 Y127.849
G1 F2700 E60.51493
G1 F1200 X134.942 Y127.588 E60.52721
G1 F2700 E55.52721
G0 F6000 X132.411 Y123.828
G0 X125.628 Y107.84
G0 X124.619 Y108.048
G0 X124.1 Y127.494
G1 F2700 E60.52721
G1 F1200 X110.899 Y114.293 E61.14814
G0 F6000 X110.899 Y114.858
G1 F1200 X123.889 Y127.849 E61.75918
G0 F6000 X123.323 Y127.849
G1 F1200 X110.899 Y115.424 E62.34359
G0 F6000 X110.899 Y115.99
G1 F1200 X122.757 Y127.849 E62.90137
G0 F6000 X122.192 Y127.849
G1 F1200 X110.899 Y116.555 E63.43259
G0 F6000 X110.899 Y117.121
G1 F1200 X121.626 Y127.849 E63.93717
G0 F6000 X121.06 Y127.849
G1 F1200 X110.899 Y117.687 E64.41514
G0 F6000 X110.899 Y118.253
G1 F1200 X120.495 Y127.849 E64.86651
G0 F6000 X119.929 Y127.849
G1 F1200 X110.899 Y118.818 E65.29127
G0 F6000 X110.899 Y119.384
G1 F1200 X119.363 Y127.849 E65.68942
G0 F6000 X118.798 Y127.849
G1 F1200 X110.899 Y119.95 E66.06096
G0 F6000 X110.899 Y120.515
G1 F1200 X118.232 Y127.849 E66.40591
G0 F6000 X117.666 Y127.849
G1 F1200 X110.899 Y121.081 E66.72423
G0 F6000 X110.899 Y121.647
G1 F1200 X117.101 Y127.849 E67.01595
G0 F6000 X116.535 Y127.849
G1 F1200 X110.899 Y122.212 E67.28108
G0 F6000 X110.899 Y122.778
G1 F1200 X115.969 Y127.849 E67.51958
G0 F6000 X115.404 Y127.849
G1 F1200 X110.899 Y123.344 E67.73148
G0 F6000 X110.899 Y123.909
G1 F1200 X114.838 Y127.849 E67.91678
G0 F6000 X114.272 Y127.849
G1 F1200 X110.899 Y124.475 E68.07546
G0 F6000 X110.899 Y125.041
G1 F1200 X113.707 Y127.849 E68.20754
G0 F6000 X113.141 Y127.849
G1 F1200 X110.899 Y125.606 E68.31302
G0 F6000 X110.899 Y126.172
G1 F1200 X112.575 Y127.849 E68.39188
G0 F6000 X112.009 Y127.849
G1 F1200 X110.899 Y126.738 E68.44411
G0 F6000 X110.899 Y127.303
G1 F1200 X111.444 Y127.849 E68.46977
G0 F6000 X110.878 Y127.849
G1 F1200 X110.489 Y127.46 E68.48807
G0 F6000 X110.312 Y127.849
G1 F1200 X110.02 Y127.557 E68.5018
G0 F6000 X109.747 Y127.849
G1 F1200 X109.552 Y127.653 E68.511
G0 F6000 X110.381 Y126.952
G0 X110.899 Y113.727
G1 F1200 X124.1 Y126.928 E69.13193
G0 F6000 X124.1 Y126.362
G1 F1200 X110.899 Y113.161 E69.75287
G0 F6000 X110.899 Y112.596
G1 F1200 X124.1 Y125.797 E70.3738
G0 F6000 X124.1 Y125.231
G1 F1200 X110.899 Y112.03 E70.99474
G0 F6000 X110.899 Y111.464
G1 F1200 X124.1 Y124.665 E71.61567
G0 F6000 X124.1 Y124.1
G1 F1200 X110.899 Y110.899 E72.23661
G0 F6000 X110.899 Y110.333
G1 F1200 X124.1 Y123.534 E72.85754
G0 F6000 X124.1 Y122.968
G1 F1200 X110.899 Y109.767 E73.47848
G0 F6000 X110.899 Y109.202
G1 F1200 X124.1 Y122.403 E74.09941
G0 F6000 X124.1 Y121.837
G1 F1200 X110.899 Y108.636 E74.72035
G0 F6000 X110.899 Y108.07
G1 F1200 X124.1 Y121.271 E75.34128
G0 F6000 X124.1 Y120.705
G1 F1200 X110.899 Y107.504 E75.96221
G0 F6000 X111.109 Y107.15
G1 F1200 X124.1 Y120.14 E76.57325
G0 F6000 X124.1 Y119.574
G1 F1200 X111.675 Y107.15 E77.15766
G0 F6000 X112.241 Y107.15
G1 F1200 X124.1 Y119.008 E77.71545
G0 F6000 X124.1 Y118.443
G1 F1200 X112.806 Y107.15 E78.24666
G0 F6000 X113.372 Y107.15
G1 F1200 X124.1 Y117.877 E78.75125
G0 F6000 X124.1 Y117.311
G1 F1200 X113.938 Y107.15 E79.22921
G0 F6000 X114.503 Y107.15
G1 F1200 X124.1 Y116.746 E79.6806
G0 F6000 X124.1 Y116.18
G1 F1200 X115.069 Y107.15 E80.10537
G0 F6000 X115.635 Y107.15
G1 F1200 X124.1 Y115.614 E80.50351
G0 F6000 X124.1 Y115.049
G1 F1200 X116.2 Y107.15 E80.87508
G0 F6000 X116.766 Y107.15
G1 F1200 X124.1 Y114.483 E81.22003
G0 F6000 X124.1 Y113.917
G1 F1200 X117.332 Y107.15 E81.53835
G0 F6000 X117.898 Y107.15
G1 F1200 X124.1 Y113.352 E81.83007
G0 F6000 X124.1 Y112.786
G1 F1200 X118.463 Y107.15 E82.0952
G0 F6000 X119.029 Y107.15
G1 F1200 X124.1 Y112.22 E82.3337
G0 F6000 X124.1 Y111.654
G1 F1200 X119.595 Y107.15 E82.54557
G0 F6000 X120.16 Y107.15
G1 F1200 X124.1 Y111.089 E82.73088
G0 F6000 X124.1 Y110.523
G1 F1200 X120.726 Y107.15 E82.88956
G0 F6000 X121.292 Y107.15
G1 F1200 X124.1 Y109.957 E83.02161
G0 F6000 X124.1 Y109.392
G1 F1200 X121.857 Y107.15 E83.12709
G0 F6000 X122.423 Y107.15
G1 F1200 X124.1 Y108.826 E83.20595
G0 F6000 X124.1 Y108.26
G1 F1200 X122.989 Y107.15 E83.25818
G0 F6000 X123.554 Y107.15
G1 F1200 X124.1 Y107.695 E83.28384
G0 F6000 X124.509 Y107.538
G1 F1200 X124.12 Y107.15 E83.30212
G0 F6000 X124.686 Y107.15
G1 F1200 X124.978 Y107.442 E83.31585
G0 F6000 X125.251 Y107.15
G1 F1200 X125.447 Y107.345 E83.32505
G1 F2700 E78.32505
G0 F6000 X134.581 Y127.071
G0 X135.419 Y127.071
G0 X144.485 Y107.15
G1 F2700 E83.32505
G1 F1200 X144.746 Y107.411 E83.33732
G1 F2700 E78.33732
G0 F6000 X142.922 Y109.377
G0 X135.419 Y127.071
G0 X134.581 Y127.071
G0 X126.241 Y107.409
G0 X110.389 Y107.409
G0 X110.381 Y126.952
G0 X109.372 Y127.16
G0 X102.585 Y111.163
G0 X100.057 Y107.41
G1 F2700 E83.33732
G1 F1200 X99.795 Y107.149 E83.34962
G1 F2700 E78.34962
G0 F6000 X90.669 Y127.071
G0 X89.831 Y127.071
G0 X80.747 Y107.334
G1 F2700 E83.34962
G1 F1200 X80.562 Y107.149 E83.35833
G0 F6000 X80.278 Y107.431
G1 F1200 X79.996 Y107.149 E83.37159
G0 F6000 X79.809 Y107.528
G1 F1200 X79.43 Y107.149 E83.38942
G0 F6000 X79.35 Y107.634
G1 F1200 X78.865 Y107.149 E83.41223
G0 F6000 X78.299 Y107.149
G1 F1200 X79.35 Y108.2 E83.46167
G0 F6000 X79.35 Y108.765
G1 F1200 X77.733 Y107.149 E83.5377
G0 F6000 X77.167 Y107.149
G1 F1200 X79.35 Y109.331 E83.64036
G0 F6000 X79.35 Y109.897
G1 F1200 X76.602 Y107.149 E83.76962
G0 F6000 X76.036 Y107.149
G1 F1200 X79.35 Y110.462 E83.92547
G0 F6000 X79.35 Y111.028
G1 F1200 X75.47 Y107.149 E84.10795
G0 F6000 X74.905 Y107.149
G1 F1200 X79.35 Y111.594 E84.31703
G0 F6000 X79.35 Y112.159
G1 F1200 X74.339 Y107.149 E84.55271
G0 F6000 X73.773 Y107.149
G1 F1200 X79.35 Y112.725 E84.81501
G0 F6000 X79.35 Y113.291
G1 F1200 X73.208 Y107.149 E85.10391
G0 F6000 X72.642 Y107.149
G1 F1200 X79.35 Y113.856 E85.41941
G0 F6000 X79.35 Y114.422
G1 F1200 X72.076 Y107.149 E85.76154
G0 F6000 X71.649 Y107.287
G1 F1200 X79.35 Y114.988 E86.12377
G0 F6000 X79.35 Y115.553
G1 F1200 X71.649 Y107.853 E86.48598
G0 F6000 X71.649 Y108.419
G1 F1200 X79.35 Y116.119 E86.84818
G0 F6000 X79.35 Y116.685
G1 F1200 X71.649 Y108.984 E87.21042
G0 F6000 X71.649 Y109.55
G1 F1200 X79.35 Y117.251 E87.57265
G0 F6000 X79.35 Y117.816
G1 F1200 X71.649 Y110.116 E87.93485
G0 F6000 X71.649 Y110.682
G1 F1200 X79.35 Y118.382 E88.29706
G0 F6000 X79.35 Y118.948
G1 F1200 X71.649 Y111.247 E88.65929
G0 F6000 X71.649 Y111.813
G1 F1200 X79.35 Y119.513 E89.0215
G0 F6000 X79.35 Y120.079
G1 F1200 X71.649 Y112.379 E89.38371
G0 F6000 X71.649 Y112.944
G1 F1200 X79.35 Y120.645 E89.74594
G0 F6000 X79.35 Y121.21
G1 F1200 X71.649 Y113.51 E90.10815
G0 F6000 X71.649 Y114.076
G1 F1200 X79.35 Y121.776 E90.47036
G0 F6000 X79.35 Y122.342
G1 F1200 X71.649 Y114.641 E90.83259
G0 F6000 X71.649 Y115.207
G1 F1200 X79.35 Y122.907 E91.1948
G0 F6000 X79.35 Y123.473
G1 F1200 X71.649 Y115.773 E91.557
G0 F6000 X71.649 Y116.338
G1 F1200 X79.35 Y124.039 E91.91924
G0 F6000 X79.35 Y124.604
G1 F1200 X71.649 Y116.904 E92.28144
G0 F6000 X71.649 Y117.47
G1 F1200 X79.35 Y125.17 E92.64365
G0 F6000 X79.35 Y125.736
G1 F1200 X71.649 Y118.035 E93.00588
G0 F6000 X71.649 Y118.601
G1 F1200 X79.35 Y126.301 E93.36809
G0 F6000 X79.35 Y126.867
G1 F1200 X71.649 Y119.167 E93.7303
G0 F6000 X71.649 Y119.732
G1 F1200 X79.35 Y127.433 E94.09253
G0 F6000 X79.2 Y127.849
G1 F1200 X71.649 Y120.298 E94.44771
G0 F6000 X71.649 Y120.864
G1 F1200 X78.634 Y127.849 E94.77626
G0 F6000 X78.068 Y127.849
G1 F1200 X71.649 Y121.43 E95.07819
G0 F6000 X71.649 Y121.995
G1 F1200 X77.503 Y127.849 E95.35354
G0 F6000 X76.937 Y127.849
G1 F1200 X71.649 Y122.561 E95.60227
G0 F6000 X71.649 Y123.127
G1 F1200 X76.371 Y127.849 E95.82438
G0 F6000 X75.806 Y127.849
G1 F1200 X71.649 Y123.692 E96.01992
G0 F6000 X71.649 Y124.258
G1 F1200 X75.24 Y127.849 E96.18883
G0 F6000 X74.674 Y127.849
G1 F1200 X71.649 Y124.824 E96.33111
G0 F6000 X71.649 Y125.389
G1 F1200 X74.109 Y127.849 E96.44682
G0 F6000 X73.543 Y127.849
G1 F1200 X71.649 Y125.955 E96.53591
G0 F6000 X71.649 Y126.521
G1 F1200 X72.977 Y127.849 E96.59838
G0 F6000 X72.411 Y127.849
G1 F1200 X71.649 Y127.086 E96.63424
G0 F6000 X71.649 Y127.652
G1 F1200 X71.846 Y127.849 E96.64351
G1 F2700 E91.64351
G0 F6000 X79.869 Y108.048
G0 X80.878 Y107.84
G0 X88.423 Y125.624
G0 X90.252 Y127.587
M104 S220
G1 F2700 E96.64351
G1 F1200 X90.513 Y127.849 E96.65581
G1 F2700 E91.65581
;MESH:NONMESH
G0 F300 X90.513 Y127.849 Z0.4
G0 F6000 X99.581 Y107.929
G0 X100.419 Y107.929
G0 X108.918 Y127.969
G0 X124.608 Y128.072
