; generated by Slic3r 1.3.0 on 2020-12-24 at 17:55:15

; external perimeters extrusion width = 0.44mm (2.38mm^3/s)
; perimeters extrusion width = 0.56mm (6.20mm^3/s)
; infill extrusion width = 0.50mm (7.31mm^3/s)
; solid infill extrusion width = 0.56mm (2.07mm^3/s)
; top infill extrusion width = 0.56mm (1.55mm^3/s)

M107
M140 S65
M104 S150 T0
G28 ; home all axes
G29; ABL
G1 X0 Y0 Z5 F{Z_TRAVEL_SPEED}
M107 ; Turn off fan
G90 ; Absolute positioning
G1 X0 Y0 F2400 ; move to the X=0 Y=0 position on the bed at a speed of 2400 mm/min
M190 S65  ; Wait for bed to reach temperature
M109 S205 T0 ; Wait for all used extruders to reach temperature
G92 E0 ; Reset extruder position
G1 X5 Y15 Z0.25 F1000.0 ; go intro start pos
G1 X60.0 E9.0 F600.0 ; intro line to prime extruder
G1 X100.0 E16 F800.0 ; intro line
G92 E0.0 ; reset extruder distance position
; Filament gcode

G21 ; set units to millimeters
G90 ; use absolute coordinates
M82 ; use absolute distances for extrusion
G92 E0
G1 Z0.200 F7800.000
G1 E-2.00000 F2400.00000
G92 E0
G1 X50.978 Y68.291 F7800.000
G1 E2.00000 F2400.00000
G1 F1800
G1 X51.504 Y67.919 E2.01914
G1 X52.045 Y67.582 E2.03804
G1 X53.680 Y66.697 E2.09325
G1 X83.718 Y51.654 E3.09071
G1 X84.648 Y51.273 E3.12054
G1 X85.586 Y50.983 E3.14969
G1 X86.150 Y50.851 E3.16691
G1 X88.365 Y50.401 E3.23400
G1 X89.234 Y50.264 E3.26013
G1 X90.167 Y50.194 E3.28791
G1 X91.977 Y50.155 E3.34165
G1 X137.397 Y50.095 E4.69023
G1 X138.130 Y50.118 E4.71201
G1 X140.820 Y50.309 E4.79207
G1 X141.720 Y50.421 E4.81901
G1 X142.559 Y50.596 E4.84445
G1 X143.821 Y50.953 E4.88341
G1 X144.655 Y51.250 E4.90968
G1 X154.752 Y55.702 E5.23732
G1 X155.548 Y56.094 E5.26366
G1 X156.165 Y56.454 E5.28487
G1 X158.794 Y58.264 E5.37966
G1 X159.277 Y58.619 E5.39744
G1 X160.048 Y59.276 E5.42752
G1 X160.453 Y59.676 E5.44443
G1 X160.875 Y60.139 E5.46303
G1 X161.190 Y60.521 E5.47773
G1 X174.437 Y77.538 E6.11803
G1 X181.968 Y87.478 E6.48829
G1 X182.489 Y88.232 E6.51551
G1 X182.867 Y88.877 E6.53772
G1 X183.300 Y89.720 E6.56584
G1 X183.528 Y90.199 E6.58161
G1 X183.737 Y90.704 E6.59783
G1 X183.961 Y91.339 E6.61783
G1 X184.121 Y91.888 E6.63481
G1 X184.273 Y92.547 E6.65488
G1 X184.372 Y93.134 E6.67255
G1 X184.493 Y94.031 E6.69943
G1 X184.551 Y94.680 E6.71878
G1 X184.571 Y95.425 E6.74091
G1 X184.542 Y96.150 E6.76244
G1 X184.299 Y98.404 E6.82977
G1 X184.221 Y98.971 E6.84676
G1 X184.030 Y99.888 E6.87457
G1 X183.796 Y100.690 E6.89936
G1 X169.597 Y139.774 E8.13403
G1 X169.360 Y140.368 E8.15302
G1 X169.129 Y140.868 E8.16938
G1 X168.851 Y141.396 E8.18708
G1 X168.559 Y141.888 E8.20407
G1 X168.091 Y142.569 E8.22862
G1 X167.377 Y143.462 E8.26256
G1 X166.813 Y144.068 E8.28715
G1 X166.206 Y144.631 E8.31172
G1 X165.812 Y144.955 E8.32688
G1 X157.373 Y151.490 E8.64377
G1 X156.733 Y151.925 E8.66675
G1 X143.398 Y160.188 E9.13253
G1 X142.354 Y160.762 E9.16791
G1 X141.638 Y161.099 E9.19141
G1 X128.264 Y166.716 E9.62208
G1 X127.751 Y166.910 E9.63838
G1 X127.115 Y167.111 E9.65818
G1 X125.761 Y167.460 E9.69970
G1 X125.163 Y167.591 E9.71788
G1 X110.986 Y169.722 E10.14355
G1 X110.102 Y169.841 E10.17002
G1 X109.366 Y169.896 E10.19194
G1 X108.855 Y169.905 E10.20712
G1 X108.216 Y169.883 E10.22610
G1 X94.362 Y168.953 E10.63838
G1 X93.784 Y168.876 E10.65569
G1 X80.240 Y166.719 E11.06289
G1 X79.668 Y166.612 E11.08017
G1 X79.175 Y166.493 E11.09521
G1 X78.649 Y166.341 E11.11148
G1 X77.629 Y165.994 E11.14346
G1 X67.814 Y162.421 E11.45361
G1 X67.336 Y162.229 E11.46889
G1 X66.717 Y161.939 E11.48920
G1 X65.853 Y161.453 E11.51861
G1 X65.185 Y161.002 E11.54255
G1 X64.212 Y160.248 E11.57912
G1 X54.518 Y152.288 E11.95154
G1 X53.888 Y151.728 E11.97656
G1 X53.215 Y151.022 E12.00551
G1 X45.979 Y142.648 E12.33412
G1 X45.364 Y141.902 E12.36283
G1 X44.885 Y141.241 E12.38707
G1 X44.524 Y140.665 E12.40726
G1 X44.206 Y140.082 E12.42698
G1 X39.880 Y131.509 E12.71209
G1 X39.585 Y130.868 E12.73304
G1 X39.136 Y129.750 E12.76880
G1 X38.886 Y128.944 E12.79385
G1 X38.712 Y128.195 E12.81668
G1 X36.835 Y118.049 E13.12306
G1 X36.746 Y117.376 E13.14322
G1 X35.474 Y104.653 E13.52286
G1 X35.429 Y103.742 E13.54994
G1 X35.460 Y102.833 E13.57694
G1 X35.577 Y101.853 E13.60624
G1 X35.782 Y100.813 E13.63773
G1 X39.157 Y86.421 E14.07664
G1 X39.409 Y85.427 E14.10708
G1 X39.554 Y84.959 E14.12163
G1 X39.766 Y84.377 E14.14002
G1 X39.974 Y83.886 E14.15584
G1 X40.231 Y83.358 E14.17328
G1 X44.526 Y75.381 E14.44228
G1 X45.042 Y74.528 E14.47187
G1 X45.496 Y73.899 E14.49493
G1 X46.014 Y73.280 E14.51888
G1 X49.420 Y69.683 E14.66597
G1 X50.242 Y68.894 E14.69978
G1 X50.930 Y68.327 E14.72626
G1 X51.192 Y68.577 F7800.000
G1 F1800
G1 X51.702 Y68.216 E14.74484
G1 X52.223 Y67.891 E14.76305
G1 X53.840 Y67.016 E14.81764
G1 X83.867 Y51.979 E15.81472
G1 X84.770 Y51.608 E15.84371
G1 X85.678 Y51.328 E15.87192
G1 X86.223 Y51.201 E15.88854
G1 X88.435 Y50.752 E15.95555
G1 X89.278 Y50.618 E15.98090
G1 X90.177 Y50.551 E16.00768
G1 X91.977 Y50.512 E16.06113
G1 X137.397 Y50.452 E17.40971
G1 X138.108 Y50.474 E17.43083
G1 X140.792 Y50.665 E17.51071
G1 X141.660 Y50.773 E17.53669
G1 X142.474 Y50.943 E17.56138
G1 X143.714 Y51.294 E17.59965
G1 X144.523 Y51.582 E17.62513
G1 X154.607 Y56.029 E17.95238
G1 X155.376 Y56.407 E17.97779
G1 X155.977 Y56.757 E17.99847
G1 X158.591 Y58.558 E18.09270
G1 X159.056 Y58.900 E18.10985
G1 X159.805 Y59.538 E18.13908
G1 X160.196 Y59.924 E18.15540
G1 X160.603 Y60.371 E18.17334
G1 X160.908 Y60.741 E18.18756
G1 X174.155 Y77.757 E18.82783
G1 X181.683 Y87.694 E19.19798
G1 X182.188 Y88.424 E19.22436
G1 X182.552 Y89.045 E19.24572
G1 X182.981 Y89.879 E19.27357
G1 X183.201 Y90.343 E19.28881
G1 X183.405 Y90.834 E19.30462
G1 X183.621 Y91.446 E19.32388
G1 X183.776 Y91.981 E19.34040
G1 X183.922 Y92.615 E19.35972
G1 X184.019 Y93.186 E19.37691
G1 X184.138 Y94.075 E19.40355
G1 X184.195 Y94.700 E19.42219
G1 X184.214 Y95.421 E19.44361
G1 X184.186 Y96.123 E19.46446
G1 X183.944 Y98.365 E19.53141
G1 X183.869 Y98.912 E19.54781
G1 X183.703 Y99.724 E19.57243
G1 X183.458 Y100.574 E19.59870
G1 X169.261 Y139.652 E20.83315
G1 X169.033 Y140.225 E20.85145
G1 X168.808 Y140.712 E20.86739
G1 X168.540 Y141.221 E20.88446
G1 X168.258 Y141.695 E20.90086
G1 X167.804 Y142.358 E20.92470
G1 X167.105 Y143.230 E20.95789
G1 X166.560 Y143.816 E20.98164
G1 X165.974 Y144.359 E21.00537
G1 X165.593 Y144.673 E21.02003
G1 X157.164 Y151.201 E21.33657
G1 X156.545 Y151.621 E21.35879
G1 X143.220 Y159.879 E21.82424
G1 X142.191 Y160.444 E21.85910
G1 X141.499 Y160.770 E21.88181
G1 X128.132 Y166.384 E22.31226
G1 X127.632 Y166.573 E22.32814
G1 X127.016 Y166.768 E22.34735
G1 X125.677 Y167.114 E22.38840
G1 X125.095 Y167.240 E22.40607
G1 X110.934 Y169.369 E22.83126
G1 X110.066 Y169.486 E22.85725
G1 X109.354 Y169.539 E22.87847
G1 X108.855 Y169.548 E22.89328
G1 X108.239 Y169.527 E22.91157
G1 X94.397 Y168.598 E23.32348
G1 X93.840 Y168.524 E23.34018
G1 X80.296 Y166.367 E23.74738
G1 X79.744 Y166.263 E23.76406
G1 X79.268 Y166.148 E23.77861
G1 X78.756 Y166.000 E23.79443
G1 X77.686 Y165.635 E23.82798
G1 X67.937 Y162.086 E24.13603
G1 X67.480 Y161.902 E24.15067
G1 X66.879 Y161.621 E24.17035
G1 X66.044 Y161.151 E24.19882
G1 X65.394 Y160.713 E24.22208
G1 X64.438 Y159.972 E24.25799
G1 X54.744 Y152.012 E24.63042
G1 X54.136 Y151.471 E24.65458
G1 X53.485 Y150.788 E24.68260
G1 X46.249 Y142.415 E25.01117
G1 X45.646 Y141.684 E25.03933
G1 X45.181 Y141.041 E25.06288
G1 X44.833 Y140.486 E25.08232
G1 X44.525 Y139.921 E25.10145
G1 X40.199 Y131.348 E25.38656
G1 X39.914 Y130.729 E25.40678
G1 X39.472 Y129.630 E25.44195
G1 X39.231 Y128.852 E25.46614
G1 X39.063 Y128.128 E25.48822
G1 X37.187 Y117.993 E25.79425
G1 X37.101 Y117.340 E25.81379
G1 X35.830 Y104.621 E26.19333
G1 X35.786 Y103.738 E26.21957
G1 X35.816 Y102.857 E26.24575
G1 X35.929 Y101.913 E26.27397
G1 X36.129 Y100.894 E26.30480
G1 X39.504 Y86.502 E26.74371
G1 X39.753 Y85.523 E26.77371
G1 X39.921 Y84.989 E26.79032
G1 X40.131 Y84.426 E26.80818
G1 X40.549 Y83.521 E26.83777
G1 X44.808 Y75.609 E27.10455
G1 X45.338 Y74.728 E27.13507
G1 X45.777 Y74.119 E27.15737
G1 X46.280 Y73.518 E27.18065
G1 X49.680 Y69.929 E27.32743
G1 X50.482 Y69.158 E27.36046
G1 X51.144 Y68.613 E27.38592
G1 X51.405 Y68.863 F7800.000
G1 F1800
G1 X51.901 Y68.513 E27.40393
G1 X52.401 Y68.200 E27.42145
G1 X54.000 Y67.335 E27.47541
G1 X84.015 Y52.303 E28.47212
G1 X84.892 Y51.944 E28.50027
G1 X85.770 Y51.673 E28.52755
G1 X88.504 Y51.102 E28.61049
G1 X89.322 Y50.973 E28.63505
G1 X90.188 Y50.908 E28.66083
G1 X91.978 Y50.869 E28.71399
G1 X137.398 Y50.809 E30.06257
G1 X138.086 Y50.831 E30.08304
G1 X140.764 Y51.021 E30.16273
G1 X141.600 Y51.125 E30.18774
G1 X142.389 Y51.289 E30.21169
G1 X143.607 Y51.634 E30.24928
G1 X144.391 Y51.914 E30.27397
G1 X154.463 Y56.356 E30.60082
G1 X155.203 Y56.719 E30.62531
G1 X155.789 Y57.061 E30.64545
G1 X158.387 Y58.851 E30.73912
G1 X158.836 Y59.180 E30.75564
G1 X159.563 Y59.801 E30.78403
G1 X159.940 Y60.173 E30.79976
G1 X160.332 Y60.603 E30.81702
G1 X160.626 Y60.960 E30.83077
G1 X173.872 Y77.976 E31.47102
G1 X181.398 Y87.909 E31.84106
G1 X181.840 Y88.542 E31.86395
G1 X182.237 Y89.212 E31.88710
G1 X182.638 Y89.993 E31.91315
G1 X182.874 Y90.487 E31.92940
G1 X183.073 Y90.965 E31.94478
G1 X183.280 Y91.553 E31.96330
G1 X183.431 Y92.073 E31.97937
G1 X183.571 Y92.683 E31.99794
G1 X183.666 Y93.238 E32.01466
G1 X183.784 Y94.119 E32.04106
G1 X183.838 Y94.720 E32.05899
G1 X183.857 Y95.417 E32.07969
G1 X183.830 Y96.094 E32.09979
G1 X183.517 Y98.853 E32.18224
G1 X183.356 Y99.641 E32.20611
G1 X183.120 Y100.459 E32.23141
G1 X168.926 Y139.530 E33.46565
G1 X168.706 Y140.081 E33.48326
G1 X168.487 Y140.555 E33.49878
G1 X168.229 Y141.045 E33.51522
G1 X167.957 Y141.503 E33.53103
G1 X167.516 Y142.146 E33.55417
G1 X166.834 Y142.999 E33.58660
G1 X166.308 Y143.563 E33.60951
G1 X165.742 Y144.088 E33.63240
G1 X165.374 Y144.391 E33.64657
G1 X156.955 Y150.912 E33.96276
G1 X156.357 Y151.318 E33.98422
G1 X143.042 Y159.570 E34.44933
G1 X142.028 Y160.126 E34.48366
G1 X141.360 Y160.441 E34.50559
G1 X128.000 Y166.052 E34.93582
G1 X127.514 Y166.237 E34.95128
G1 X126.916 Y166.426 E34.96989
G1 X125.592 Y166.767 E35.01048
G1 X125.028 Y166.890 E35.02764
G1 X110.882 Y169.015 E35.45235
G1 X110.031 Y169.131 E35.47786
G1 X109.341 Y169.182 E35.49838
G1 X108.855 Y169.191 E35.51282
G1 X108.263 Y169.171 E35.53042
G1 X94.433 Y168.243 E35.94196
G1 X93.896 Y168.171 E35.95805
G1 X80.352 Y166.014 E36.36525
G1 X79.820 Y165.914 E36.38133
G1 X79.360 Y165.803 E36.39538
G1 X78.861 Y165.659 E36.41079
G1 X77.809 Y165.300 E36.44382
G1 X68.061 Y161.751 E36.75182
G1 X67.623 Y161.575 E36.76583
G1 X67.042 Y161.303 E36.78489
G1 X66.234 Y160.849 E36.81240
G1 X65.604 Y160.423 E36.83499
G1 X64.665 Y159.696 E36.87025
G1 X54.971 Y151.736 E37.24268
G1 X54.384 Y151.215 E37.26597
G1 X53.755 Y150.554 E37.29307
G1 X46.520 Y142.182 E37.62159
G1 X45.928 Y141.465 E37.64921
G1 X45.477 Y140.841 E37.67207
G1 X45.143 Y140.308 E37.69076
G1 X44.844 Y139.760 E37.70929
G1 X40.518 Y131.187 E37.99441
G1 X40.243 Y130.590 E38.01390
G1 X39.808 Y129.510 E38.04848
G1 X39.576 Y128.760 E38.07180
G1 X39.413 Y128.060 E38.09313
G1 X37.540 Y117.937 E38.39881
G1 X37.456 Y117.304 E38.41774
G1 X36.185 Y104.589 E38.79717
G1 X36.143 Y103.734 E38.82258
G1 X36.172 Y102.881 E38.84793
G1 X36.281 Y101.973 E38.87507
G1 X36.477 Y100.976 E38.90525
G1 X39.852 Y86.584 E39.34416
G1 X40.097 Y85.619 E39.37372
G1 X40.258 Y85.104 E39.38973
G1 X40.463 Y84.557 E39.40706
G1 X40.867 Y83.684 E39.43564
G1 X45.122 Y75.779 E39.70220
G1 X45.634 Y74.928 E39.73167
G1 X46.058 Y74.340 E39.75321
G1 X46.547 Y73.756 E39.77581
G1 X49.939 Y70.174 E39.92228
G1 X50.722 Y69.422 E39.95452
G1 X51.357 Y68.899 E39.97896
G1 E37.97896 F2400.00000
G92 E0
G1 X79.992 Y156.070 F7800.000
G1 E2.00000 F2400.00000
G1 F1800
G1 X80.901 Y154.558 E2.05237
G1 X84.818 Y151.117 E2.20718
G1 X84.736 Y150.966 E2.21228
G1 X81.422 Y151.933 E2.31478
G1 X75.598 Y153.066 E2.49095
G1 X73.376 Y153.211 E2.55704
G1 X72.067 Y153.112 E2.59602
G1 X71.288 Y152.888 E2.62009
G1 X70.189 Y152.036 E2.66138
G1 X70.455 Y150.963 E2.69419
G1 X70.977 Y150.428 E2.71638
G1 X72.624 Y149.548 E2.77183
G1 X76.163 Y146.824 E2.90441
G1 X76.095 Y146.670 E2.90942
G1 X74.968 Y146.877 E2.94344
G1 X72.512 Y147.064 E3.01656
G1 X70.234 Y147.055 E3.08421
G1 X67.014 Y146.641 E3.18058
G1 X64.624 Y146.133 E3.25314
G1 X63.433 Y145.710 E3.29066
G1 X60.694 Y144.330 E3.38172
G1 X60.573 Y143.138 E3.41729
G1 X61.151 Y142.509 E3.44265
G1 X63.293 Y141.662 E3.51104
G1 X64.528 Y141.413 E3.54846
G1 X66.397 Y140.489 E3.61036
G1 X66.372 Y140.333 E3.61506
G1 X64.429 Y140.062 E3.67329
G1 X60.347 Y139.208 E3.79713
G1 X56.631 Y137.788 E3.91524
G1 X54.859 Y136.860 E3.97463
G1 X53.798 Y136.166 E4.01226
G1 X52.844 Y135.020 E4.05654
G1 X53.910 Y133.969 E4.10098
G1 X58.423 Y131.764 E4.25012
G1 X58.397 Y131.607 E4.25486
G1 X58.060 Y131.564 E4.26493
G1 X56.362 Y131.180 E4.31661
G1 X54.442 Y130.396 E4.37820
G1 X50.842 Y128.452 E4.49968
G1 X49.044 Y127.158 E4.56545
G1 X48.474 Y125.805 E4.60902
G1 X50.217 Y124.325 E4.67690
G1 X52.955 Y122.521 E4.77427
G1 X53.278 Y122.412 E4.78440
G1 X53.750 Y121.918 E4.80470
G1 X52.331 Y121.240 E4.85141
G1 X50.696 Y120.241 E4.90828
G1 X49.143 Y119.100 E4.96550
G1 X47.072 Y117.085 E5.05130
G1 X46.769 Y116.186 E5.07946
G1 X47.223 Y115.340 E5.10796
G1 X47.987 Y114.963 E5.13327
G1 X51.398 Y114.441 E5.23571
G1 X52.714 Y114.191 E5.27551
G1 X51.551 Y113.337 E5.31834
G1 X49.980 Y111.827 E5.38305
G1 X48.200 Y109.750 E5.46427
G1 X47.257 Y108.316 E5.51523
G1 X46.890 Y107.441 E5.54339
G1 X46.843 Y107.073 E5.55441
G1 X46.137 Y105.950 E5.59380
G1 X45.564 Y103.684 E5.66321
G1 X45.711 Y102.911 E5.68655
G1 X46.274 Y102.332 E5.71053
G1 X47.012 Y102.187 E5.73285
G1 X47.960 Y102.346 E5.76139
G1 X50.710 Y103.443 E5.84931
G1 X51.698 Y103.693 E5.87956
G1 X49.712 Y97.467 E6.07360
G1 X49.067 Y93.739 E6.18593
G1 X49.010 Y88.887 E6.32999
G1 X49.222 Y88.026 E6.35634
G1 X50.270 Y86.816 E6.40387
G1 X51.352 Y87.448 E6.44107
G1 X52.713 Y89.218 E6.50737
G1 X54.595 Y90.860 E6.58153
G1 X54.853 Y91.025 E6.59063
G1 X53.401 Y85.093 E6.77198
G1 X53.167 Y81.968 E6.86503
G1 X53.250 Y80.682 E6.90329
G1 X53.714 Y79.596 E6.93835
G1 X55.241 Y80.016 E6.98534
G1 X56.075 Y80.602 E7.01564
G1 X58.608 Y81.984 E7.10130
G1 X59.741 Y82.431 E7.13746
G1 X59.345 Y81.117 E7.17822
G1 X58.830 Y80.168 E7.21025
G1 X58.193 Y79.372 E7.24054
G1 X56.877 Y78.168 E7.29348
G1 X56.326 Y77.090 E7.32943
G1 X57.232 Y76.266 E7.36579
G1 X57.629 Y76.224 E7.37767
G1 X58.236 Y75.761 E7.40033
G1 X61.555 Y74.641 E7.50433
G1 X63.517 Y74.156 E7.56433
G1 X67.110 Y73.487 E7.67285
G1 X76.693 Y72.747 E7.95824
G1 X78.744 Y72.297 E8.02060
G1 X78.977 Y72.177 E8.02835
G1 X79.221 Y71.867 E8.04009
G1 X81.108 Y67.463 E8.18234
G1 X81.840 Y66.334 E8.22229
G1 X83.884 Y64.120 E8.31174
G1 X85.770 Y62.333 E8.38890
G1 X86.696 Y61.676 E8.42261
G1 X86.825 Y61.643 E8.42655
G1 X86.962 Y61.418 E8.43438
G1 X88.120 Y60.799 E8.47336
G1 X88.872 Y60.739 E8.49576
G1 X89.035 Y60.625 E8.50168
G1 X90.429 Y60.347 E8.54390
G1 X92.052 Y60.310 E8.59210
G1 X93.685 Y60.582 E8.64124
G1 X93.744 Y60.723 E8.64576
G1 X94.175 Y60.783 E8.65870
G1 X95.025 Y61.357 E8.68914
G1 X96.458 Y62.853 E8.75064
G1 X96.782 Y63.679 E8.77699
G1 X96.864 Y64.610 E8.80475
G1 X96.812 Y66.086 E8.84859
G1 X97.189 Y65.919 E8.86084
G1 X98.107 Y65.125 E8.89687
G1 X100.075 Y64.742 E8.95639
G1 X101.744 Y64.686 E9.00599
G1 X103.280 Y64.833 E9.05179
G1 X104.187 Y65.108 E9.07993
G1 X106.380 Y66.801 E9.16220
G1 X107.056 Y67.827 E9.19868
G1 X114.435 Y67.827 E9.41778
G1 X123.445 Y68.053 E9.68537
G1 X127.437 Y68.453 E9.80449
G1 X127.928 Y67.573 E9.83440
G1 X129.186 Y65.782 E9.89941
G1 X131.353 Y63.433 E9.99431
G1 X133.575 Y61.577 E10.08026
G1 X134.604 Y60.956 E10.11594
G1 X135.342 Y60.682 E10.13930
G1 X135.793 Y60.645 E10.15276
G1 X136.250 Y60.331 E10.16921
G1 X137.413 Y60.250 E10.20382
G1 X140.053 Y60.436 E10.28242
G1 X140.883 Y60.673 E10.30802
G1 X141.587 Y61.086 E10.33226
G1 X143.079 Y62.494 E10.39319
G1 X143.606 Y63.339 E10.42275
G1 X143.890 Y64.278 E10.45187
G1 X143.948 Y65.933 E10.50104
G1 X144.789 Y65.405 E10.53052
G1 X145.858 Y64.948 E10.56505
G1 X146.793 Y64.746 E10.59342
G1 X147.410 Y64.733 E10.61176
