;FLAVOR:Marlin
;TIME:17384
;Filament used: 13.0722m
;Layer height: 0.2
;MINX:60.7
;MINY:34.2
;MINZ:0.2
;MAXX:174.3
;MAXY:200.8
;MAXZ:6.2
;Generated with Cura_SteamEngine master
M82 ;absolute extrusion mode
G92 E0 ; Reset Extruder
M140 S60 ; Set bed temperature
G28 ; Home all axis
M190 S60 ; Wait for bed temperature
M104 T0 S220 ; Set hotend temperature
G29 ; Auto bed leveling
M109 T0 S220 ; Wait for hotend temperature
G1 Z2.0 F3000 ; Move Z Axis up little to prevent scratching of Heat Bed
G1 X0.1 Y20 Z0.3 F5000.0 ; Move to start position
G1 X0.1 Y200.0 Z0.3 F1500.0 E15 ; Draw the first line
G1 X0.4 Y200.0 Z0.3 F5000.0 ; Move to side a little
G1 X0.4 Y20 Z0.3 F1500.0 E30 ; Draw the second line
G92 E0 ; Reset Extruder
G1 Z2.0 F3000 ; Move Z Axis up little to prevent scratching of Heat Bed
G1 X5 Y20 Z0.3 F5000.0 ; Move over to prevent blob squish
G92 E0
G92 E0 ; Reset Extruder
G28 ; Home all axes
G1 Z2.0 F3000 ; Move Z Axis up little to prevent scratching of Heat Bed
G1 X0.1 Y20 Z0.3 F5000.0 ; Move to start position
G1 X0.1 Y200.0 Z0.3 F1500.0 E15 ; Draw the first line
G1 X0.4 Y200.0 Z0.3 F5000.0 ; Move to side a little
G1 X0.4 Y20 Z0.3 F1500.0 E30 ; Draw the second line
G92 E0 ; Reset Extruder
G1 Z2.0 F3000 ; Move Z Axis up little to prevent scratching of Heat Bed
G1 X5 Y20 Z0.3 F5000.0 ; Move over to prevent blob squish
G92 E0
G1 F2700 E-5
;LAYER_COUNT:31
;LAYER:0
M107
;MESH:ender3_mainboard_cover_stock_fan_with_cover_holes.stl
G0 F6000 X63.35 Y45.577 Z0.2
;TYPE:WALL-INNER
G1 F2700 E0
G1 F1200 X63.659 Y46.055 E0.01893
G1 X63.964 Y46.38 E0.03376
G1 X64.322 Y46.645 E0.04857
G1 X64.725 Y46.843 E0.0635
G1 X65.156 Y46.962 E0.07838
G1 X65.6 Y47.003 E0.09321
G1 X66.044 Y46.962 E0.10804
G1 X66.475 Y46.843 E0.12291
G1 X66.878 Y46.645 E0.13784
G1 X67.236 Y46.38 E0.15266
G1 X67.541 Y46.055 E0.16748
G1 X67.85 Y45.577 E0.18641
G1 X67.85 Y41.369 E0.32637
G1 X67.804 Y40.931 E0.34102
G1 X67.658 Y40.483 E0.35669
G1 X67.423 Y40.076 E0.37232
G1 X67.108 Y39.726 E0.38798
G1 X66.727 Y39.449 E0.40365
G1 X66.296 Y39.258 E0.41933
G1 X65.835 Y39.159 E0.43501
G1 X65.365 Y39.159 E0.45064
G1 X64.904 Y39.258 E0.46633
G1 X64.473 Y39.449 E0.48201
G1 X64.092 Y39.726 E0.49767
G1 X63.777 Y40.076 E0.51333
G1 X63.542 Y40.483 E0.52897
G1 X63.396 Y40.931 E0.54464
G1 X63.35 Y41.369 E0.55929
G1 X63.35 Y45.577 E0.69924
G0 F6000 X63.75 Y45.459
;TYPE:WALL-OUTER
G1 F1200 X63.975 Y45.808 E0.71306
G1 X64.231 Y46.08 E0.72548
G1 X64.531 Y46.302 E0.73789
G1 X64.868 Y46.467 E0.75037
G1 X65.228 Y46.567 E0.7628
G1 X65.6 Y46.601 E0.77522
G1 X65.972 Y46.567 E0.78765
G1 X66.332 Y46.467 E0.80007
G1 X66.669 Y46.302 E0.81255
G1 X66.969 Y46.08 E0.82497
G1 X67.225 Y45.808 E0.83739
G1 X67.45 Y45.459 E0.8512
G1 X67.45 Y41.39 E0.98654
G1 X67.411 Y41.015 E0.99908
G1 X67.291 Y40.647 E1.01195
G1 X67.098 Y40.312 E1.02481
G1 X66.839 Y40.025 E1.03767
G1 X66.526 Y39.797 E1.05055
G1 X66.172 Y39.64 E1.06343
G1 X65.793 Y39.559 E1.07632
G1 X65.407 Y39.559 E1.08916
G1 X65.028 Y39.64 E1.10205
G1 X64.674 Y39.797 E1.11493
G1 X64.361 Y40.025 E1.12781
G1 X64.102 Y40.312 E1.14066
G1 X63.909 Y40.647 E1.15352
G1 X63.789 Y41.015 E1.1664
G1 X63.75 Y41.39 E1.17894
G1 X63.75 Y45.459 E1.31427
G0 F6000 X63.328 Y45.583
G1 F2700 E-3.68573
G0 F6000 X63.255 Y45.605
G0 X63.938 Y46.409
G0 X64.302 Y46.679
G0 X64.711 Y46.88
G0 X65.149 Y47.001
G0 X65.403 Y47.024
G0 X168.224 Y39.363
G0 X168.273 Y39.449
;TYPE:WALL-INNER
G1 F2700 E1.31427
G1 F1200 X167.892 Y39.726 E1.32994
G1 X167.577 Y40.076 E1.3456
G1 X167.342 Y40.483 E1.36123
G1 X167.196 Y40.931 E1.37691
G1 X167.147 Y41.4 E1.39259
G1 X167.196 Y41.869 E1.40827
G1 X167.342 Y42.317 E1.42394
G1 X167.577 Y42.724 E1.43958
G1 X167.892 Y43.074 E1.45524
G1 X168.273 Y43.351 E1.4709
G1 X168.704 Y43.542 E1.48658
G1 X169.165 Y43.641 E1.50227
G1 X169.635 Y43.641 E1.5179
G1 X170.096 Y43.542 E1.53358
G1 X170.527 Y43.351 E1.54926
G1 X170.908 Y43.074 E1.56493
G1 X171.223 Y42.724 E1.58059
G1 X171.458 Y42.317 E1.59622
G1 X171.604 Y41.869 E1.61189
G1 X171.653 Y41.4 E1.62758
G1 X171.604 Y40.931 E1.64326
G1 X171.458 Y40.483 E1.65893
G1 X171.223 Y40.076 E1.67456
G1 X170.908 Y39.726 E1.69023
G1 X170.527 Y39.449 E1.70589
G1 X170.096 Y39.258 E1.72157
G1 X169.635 Y39.159 E1.73726
G1 X169.165 Y39.159 E1.75289
G1 X168.704 Y39.258 E1.76857
G1 X168.273 Y39.449 E1.78425
G0 F6000 X168.474 Y39.797
;TYPE:WALL-OUTER
G1 F1200 X168.161 Y40.025 E1.79713
G1 X167.902 Y40.312 E1.80999
G1 X167.709 Y40.647 E1.82285
G1 X167.589 Y41.015 E1.83572
G1 X167.549 Y41.4 E1.84859
G1 X167.589 Y41.785 E1.86147
G1 X167.709 Y42.153 E1.87434
G1 X167.902 Y42.488 E1.8872
G1 X168.161 Y42.775 E1.90006
G1 X168.474 Y43.003 E1.91294
G1 X168.828 Y43.16 E1.92582
G1 X169.207 Y43.241 E1.93871
G1 X169.593 Y43.241 E1.95155
G1 X169.972 Y43.16 E1.96444
G1 X170.326 Y43.003 E1.97732
G1 X170.639 Y42.775 E1.9902
G1 X170.898 Y42.488 E2.00306
G1 X171.091 Y42.153 E2.01591
G1 X171.211 Y41.785 E2.02879
G1 X171.251 Y41.4 E2.04166
G1 X171.211 Y41.015 E2.05454
G1 X171.091 Y40.647 E2.06741
G1 X170.898 Y40.312 E2.08027
G1 X170.639 Y40.025 E2.09313
G1 X170.326 Y39.797 E2.10601
G1 X169.972 Y39.64 E2.11889
G1 X169.593 Y39.559 E2.13178
G1 X169.207 Y39.559 E2.14462
G1 X168.828 Y39.64 E2.15751
G1 X168.474 Y39.797 E2.17039
G0 F6000 X168.255 Y39.416
G1 F2700 E-2.82961
G0 F6000 X168.224 Y39.363
G0 X135.968 Y65.278
G0 X136.038 Y65.348
;TYPE:WALL-INNER
G1 F2700 E2.17039
G1 F1200 X135.687 Y65.806 E2.18958
G1 X135.467 Y66.339 E2.20876
G1 X135.391 Y66.91 E2.22792
G1 X135.467 Y67.481 E2.24707
G1 X135.687 Y68.014 E2.26625
G1 X136.038 Y68.472 E2.28545
G1 X136.496 Y68.823 E2.30464
G1 X137.029 Y69.043 E2.32382
G1 X137.6 Y69.119 E2.34298
G1 X138.171 Y69.043 E2.36213
G1 X138.704 Y68.823 E2.38131
G1 X139.162 Y68.472 E2.4005
G1 X139.513 Y68.014 E2.4197
G1 X139.733 Y67.481 E2.43888
G1 X139.809 Y66.91 E2.45803
G1 X139.733 Y66.339 E2.47719
G1 X139.513 Y65.806 E2.49637
G1 X139.162 Y65.348 E2.51556
G1 X138.704 Y64.997 E2.53476
G1 X138.171 Y64.777 E2.55393
G1 X137.6 Y64.701 E2.57309
G1 X137.029 Y64.777 E2.59225
G1 X136.496 Y64.997 E2.61143
G1 X136.038 Y65.348 E2.63062
G0 F6000 X136.323 Y65.633
;TYPE:WALL-OUTER
G1 F1200 X136.037 Y66.007 E2.64628
G1 X135.857 Y66.443 E2.66197
G1 X135.795 Y66.91 E2.67764
G1 X135.857 Y67.377 E2.69331
G1 X136.037 Y67.813 E2.709
G1 X136.323 Y68.187 E2.72466
G1 X136.697 Y68.473 E2.74032
G1 X137.133 Y68.653 E2.756
G1 X137.6 Y68.715 E2.77167
G1 X138.067 Y68.653 E2.78734
G1 X138.503 Y68.473 E2.80303
G1 X138.877 Y68.187 E2.81869
G1 X139.163 Y67.813 E2.83435
G1 X139.343 Y67.377 E2.85004
G1 X139.405 Y66.91 E2.86571
G1 X139.343 Y66.443 E2.88138
G1 X139.163 Y66.007 E2.89707
G1 X138.877 Y65.633 E2.91272
G1 X138.503 Y65.347 E2.92838
G1 X138.067 Y65.167 E2.94407
G1 X137.6 Y65.105 E2.95974
G1 X137.133 Y65.167 E2.97541
G1 X136.697 Y65.347 E2.9911
G1 X136.323 Y65.633 E3.00676
G0 F6000 X136.012 Y65.322
G1 F2700 E-1.99324
G0 F6000 X135.968 Y65.278
G0 X135.653 Y65.787
G0 X135.429 Y66.329
G0 X123.278 Y113.227
G0 X123.035 Y113.3
G0 X123.035 Y113.2
;TYPE:WALL-INNER
G1 F2700 E3.00676
G1 F1200 X123.036 Y113.2 E3.00679
G1 X123.249 Y113.2 E3.01388
G1 X123.234 Y112.987 E3.01838
G1 X123.132 Y111.579 E3.06533
G1 X122.595 Y109.11 E3.14937
G1 X121.712 Y106.742 E3.23343
G1 X120.501 Y104.524 E3.31748
G1 X118.987 Y102.501 E3.40152
G1 X117.199 Y100.713 E3.48562
G1 X115.176 Y99.199 E3.56966
G1 X112.958 Y97.988 E3.65371
G1 X110.59 Y97.105 E3.73777
G1 X108.121 Y96.568 E3.82181
G1 X106.713 Y96.466 E3.86876
G1 X106.5 Y96.451 E3.87587
G1 X106.5 Y96.664 E3.88036
G1 X106.5 Y96.665 E3.88039
G1 X106.5 Y101.669 E4.04682
G1 X107.46 Y101.741 E4.07884
G1 X109.288 Y102.158 E4.1412
G1 X111.023 Y102.839 E4.2032
G1 X112.638 Y103.771 E4.26521
G1 X114.1 Y104.937 E4.32741
G1 X115.374 Y106.311 E4.38973
G1 X116.425 Y107.851 E4.45174
G1 X117.233 Y109.531 E4.51375
G1 X117.784 Y111.312 E4.57575
G1 X118.069 Y113.2 E4.63926
G1 X123.035 Y113.2 E4.80443
G0 F6000 X122.819 Y112.8
;TYPE:WALL-OUTER
G1 F1200 X122.735 Y111.636 E4.84325
G1 X122.21 Y109.223 E4.92538
G1 X121.347 Y106.909 E5.00752
G1 X120.164 Y104.741 E5.08967
G1 X118.684 Y102.764 E5.17181
G1 X116.936 Y101.016 E5.25403
G1 X114.959 Y99.536 E5.33617
G1 X112.791 Y98.353 E5.41831
G1 X110.477 Y97.49 E5.50045
G1 X108.064 Y96.965 E5.58259
G1 X106.9 Y96.881 E5.6214
G1 X106.9 Y101.298 E5.76831
G1 X107.519 Y101.344 E5.78896
G1 X109.404 Y101.774 E5.85326
G1 X111.197 Y102.478 E5.91733
G1 X112.866 Y103.441 E5.98142
G1 X114.372 Y104.642 E6.04549
G1 X115.686 Y106.059 E6.10976
G1 X116.772 Y107.651 E6.17386
G1 X117.607 Y109.387 E6.23793
G1 X118.176 Y111.227 E6.30199
G1 X118.413 Y112.8 E6.3549
G1 X122.819 Y112.8 E6.50144
G0 F6000 X122.819 Y113.3
G0 X116.072 Y113.3
G0 X116.072 Y113.2
;TYPE:WALL-INNER
G1 F1200 X116.073 Y113.2 E6.50147
G1 X116.319 Y113.2 E6.50966
G1 X116.267 Y112.959 E6.51466
G1 X115.86 Y111.088 E6.57835
G1 X115.327 Y109.659 E6.62908
G1 X114.596 Y108.319 E6.67985
G1 X113.682 Y107.097 E6.7306
G1 X112.603 Y106.018 E6.78135
G1 X111.381 Y105.104 E6.83211
G1 X110.041 Y104.373 E6.88288
G1 X108.612 Y103.84 E6.9336
G1 X106.741 Y103.433 E6.99729
G1 X106.5 Y103.381 E7.00549
G1 X106.5 Y103.627 E7.01049
G1 X106.5 Y103.628 E7.01052
G1 X106.5 Y108.693 E7.17898
G1 X107.175 Y108.854 E7.20206
G1 X107.873 Y109.114 E7.22684
G1 X108.566 Y109.493 E7.25311
G1 X109.19 Y109.96 E7.27903
G1 X109.74 Y110.51 E7.3049
G1 X110.207 Y111.134 E7.33082
G1 X110.588 Y111.829 E7.35719
G1 X110.858 Y112.556 E7.38298
G1 X110.997 Y113.2 E7.40489
G1 X116.072 Y113.2 E7.57369
G0 F6000 X115.823 Y112.8
;TYPE:WALL-OUTER
G1 F1200 X115.475 Y111.201 E7.62812
G1 X114.962 Y109.825 E7.67696
G1 X114.259 Y108.536 E7.72579
G1 X113.379 Y107.36 E7.77465
G1 X112.34 Y106.321 E7.82352
G1 X111.164 Y105.441 E7.87237
G1 X109.875 Y104.738 E7.9212
G1 X108.499 Y104.225 E7.97005
G1 X106.9 Y103.877 E8.02447
G1 X106.9 Y108.377 E8.17414
G1 X107.294 Y108.471 E8.18762
G1 X108.038 Y108.748 E8.21402
G1 X108.782 Y109.155 E8.24223
G1 X109.454 Y109.658 E8.27015
G1 X110.042 Y110.246 E8.2978
G1 X110.545 Y110.918 E8.32572
G1 X110.952 Y111.662 E8.35393
G1 X111.243 Y112.445 E8.38171
G1 X111.32 Y112.8 E8.39379
G1 X115.823 Y112.8 E8.54356
G1 F2700 E3.54356
G0 F6000 X116.311 Y112.695
G0 X116.35 Y113.225
G0 X109.206 Y113.25
G0 X108.979 Y112.558
G0 X108.408 Y111.667
G0 X107.608 Y110.974
G0 X106.646 Y110.536
G0 X105.6 Y110.384
G0 X104.554 Y110.536
G0 X103.592 Y110.974
G0 X102.792 Y111.667
G0 X102.221 Y112.558
G0 X102.053 Y113.131
G0 X88.165 Y114.9
G0 X88.165 Y115
;TYPE:WALL-INNER
G1 F2700 E8.54356
G1 F1200 X88.164 Y115 E8.5436
G1 X87.951 Y115 E8.55068
G1 X87.966 Y115.213 E8.55518
G1 X88.068 Y116.621 E8.60214
G1 X88.605 Y119.09 E8.68618
G1 X89.488 Y121.458 E8.77023
G1 X90.699 Y123.676 E8.85428
G1 X92.213 Y125.699 E8.93833
G1 X94.001 Y127.487 E9.02243
G1 X96.024 Y129.001 E9.10647
G1 X98.242 Y130.212 E9.19052
G1 X100.61 Y131.095 E9.27458
G1 X103.079 Y131.632 E9.35862
G1 X104.487 Y131.734 E9.40557
G1 X104.7 Y131.749 E9.41267
G1 X104.7 Y131.536 E9.41716
G1 X104.7 Y131.535 E9.41719
G1 X104.7 Y126.531 E9.58363
G1 X103.74 Y126.459 E9.61565
G1 X101.912 Y126.042 E9.67801
G1 X100.177 Y125.361 E9.74
G1 X98.562 Y124.429 E9.80202
G1 X97.1 Y123.263 E9.86422
G1 X95.826 Y121.889 E9.92654
G1 X94.775 Y120.349 E9.98855
G1 X93.967 Y118.669 E10.05055
G1 X93.416 Y116.888 E10.11256
G1 X93.131 Y115 E10.17607
G1 X88.165 Y115 E10.34124
G0 F6000 X88.381 Y115.4
;TYPE:WALL-OUTER
G1 F1200 X88.465 Y116.564 E10.38005
G1 X88.99 Y118.977 E10.46219
G1 X89.853 Y121.291 E10.54433
G1 X91.036 Y123.459 E10.62647
G1 X92.516 Y125.436 E10.70861
G1 X94.264 Y127.184 E10.79083
G1 X96.241 Y128.664 E10.87297
G1 X98.409 Y129.847 E10.95512
G1 X100.723 Y130.71 E11.03726
G1 X103.136 Y131.235 E11.11939
G1 X104.3 Y131.319 E11.15821
G1 X104.3 Y126.902 E11.30512
G1 X103.681 Y126.856 E11.32576
G1 X101.796 Y126.426 E11.39007
G1 X100.003 Y125.722 E11.45414
G1 X98.334 Y124.759 E11.51823
G1 X96.828 Y123.558 E11.58229
G1 X95.514 Y122.141 E11.64657
G1 X94.428 Y120.549 E11.71066
G1 X93.593 Y118.813 E11.77474
G1 X93.024 Y116.973 E11.83879
G1 X92.787 Y115.4 E11.8917
G1 X88.381 Y115.4 E12.03825
G0 F6000 X88.381 Y114.9
G0 X88.165 Y113.3
G0 X88.165 Y113.2
;TYPE:WALL-INNER
G1 F1200 X93.131 Y113.2 E12.20342
G1 X93.416 Y111.312 E12.26692
G1 X93.967 Y109.531 E12.32893
G1 X94.775 Y107.851 E12.39093
G1 X95.826 Y106.311 E12.45295
G1 X97.1 Y104.937 E12.51527
G1 X98.562 Y103.771 E12.57746
G1 X100.177 Y102.839 E12.63948
G1 X101.912 Y102.158 E12.70147
G1 X103.74 Y101.741 E12.76384
G1 X104.7 Y101.669 E12.79586
G1 X104.7 Y96.665 E12.96229
G1 X104.7 Y96.664 E12.96232
G1 X104.7 Y96.451 E12.96941
G1 X104.487 Y96.466 E12.97391
G1 X103.079 Y96.568 E13.02086
G1 X100.61 Y97.105 E13.1049
G1 X98.242 Y97.988 E13.18896
G1 X96.024 Y99.199 E13.27301
G1 X94.001 Y100.713 E13.35705
G1 X92.213 Y102.501 E13.44115
G1 X90.699 Y104.524 E13.52519
G1 X89.488 Y106.742 E13.60924
G1 X88.605 Y109.11 E13.6933
G1 X88.068 Y111.579 E13.77734
G1 X87.966 Y112.987 E13.82429
G1 X87.951 Y113.2 E13.8314
G1 X88.164 Y113.2 E13.83589
G1 X88.165 Y113.2 E13.83592
G0 F6000 X88.381 Y112.8
;TYPE:WALL-OUTER
G1 F1200 X92.787 Y112.8 E13.98246
G1 X93.024 Y111.227 E14.03537
G1 X93.593 Y109.387 E14.09943
G1 X94.428 Y107.651 E14.1635
G1 X95.514 Y106.059 E14.2276
G1 X96.828 Y104.642 E14.29187
G1 X98.334 Y103.441 E14.35594
G1 X100.003 Y102.478 E14.42003
G1 X101.796 Y101.774 E14.4841
G1 X103.681 Y101.344 E14.5484
G1 X104.3 Y101.298 E14.56905
G1 X104.3 Y96.881 E14.71596
G1 X103.136 Y96.965 E14.75477
G1 X100.723 Y97.49 E14.83691
G1 X98.409 Y98.353 E14.91905
G1 X96.241 Y99.536 E15.00119
G1 X94.264 Y101.016 E15.08333
G1 X92.516 Y102.764 E15.16555
G1 X91.036 Y104.741 E15.24769
G1 X89.853 Y106.909 E15.32984
G1 X88.99 Y109.223 E15.41198
G1 X88.465 Y111.636 E15.49411
G1 X88.381 Y112.8 E15.53293
G0 F6000 X88.381 Y113.3
G0 X95.128 Y113.3
G0 X95.128 Y113.2
;TYPE:WALL-INNER
G1 F1200 X100.203 Y113.2 E15.70172
G1 X100.342 Y112.556 E15.72364
G1 X100.612 Y111.829 E15.74943
G1 X100.995 Y111.131 E15.77591
G1 X101.435 Y110.541 E15.80039
G1 X101.478 Y110.492 E15.80256
G1 X102.01 Y109.96 E15.82758
G1 X102.634 Y109.493 E15.85351
G1 X103.329 Y109.112 E15.87987
G1 X104.056 Y108.842 E15.90566
G1 X104.7 Y108.703 E15.92757
G1 X104.7 Y103.628 E16.09637
G1 X104.7 Y103.627 E16.0964
G1 X104.7 Y103.381 E16.10458
G1 X104.459 Y103.433 E16.10959
G1 X102.588 Y103.84 E16.17328
G1 X101.159 Y104.373 E16.22401
G1 X99.819 Y105.104 E16.27477
G1 X98.597 Y106.018 E16.32553
G1 X97.518 Y107.097 E16.37628
G1 X96.604 Y108.319 E16.42704
G1 X95.873 Y109.659 E16.47781
G1 X95.34 Y111.088 E16.52853
G1 X94.933 Y112.959 E16.59222
G1 X94.881 Y113.2 E16.60042
G1 X95.127 Y113.2 E16.60542
G1 X95.128 Y113.2 E16.60545
G0 F6000 X95.377 Y112.8
;TYPE:WALL-OUTER
G1 F1200 X99.88 Y112.8 E16.75522
G1 X99.957 Y112.445 E16.7673
G1 X100.248 Y111.662 E16.79508
G1 X100.655 Y110.918 E16.82329
G1 X101.134 Y110.277 E16.84991
G1 X101.184 Y110.22 E16.85243
G1 X101.746 Y109.658 E16.87886
G1 X102.418 Y109.155 E16.90678
G1 X103.162 Y108.748 E16.93499
G1 X103.945 Y108.457 E16.96277
G1 X104.3 Y108.38 E16.97485
G1 X104.3 Y103.877 E17.12462
G1 X102.701 Y104.225 E17.17905
G1 X101.325 Y104.738 E17.22789
G1 X100.036 Y105.441 E17.27673
G1 X98.86 Y106.321 E17.32558
G1 X97.821 Y107.36 E17.37445
G1 X96.941 Y108.536 E17.4233
G1 X96.238 Y109.825 E17.47214
G1 X95.725 Y111.201 E17.52098
G1 X95.377 Y112.8 E17.57541
G0 F6000 X94.89 Y112.694
G0 X94.858 Y113.123
G0 X95.128 Y114.9
G0 X95.128 Y115
;TYPE:WALL-INNER
G1 F1200 X95.127 Y115 E17.57544
G1 X94.881 Y115 E17.58362
G1 X94.933 Y115.241 E17.58863
G1 X95.34 Y117.112 E17.65232
G1 X95.873 Y118.541 E17.70304
G1 X96.604 Y119.881 E17.75381
G1 X97.518 Y121.103 E17.80457
G1 X98.597 Y122.182 E17.85532
G1 X99.819 Y123.096 E17.90608
G1 X101.159 Y123.827 E17.95685
G1 X102.588 Y124.36 E18.00757
G1 X104.459 Y124.767 E18.07126
G1 X104.7 Y124.819 E18.07946
G1 X104.7 Y124.573 E18.08446
G1 X104.7 Y124.572 E18.08449
G1 X104.7 Y119.507 E18.25295
G1 X104.025 Y119.346 E18.27603
G1 X103.327 Y119.086 E18.30081
G1 X102.634 Y118.707 E18.32708
G1 X102.01 Y118.24 E18.353
G1 X101.46 Y117.69 E18.37887
G1 X100.993 Y117.066 E18.40479
G1 X100.612 Y116.371 E18.43115
G1 X100.342 Y115.644 E18.45695
G1 X100.203 Y115 E18.47886
