;FLAVOR:Marlin
;TIME:1748
;Filament used: 1.26078m
;Layer height: 0.2
;MINX:92.706
;MINY:92.703
;MINZ:0.2
;MAXX:142.295
;MAXY:142.297
;MAXZ:2
;Generated with Cura_SteamEngine master
M82 ;absolute extrusion mode
; Ender 3 Custom Start G-code
M140 S60 ; Set Heat Bed temperature
M104 S160 ; start warming extruder to 160
G28 ; Home all axes
G29 ; Auto bed-level (BL-Touch)
G92 E0 ; Reset Extruder
M190 S60 ; Wait for Heat Bed temperature
M104 S220 ; Set Extruder temperature
G1 X0 Y0 Z0.3 F5000.0 ; Move to 0 0
M109 S220 ; Wait for Extruder temperature
G1 X1 Y20 Z0.3 F5000.0 ; Move to start position
; G1 Z2.0 F3000 ; Move Z Axis up little to prevent scratching of Heat Bed
G1 X3 Y200.0 Z0.3 F1500.0 E15 ; Draw the first line
G1 X3.3 Y200.0 Z0.3 F5000.0 ; Move to side a little
G1 X3.3 Y20 Z0.3 F1500.0 E30 ; Draw the second line
G92 E0 ; Reset Extruder
G1 Z2.0 F3000 ; Move Z Axis up little to prevent scratching of Heat Bed
G92 E0
G92 E0
G1 F2700 E-5
;LAYER_COUNT:10
;LAYER:0
M107
;MESH:Hydrogen_Generator_Bottom.stl
G0 F6000 X115.469 Y126.697 Z0.2
;TYPE:WALL-INNER
G1 F2700 E0
G1 F1200 X114.694 Y126.98 E0.02744
G1 X113.956 Y127.35 E0.0549
G1 X113.266 Y127.804 E0.08237
G1 X112.634 Y128.335 E0.10983
G1 X112.067 Y128.935 E0.13728
G1 X111.573 Y129.598 E0.16478
G1 X111.16 Y130.313 E0.19225
G1 X110.833 Y131.071 E0.2197
G1 X110.596 Y131.863 E0.2472
G1 X110.453 Y132.676 E0.27465
G1 X110.405 Y133.5 E0.30211
G1 X110.453 Y134.324 E0.32956
G1 X110.596 Y135.137 E0.35702
G1 X110.833 Y135.929 E0.38451
G1 X111.16 Y136.687 E0.41197
G1 X111.573 Y137.402 E0.43943
G1 X112.067 Y138.065 E0.46693
G1 X112.634 Y138.665 E0.49439
G1 X113.266 Y139.196 E0.52184
G1 X113.956 Y139.65 E0.54932
G1 X114.694 Y140.02 E0.57677
G1 X115.469 Y140.303 E0.60422
G1 X116.272 Y140.493 E0.63166
G1 X117.093 Y140.589 E0.65915
G1 X117.919 Y140.589 E0.68663
G1 X118.74 Y140.493 E0.71412
G1 X119.542 Y140.303 E0.74153
G1 X120.319 Y140.02 E0.76904
G1 X121.056 Y139.65 E0.79646
G1 X121.747 Y139.197 E0.82395
G1 X122.38 Y138.665 E0.85145
G1 X122.945 Y138.064 E0.87888
G1 X123.439 Y137.402 E0.90636
G1 X123.852 Y136.687 E0.93382
G1 X124.179 Y135.929 E0.96128
G1 X124.416 Y135.137 E0.98877
G1 X124.559 Y134.324 E1.01623
G1 X124.607 Y133.5 E1.04368
G1 X124.559 Y132.676 E1.07113
G1 X124.416 Y131.863 E1.09859
G1 X124.179 Y131.071 E1.12608
G1 X123.852 Y130.313 E1.15354
G1 X123.439 Y129.598 E1.18101
G1 X122.945 Y128.936 E1.20848
G1 X122.38 Y128.335 E1.23591
G1 X121.747 Y127.803 E1.26342
G1 X121.056 Y127.35 E1.2909
G1 X120.319 Y126.98 E1.31833
G1 X119.542 Y126.697 E1.34583
G1 X118.74 Y126.507 E1.37324
G1 X117.919 Y126.411 E1.40073
G1 X117.093 Y126.411 E1.42821
G1 X116.272 Y126.507 E1.4557
G1 X115.469 Y126.697 E1.48315
G0 F6000 X115.584 Y127.081
;TYPE:WALL-OUTER
G1 F1200 X114.853 Y127.348 E1.50903
G1 X114.156 Y127.697 E1.53496
G1 X113.505 Y128.125 E1.56087
G1 X112.909 Y128.626 E1.58676
G1 X112.374 Y129.193 E1.61269
G1 X111.908 Y129.818 E1.63862
G1 X111.518 Y130.493 E1.66455
G1 X111.21 Y131.208 E1.69044
G1 X110.986 Y131.955 E1.71638
G1 X110.851 Y132.722 E1.74229
G1 X110.806 Y133.5 E1.76821
G1 X110.851 Y134.278 E1.79412
G1 X110.986 Y135.045 E1.82003
G1 X111.21 Y135.792 E1.84597
G1 X111.518 Y136.507 E1.87186
G1 X111.908 Y137.182 E1.89779
G1 X112.374 Y137.807 E1.92372
G1 X112.909 Y138.374 E1.94965
G1 X113.505 Y138.875 E1.97554
G1 X114.156 Y139.303 E2.00146
G1 X114.853 Y139.652 E2.02738
G1 X115.584 Y139.919 E2.05327
G1 X116.342 Y140.098 E2.07917
G1 X117.116 Y140.189 E2.10509
G1 X117.896 Y140.189 E2.13103
G1 X118.67 Y140.098 E2.15695
G1 X119.427 Y139.919 E2.18283
G1 X120.16 Y139.652 E2.20877
G1 X120.856 Y139.303 E2.23467
G1 X121.508 Y138.875 E2.26061
G1 X122.105 Y138.374 E2.28653
G1 X122.638 Y137.807 E2.31241
G1 X123.104 Y137.182 E2.33834
G1 X123.494 Y136.507 E2.36427
G1 X123.802 Y135.792 E2.39017
G1 X124.026 Y135.045 E2.4161
G1 X124.161 Y134.278 E2.44201
G1 X124.206 Y133.5 E2.46793
G1 X124.161 Y132.722 E2.49385
G1 X124.026 Y131.955 E2.51975
G1 X123.802 Y131.208 E2.54569
G1 X123.494 Y130.493 E2.57158
G1 X123.104 Y129.818 E2.59751
G1 X122.638 Y129.193 E2.62344
G1 X122.105 Y128.626 E2.64932
G1 X121.508 Y128.125 E2.67524
G1 X120.856 Y127.697 E2.70118
G1 X120.16 Y127.348 E2.72708
G1 X119.427 Y127.081 E2.75303
G1 X118.67 Y126.902 E2.7789
G1 X117.896 Y126.811 E2.80482
G1 X117.116 Y126.811 E2.83076
G1 X116.342 Y126.902 E2.85668
G1 X115.584 Y127.081 E2.88259
G0 F6000 X115.458 Y126.66
G0 X115.441 Y126.602
G0 X113.719 Y116.89
G0 X113.561 Y116.298
G0 X113.302 Y115.741
G0 X112.949 Y115.24
G0 X112.516 Y114.807
G0 X112.015 Y114.454
G0 X111.458 Y114.195
G0 X110.866 Y114.037
G0 X110.372 Y113.993
G0 X109.033 Y114.139
G0 X109.067 Y114.232
;TYPE:WALL-INNER
G1 F1200 X108.518 Y114.488 E2.90274
G1 X108.021 Y114.836 E2.92292
G1 X107.593 Y115.265 E2.94307
G1 X107.244 Y115.761 E2.96324
G1 X106.988 Y116.311 E2.98342
G1 X106.832 Y116.896 E3.00356
G1 X106.778 Y117.5 E3.02373
G1 X106.832 Y118.104 E3.0439
G1 X106.988 Y118.689 E3.06403
G1 X107.244 Y119.239 E3.08421
G1 X107.593 Y119.735 E3.10438
G1 X108.021 Y120.164 E3.12454
G1 X108.518 Y120.512 E3.14472
G1 X109.067 Y120.768 E3.16486
G1 X109.652 Y120.924 E3.185
G1 X110.256 Y120.978 E3.20517
G1 X110.86 Y120.924 E3.22534
G1 X111.445 Y120.768 E3.24548
G1 X111.995 Y120.512 E3.26565
G1 X112.491 Y120.163 E3.28583
G1 X112.919 Y119.735 E3.30596
G1 X113.268 Y119.239 E3.32613
G1 X113.524 Y118.689 E3.34631
G1 X113.68 Y118.104 E3.36644
G1 X113.682 Y118.085 E3.36708
G1 X113.734 Y117.5 E3.38661
G1 X113.682 Y116.915 E3.40615
G1 X113.68 Y116.896 E3.40678
G1 X113.524 Y116.311 E3.42692
G1 X113.268 Y115.761 E3.4471
G1 X112.919 Y115.265 E3.46727
G1 X112.491 Y114.837 E3.4874
G1 X111.995 Y114.488 E3.50757
G1 X111.445 Y114.232 E3.52775
G1 X110.86 Y114.076 E3.54789
G1 X110.256 Y114.022 E3.56806
G1 X109.652 Y114.076 E3.58823
G1 X109.067 Y114.232 E3.60836
G0 F6000 X109.204 Y114.609
;TYPE:WALL-OUTER
G1 F1200 X108.719 Y114.836 E3.62617
G1 X108.279 Y115.144 E3.64404
G1 X107.9 Y115.523 E3.66186
G1 X107.592 Y115.962 E3.6797
G1 X107.365 Y116.448 E3.69754
G1 X107.227 Y116.966 E3.71537
G1 X107.18 Y117.5 E3.7332
G1 X107.227 Y118.034 E3.75103
G1 X107.365 Y118.552 E3.76886
G1 X107.592 Y119.038 E3.7867
G1 X107.9 Y119.477 E3.80454
G1 X108.279 Y119.856 E3.82236
G1 X108.719 Y120.164 E3.84023
G1 X109.204 Y120.391 E3.85804
G1 X109.722 Y120.529 E3.87587
G1 X110.256 Y120.576 E3.8937
G1 X110.79 Y120.529 E3.91153
G1 X111.308 Y120.391 E3.92936
G1 X111.794 Y120.164 E3.9472
G1 X112.233 Y119.856 E3.96503
G1 X112.612 Y119.477 E3.98286
G1 X112.92 Y119.038 E4.0007
G1 X113.147 Y118.552 E4.01854
G1 X113.285 Y118.034 E4.03637
G1 X113.332 Y117.5 E4.0542
G1 X113.285 Y116.966 E4.07203
G1 X113.147 Y116.448 E4.08986
G1 X112.92 Y115.962 E4.1077
G1 X112.612 Y115.523 E4.12553
G1 X112.233 Y115.144 E4.14336
G1 X111.794 Y114.836 E4.1612
G1 X111.308 Y114.609 E4.17904
G1 X110.79 Y114.471 E4.19687
G1 X110.256 Y114.424 E4.2147
G1 X109.722 Y114.471 E4.23253
G1 X109.204 Y114.609 E4.25036
G0 F6000 X109.054 Y114.196
G0 X109.033 Y114.139
G0 X110.023 Y114.013
G0 X116.283 Y114.139
G0 X116.317 Y114.232
;TYPE:WALL-INNER
G1 F1200 X115.768 Y114.488 E4.2705
G1 X115.271 Y114.836 E4.29068
G1 X114.843 Y115.265 E4.31084
G1 X114.494 Y115.761 E4.33101
G1 X114.238 Y116.311 E4.35119
G1 X114.082 Y116.896 E4.37132
G1 X114.08 Y116.915 E4.37196
G1 X114.028 Y117.5 E4.38893
G1 X114.08 Y118.085 E4.40591
G1 X114.082 Y118.104 E4.40654
G1 X114.238 Y118.689 E4.42668
G1 X114.494 Y119.239 E4.44686
G1 X114.843 Y119.735 E4.46703
G1 X115.271 Y120.164 E4.48718
G1 X115.768 Y120.512 E4.50736
G1 X116.317 Y120.768 E4.52751
G1 X116.902 Y120.924 E4.54765
G1 X117.506 Y120.978 E4.56782
G1 X118.11 Y120.924 E4.58798
G1 X118.695 Y120.768 E4.60812
G1 X119.245 Y120.512 E4.6283
G1 X119.741 Y120.163 E4.64847
G1 X120.169 Y119.735 E4.6686
G1 X120.518 Y119.239 E4.68877
G1 X120.774 Y118.689 E4.70895
G1 X120.93 Y118.104 E4.72909
G1 X120.932 Y118.085 E4.72972
G1 X120.984 Y117.5 E4.74926
G1 X120.932 Y116.915 E4.76879
G1 X120.93 Y116.896 E4.76943
G1 X120.774 Y116.311 E4.78957
G1 X120.518 Y115.761 E4.80974
G1 X120.169 Y115.265 E4.82991
G1 X119.741 Y114.837 E4.85005
G1 X119.245 Y114.488 E4.87022
G1 X118.695 Y114.232 E4.8904
G1 X118.11 Y114.076 E4.91053
G1 X117.506 Y114.022 E4.9307
G1 X116.902 Y114.076 E4.95087
G1 X116.317 Y114.232 E4.97101
G0 F6000 X116.454 Y114.609
;TYPE:WALL-OUTER
G1 F1200 X115.969 Y114.836 E4.98882
G1 X115.529 Y115.144 E5.00668
G1 X115.15 Y115.523 E5.02451
G1 X114.842 Y115.962 E5.04235
G1 X114.615 Y116.448 E5.06019
G1 X114.477 Y116.966 E5.07802
G1 X114.43 Y117.5 E5.09585
G1 X114.477 Y118.034 E5.11368
G1 X114.615 Y118.552 E5.1315
G1 X114.842 Y119.038 E5.14935
G1 X115.15 Y119.477 E5.16718
G1 X115.529 Y119.856 E5.18501
G1 X115.969 Y120.164 E5.20287
G1 X116.454 Y120.391 E5.22068
G1 X116.972 Y120.529 E5.23851
G1 X117.506 Y120.576 E5.25634
G1 X118.04 Y120.529 E5.27417
G1 X118.558 Y120.391 E5.292
G1 X119.044 Y120.164 E5.30984
G1 X119.483 Y119.856 E5.32768
G1 X119.862 Y119.477 E5.34551
G1 X120.17 Y119.038 E5.36334
G1 X120.397 Y118.552 E5.38118
G1 X120.535 Y118.034 E5.39901
G1 X120.582 Y117.5 E5.41684
G1 X120.535 Y116.966 E5.43467
G1 X120.397 Y116.448 E5.4525
G1 X120.17 Y115.962 E5.47034
G1 X119.862 Y115.523 E5.48818
G1 X119.483 Y115.144 E5.50601
G1 X119.044 Y114.836 E5.52384
G1 X118.558 Y114.609 E5.54168
G1 X118.04 Y114.471 E5.55951
G1 X117.506 Y114.424 E5.57734
G1 X116.972 Y114.471 E5.59517
G1 X116.454 Y114.609 E5.613
G0 F6000 X116.304 Y114.196
G0 X116.283 Y114.139
G0 X117.273 Y114.013
G0 X123.533 Y114.139
G0 X123.567 Y114.232
;TYPE:WALL-INNER
G1 F1200 X123.018 Y114.488 E5.63315
G1 X122.521 Y114.836 E5.65333
G1 X122.093 Y115.265 E5.67348
G1 X121.744 Y115.761 E5.69366
G1 X121.488 Y116.311 E5.71383
G1 X121.332 Y116.896 E5.73397
G1 X121.33 Y116.915 E5.73461
G1 X121.278 Y117.5 E5.75158
G1 X121.33 Y118.085 E5.76855
G1 X121.332 Y118.104 E5.76919
G1 X121.488 Y118.689 E5.78932
G1 X121.744 Y119.239 E5.8095
G1 X122.093 Y119.735 E5.82967
G1 X122.521 Y120.164 E5.84983
G1 X123.018 Y120.512 E5.87001
G1 X123.567 Y120.768 E5.89015
G1 X124.152 Y120.924 E5.91029
G1 X124.756 Y120.978 E5.93046
G1 X125.36 Y120.924 E5.95063
G1 X125.945 Y120.768 E5.97077
G1 X126.495 Y120.512 E5.99094
G1 X126.991 Y120.163 E6.01112
G1 X127.419 Y119.735 E6.03125
G1 X127.768 Y119.239 E6.05142
G1 X128.024 Y118.689 E6.0716
G1 X128.18 Y118.104 E6.09173
G1 X128.234 Y117.5 E6.1119
G1 X128.18 Y116.896 E6.13207
G1 X128.024 Y116.311 E6.15221
G1 X127.768 Y115.761 E6.17239
G1 X127.419 Y115.265 E6.19256
G1 X126.991 Y114.837 E6.21269
G1 X126.495 Y114.488 E6.23286
G1 X125.945 Y114.232 E6.25304
G1 X125.36 Y114.076 E6.27318
G1 X124.756 Y114.022 E6.29335
G1 X124.152 Y114.076 E6.31352
G1 X123.567 Y114.232 E6.33365
G0 F6000 X123.704 Y114.609
;TYPE:WALL-OUTER
G1 F1200 X123.219 Y114.836 E6.35146
G1 X122.779 Y115.144 E6.36933
G1 X122.4 Y115.523 E6.38715
G1 X122.092 Y115.962 E6.40499
G1 X121.865 Y116.448 E6.42283
G1 X121.727 Y116.966 E6.44066
G1 X121.68 Y117.5 E6.45849
G1 X121.727 Y118.034 E6.47632
G1 X121.865 Y118.552 E6.49415
G1 X122.092 Y119.038 E6.51199
G1 X122.4 Y119.477 E6.52983
G1 X122.779 Y119.856 E6.54765
G1 X123.219 Y120.164 E6.56552
G1 X123.704 Y120.391 E6.58333
G1 X124.222 Y120.529 E6.60116
G1 X124.756 Y120.576 E6.61899
G1 X125.29 Y120.529 E6.63682
G1 X125.808 Y120.391 E6.65465
G1 X126.294 Y120.164 E6.67249
G1 X126.733 Y119.856 E6.69032
G1 X127.112 Y119.477 E6.70815
G1 X127.42 Y119.038 E6.72599
G1 X127.647 Y118.552 E6.74383
G1 X127.785 Y118.034 E6.76166
G1 X127.832 Y117.5 E6.77949
G1 X127.785 Y116.966 E6.79732
G1 X127.647 Y116.448 E6.81515
G1 X127.42 Y115.962 E6.83299
G1 X127.112 Y115.523 E6.85082
G1 X126.733 Y115.144 E6.86865
G1 X126.294 Y114.836 E6.88649
G1 X125.808 Y114.609 E6.90433
G1 X125.29 Y114.471 E6.92216
G1 X124.756 Y114.424 E6.93999
G1 X124.222 Y114.471 E6.95782
G1 X123.704 Y114.609 E6.97565
G0 F6000 X123.554 Y114.196
G0 X123.533 Y114.139
G0 X137.156 Y103.201
G0 X137.236 Y103.143
;TYPE:WALL-INNER
G1 F1200 X138.071 Y104.369 E7.02498
G1 X138.818 Y105.619 E7.07342
G1 X139.492 Y106.92 E7.12215
G1 X140.081 Y108.24 E7.17022
G1 X140.598 Y109.619 E7.21921
G1 X141.025 Y111.003 E7.26738
G1 X141.371 Y112.423 E7.31599
G1 X141.634 Y113.869 E7.36488
G1 X141.807 Y115.31 E7.41315
G1 X141.895 Y116.764 E7.4616
G1 X141.895 Y118.236 E7.51055
G1 X141.808 Y119.678 E7.5586
G1 X141.634 Y121.128 E7.60718
G1 X141.371 Y122.577 E7.65616
G1 X141.025 Y123.996 E7.70474
G1 X140.599 Y125.379 E7.75287
G1 X140.082 Y126.756 E7.80179
G1 X139.492 Y128.08 E7.85
G1 X138.818 Y129.381 E7.89873
G1 X138.071 Y130.631 E7.94717
G1 X137.24 Y131.852 E7.99629
G1 X136.356 Y132.994 E8.04432
G1 X135.396 Y134.091 E8.09281
G1 X134.37 Y135.134 E8.14147
G1 X133.277 Y136.118 E8.19038
G1 X132.145 Y137.021 E8.23855
G1 X130.941 Y137.868 E8.28751
G1 X129.71 Y138.63 E8.33566
G1 X128.422 Y139.322 E8.38429
G1 X127.096 Y139.937 E8.43291
G1 X125.734 Y140.472 E8.48158
G1 X124.366 Y140.916 E8.52941
G1 X122.922 Y141.291 E8.57903
G1 X121.506 Y141.57 E8.62704
G1 X120.06 Y141.766 E8.67557
G1 X118.606 Y141.875 E8.72407
G1 X117.15 Y141.897 E8.7725
G1 X115.678 Y141.83 E8.82151
G1 X114.229 Y141.679 E8.86996
G1 X112.79 Y141.44 E8.91848
G1 X111.364 Y141.115 E8.96712
G1 X109.968 Y140.706 E9.01551
G1 X108.593 Y140.213 E9.06409
G1 X107.247 Y139.638 E9.11277
G1 X105.932 Y138.98 E9.16168
G1 X104.686 Y138.26 E9.20954
G1 X103.463 Y137.453 E9.25828
G1 X102.296 Y136.579 E9.30677
G1 X101.172 Y135.626 E9.35578
G1 X100.128 Y134.627 E9.40384
G1 X99.13 Y133.551 E9.45266
G1 X98.21 Y132.433 E9.50081
G1 X97.341 Y131.237 E9.54998
G1 X96.558 Y130.009 E9.59842
G1 X95.84 Y128.724 E9.64738
G1 X95.216 Y127.428 E9.69522
G1 X94.662 Y126.073 E9.74391
G1 X94.192 Y124.696 E9.79231
G1 X93.801 Y123.278 E9.84123
G1 X93.5 Y121.862 E9.88938
G1 X93.279 Y120.395 E9.93872
G1 X93.151 Y118.973 E9.98621
G1 X93.106 Y117.506 E10.03502
G1 X93.151 Y116.023 E10.08437
G1 X93.279 Y114.605 E10.13173
G1 X93.5 Y113.138 E10.18107
G1 X93.801 Y111.721 E10.22925
G1 X94.192 Y110.303 E10.27817
G1 X94.664 Y108.921 E10.32674
G1 X95.217 Y107.571 E10.37527
G1 X95.84 Y106.276 E10.42306
G1 X96.558 Y104.991 E10.47202
G1 X97.343 Y103.76 E10.52058
G1 X98.21 Y102.567 E10.56963
G1 X99.13 Y101.449 E10.61779
G1 X100.131 Y100.37 E10.66674
G1 X101.175 Y99.371 E10.7148
G1 X102.299 Y98.419 E10.76379
G1 X103.463 Y97.547 E10.81217
G1 X104.688 Y96.738 E10.86099
G1 X105.932 Y96.02 E10.90877
G1 X107.247 Y95.362 E10.95767
G1 X108.593 Y94.787 E11.00636
G1 X109.968 Y94.294 E11.05494
G1 X111.364 Y93.885 E11.10332
G1 X112.79 Y93.56 E11.15197
G1 X114.229 Y93.321 E11.20048
G1 X115.678 Y93.17 E11.24894
G1 X117.15 Y93.103 E11.29795
G1 X118.606 Y93.125 E11.34638
G1 X120.06 Y93.234 E11.39488
G1 X121.506 Y93.43 E11.44341
G1 X122.922 Y93.709 E11.49141
G1 X124.366 Y94.084 E11.54103
G1 X125.734 Y94.528 E11.58887
G1 X127.096 Y95.063 E11.63754
G1 X128.422 Y95.678 E11.68616
G1 X129.71 Y96.37 E11.73479
G1 X130.941 Y97.132 E11.78294
G1 X132.145 Y97.979 E11.8319
G1 X133.277 Y98.882 E11.88006
G1 X134.37 Y99.866 E11.92898
G1 X135.396 Y100.909 E11.97764
G1 X136.356 Y102.006 E12.02612
G1 X137.236 Y103.143 E12.07394
G0 F6000 X137.567 Y102.918
;TYPE:WALL-OUTER
G1 F1200 X138.402 Y104.144 E12.12328
G1 X139.169 Y105.428 E12.17303
G1 X139.852 Y106.745 E12.22237
G1 X140.456 Y108.1 E12.27171
G1 X140.973 Y109.479 E12.32069
G1 X141.414 Y110.908 E12.37043
G1 X141.763 Y112.338 E12.41939
G1 X142.028 Y113.798 E12.46875
G1 X142.205 Y115.271 E12.51809
G1 X142.295 Y116.764 E12.56784
G1 X142.295 Y118.236 E12.6168
G1 X142.206 Y119.717 E12.66614
G1 X142.028 Y121.199 E12.71579
G1 X141.763 Y122.662 E12.76524
G1 X141.414 Y124.092 E12.8142
G1 X140.974 Y125.519 E12.86387
G1 X140.456 Y126.9 E12.91292
G1 X139.852 Y128.255 E12.96227
G1 X139.169 Y129.572 E13.01161
G1 X138.402 Y130.856 E13.06135
G1 X137.567 Y132.082 E13.11069
G1 X136.666 Y133.246 E13.15965
G1 X135.681 Y134.372 E13.20941
G1 X134.649 Y135.421 E13.25835
G1 X133.537 Y136.422 E13.30811
G1 X132.387 Y137.339 E13.35703
G1 X131.164 Y138.2 E13.40678
G1 X129.911 Y138.975 E13.45578
G1 X128.594 Y139.683 E13.50551
G1 X127.259 Y140.302 E13.55446
G1 X125.872 Y140.847 E13.60402
G1 X124.467 Y141.303 E13.65315
G1 X123.019 Y141.679 E13.70291
G1 X121.569 Y141.965 E13.75207
