; generated by Slic3r 1.3.0 on 2020-09-30 at 10:34:01

; external perimeters extrusion width = 0.44mm (2.38mm^3/s)
; perimeters extrusion width = 0.56mm (6.20mm^3/s)
; infill extrusion width = 0.50mm (7.31mm^3/s)
; solid infill extrusion width = 0.56mm (2.07mm^3/s)
; top infill extrusion width = 0.10mm (0.17mm^3/s)

M107
M190 S65 ; set bed temperature and wait for it to be reached
M104 S205 ; set temperature
G28 ; home all axes
G1 Z5 F5000 ; lift nozzle

; Filament gcode

M109 S205 ; set temperature and wait for it to be reached
G21 ; set units to millimeters
G90 ; use absolute coordinates
M82 ; use absolute distances for extrusion
G92 E0
G1 Z0.200 F7800.000
G1 E-2.00000 F2400.00000
G92 E0
G1 X95.220 Y95.429 F7800.000
G1 E2.00000 F2400.00000
G1 F1800
G1 X95.811 Y94.854 E2.02449
G1 X96.718 Y94.053 E2.06040
G1 X97.387 Y93.518 E2.08587
G1 X98.083 Y93.009 E2.11145
G1 X99.093 Y92.344 E2.14737
G1 X99.799 Y91.926 E2.17171
G1 X100.592 Y91.501 E2.19842
G1 X101.740 Y90.961 E2.23611
G1 X102.599 Y90.611 E2.26365
G1 X103.741 Y90.213 E2.29956
G1 X104.465 Y89.998 E2.32196
G1 X105.404 Y89.762 E2.35071
G1 X106.593 Y89.528 E2.38669
G1 X107.534 Y89.394 E2.41491
G1 X108.775 Y89.283 E2.45192
G1 X109.697 Y89.249 E2.47930
G1 X110.971 Y89.270 E2.51714
G1 X111.862 Y89.330 E2.54367
G1 X112.683 Y89.421 E2.56820
G1 X113.878 Y89.613 E2.60411
G1 X114.720 Y89.791 E2.62968
G1 X115.552 Y90.004 E2.65516
G1 X116.707 Y90.361 E2.69108
G1 X117.482 Y90.643 E2.71556
G1 X118.310 Y90.984 E2.74214
G1 X119.459 Y91.528 E2.77989
G1 X120.273 Y91.968 E2.80736
G1 X121.331 Y92.614 E2.84417
G1 X122.121 Y93.155 E2.87259
G1 X123.086 Y93.894 E2.90868
G1 X123.818 Y94.517 E2.93723
G1 X124.374 Y95.032 E2.95971
G1 X125.221 Y95.895 E2.99563
G1 X125.835 Y96.587 E3.02310
G1 X126.627 Y97.582 E3.06085
G1 X127.149 Y98.313 E3.08754
G1 X127.846 Y99.409 E3.12608
G1 X128.274 Y100.164 E3.15185
G1 X128.661 Y100.922 E3.17713
G1 X129.158 Y102.025 E3.21305
G1 X129.465 Y102.803 E3.23789
G1 X129.753 Y103.638 E3.26410
G1 X130.108 Y104.869 E3.30214
G1 X130.314 Y105.761 E3.32933
G1 X130.527 Y106.952 E3.36524
G1 X130.626 Y107.716 E3.38813
G1 X130.709 Y108.661 E3.41630
G1 X130.752 Y109.877 E3.45242
G1 X130.735 Y110.844 E3.48114
G1 X130.649 Y112.069 E3.51759
G1 X130.534 Y113.002 E3.54552
G1 X130.406 Y113.771 E3.56865
G1 X130.152 Y114.953 E3.60456
G1 X129.919 Y115.823 E3.63131
G1 X129.516 Y117.055 E3.66979
G1 X129.203 Y117.870 E3.69570
G1 X128.865 Y118.646 E3.72084
G1 X128.329 Y119.731 E3.75676
G1 X127.920 Y120.466 E3.78175
G1 X127.461 Y121.215 E3.80781
G1 X126.778 Y122.213 E3.84373
G1 X126.292 Y122.855 E3.86762
G1 X125.710 Y123.560 E3.89478
G1 X124.863 Y124.483 E3.93197
G1 X124.189 Y125.144 E3.96001
G1 X123.276 Y125.950 E3.99616
G1 X122.518 Y126.552 E4.02492
G1 X121.913 Y126.993 E4.04713
G1 X120.902 Y127.658 E4.08305
G1 X120.096 Y128.131 E4.11080
G1 X118.976 Y128.711 E4.14827
G1 X118.151 Y129.085 E4.17515
G1 X117.396 Y129.390 E4.19933
G1 X116.254 Y129.788 E4.23524
G1 X115.423 Y130.032 E4.26096
G1 X114.595 Y130.238 E4.28630
G1 X113.408 Y130.471 E4.32221
G1 X112.581 Y130.592 E4.34703
G1 X111.702 Y130.683 E4.37327
G1 X110.420 Y130.749 E4.41137
G1 X109.507 Y130.747 E4.43849
G1 X108.253 Y130.680 E4.47576
G1 X107.317 Y130.579 E4.50372
G1 X106.123 Y130.388 E4.53963
G1 X105.397 Y130.236 E4.56163
G1 X104.461 Y130.000 E4.59032
G1 X103.288 Y129.638 E4.62676
G1 X102.408 Y129.315 E4.65459
G1 X101.250 Y128.819 E4.69199
G1 X100.433 Y128.417 E4.71903
G1 X99.723 Y128.030 E4.74304
G1 X98.690 Y127.401 E4.77895
G1 X97.875 Y126.843 E4.80826
G1 X96.914 Y126.108 E4.84418
G1 X96.265 Y125.559 E4.86943
G1 X95.626 Y124.970 E4.89523
G1 X94.778 Y124.107 E4.93115
G1 X94.238 Y123.502 E4.95524
G1 X93.663 Y122.799 E4.98220
G1 X92.919 Y121.789 E5.01945
G1 X92.402 Y121.001 E5.04743
G1 X91.783 Y119.944 E5.08381
G1 X91.338 Y119.081 E5.11264
G1 X91.027 Y118.411 E5.13456
G1 X90.569 Y117.292 E5.17047
G1 X90.258 Y116.402 E5.19846
G1 X89.907 Y115.198 E5.23570
G1 X89.698 Y114.309 E5.26282
G1 X89.471 Y113.046 E5.30092
G1 X89.359 Y112.168 E5.32718
G1 X89.289 Y111.336 E5.35198
G1 X89.246 Y110.127 E5.38789
G1 X89.258 Y109.274 E5.41324
G1 X89.307 Y108.409 E5.43894
G1 X89.435 Y107.207 E5.47486
G1 X89.591 Y106.232 E5.50417
G1 X89.845 Y105.049 E5.54008
G1 X90.047 Y104.288 E5.56346
G1 X90.324 Y103.398 E5.59114
G1 X90.751 Y102.239 E5.62781
G1 X91.034 Y101.573 E5.64929
G1 X91.451 Y100.691 E5.67827
G1 X92.025 Y99.626 E5.71418
G1 X92.519 Y98.814 E5.74241
G1 X93.222 Y97.785 E5.77941
G1 X93.778 Y97.055 E5.80666
G1 X94.606 Y96.081 E5.84463
G1 X95.178 Y95.473 E5.86942
G1 X95.474 Y95.681 F7800.000
G1 F1800
G1 X96.052 Y95.118 E5.89339
G1 X96.949 Y94.325 E5.92893
G1 X97.605 Y93.801 E5.95385
G1 X98.285 Y93.304 E5.97886
G1 X99.284 Y92.645 E6.01440
G1 X99.975 Y92.236 E6.03825
G1 X100.750 Y91.822 E6.06434
G1 X101.884 Y91.287 E6.10157
G1 X102.723 Y90.946 E6.12844
G1 X103.853 Y90.552 E6.16398
G1 X104.563 Y90.342 E6.18597
G1 X105.479 Y90.111 E6.21401
G1 X106.655 Y89.880 E6.24961
G1 X107.573 Y89.749 E6.27713
G1 X108.800 Y89.639 E6.31371
G1 X109.700 Y89.606 E6.34044
G1 X110.958 Y89.627 E6.37782
G1 X111.829 Y89.686 E6.40373
G1 X112.633 Y89.775 E6.42775
G1 X113.815 Y89.964 E6.46329
G1 X114.639 Y90.138 E6.48830
G1 X115.452 Y90.347 E6.51322
G1 X116.596 Y90.700 E6.54876
G1 X117.355 Y90.976 E6.57274
G1 X118.163 Y91.309 E6.59869
G1 X119.298 Y91.847 E6.63599
G1 X120.092 Y92.277 E6.66280
G1 X121.139 Y92.915 E6.69918
G1 X121.909 Y93.442 E6.72690
G1 X122.864 Y94.173 E6.76261
G1 X123.578 Y94.781 E6.79045
G1 X124.123 Y95.286 E6.81253
G1 X124.962 Y96.140 E6.84807
G1 X125.561 Y96.816 E6.87488
G1 X126.343 Y97.799 E6.91217
G1 X126.853 Y98.513 E6.93823
G1 X127.541 Y99.594 E6.97627
G1 X127.959 Y100.333 E7.00147
G1 X128.338 Y101.074 E7.02621
G1 X128.830 Y102.166 E7.06175
G1 X129.130 Y102.928 E7.08607
G1 X129.412 Y103.743 E7.11168
G1 X129.763 Y104.959 E7.14924
G1 X129.964 Y105.830 E7.17578
G1 X130.174 Y107.008 E7.21132
G1 X130.272 Y107.758 E7.23379
G1 X130.352 Y108.680 E7.26125
G1 X130.395 Y109.883 E7.29700
G1 X130.378 Y110.826 E7.32499
G1 X130.293 Y112.037 E7.36105
G1 X130.181 Y112.948 E7.38830
G1 X130.056 Y113.702 E7.41099
G1 X129.804 Y114.872 E7.44653
G1 X129.576 Y115.722 E7.47265
G1 X129.179 Y116.938 E7.51063
G1 X128.872 Y117.734 E7.53596
G1 X128.542 Y118.494 E7.56056
G1 X128.012 Y119.567 E7.59610
G1 X127.611 Y120.287 E7.62056
G1 X127.163 Y121.018 E7.64604
G1 X126.487 Y122.006 E7.68157
G1 X126.011 Y122.635 E7.70499
G1 X125.442 Y123.323 E7.73151
G1 X124.606 Y124.236 E7.76826
G1 X123.948 Y124.881 E7.79561
G1 X123.045 Y125.678 E7.83138
G1 X122.305 Y126.265 E7.85941
G1 X121.711 Y126.698 E7.88124
G1 X120.711 Y127.356 E7.91678
G1 X119.925 Y127.818 E7.94386
G1 X118.817 Y128.391 E7.98088
G1 X118.013 Y128.756 E8.00712
G1 X117.273 Y129.055 E8.03082
G1 X116.142 Y129.449 E8.06635
G1 X115.330 Y129.688 E8.09150
G1 X114.520 Y129.889 E8.11629
G1 X113.345 Y130.120 E8.15183
G1 X112.535 Y130.238 E8.17613
G1 X111.677 Y130.327 E8.20176
G1 X110.411 Y130.392 E8.23938
G1 X109.519 Y130.390 E8.26586
G1 X108.281 Y130.324 E8.30269
G1 X107.367 Y130.225 E8.32997
G1 X106.185 Y130.036 E8.36551
G1 X105.473 Y129.887 E8.38713
G1 X104.559 Y129.657 E8.41509
G1 X103.399 Y129.299 E8.45114
G1 X102.541 Y128.984 E8.47829
G1 X101.397 Y128.493 E8.51524
G1 X100.599 Y128.101 E8.54165
G1 X99.903 Y127.722 E8.56517
G1 X98.881 Y127.099 E8.60071
G1 X98.176 Y126.621 E8.62601
G1 X97.510 Y126.125 E8.65064
G1 X96.586 Y125.365 E8.68618
G1 X95.876 Y124.716 E8.71475
G1 X95.037 Y123.862 E8.75029
G1 X94.508 Y123.268 E8.77389
G1 X93.947 Y122.582 E8.80022
G1 X93.212 Y121.584 E8.83702
G1 X92.707 Y120.816 E8.86432
G1 X92.095 Y119.770 E8.90030
G1 X91.763 Y119.134 E8.92159
G1 X91.355 Y118.270 E8.94995
G1 X90.902 Y117.163 E8.98549
G1 X90.598 Y116.295 E9.01279
G1 X90.252 Y115.105 E9.04959
G1 X90.047 Y114.236 E9.07608
G1 X89.823 Y112.989 E9.11370
G1 X89.714 Y112.132 E9.13936
G1 X89.646 Y111.317 E9.16363
G1 X89.603 Y110.121 E9.19917
G1 X89.615 Y109.286 E9.22397
G1 X89.663 Y108.441 E9.24910
G1 X89.789 Y107.251 E9.28464
G1 X89.941 Y106.301 E9.31320
G1 X90.193 Y105.130 E9.34874
G1 X90.391 Y104.384 E9.37167
G1 X90.661 Y103.516 E9.39868
G1 X91.084 Y102.370 E9.43494
G1 X91.361 Y101.715 E9.45606
G1 X91.768 Y100.855 E9.48431
G1 X92.336 Y99.801 E9.51985
G1 X92.818 Y99.008 E9.54739
G1 X93.513 Y97.992 E9.58395
G1 X94.055 Y97.279 E9.61055
G1 X94.874 Y96.317 E9.64805
G1 X95.432 Y95.724 E9.67223
G1 X95.727 Y95.932 F7800.000
G1 F1800
G1 X96.293 Y95.381 E9.69569
G1 X97.181 Y94.597 E9.73086
G1 X97.822 Y94.085 E9.75522
G1 X98.486 Y93.598 E9.77967
G1 X99.475 Y92.947 E9.81483
G1 X100.152 Y92.547 E9.83818
G1 X100.908 Y92.142 E9.86364
G1 X102.029 Y91.614 E9.90042
G1 X102.846 Y91.281 E9.92662
G1 X103.965 Y90.891 E9.96179
G1 X104.662 Y90.685 E9.98338
G1 X105.556 Y90.460 E10.01076
G1 X106.718 Y90.232 E10.04592
G1 X107.612 Y90.103 E10.07274
G1 X108.825 Y89.996 E10.10890
G1 X109.703 Y89.963 E10.13497
G1 X110.946 Y89.983 E10.17188
G1 X111.796 Y90.041 E10.19718
G1 X112.583 Y90.128 E10.22069
G1 X113.752 Y90.316 E10.25586
G1 X114.558 Y90.486 E10.28031
G1 X115.353 Y90.690 E10.30467
G1 X116.484 Y91.040 E10.33983
G1 X117.227 Y91.310 E10.36331
G1 X118.016 Y91.635 E10.38864
G1 X119.138 Y92.166 E10.42548
G1 X119.912 Y92.585 E10.45162
G1 X120.946 Y93.215 E10.48759
G1 X121.697 Y93.730 E10.51460
G1 X122.642 Y94.453 E10.54994
G1 X123.337 Y95.045 E10.57706
G1 X123.873 Y95.541 E10.59874
G1 X124.703 Y96.386 E10.63390
G1 X125.287 Y97.045 E10.66005
G1 X126.059 Y98.016 E10.69688
G1 X126.557 Y98.713 E10.72232
G1 X127.236 Y99.780 E10.75986
G1 X127.644 Y100.502 E10.78448
G1 X128.015 Y101.227 E10.80867
G1 X128.502 Y102.307 E10.84384
G1 X128.796 Y103.053 E10.86764
G1 X129.070 Y103.849 E10.89265
G1 X129.417 Y105.049 E10.92973
G1 X129.614 Y105.899 E10.95563
G1 X129.822 Y107.065 E10.99080
G1 X129.917 Y107.801 E11.01284
G1 X129.996 Y108.699 E11.03960
G1 X130.038 Y109.889 E11.07497
G1 X130.022 Y110.808 E11.10224
G1 X129.937 Y112.006 E11.13791
G1 X129.828 Y112.894 E11.16447
G1 X129.706 Y113.633 E11.18672
G1 X129.457 Y114.791 E11.22188
G1 X129.234 Y115.620 E11.24738
G1 X128.842 Y116.820 E11.28486
G1 X128.542 Y117.598 E11.30961
G1 X128.219 Y118.341 E11.33368
G1 X127.695 Y119.403 E11.36884
G1 X127.303 Y120.108 E11.39277
G1 X126.865 Y120.822 E11.41765
G1 X126.196 Y121.799 E11.45282
G1 X125.729 Y122.415 E11.47576
G1 X125.174 Y123.087 E11.50163
G1 X124.348 Y123.989 E11.53795
G1 X123.706 Y124.617 E11.56461
G1 X122.813 Y125.406 E11.59999
G1 X122.093 Y125.978 E11.62730
G1 X121.509 Y126.403 E11.64874
G1 X120.520 Y127.055 E11.68391
G1 X119.754 Y127.505 E11.71030
G1 X118.659 Y128.071 E11.74689
G1 X117.874 Y128.427 E11.77249
G1 X117.149 Y128.720 E11.79570
G1 X116.031 Y129.110 E11.83086
G1 X115.237 Y129.343 E11.85543
G1 X114.445 Y129.540 E11.87967
G1 X113.282 Y129.768 E11.91484
G1 X112.490 Y129.884 E11.93862
G1 X111.651 Y129.971 E11.96364
G1 X110.402 Y130.035 E12.00079
G1 X109.532 Y130.033 E12.02663
G1 X108.308 Y129.968 E12.06302
G1 X107.418 Y129.872 E12.08961
G1 X106.248 Y129.685 E12.12477
G1 X105.548 Y129.538 E12.14602
G1 X104.658 Y129.314 E12.17326
G1 X103.511 Y128.960 E12.20891
G1 X102.674 Y128.653 E12.23538
G1 X101.544 Y128.168 E12.27189
G1 X100.765 Y127.785 E12.29765
G1 X100.084 Y127.414 E12.32070
G1 X99.072 Y126.798 E12.35586
G1 X98.299 Y126.269 E12.38368
G1 X97.358 Y125.549 E12.41884
G1 X96.737 Y125.023 E12.44301
G1 X96.127 Y124.461 E12.46765
G1 X95.297 Y123.616 E12.50282
G1 X94.778 Y123.035 E12.52594
G1 X94.230 Y122.365 E12.55163
G1 X93.504 Y121.379 E12.58799
G1 X93.012 Y120.630 E12.61461
G1 X92.407 Y119.596 E12.65019
G1 X92.080 Y118.971 E12.67111
G1 X91.683 Y118.129 E12.69874
G1 X91.235 Y117.033 E12.73391
G1 X90.939 Y116.187 E12.76052
G1 X90.597 Y115.011 E12.79689
G1 X90.397 Y114.164 E12.82272
G1 X90.176 Y112.933 E12.85987
G1 X90.069 Y112.096 E12.88492
G1 X90.002 Y111.298 E12.90868
G1 X89.960 Y110.115 E12.94384
G1 X89.972 Y109.298 E12.96810
G1 X90.018 Y108.472 E12.99265
G1 X90.144 Y107.295 E13.02782
G1 X90.292 Y106.370 E13.05563
G1 X90.541 Y105.212 E13.09080
G1 X90.735 Y104.480 E13.11328
G1 X90.998 Y103.633 E13.13961
G1 X91.416 Y102.500 E13.17547
G1 X91.689 Y101.856 E13.19623
G1 X92.086 Y101.019 E13.22374
G1 X92.647 Y99.976 E13.25891
G1 X93.117 Y99.203 E13.28575
G1 X93.804 Y98.199 E13.32189
G1 X94.333 Y97.503 E13.34783
G1 X95.141 Y96.553 E13.38487
G1 X95.685 Y95.975 E13.40844
G1 E11.40844 F2400.00000
G92 E0
G1 X119.104 Y118.951 F7800.000
G1 E2.00000 F2400.00000
G1 F1800
G1 X118.791 Y119.259 E2.01305
G1 X118.107 Y119.863 E2.04012
G1 X117.763 Y120.136 E2.05317
G1 X117.018 Y120.665 E2.08031
G1 X116.246 Y121.135 E2.10714
G1 X115.857 Y121.345 E2.12027
G1 X115.455 Y121.543 E2.13356
G1 X114.618 Y121.903 E2.16063
G1 X114.205 Y122.055 E2.17369
G1 X113.342 Y122.322 E2.20051
G1 X112.460 Y122.528 E2.22742
G1 X111.568 Y122.671 E2.25425
G1 X111.130 Y122.718 E2.26730
G1 X110.220 Y122.766 E2.29437
G1 X109.780 Y122.766 E2.30742
G1 X108.870 Y122.718 E2.33449
G1 X107.987 Y122.609 E2.36091
G1 X107.100 Y122.434 E2.38774
G1 X106.221 Y122.196 E2.41480
G1 X105.368 Y121.898 E2.44162
G1 X104.550 Y121.547 E2.46804
G1 X103.740 Y121.129 E2.49511
G1 X103.361 Y120.907 E2.50817
G1 X102.606 Y120.410 E2.53499
G1 X101.886 Y119.859 E2.56190
G1 X101.209 Y119.261 E2.58872
G1 X100.896 Y118.953 E2.60178
G1 X100.280 Y118.280 E2.62885
G1 X99.995 Y117.935 E2.64214
G1 X99.727 Y117.583 E2.65527
G1 X99.212 Y116.831 E2.68234
G1 X98.983 Y116.455 E2.69540
G1 X98.554 Y115.660 E2.72222
G1 X98.180 Y114.829 E2.74928
G1 X97.868 Y113.981 E2.77611
G1 X97.620 Y113.127 E2.80253
G1 X97.428 Y112.236 E2.82960
G1 X97.359 Y111.801 E2.84265
G1 X97.262 Y110.895 E2.86972
G1 X97.239 Y110.456 E2.88277
G1 X97.239 Y109.552 E2.90960
G1 X97.303 Y108.648 E2.93650
G1 X97.430 Y107.754 E2.96333
G1 X97.515 Y107.322 E2.97638
G1 X97.738 Y106.438 E3.00345
G1 X97.868 Y106.018 E3.01651
G1 X98.183 Y105.163 E3.04357
G1 X98.359 Y104.752 E3.05686
G1 X98.551 Y104.347 E3.07015
G1 X98.979 Y103.552 E3.09698
G1 X99.464 Y102.786 E3.12388
G1 X100.001 Y102.059 E3.15071
G1 X100.578 Y101.382 E3.17713
G1 X101.211 Y100.738 E3.20396
G1 X101.890 Y100.138 E3.23086
G1 X102.608 Y99.589 E3.25769
G1 X102.971 Y99.340 E3.27075
G1 X103.749 Y98.866 E3.29781
G1 X104.136 Y98.657 E3.31087
G1 X104.961 Y98.268 E3.33794
G1 X105.368 Y98.102 E3.35099
G1 X106.228 Y97.801 E3.37806
G1 X106.658 Y97.677 E3.39134
G1 X107.092 Y97.567 E3.40463
G1 X107.987 Y97.392 E3.43170
G1 X108.422 Y97.330 E3.44475
G1 X109.322 Y97.250 E3.47158
G1 X110.228 Y97.234 E3.49849
G1 X111.130 Y97.282 E3.52532
G1 X111.562 Y97.328 E3.53821
G1 X112.468 Y97.473 E3.56544
G1 X112.898 Y97.565 E3.57849
G1 X113.777 Y97.804 E3.60556
G1 X114.203 Y97.944 E3.61885
G1 X114.618 Y98.097 E3.63198
G1 X115.448 Y98.453 E3.65881
G1 X116.253 Y98.869 E3.68572
G1 X117.025 Y99.339 E3.71254
G1 X117.750 Y99.854 E3.73896
G1 X118.458 Y100.437 E3.76618
G1 X118.783 Y100.734 E3.77924
G1 X119.421 Y101.384 E3.80631
G1 X119.713 Y101.713 E3.81936
G1 X120.279 Y102.428 E3.84643
G1 X120.534 Y102.786 E3.85948
G1 X121.017 Y103.549 E3.88631
G1 X121.447 Y104.347 E3.91321
G1 X121.818 Y105.171 E3.94004
G1 X121.978 Y105.580 E3.95309
G1 X122.262 Y106.446 E3.98016
G1 X122.480 Y107.309 E4.00658
G1 X122.639 Y108.199 E4.03341
G1 X122.735 Y109.100 E4.06032
G1 X122.767 Y110.003 E4.08715
G1 X122.735 Y110.897 E4.11372
G1 X122.640 Y111.796 E4.14055
G1 X122.481 Y112.688 E4.16745
G1 X122.259 Y113.564 E4.19428
G1 X121.981 Y114.409 E4.22070
G1 X121.639 Y115.246 E4.24753
G1 X121.238 Y116.058 E4.27443
G1 X120.782 Y116.838 E4.30126
G1 X120.540 Y117.205 E4.31432
G1 X119.999 Y117.939 E4.34138
G1 X119.720 Y118.278 E4.35444
G1 X119.145 Y118.907 E4.37972
G1 X119.367 Y119.192 F7800.000
G1 F1800
G1 X119.034 Y119.520 E4.39362
G1 X118.337 Y120.137 E4.42125
G1 X117.978 Y120.422 E4.43486
G1 X117.214 Y120.964 E4.46265
G1 X116.424 Y121.445 E4.49014
G1 X115.605 Y121.868 E4.51750
G1 X114.750 Y122.235 E4.54512
G1 X114.320 Y122.394 E4.55874
G1 X113.436 Y122.667 E4.58622
G1 X112.529 Y122.879 E4.61387
G1 X111.615 Y123.025 E4.64136
G1 X111.159 Y123.074 E4.65497
G1 X110.229 Y123.123 E4.68260
G1 X109.771 Y123.123 E4.69622
G1 X108.842 Y123.074 E4.72384
G1 X107.927 Y122.961 E4.75120
G1 X107.019 Y122.782 E4.77868
