;FLAVOR:Marlin
;TIME:1766
;Filament used: 0.773336m
;Layer height: 0.2
;MINX:103.985
;MINY:100.657
;MINZ:0.2
;MAXX:131.025
;MAXY:127.704
;MAXZ:30
;Generated with Cura_SteamEngine master
M82 ;absolute extrusion mode
G92 E0 ; Reset Extruder
M140 S60 ; Set bed temperature
G28 ; Home all axis
M190 S60 ; Wait for bed temperature
M104 T0 S220 ; Set hotend temperature
G29 ; Auto bed leveling
M109 T0 S220 ; Wait for hotend temperature
G1 Z2.0 F3000 ; Move Z Axis up little to prevent scratching of Heat Bed
G1 X0.1 Y20 Z0.3 F5000.0 ; Move to start position
G1 X0.1 Y200.0 Z0.3 F1500.0 E15 ; Draw the first line
G1 X0.4 Y200.0 Z0.3 F5000.0 ; Move to side a little
G1 X0.4 Y20 Z0.3 F1500.0 E30 ; Draw the second line
G92 E0 ; Reset Extruder
G1 Z2.0 F3000 ; Move Z Axis up little to prevent scratching of Heat Bed
G1 X5 Y20 Z0.3 F5000.0 ; Move over to prevent blob squish
G92 E0
G92 E0 ; Reset Extruder
G28 ; Home all axes
G1 Z2.0 F3000 ; Move Z Axis up little to prevent scratching of Heat Bed
G1 X0.1 Y20 Z0.3 F5000.0 ; Move to start position
G1 X0.1 Y200.0 Z0.3 F1500.0 E15 ; Draw the first line
G1 X0.4 Y200.0 Z0.3 F5000.0 ; Move to side a little
G1 X0.4 Y20 Z0.3 F1500.0 E30 ; Draw the second line
G92 E0 ; Reset Extruder
G1 Z2.0 F3000 ; Move Z Axis up little to prevent scratching of Heat Bed
G1 X5 Y20 Z0.3 F5000.0 ; Move over to prevent blob squish
G92 E0
G1 F2700 E-5
;LAYER_COUNT:150
;LAYER:0
M107
G0 F6000 X107.763 Y104.798 Z0.2
;TYPE:SKIRT
G1 F2700 E0
G1 F1200 X108.327 Y104.245 E0.02627
G1 X108.732 Y103.885 E0.04429
G1 X109.347 Y103.39 E0.07055
G1 X109.401 Y103.355 E0.07269
G1 X109.816 Y103.054 E0.08974
G1 X110.478 Y102.623 E0.11602
G1 X110.532 Y102.595 E0.11804
G1 X110.948 Y102.352 E0.13406
G1 X111.666 Y101.98 E0.16096
G1 X112.189 Y101.743 E0.18006
G1 X112.923 Y101.454 E0.20629
G1 X113.453 Y101.277 E0.22488
G1 X114.22 Y101.061 E0.25138
G1 X114.783 Y100.933 E0.27059
G1 X115.536 Y100.8 E0.29602
G1 X116.099 Y100.729 E0.31489
G1 X116.899 Y100.67 E0.34157
G1 X117.475 Y100.657 E0.36073
G1 X118.227 Y100.676 E0.38575
G1 X118.794 Y100.718 E0.40466
G1 X119.571 Y100.815 E0.43071
G1 X120.133 Y100.914 E0.44969
G1 X120.879 Y101.084 E0.47514
G1 X121.423 Y101.236 E0.49392
G1 X122.191 Y101.494 E0.52087
G1 X122.73 Y101.707 E0.54015
G1 X123.433 Y102.026 E0.56582
G1 X123.938 Y102.286 E0.58471
G1 X124.6 Y102.669 E0.61015
G1 X125.083 Y102.981 E0.62928
G1 X125.703 Y103.426 E0.65466
G1 X126.146 Y103.778 E0.67348
G1 X126.748 Y104.308 E0.70016
G1 X127.156 Y104.707 E0.71914
G1 X127.667 Y105.258 E0.74413
G1 X128.031 Y105.69 E0.76292
G1 X128.525 Y106.343 E0.79015
G1 X128.85 Y106.823 E0.80943
G1 X129.224 Y107.435 E0.83329
G1 X129.497 Y107.931 E0.85212
G1 X129.86 Y108.683 E0.87989
G1 X130.082 Y109.214 E0.89903
G1 X130.338 Y109.918 E0.92395
G1 X130.505 Y110.458 E0.94275
G1 X130.697 Y111.213 E0.96866
G1 X130.812 Y111.78 E0.9879
G1 X130.928 Y112.543 E1.01357
G1 X130.985 Y113.105 E1.03236
G1 X131.025 Y113.906 E1.05903
G1 X131.024 Y114.48 E1.07813
G1 X130.987 Y115.227 E1.103
G1 X130.932 Y115.788 E1.12175
G1 X130.809 Y116.598 E1.149
G1 X130.692 Y117.167 E1.16832
G1 X130.511 Y117.876 E1.19266
G1 X130.345 Y118.419 E1.21154
G1 X130.079 Y119.157 E1.23764
G1 X129.86 Y119.679 E1.25646
G1 X129.512 Y120.401 E1.28312
G1 X129.235 Y120.908 E1.30234
G1 X128.84 Y121.555 E1.32755
G1 X128.521 Y122.024 E1.34641
G1 X128.04 Y122.658 E1.37288
G1 X127.669 Y123.099 E1.39205
G1 X127.14 Y123.668 E1.41789
G1 X126.732 Y124.065 E1.43683
G1 X126.178 Y124.555 E1.46143
G1 X125.735 Y124.911 E1.48033
G1 X125.095 Y125.374 E1.5066
G1 X124.614 Y125.684 E1.52563
G1 X123.946 Y126.071 E1.55131
G1 X123.438 Y126.333 E1.57032
G1 X122.719 Y126.659 E1.59658
G1 X122.212 Y126.859 E1.61471
G1 X121.457 Y127.115 E1.64122
G1 X120.906 Y127.271 E1.66027
G1 X120.136 Y127.447 E1.68654
G1 X119.586 Y127.543 E1.70511
G1 X118.785 Y127.643 E1.73196
G1 X118.208 Y127.685 E1.7512
G1 X117.449 Y127.704 E1.77645
G1 X116.882 Y127.69 E1.79532
G1 X116.126 Y127.634 E1.82053
G1 X115.563 Y127.565 E1.83939
G1 X114.754 Y127.422 E1.86672
G1 X114.192 Y127.292 E1.8859
G1 X113.479 Y127.091 E1.91054
G1 X112.937 Y126.91 E1.92955
G1 X112.204 Y126.624 E1.95572
G1 X111.689 Y126.392 E1.97451
G1 X110.978 Y126.026 E2.0011
G1 X110.48 Y125.737 E2.02025
G1 X109.847 Y125.328 E2.04532
G1 X109.383 Y124.995 E2.06432
G1 X108.752 Y124.491 E2.09118
G1 X108.324 Y124.111 E2.11021
G1 X107.787 Y123.585 E2.13521
G1 X107.398 Y123.166 E2.15423
G1 X106.897 Y122.57 E2.18013
G1 X106.553 Y122.116 E2.19907
G1 X106.116 Y121.475 E2.22487
G1 X105.82 Y120.991 E2.24374
G1 X105.441 Y120.295 E2.2701
G1 X105.192 Y119.776 E2.28925
G1 X104.897 Y119.073 E2.31461
G1 X104.702 Y118.538 E2.33354
G1 X104.471 Y117.791 E2.35955
G1 X104.33 Y117.237 E2.37856
G1 X104.177 Y116.484 E2.40412
G1 X104.092 Y115.924 E2.42296
G1 X104.013 Y115.132 E2.44943
G1 X103.985 Y114.556 E2.46861
G1 X103.986 Y113.791 E2.49406
G1 X104.014 Y113.226 E2.51287
G1 X104.092 Y112.444 E2.53901
G1 X104.178 Y111.876 E2.55812
G1 X104.33 Y111.123 E2.58367
G1 X104.47 Y110.572 E2.60258
G1 X104.704 Y109.815 E2.62893
G1 X104.901 Y109.276 E2.64802
G1 X105.194 Y108.581 E2.6731
G1 X105.441 Y108.066 E2.6921
G1 X105.814 Y107.379 E2.7181
G1 X106.109 Y106.895 E2.73695
G1 X106.568 Y106.223 E2.76402
G1 X106.916 Y105.767 E2.7831
G1 X107.379 Y105.215 E2.80706
G1 X107.763 Y104.798 E2.82592
G0 F6000 X108.057 Y105.069
G1 F1200 X108.607 Y104.531 E2.85151
G1 X108.629 Y104.514 E2.85243
G1 X108.999 Y104.183 E2.86894
G1 X109.598 Y103.702 E2.89449
G1 X109.654 Y103.666 E2.89671
G1 X110.051 Y103.378 E2.91302
G1 X110.696 Y102.959 E2.9386
G1 X110.742 Y102.936 E2.94031
G1 X111.15 Y102.697 E2.95604
G1 X111.831 Y102.345 E2.98154
G1 X112.354 Y102.108 E3.00063
G1 X113.07 Y101.827 E3.02622
G1 X113.096 Y101.82 E3.02711
G1 X113.581 Y101.656 E3.04414
G1 X114.308 Y101.451 E3.06926
G1 X114.871 Y101.323 E3.08847
G1 X115.586 Y101.197 E3.11261
G1 X116.149 Y101.126 E3.13149
G1 X116.908 Y101.07 E3.1568
G1 X117.484 Y101.057 E3.17596
G1 X118.198 Y101.075 E3.19972
G1 X118.765 Y101.117 E3.21863
G1 X119.502 Y101.209 E3.24333
G1 X120.064 Y101.308 E3.26231
G1 X120.771 Y101.469 E3.28643
G1 X121.315 Y101.621 E3.30522
G1 X122.044 Y101.866 E3.3308
G1 X122.583 Y102.079 E3.35007
G1 X123.25 Y102.382 E3.37444
G1 X123.755 Y102.642 E3.39333
G1 X124.383 Y103.005 E3.41746
G1 X124.866 Y103.317 E3.43658
G1 X125.455 Y103.739 E3.46068
G1 X125.898 Y104.091 E3.4795
G1 X126.468 Y104.594 E3.50478
G1 X126.876 Y104.993 E3.52376
G1 X127.361 Y105.516 E3.54749
G1 X127.725 Y105.948 E3.56628
G1 X128.194 Y106.567 E3.59211
G1 X128.519 Y107.047 E3.61139
G1 X128.874 Y107.628 E3.63403
G1 X129.147 Y108.124 E3.65286
G1 X129.491 Y108.838 E3.67922
G1 X129.713 Y109.369 E3.69837
G1 X129.956 Y110.037 E3.72201
G1 X130.123 Y110.577 E3.74081
G1 X130.305 Y111.292 E3.76535
G1 X130.42 Y111.859 E3.78459
G1 X130.53 Y112.583 E3.80895
G1 X130.587 Y113.145 E3.82773
G1 X130.625 Y113.905 E3.85304
G1 X130.624 Y114.479 E3.87213
G1 X130.589 Y115.188 E3.89575
G1 X130.534 Y115.749 E3.91449
G1 X130.417 Y116.517 E3.94033
G1 X130.3 Y117.086 E3.95965
G1 X130.129 Y117.759 E3.98275
G1 X129.963 Y118.302 E4.00163
G1 X129.71 Y119.002 E4.02639
G1 X129.491 Y119.524 E4.04522
G1 X129.161 Y120.209 E4.07051
G1 X128.884 Y120.716 E4.08972
G1 X128.509 Y121.33 E4.11365
G1 X128.19 Y121.799 E4.13252
G1 X127.734 Y122.401 E4.15764
G1 X127.363 Y122.842 E4.1768
G1 X126.861 Y123.382 E4.20133
G1 X126.453 Y123.779 E4.22026
G1 X125.927 Y124.243 E4.24359
G1 X125.484 Y124.599 E4.26249
G1 X124.861 Y125.049 E4.28805
G1 X124.397 Y125.348 E4.30641
G1 X123.763 Y125.716 E4.33079
G1 X123.255 Y125.978 E4.3498
G1 X122.554 Y126.294 E4.37538
G1 X122.065 Y126.487 E4.39286
G1 X121.348 Y126.73 E4.41804
G1 X120.797 Y126.886 E4.43709
G1 X120.047 Y127.057 E4.46268
G1 X120.003 Y127.062 E4.46415
G1 X119.516 Y127.149 E4.4806
G1 X118.756 Y127.244 E4.50608
G1 X118.179 Y127.286 E4.52532
G1 X117.459 Y127.304 E4.54927
G1 X116.892 Y127.29 E4.56814
G1 X116.175 Y127.237 E4.59205
G1 X115.612 Y127.168 E4.61092
G1 X114.844 Y127.033 E4.63685
G1 X114.282 Y126.903 E4.65604
G1 X113.606 Y126.712 E4.6794
G1 X113.064 Y126.531 E4.69841
G1 X112.369 Y126.259 E4.72323
G1 X111.854 Y126.027 E4.74202
G1 X111.179 Y125.68 E4.76726
G1 X110.681 Y125.391 E4.78641
G1 X110.08 Y125.003 E4.8102
G1 X109.616 Y124.67 E4.8292
G1 X109.018 Y124.192 E4.85466
G1 X108.59 Y123.812 E4.8737
G1 X108.08 Y123.313 E4.89743
G1 X107.691 Y122.894 E4.91645
G1 X107.216 Y122.328 E4.94102
G1 X106.872 Y121.874 E4.95997
G1 X106.457 Y121.266 E4.98445
G1 X106.161 Y120.782 E5.00332
G1 X105.802 Y120.122 E5.02831
G1 X105.553 Y119.603 E5.04746
G1 X105.272 Y118.936 E5.07153
G1 X105.077 Y118.401 E5.09047
G1 X104.859 Y117.692 E5.11514
G1 X104.718 Y117.138 E5.13415
G1 X104.573 Y116.423 E5.15842
G1 X104.488 Y115.863 E5.17726
G1 X104.413 Y115.112 E5.20236
G1 X104.385 Y114.536 E5.22154
G1 X104.385 Y113.811 E5.24565
G1 X104.413 Y113.246 E5.26447
G1 X104.487 Y112.504 E5.28927
G1 X104.573 Y111.936 E5.30838
G1 X104.718 Y111.222 E5.33261
G1 X104.858 Y110.671 E5.35152
G1 X105.08 Y109.953 E5.37651
G1 X105.277 Y109.414 E5.3956
G1 X105.555 Y108.754 E5.41942
G1 X105.802 Y108.239 E5.43842
G1 X106.155 Y107.588 E5.46305
G1 X106.45 Y107.104 E5.4819
G1 X106.886 Y106.466 E5.5076
G1 X107.234 Y106.01 E5.52668
G1 X107.673 Y105.486 E5.54942
G1 X108.057 Y105.069 E5.56827
G0 F6000 X108.352 Y105.34
G1 F1200 X108.887 Y104.818 E5.59313
G1 X109.265 Y104.482 E5.60995
G1 X109.849 Y104.014 E5.63485
G1 X109.893 Y103.986 E5.63658
G1 X110.286 Y103.701 E5.65273
G1 X110.914 Y103.295 E5.6776
G1 X110.952 Y103.276 E5.67901
G1 X111.352 Y103.042 E5.69443
G1 X111.996 Y102.709 E5.71854
G1 X112.519 Y102.472 E5.73764
G1 X113.216 Y102.2 E5.76252
G1 X113.709 Y102.035 E5.77981
G1 X114.397 Y101.841 E5.80359
G1 X114.96 Y101.713 E5.82279
G1 X115.636 Y101.594 E5.84562
G1 X116.199 Y101.523 E5.8645
G1 X116.917 Y101.47 E5.88844
G1 X117.493 Y101.457 E5.9076
G1 X118.168 Y101.474 E5.93006
G1 X118.735 Y101.516 E5.94897
G1 X119.432 Y101.603 E5.97233
G1 X119.994 Y101.702 E5.99131
G1 X120.664 Y101.854 E6.01416
G1 X121.208 Y102.006 E6.03295
G1 X121.897 Y102.238 E6.05713
G1 X122.436 Y102.451 E6.07641
G1 X123.067 Y102.737 E6.09945
G1 X123.572 Y102.997 E6.11834
G1 X124.166 Y103.341 E6.14117
G1 X124.649 Y103.653 E6.1603
G1 X125.206 Y104.052 E6.18309
G1 X125.649 Y104.404 E6.20191
G1 X126.188 Y104.88 E6.22582
G1 X126.596 Y105.279 E6.2448
G1 X127.055 Y105.774 E6.26726
G1 X127.419 Y106.206 E6.28604
G1 X127.862 Y106.791 E6.31045
G1 X128.187 Y107.271 E6.32973
G1 X128.523 Y107.821 E6.35117
G1 X128.796 Y108.317 E6.37
G1 X129.122 Y108.992 E6.39493
G1 X129.344 Y109.523 E6.41407
G1 X129.574 Y110.155 E6.43644
G1 X129.741 Y110.695 E6.45524
G1 X129.913 Y111.372 E6.47847
G1 X130.028 Y111.939 E6.49772
G1 X130.132 Y112.624 E6.52076
G1 X130.189 Y113.186 E6.53955
G1 X130.225 Y113.904 E6.56346
G1 X130.224 Y114.478 E6.58255
G1 X130.191 Y115.149 E6.6049
G1 X130.136 Y115.71 E6.62364
G1 X130.026 Y116.437 E6.6481
G1 X129.909 Y117.006 E6.66742
G1 X129.746 Y117.642 E6.68926
G1 X129.58 Y118.185 E6.70814
G1 X129.341 Y118.847 E6.73155
G1 X129.122 Y119.369 E6.75038
G1 X128.81 Y120.017 E6.7743
G1 X128.533 Y120.524 E6.79352
G1 X128.178 Y121.105 E6.81616
G1 X127.859 Y121.574 E6.83503
G1 X127.428 Y122.143 E6.85877
G1 X127.057 Y122.584 E6.87794
G1 X126.582 Y123.095 E6.90114
G1 X126.174 Y123.492 E6.92008
G1 X125.677 Y123.931 E6.94213
G1 X125.234 Y124.287 E6.96103
G1 X124.627 Y124.724 E6.98591
G1 X124.179 Y125.013 E7.00364
G1 X123.58 Y125.36 E7.02667
G1 X123.072 Y125.622 E7.04568
G1 X122.389 Y125.929 E7.07058
G1 X122.367 Y125.936 E7.07135
G1 X121.917 Y126.115 E7.08746
G1 X121.239 Y126.345 E7.11127
G1 X120.688 Y126.501 E7.13032
G1 X119.958 Y126.666 E7.15521
G1 X119.446 Y126.756 E7.1725
G1 X118.727 Y126.846 E7.1966
G1 X118.15 Y126.888 E7.21584
G1 X117.469 Y126.904 E7.2385
G1 X116.902 Y126.89 E7.25736
G1 X116.223 Y126.84 E7.28001
G1 X115.66 Y126.771 E7.29887
G1 X114.934 Y126.643 E7.32339
G1 X114.372 Y126.513 E7.34258
G1 X113.733 Y126.333 E7.36466
G1 X113.191 Y126.152 E7.38366
G1 X112.533 Y125.894 E7.40717
G1 X112.018 Y125.662 E7.42596
G1 X111.38 Y125.334 E7.44982
G1 X110.882 Y125.045 E7.46897
G1 X110.314 Y124.678 E7.49146
G1 X109.85 Y124.345 E7.51046
G1 X109.283 Y123.893 E7.53458
G1 X108.855 Y123.513 E7.55361
G1 X108.373 Y123.041 E7.57605
G1 X107.984 Y122.622 E7.59507
G1 X107.535 Y122.086 E7.61832
G1 X107.191 Y121.632 E7.63727
G1 X106.798 Y121.057 E7.66043
G1 X106.502 Y120.573 E7.6793
G1 X106.163 Y119.949 E7.70292
G1 X105.914 Y119.43 E7.72207
G1 X105.648 Y118.799 E7.74484
G1 X105.453 Y118.264 E7.76378
G1 X105.246 Y117.594 E7.7871
G1 X105.105 Y117.04 E7.80612
G1 X104.968 Y116.363 E7.82909
G1 X104.883 Y115.803 E7.84793
G1 X104.812 Y115.093 E7.87166
G1 X104.784 Y114.517 E7.89084
G1 X104.785 Y113.831 E7.91366
G1 X104.813 Y113.266 E7.93248
G1 X104.883 Y112.564 E7.95594
G1 X104.969 Y111.996 E7.97505
G1 X105.106 Y111.32 E7.99799
G1 X105.246 Y110.769 E8.0169
G1 X105.455 Y110.09 E8.04053
G1 X105.652 Y109.551 E8.05961
G1 X105.915 Y108.927 E8.08214
G1 X106.162 Y108.412 E8.10113
G1 X106.497 Y107.796 E8.12445
G1 X106.792 Y107.312 E8.14331
G1 X107.204 Y106.708 E8.16762
G1 X107.552 Y106.252 E8.1867
G1 X107.968 Y105.757 E8.20821
G1 X108.352 Y105.34 E8.22706
G0 F6000 X108.646 Y105.611
G1 F1200 X109.112 Y105.159 E8.24866
G1 X109.176 Y105.098 E8.2516
G1 X109.532 Y104.78 E8.26747
G1 X110.099 Y104.327 E8.29161
G1 X110.134 Y104.305 E8.29299
G1 X110.52 Y104.025 E8.30885
G1 X111.131 Y103.632 E8.33301
G1 X111.158 Y103.619 E8.33401
G1 X111.554 Y103.387 E8.34927
G1 X112.161 Y103.073 E8.372
G1 X112.684 Y102.836 E8.3911
G1 X113.361 Y102.573 E8.41526
G1 X113.385 Y102.567 E8.41608
G1 X113.837 Y102.414 E8.43195
G1 X114.486 Y102.231 E8.45438
G1 X115.049 Y102.103 E8.47358
G1 X115.686 Y101.991 E8.49509
G1 X116.249 Y101.92 E8.51397
G1 X116.926 Y101.87 E8.53654
G1 X117.502 Y101.857 E8.55571
G1 X118.139 Y101.873 E8.5769
G1 X118.706 Y101.915 E8.59581
G1 X119.363 Y101.997 E8.61783
G1 X119.925 Y102.096 E8.63681
G1 X120.556 Y102.239 E8.65833
G1 X121.1 Y102.391 E8.67712
G1 X121.75 Y102.61 E8.69993
G1 X122.289 Y102.823 E8.71921
G1 X122.884 Y103.093 E8.74094
G1 X123.389 Y103.353 E8.75983
G1 X123.949 Y103.677 E8.78135
G1 X124.432 Y103.989 E8.80047
G1 X124.957 Y104.366 E8.82197
G1 X125.4 Y104.718 E8.84079
G1 X125.909 Y105.166 E8.86334
G1 X126.317 Y105.565 E8.88232
G1 X126.749 Y106.031 E8.90346
G1 X127.113 Y106.463 E8.92225
G1 X127.531 Y107.016 E8.9453
G1 X127.856 Y107.496 E8.96458
G1 X128.173 Y108.014 E8.98478
G1 X128.446 Y108.51 E9.00361
G1 X128.753 Y109.146 E9.0271
G1 X128.975 Y109.677 E9.04625
G1 X129.191 Y110.273 E9.06733
G1 X129.358 Y110.813 E9.08613
G1 X129.521 Y111.451 E9.10803
G1 X129.636 Y112.018 E9.12727
G1 X129.734 Y112.664 E9.14901
G1 X129.791 Y113.226 E9.16779
G1 X129.825 Y113.903 E9.19034
G1 X129.824 Y114.477 E9.20943
G1 X129.793 Y115.11 E9.23051
G1 X129.738 Y115.671 E9.24926
G1 X129.634 Y116.356 E9.2723
G1 X129.517 Y116.925 E9.29162
G1 X129.364 Y117.526 E9.31225
G1 X129.198 Y118.069 E9.33114
G1 X128.972 Y118.692 E9.35318
G1 X128.753 Y119.214 E9.37201
G1 X128.459 Y119.825 E9.39456
G1 X128.182 Y120.332 E9.41377
G1 X127.847 Y120.88 E9.43514
G1 X127.528 Y121.349 E9.454
G1 X127.121 Y121.886 E9.47641
G1 X126.75 Y122.327 E9.49558
G1 X126.303 Y122.808 E9.51742
G1 X125.895 Y123.205 E9.53635
G1 X125.426 Y123.62 E9.55718
G1 X124.983 Y123.976 E9.57609
G1 X124.393 Y124.399 E9.60023
G1 X123.961 Y124.677 E9.61732
G1 X123.396 Y125.005 E9.63905
G1 X122.888 Y125.267 E9.65806
G1 X122.294 Y125.533 E9.6797
G1 X122.209 Y125.569 E9.68277
G1 X121.769 Y125.744 E9.69852
G1 X121.13 Y125.96 E9.72096
G1 X120.579 Y126.116 E9.74001
G1 X119.87 Y126.276 E9.76418
G1 X119.841 Y126.279 E9.76515
G1 X119.376 Y126.362 E9.78086
G1 X118.698 Y126.447 E9.80359
G1 X118.121 Y126.489 E9.82283
G1 X117.479 Y126.504 E9.84419
G1 X116.912 Y126.49 E9.86305
G1 X116.272 Y126.443 E9.8844
G1 X115.709 Y126.374 E9.90326
G1 X115.025 Y126.253 E9.92636
G1 X114.463 Y126.123 E9.94555
G1 X113.859 Y125.953 E9.96642
G1 X113.317 Y125.772 E9.98543
G1 X112.697 Y125.53 E10.00756
G1 X112.182 Y125.298 E10.02635
G1 X111.58 Y124.988 E10.04887
G1 X111.082 Y124.699 E10.06802
G1 X110.547 Y124.353 E10.08921
G1 X110.083 Y124.02 E10.10821
