; generated by Slic3r 1.3.0 on 2020-12-24 at 01:39:49

; external perimeters extrusion width = 0.44mm (2.38mm^3/s)
; perimeters extrusion width = 0.56mm (6.20mm^3/s)
; infill extrusion width = 0.50mm (7.31mm^3/s)
; solid infill extrusion width = 0.56mm (2.07mm^3/s)
; top infill extrusion width = 0.56mm (1.55mm^3/s)
; support material extrusion width = 0.44mm (4.76mm^3/s)

M107
M140 S65
M104 S150 T0
G28 ; home all axes
G29; ABL
G1 X0 Y0 Z5 F{Z_TRAVEL_SPEED}
M107 ; Turn off fan
G90 ; Absolute positioning
G1 X0 Y0 F2400 ; move to the X=0 Y=0 position on the bed at a speed of 2400 mm/min
M190 S65  ; Wait for bed to reach temperature
M109 S205 T0 ; Wait for all used extruders to reach temperature
G92 E0 ; Reset extruder position
G1 X5 Y15 Z0.25 F1000.0 ; go intro start pos
G1 X60.0 E9.0 F600.0 ; intro line to prime extruder
G1 X100.0 E16 F800.0 ; intro line
G92 E0.0 ; reset extruder distance position
; Filament gcode

G21 ; set units to millimeters
G90 ; use absolute coordinates
M82 ; use absolute distances for extrusion
G92 E0
G1 Z0.200 F7800.000
G1 E-2.00000 F2400.00000
G92 E0
G1 X101.658 Y99.868 F7800.000
G1 E2.00000 F2400.00000
G1 F1800
G1 X102.047 Y99.498 E2.01594
G1 X102.530 Y99.082 E2.03487
G1 X102.836 Y98.841 E2.04643
G1 X103.518 Y98.358 E2.07124
G1 X104.071 Y98.017 E2.09052
G1 X104.541 Y97.759 E2.10647
G1 X105.472 Y97.324 E2.13695
G1 X105.973 Y97.131 E2.15289
G1 X106.640 Y96.911 E2.17376
G1 X107.636 Y96.662 E2.20425
G1 X108.714 Y96.492 E2.23665
G1 X109.185 Y96.451 E2.25068
G1 X109.967 Y96.423 E2.27390
G1 X110.669 Y96.443 E2.29477
G1 X111.204 Y96.484 E2.31071
G1 X112.220 Y96.633 E2.34119
G1 X112.745 Y96.747 E2.35714
G1 X113.412 Y96.926 E2.37765
G1 X114.164 Y97.181 E2.40122
G1 X114.565 Y97.339 E2.41402
G1 X115.109 Y97.584 E2.43172
G1 X115.588 Y97.827 E2.44766
G1 X116.471 Y98.351 E2.47815
G1 X117.047 Y98.754 E2.49902
G1 X117.471 Y99.083 E2.51496
G1 X117.814 Y99.373 E2.52829
G1 X118.411 Y99.937 E2.55269
G1 X118.780 Y100.329 E2.56867
G1 X119.284 Y100.926 E2.59189
G1 X119.702 Y101.492 E2.61276
G1 X120.000 Y101.939 E2.62870
G1 X120.509 Y102.830 E2.65918
G1 X120.744 Y103.313 E2.67513
G1 X120.990 Y103.888 E2.69371
G1 X121.131 Y104.264 E2.70562
G1 X121.359 Y104.973 E2.72773
G1 X121.593 Y105.924 E2.75682
G1 X121.755 Y106.991 E2.78886
G1 X121.808 Y107.676 E2.80925
G1 X121.823 Y108.170 E2.82392
G1 X121.779 Y109.255 E2.85616
G1 X121.726 Y109.754 E2.87108
G1 X121.593 Y110.565 E2.89548
G1 X121.359 Y111.517 E2.92457
G1 X121.131 Y112.226 E2.94668
G1 X120.990 Y112.601 E2.95859
G1 X120.744 Y113.177 E2.97717
G1 X120.509 Y113.659 E2.99311
G1 X120.000 Y114.551 E3.02360
G1 X119.702 Y114.998 E3.03954
G1 X119.284 Y115.563 E3.06041
G1 X118.780 Y116.161 E3.08363
G1 X118.411 Y116.553 E3.09961
G1 X117.814 Y117.117 E3.12401
G1 X117.471 Y117.407 E3.13734
G1 X117.047 Y117.736 E3.15328
G1 X116.471 Y118.139 E3.17415
G1 X115.588 Y118.663 E3.20464
G1 X115.109 Y118.906 E3.22058
G1 X114.565 Y119.150 E3.23828
G1 X114.164 Y119.309 E3.25107
G1 X113.413 Y119.563 E3.27464
G1 X112.745 Y119.743 E3.29516
G1 X112.221 Y119.856 E3.31110
G1 X111.204 Y120.005 E3.34159
G1 X110.669 Y120.047 E3.35753
G1 X109.966 Y120.066 E3.37841
G1 X109.185 Y120.039 E3.40162
G1 X108.714 Y119.997 E3.41566
G1 X107.636 Y119.828 E3.44805
G1 X106.640 Y119.579 E3.47854
G1 X105.973 Y119.359 E3.49941
G1 X105.472 Y119.165 E3.51535
G1 X104.541 Y118.731 E3.54584
G1 X104.071 Y118.472 E3.56178
G1 X103.518 Y118.131 E3.58106
G1 X102.836 Y117.649 E3.60587
G1 X102.530 Y117.408 E3.61743
G1 X102.047 Y116.992 E3.63636
G1 X101.658 Y116.622 E3.65230
G1 X100.963 Y115.866 E3.68279
G1 X100.627 Y115.447 E3.69873
G1 X100.215 Y114.878 E3.71960
G1 X99.797 Y114.217 E3.74281
G1 X99.578 Y113.827 E3.75610
G1 X99.152 Y112.945 E3.78518
G1 X99.006 Y112.592 E3.79652
G1 X98.743 Y111.855 E3.81974
G1 X98.549 Y111.180 E3.84061
G1 X98.427 Y110.657 E3.85655
G1 X98.261 Y109.644 E3.88704
G1 X98.210 Y109.109 E3.90298
G1 X98.180 Y108.407 E3.92385
G1 X98.194 Y107.625 E3.94707
G1 X98.225 Y107.183 E3.96022
G1 X98.293 Y106.603 E3.97756
G1 X98.379 Y106.073 E3.99350
G1 X98.612 Y105.073 E4.02399
G1 X98.821 Y104.402 E4.04486
G1 X99.006 Y103.898 E4.06080
G1 X99.184 Y103.473 E4.07449
G1 X99.541 Y102.733 E4.09889
G1 X100.080 Y101.816 E4.13045
G1 X100.696 Y100.951 E4.16199
G1 X101.225 Y100.322 E4.18640
G1 X101.616 Y99.911 E4.20324
G1 X101.913 Y100.118 F7800.000
G1 F1800
G1 X102.285 Y99.764 E4.21850
G1 X102.753 Y99.361 E4.23684
G1 X103.056 Y99.122 E4.24830
G1 X103.717 Y98.655 E4.27234
G1 X104.253 Y98.325 E4.29102
G1 X104.703 Y98.077 E4.30627
G1 X105.613 Y97.653 E4.33607
G1 X106.092 Y97.468 E4.35133
G1 X106.737 Y97.254 E4.37151
G1 X107.711 Y97.011 E4.40131
G1 X108.217 Y96.920 E4.41657
G1 X108.829 Y96.840 E4.43491
G1 X109.214 Y96.807 E4.44638
G1 X109.972 Y96.780 E4.46891
G1 X110.652 Y96.799 E4.48909
G1 X111.164 Y96.839 E4.50434
G1 X112.157 Y96.985 E4.53414
G1 X112.659 Y97.093 E4.54940
G1 X113.305 Y97.267 E4.56925
G1 X114.035 Y97.513 E4.59211
G1 X114.430 Y97.670 E4.60475
G1 X114.958 Y97.907 E4.62192
G1 X115.416 Y98.140 E4.63718
G1 X116.279 Y98.652 E4.66698
G1 X116.836 Y99.042 E4.68716
G1 X117.242 Y99.357 E4.70242
G1 X117.580 Y99.642 E4.71556
G1 X118.156 Y100.187 E4.73910
G1 X118.518 Y100.571 E4.75476
G1 X119.007 Y101.151 E4.77728
G1 X119.411 Y101.698 E4.79747
G1 X119.695 Y102.126 E4.81272
G1 X120.193 Y102.997 E4.84252
G1 X120.418 Y103.459 E4.85778
G1 X120.657 Y104.016 E4.87578
G1 X121.017 Y105.073 E4.90894
G1 X121.243 Y105.997 E4.93716
G1 X121.400 Y107.026 E4.96807
G1 X121.451 Y107.688 E4.98780
G1 X121.466 Y108.174 E5.00221
G1 X121.423 Y109.220 E5.03331
G1 X121.371 Y109.711 E5.04796
G1 X121.243 Y110.493 E5.07149
G1 X121.017 Y111.416 E5.09972
G1 X120.657 Y112.473 E5.13287
G1 X120.418 Y113.031 E5.15088
G1 X120.193 Y113.493 E5.16614
G1 X119.695 Y114.364 E5.19593
G1 X119.411 Y114.792 E5.21119
G1 X119.007 Y115.339 E5.23137
G1 X118.518 Y115.919 E5.25390
G1 X118.156 Y116.303 E5.26956
G1 X117.580 Y116.847 E5.29310
G1 X117.242 Y117.133 E5.30624
G1 X116.836 Y117.447 E5.32150
G1 X116.279 Y117.837 E5.34168
G1 X115.416 Y118.350 E5.37148
G1 X114.958 Y118.582 E5.38674
G1 X114.430 Y118.820 E5.40391
G1 X114.035 Y118.976 E5.41654
G1 X113.305 Y119.223 E5.43940
G1 X112.659 Y119.396 E5.45926
G1 X112.157 Y119.505 E5.47451
G1 X111.164 Y119.650 E5.50432
G1 X110.652 Y119.690 E5.51956
G1 X109.972 Y119.709 E5.53975
G1 X109.214 Y119.683 E5.56228
G1 X108.829 Y119.650 E5.57375
G1 X108.217 Y119.570 E5.59209
G1 X107.711 Y119.479 E5.60734
G1 X106.737 Y119.235 E5.63715
G1 X106.092 Y119.022 E5.65733
G1 X105.613 Y118.837 E5.67258
G1 X104.703 Y118.413 E5.70239
G1 X104.253 Y118.165 E5.71764
G1 X103.717 Y117.835 E5.73631
G1 X103.056 Y117.368 E5.76035
G1 X102.753 Y117.129 E5.77182
G1 X102.285 Y116.725 E5.79016
G1 X101.913 Y116.371 E5.80542
G1 X101.233 Y115.633 E5.83522
G1 X100.912 Y115.232 E5.85047
G1 X100.513 Y114.681 E5.87066
G1 X100.108 Y114.040 E5.89318
G1 X99.893 Y113.659 E5.90617
G1 X99.480 Y112.803 E5.93439
G1 X99.082 Y111.742 E5.96804
G1 X98.894 Y111.088 E5.98823
G1 X98.777 Y110.588 E6.00348
G1 X98.615 Y109.597 E6.03328
G1 X98.567 Y109.086 E6.04854
G1 X98.537 Y108.407 E6.06872
G1 X98.551 Y107.648 E6.09125
G1 X98.581 Y107.212 E6.10423
G1 X98.730 Y106.142 E6.13630
G1 X98.957 Y105.164 E6.16610
G1 X99.160 Y104.516 E6.18629
G1 X99.337 Y104.033 E6.20154
G1 X99.511 Y103.614 E6.21502
G1 X99.856 Y102.901 E6.23856
G1 X100.378 Y102.013 E6.26913
G1 X100.980 Y101.168 E6.29993
G1 X101.490 Y100.561 E6.32347
G1 X101.871 Y100.161 E6.33986
G1 X102.167 Y100.369 F7800.000
G1 F1800
G1 X102.523 Y100.031 E6.35443
G1 X102.975 Y99.640 E6.37218
G1 X103.276 Y99.403 E6.38355
G1 X103.916 Y98.951 E6.40682
G1 X104.435 Y98.632 E6.42489
G1 X104.865 Y98.395 E6.43946
G1 X105.753 Y97.981 E6.46857
G1 X106.211 Y97.804 E6.48314
G1 X106.834 Y97.598 E6.50264
G1 X107.786 Y97.360 E6.53175
G1 X108.268 Y97.273 E6.54632
G1 X108.866 Y97.195 E6.56420
G1 X109.978 Y97.137 E6.59728
G1 X110.635 Y97.156 E6.61677
G1 X111.124 Y97.194 E6.63134
G1 X112.094 Y97.336 E6.66046
G1 X112.574 Y97.440 E6.67503
G1 X113.197 Y97.607 E6.69420
G1 X113.905 Y97.846 E6.71637
G1 X114.295 Y98.001 E6.72884
G1 X115.244 Y98.453 E6.76005
G1 X116.087 Y98.953 E6.78916
G1 X116.625 Y99.330 E6.80866
G1 X117.013 Y99.631 E6.82323
G1 X117.346 Y99.912 E6.83618
G1 X117.901 Y100.437 E6.85885
G1 X118.255 Y100.813 E6.87419
G1 X118.729 Y101.376 E6.89603
G1 X119.119 Y101.904 E6.91553
G1 X119.391 Y102.312 E6.93010
G1 X119.877 Y103.164 E6.95921
G1 X120.092 Y103.605 E6.97378
G1 X120.324 Y104.145 E6.99122
G1 X120.674 Y105.174 E7.02350
G1 X120.893 Y106.069 E7.05087
G1 X121.044 Y107.060 E7.08064
G1 X121.094 Y107.701 E7.09971
G1 X121.109 Y108.177 E7.11387
G1 X121.068 Y109.185 E7.14382
G1 X121.017 Y109.667 E7.15820
G1 X120.893 Y110.421 E7.18087
G1 X120.674 Y111.316 E7.20824
G1 X120.324 Y112.345 E7.24052
G1 X120.092 Y112.885 E7.25796
G1 X119.877 Y113.326 E7.27253
G1 X119.391 Y114.177 E7.30164
G1 X119.119 Y114.586 E7.31621
G1 X118.729 Y115.114 E7.33571
G1 X118.255 Y115.677 E7.35755
G1 X117.901 Y116.053 E7.37288
G1 X117.346 Y116.577 E7.39556
G1 X117.013 Y116.859 E7.40851
G1 X116.625 Y117.159 E7.42308
G1 X116.087 Y117.536 E7.44258
G1 X115.244 Y118.037 E7.47169
G1 X114.295 Y118.489 E7.50290
G1 X113.905 Y118.644 E7.51537
G1 X113.198 Y118.882 E7.53753
G1 X112.573 Y119.050 E7.55672
G1 X112.094 Y119.153 E7.57128
G1 X111.124 Y119.296 E7.60040
G1 X110.635 Y119.334 E7.61496
G1 X109.978 Y119.352 E7.63447
G1 X108.865 Y119.295 E7.66755
G1 X108.269 Y119.217 E7.68542
G1 X107.786 Y119.129 E7.69999
G1 X106.834 Y118.892 E7.72910
G1 X106.211 Y118.685 E7.74860
G1 X105.753 Y118.509 E7.76317
G1 X104.865 Y118.094 E7.79228
G1 X104.435 Y117.858 E7.80685
G1 X103.917 Y117.539 E7.82492
G1 X103.276 Y117.086 E7.84819
G1 X102.975 Y116.850 E7.85956
G1 X102.523 Y116.459 E7.87731
G1 X102.167 Y116.121 E7.89188
G1 X101.503 Y115.399 E7.92099
G1 X101.196 Y115.017 E7.93556
G1 X100.811 Y114.485 E7.95506
G1 X100.418 Y113.863 E7.97690
G1 X100.209 Y113.491 E7.98958
G1 X99.808 Y112.661 E8.01693
G1 X99.420 Y111.628 E8.04970
G1 X99.239 Y110.997 E8.06920
G1 X99.127 Y110.519 E8.08376
G1 X98.969 Y109.551 E8.11288
G1 X98.923 Y109.063 E8.12745
G1 X98.894 Y108.407 E8.14694
G1 X98.907 Y107.671 E8.16878
G1 X98.937 Y107.241 E8.18159
G1 X99.080 Y106.211 E8.21247
G1 X99.302 Y105.256 E8.24158
G1 X99.498 Y104.629 E8.26108
G1 X99.667 Y104.169 E8.27565
G1 X99.839 Y103.756 E8.28892
G1 X100.171 Y103.068 E8.31159
G1 X100.676 Y102.209 E8.34117
G1 X101.264 Y101.385 E8.37124
G1 X101.755 Y100.801 E8.39391
G1 X102.125 Y100.412 E8.40985
G1 E6.40985 F2400.00000
G92 E0
G1 X104.954 Y103.077 F7800.000
G1 E2.00000 F2400.00000
G1 F1800
G1 X105.465 Y102.625 E2.02126
G1 X106.113 Y102.157 E2.04620
G1 X106.601 Y101.872 E2.06382
G1 X107.317 Y101.539 E2.08845
G1 X107.852 Y101.348 E2.10616
G1 X108.647 Y101.150 E2.13169
G1 X109.300 Y101.057 E2.15227
G1 X110.081 Y101.022 E2.17665
G1 X110.652 Y101.051 E2.19448
G1 X111.489 Y101.177 E2.22088
G1 X112.103 Y101.337 E2.24065
G1 X112.855 Y101.610 E2.26560
G1 X113.356 Y101.850 E2.28292
G1 X114.034 Y102.253 E2.30753
G1 X114.490 Y102.587 E2.32513
G1 X115.111 Y103.141 E2.35108
G1 X115.548 Y103.623 E2.37137
G1 X116.018 Y104.250 E2.39580
G1 X116.314 Y104.737 E2.41358
G1 X116.685 Y105.509 E2.44027
G1 X116.942 Y106.258 E2.46499
G1 X117.093 Y106.882 E2.48499
G1 X117.204 Y107.721 E2.51139
G1 X117.223 Y108.232 E2.52732
G1 X117.204 Y108.769 E2.54407
G1 X117.093 Y109.608 E2.57047
G1 X116.942 Y110.231 E2.59047
G1 X116.685 Y110.981 E2.61519
G1 X116.314 Y111.752 E2.64188
G1 X116.018 Y112.240 E2.65966
G1 X115.548 Y112.867 E2.68409
G1 X115.111 Y113.348 E2.70438
G1 X114.490 Y113.903 E2.73033
G1 X114.034 Y114.236 E2.74793
G1 X113.356 Y114.640 E2.77254
G1 X112.855 Y114.880 E2.78987
G1 X112.103 Y115.153 E2.81481
G1 X111.489 Y115.312 E2.83458
G1 X110.652 Y115.438 E2.86098
G1 X110.081 Y115.467 E2.87881
G1 X109.300 Y115.433 E2.90319
G1 X108.647 Y115.339 E2.92377
G1 X107.852 Y115.141 E2.94930
G1 X107.317 Y114.951 E2.96702
G1 X106.601 Y114.618 E2.99164
G1 X106.113 Y114.333 E3.00926
G1 X105.465 Y113.864 E3.03420
G1 X104.954 Y113.412 E3.05546
G1 X104.420 Y112.831 E3.08008
G1 X104.077 Y112.379 E3.09777
G1 X103.663 Y111.710 E3.12229
G1 X103.417 Y111.218 E3.13946
G1 X103.183 Y110.625 E3.15933
G1 X102.960 Y109.860 E3.18417
G1 X102.819 Y109.020 E3.21074
G1 X102.780 Y108.447 E3.22865
G1 X102.801 Y107.668 E3.25294
G1 X102.883 Y107.018 E3.27336
G1 X103.069 Y106.213 E3.29913
G1 X103.249 Y105.677 E3.31677
G1 X103.570 Y104.955 E3.34139
G1 X103.908 Y104.367 E3.36255
G1 X104.373 Y103.716 E3.38750
G1 X104.912 Y103.120 E3.41255
G1 X105.219 Y103.343 F7800.000
G1 F1800
G1 X105.698 Y102.919 E3.43249
G1 X106.318 Y102.471 E3.45634
G1 X106.774 Y102.205 E3.47282
G1 X107.460 Y101.885 E3.49640
G1 X107.960 Y101.708 E3.51296
G1 X108.718 Y101.519 E3.53730
G1 X109.332 Y101.431 E3.55667
G1 X110.081 Y101.397 E3.58004
G1 X110.615 Y101.425 E3.59669
G1 X111.410 Y101.544 E3.62178
G1 X111.992 Y101.695 E3.64051
G1 X112.709 Y101.955 E3.66431
G1 X113.179 Y102.180 E3.68054
G1 X113.828 Y102.566 E3.70410
G1 X114.254 Y102.878 E3.72057
G1 X114.845 Y103.406 E3.74527
G1 X115.258 Y103.859 E3.76439
G1 X115.707 Y104.460 E3.78780
G1 X115.984 Y104.916 E3.80441
G1 X116.337 Y105.648 E3.82975
G1 X116.583 Y106.366 E3.85341
G1 X116.725 Y106.954 E3.87228
G1 X116.830 Y107.751 E3.89736
G1 X116.848 Y108.234 E3.91241
G1 X116.830 Y108.738 E3.92815
G1 X116.725 Y109.536 E3.95324
G1 X116.583 Y110.124 E3.97211
G1 X116.337 Y110.842 E3.99576
G1 X115.984 Y111.574 E4.02110
G1 X115.707 Y112.029 E4.03772
G1 X115.258 Y112.630 E4.06113
G1 X114.845 Y113.084 E4.08024
G1 X114.254 Y113.611 E4.10495
G1 X113.828 Y113.923 E4.12141
G1 X113.179 Y114.310 E4.14498
G1 X112.709 Y114.534 E4.16121
G1 X111.992 Y114.795 E4.18500
G1 X111.410 Y114.946 E4.20373
G1 X110.615 Y115.065 E4.22882
G1 X110.081 Y115.092 E4.24548
G1 X109.332 Y115.059 E4.26885
G1 X108.718 Y114.971 E4.28821
G1 X107.960 Y114.782 E4.31256
G1 X107.460 Y114.604 E4.32912
G1 X106.774 Y114.285 E4.35270
G1 X106.318 Y114.019 E4.36917
G1 X105.698 Y113.570 E4.39303
G1 X105.219 Y113.147 E4.41296
G1 X104.707 Y112.590 E4.43654
G1 X104.387 Y112.167 E4.45308
G1 X103.991 Y111.527 E4.47657
G1 X103.760 Y111.065 E4.49266
G1 X103.538 Y110.506 E4.51142
G1 X103.325 Y109.774 E4.53519
G1 X103.191 Y108.976 E4.56041
G1 X103.155 Y108.441 E4.57714
G1 X103.176 Y107.694 E4.60044
G1 X103.252 Y107.082 E4.61967
G1 X103.429 Y106.315 E4.64422
G1 X103.598 Y105.813 E4.66071
G1 X103.906 Y105.123 E4.68429
G1 X104.223 Y104.571 E4.70415
G1 X104.668 Y103.948 E4.72800
G1 X105.177 Y103.386 E4.75166
G1 X105.484 Y103.609 F7800.000
G1 F1800
G1 X105.931 Y103.213 E4.77027
G1 X106.522 Y102.785 E4.79303
G1 X106.947 Y102.537 E4.80837
G1 X107.602 Y102.232 E4.83090
G1 X108.068 Y102.067 E4.84631
G1 X108.492 Y101.950 E4.86002
G1 X108.894 Y101.867 E4.87281
G1 X109.644 Y101.782 E4.89636
G1 X110.081 Y101.772 E4.91000
G1 X110.577 Y101.798 E4.92548
G1 X111.331 Y101.910 E4.94925
G1 X111.877 Y102.052 E4.96683
G1 X112.563 Y102.301 E4.98959
G1 X113.001 Y102.510 E5.00472
G1 X113.621 Y102.880 E5.02725
G1 X114.018 Y103.170 E5.04257
G1 X114.579 Y103.671 E5.06603
G1 X114.967 Y104.096 E5.08397
G1 X115.397 Y104.671 E5.10637
G1 X115.654 Y105.095 E5.12182
G1 X115.988 Y105.787 E5.14580
G1 X116.224 Y106.473 E5.16839
G1 X116.357 Y107.026 E5.18613
G1 X116.456 Y107.782 E5.20991
G1 X116.473 Y108.236 E5.22407
G1 X116.456 Y108.708 E5.23880
G1 X116.357 Y109.464 E5.26257
G1 X116.224 Y110.017 E5.28031
G1 X115.988 Y110.702 E5.30291
G1 X115.654 Y111.395 E5.32689
G1 X115.397 Y111.818 E5.34234
G1 X114.967 Y112.393 E5.36474
G1 X114.579 Y112.819 E5.38268
G1 X114.018 Y113.320 E5.40613
G1 X113.621 Y113.610 E5.42146
G1 X113.001 Y113.979 E5.44398
G1 X112.563 Y114.189 E5.45912
G1 X111.878 Y114.437 E5.48183
G1 X111.331 Y114.579 E5.49946
G1 X110.577 Y114.692 E5.52323
G1 X110.081 Y114.717 E5.53871
G1 X109.644 Y114.708 E5.55235
G1 X108.894 Y114.622 E5.57590
G1 X108.492 Y114.540 E5.58869
G1 X108.068 Y114.423 E5.60240
G1 X107.602 Y114.257 E5.61781
G1 X106.947 Y113.952 E5.64034
G1 X106.522 Y113.704 E5.65568
G1 X105.931 Y113.277 E5.67843
G1 X105.484 Y112.881 E5.69705
G1 X104.995 Y112.349 E5.71959
G1 X104.696 Y111.956 E5.73497
