;FLAVOR:Marlin
;TIME:6102
;Filament used: 3.17068m
;Layer height: 0.2
;MINX:92.249
;MINY:93.814
;MINZ:0.2
;MAXX:107.749
;MAXY:141.386
;MAXZ:29
;Generated with Cura_SteamEngine master
M82 ;absolute extrusion mode
; Ender 3 Custom Start G-code
M140 S70 ; Set Heat Bed temperature
M104 S160 ; start warming extruder to 160
G28 ; Home all axes
; G29 ; Auto bed-level (BL-Touch)
G92 E0 ; Reset Extruder
M190 S70 ; Wait for Heat Bed temperature
M104 S210 ; Set Extruder temperature
G1 X0 Y0 Z0.3 F5000.0 ; Move to 0 0
M109 S210 ; Wait for Extruder temperature
G1 X3 Y20 Z0.3 F5000.0 ; Move to start position
; G1 Z2.0 F3000 ; Move Z Axis up little to prevent scratching of Heat Bed
G1 X3 Y200.0 Z0.3 F1500.0 E15 ; Draw the first line
G1 X3.3 Y200.0 Z0.3 F5000.0 ; Move to side a little
G1 X3.3 Y20 Z0.3 F1500.0 E30 ; Draw the second line
G92 E0 ; Reset Extruder
G1 Z2.0 F3000 ; Move Z Axis up little to prevent scratching of Heat Bed
G92 E0
G92 E0
G1 F2700 E-1
;LAYER_COUNT:145
;LAYER:0
M107
M204 S500
M205 X8 Y8
G0 F6000 X96.051 Y102.938 Z0.2
;TYPE:SKIRT
G1 F2700 E0
G1 F1200 X96.815 Y102.728 E0.01904
G1 X97.482 Y102.788 E0.03513
G1 X102.52 Y102.788 E0.1562
G1 X103.07 Y102.748 E0.16945
G1 X103.176 Y102.722 E0.17207
G1 X103.95 Y102.933 E0.19135
G1 X103.95 Y137.148 E1.01355
G1 X103.762 Y137.193 E1.0182
G1 X103.147 Y137.314 E1.03326
G1 X102.461 Y137.414 E1.04992
G1 X101.605 Y137.52 E1.07065
G1 X101.466 Y137.53 E1.074
G1 X99.982 Y137.587 E1.10968
G1 X99.599 Y137.587 E1.11889
G1 X99.122 Y137.568 E1.13036
G1 X98.127 Y137.491 E1.15434
G1 X97.668 Y137.441 E1.16544
G1 X96.839 Y137.308 E1.18561
G1 X96.261 Y137.197 E1.19975
G1 X96.05 Y137.149 E1.20495
G1 X96.051 Y102.938 E2.02706
G0 F6000 X95.651 Y102.633
G1 F1200 X96.809 Y102.315 E2.05592
G1 X96.901 Y102.338 E2.0582
G1 X97.482 Y102.388 E2.07221
G1 X102.52 Y102.388 E2.19328
G1 X103.04 Y102.348 E2.20581
G1 X103.19 Y102.311 E2.20952
G1 X104.35 Y102.628 E2.23842
G1 X104.35 Y137.465 E3.07557
G1 X103.847 Y137.583 E3.08798
G1 X103.203 Y137.71 E3.10376
G1 X102.517 Y137.81 E3.12042
G1 X101.643 Y137.919 E3.14158
G1 X101.512 Y137.928 E3.14474
G1 X99.971 Y137.987 E3.18179
G1 X99.583 Y137.987 E3.19112
G1 X99.101 Y137.968 E3.20271
G1 X98.114 Y137.891 E3.2265
G1 X97.603 Y137.835 E3.23885
G1 X96.797 Y137.707 E3.25846
G1 X96.153 Y137.583 E3.27422
G1 X95.65 Y137.467 E3.28663
G1 X95.651 Y102.633 E4.1237
G0 F6000 X95.251 Y102.329
G1 F1200 X96.806 Y101.901 E4.16246
G1 X96.999 Y101.949 E4.16724
G1 X97.482 Y101.988 E4.17889
G1 X102.52 Y101.988 E4.29995
G1 X103.008 Y101.948 E4.31172
G1 X103.202 Y101.9 E4.31652
G1 X104.75 Y102.322 E4.35508
G1 X104.75 Y137.773 E5.20698
G1 X104.523 Y137.835 E5.21263
G1 X103.926 Y137.976 E5.22738
G1 X103.279 Y138.103 E5.24322
G1 X102.581 Y138.206 E5.26017
G1 X101.683 Y138.317 E5.28192
G1 X101.524 Y138.328 E5.28575
G1 X99.986 Y138.387 E5.32273
G1 X99.593 Y138.387 E5.33218
G1 X99.055 Y138.366 E5.34512
G1 X98.073 Y138.29 E5.36878
G1 X97.556 Y138.233 E5.38128
G1 X96.719 Y138.099 E5.40165
G1 X96.071 Y137.974 E5.41751
G1 X95.367 Y137.813 E5.43487
G1 X95.25 Y137.78 E5.43779
G1 X95.251 Y102.329 E6.28969
G0 F6000 X94.851 Y102.024
G1 F1200 X96.799 Y101.488 E6.33824
G1 X97.094 Y101.559 E6.34553
G1 X97.482 Y101.588 E6.35488
G1 X102.52 Y101.588 E6.47595
G1 X102.974 Y101.548 E6.4869
G1 X103.211 Y101.488 E6.49278
G1 X105.15 Y102.017 E6.54107
G1 X105.15 Y138.078 E7.40764
G1 X104.612 Y138.226 E7.42104
G1 X104.01 Y138.366 E7.4359
G1 X103.352 Y138.496 E7.45201
G1 X102.599 Y138.606 E7.4703
G1 X101.722 Y138.715 E7.49154
G1 X101.536 Y138.728 E7.49602
G1 X100.002 Y138.787 E7.53291
G1 X99.578 Y138.787 E7.5431
G1 X99.034 Y138.766 E7.55618
G1 X98.029 Y138.688 E7.5804
G1 X97.512 Y138.631 E7.5929
G1 X96.646 Y138.493 E7.61397
G1 X95.99 Y138.366 E7.63003
G1 X95.271 Y138.202 E7.64775
G1 X94.85 Y138.083 E7.65827
G1 X94.851 Y102.024 E8.52478
G1 F2700 E7.52478
G0 F6000 X96.788 Y101.075
G1 F2700 E8.52478
G1 F1200 X97.187 Y101.168 E8.53463
G1 X97.482 Y101.188 E8.54173
G1 X102.52 Y101.188 E8.6628
G1 X102.937 Y101.148 E8.67286
G1 X103.217 Y101.075 E8.67982
G1 X105.55 Y101.711 E8.73793
G1 X105.55 Y138.383 E9.61917
G1 X104.731 Y138.608 E9.63958
G1 X104.095 Y138.758 E9.65528
G1 X103.425 Y138.89 E9.67169
G1 X102.66 Y139.002 E9.69027
G1 X101.763 Y139.113 E9.71199
G1 X101.551 Y139.128 E9.7171
G1 X100.017 Y139.187 E9.75399
G1 X99.562 Y139.187 E9.76492
G1 X99.013 Y139.166 E9.77812
G1 X98.015 Y139.088 E9.80218
G1 X97.447 Y139.026 E9.81591
G1 X96.568 Y138.885 E9.8373
G1 X95.915 Y138.759 E9.85328
G1 X95.176 Y138.59 E9.8715
G1 X94.45 Y138.386 E9.88962
G1 X94.451 Y101.718 E10.77077
G1 X96.788 Y101.075 E10.82902
G0 F6000 X96.677 Y100.692
G1 F1200 X96.78 Y100.651 E10.83168
G1 X96.907 Y100.694 E10.8349
G1 X97.277 Y100.776 E10.84401
G1 X97.482 Y100.788 E10.84895
G1 X102.52 Y100.788 E10.97001
G1 X102.897 Y100.748 E10.97912
G1 X103.225 Y100.65 E10.98735
G1 X103.323 Y100.69 E10.98989
G1 X105.692 Y101.336 E11.0489
G1 X105.95 Y101.427 E11.05547
G1 X105.95 Y138.68 E11.95068
G1 X105.741 Y138.744 E11.95593
G1 X104.787 Y139.007 E11.97971
G1 X104.174 Y139.15 E11.99484
G1 X103.482 Y139.286 E12.01178
G1 X102.72 Y139.398 E12.03029
G1 X101.802 Y139.511 E12.05252
G1 X101.594 Y139.526 E12.05753
G1 X100.006 Y139.587 E12.09572
G1 X99.571 Y139.587 E12.10617
G1 X98.993 Y139.564 E12.12007
G1 X97.944 Y139.483 E12.14536
G1 X97.4 Y139.423 E12.15851
G1 X96.52 Y139.283 E12.17992
G1 X95.806 Y139.145 E12.1974
G1 X95.085 Y138.98 E12.21517
G1 X94.304 Y138.76 E12.23467
G1 X94.05 Y138.679 E12.24107
G1 X94.051 Y101.426 E13.13628
G1 X94.226 Y101.366 E13.14073
G1 X96.677 Y100.692 E13.20181
G0 F6000 X96.571 Y100.306
G1 F1200 X96.768 Y100.225 E13.20693
G1 X97.035 Y100.315 E13.2137
G1 X97.482 Y100.388 E13.22458
G1 X102.52 Y100.388 E13.34565
G1 X102.967 Y100.315 E13.35653
G1 X103.224 Y100.228 E13.36305
G1 X103.429 Y100.304 E13.36831
G1 X105.804 Y100.952 E13.42747
G1 X106.35 Y101.144 E13.44137
G1 X106.35 Y138.974 E14.35045
G1 X105.848 Y139.13 E14.36308
G1 X104.906 Y139.389 E14.38656
G1 X104.285 Y139.535 E14.40189
G1 X103.535 Y139.683 E14.42026
G1 X102.783 Y139.793 E14.43852
G1 X101.84 Y139.91 E14.46135
G1 X101.609 Y139.926 E14.46692
G1 X100.021 Y139.987 E14.50511
G1 X99.556 Y139.987 E14.51628
G1 X98.972 Y139.964 E14.53032
G1 X97.93 Y139.883 E14.55544
G1 X97.335 Y139.818 E14.56982
G1 X96.448 Y139.676 E14.59141
G1 X95.752 Y139.542 E14.60844
G1 X94.97 Y139.363 E14.62772
G1 X94.192 Y139.144 E14.64714
G1 X93.65 Y138.971 E14.66081
G1 X93.651 Y101.139 E15.56993
G1 X94.107 Y100.984 E15.58151
G1 X96.571 Y100.306 E15.64292
G0 F6000 X96.465 Y99.92
G1 F1200 X96.724 Y99.808 E15.6497
G1 X96.74 Y99.793 E15.65023
G1 X97.163 Y99.936 E15.66096
G1 X97.482 Y99.988 E15.66872
G1 X102.52 Y99.988 E15.78979
G1 X102.84 Y99.936 E15.79758
G1 X103.272 Y99.79 E15.80854
G1 X103.534 Y99.918 E15.81555
G1 X105.92 Y100.569 E15.87498
G1 X106.75 Y100.862 E15.89613
G1 X106.75 Y139.266 E16.81899
G1 X106.71 Y139.281 E16.82002
G1 X105.947 Y139.518 E16.83922
G1 X105.022 Y139.772 E16.86227
G1 X104.337 Y139.933 E16.87918
G1 X103.611 Y140.076 E16.89696
G1 X102.846 Y140.188 E16.91554
G1 X101.88 Y140.308 E16.93893
G1 X101.62 Y140.326 E16.9452
G1 X100.037 Y140.387 E16.98326
G1 X99.54 Y140.387 E16.99521
G1 X98.952 Y140.364 E17.00935
G1 X97.886 Y140.281 E17.03504
G1 X97.291 Y140.216 E17.04943
G1 X96.37 Y140.069 E17.07184
G1 X95.671 Y139.934 E17.08895
G1 X94.873 Y139.751 E17.10862
G1 X94.079 Y139.528 E17.12844
G1 X93.335 Y139.291 E17.1472
G1 X93.25 Y139.26 E17.14938
G1 X93.251 Y100.853 E18.07231
G1 X94.004 Y100.597 E18.09143
G1 X96.465 Y99.92 E18.15276
G0 F6000 X96.359 Y99.535
G1 F1200 X96.555 Y99.439 E18.15801
G1 X96.654 Y99.343 E18.16132
G1 X97.29 Y99.557 E18.17745
G1 X97.482 Y99.588 E18.18212
G1 X102.52 Y99.588 E18.30318
G1 X102.712 Y99.557 E18.30786
G1 X103.348 Y99.343 E18.32398
G1 X103.481 Y99.463 E18.32829
G1 X103.639 Y99.532 E18.33243
G1 X106.036 Y100.186 E18.39214
G1 X107.15 Y100.579 E18.42052
G1 X107.15 Y139.546 E19.35692
G1 X106.847 Y139.658 E19.36468
G1 X106.079 Y139.896 E19.384
G1 X105.092 Y140.167 E19.4086
G1 X104.44 Y140.32 E19.42469
G1 X103.684 Y140.469 E19.44321
G1 X102.892 Y140.586 E19.46245
G1 X101.919 Y140.706 E19.48601
G1 X101.646 Y140.725 E19.49258
G1 X100.026 Y140.787 E19.53154
G1 X99.55 Y140.787 E19.54298
G1 X98.911 Y140.762 E19.55835
G1 X97.845 Y140.679 E19.58404
G1 X97.244 Y140.613 E19.59857
G1 X96.291 Y140.461 E19.62176
G1 X95.595 Y140.327 E19.63879
G1 X94.778 Y140.14 E19.65893
G1 X93.959 Y139.91 E19.67937
G1 X93.198 Y139.667 E19.69857
G1 X92.85 Y139.542 E19.70746
G1 X92.851 Y100.566 E20.64407
G1 X93.87 Y100.22 E20.66993
G1 X96.359 Y99.535 E20.73196
G0 F6000 X96.253 Y99.149
G1 F1200 X96.359 Y99.077 E20.73504
G1 X96.515 Y98.873 E20.74121
G1 X97.419 Y99.178 E20.76414
G1 X97.482 Y99.188 E20.76567
G1 X102.52 Y99.188 E20.88674
G1 X102.584 Y99.178 E20.8883
G1 X103.486 Y98.874 E20.91117
G1 X103.638 Y99.074 E20.91721
G1 X103.744 Y99.146 E20.92028
G1 X106.152 Y99.803 E20.98027
G1 X107.55 Y100.296 E21.01589
G1 X107.55 Y139.825 E21.96579
G1 X106.967 Y140.039 E21.98071
G1 X106.185 Y140.282 E22.00039
G1 X105.205 Y140.551 E22.02481
G1 X104.51 Y140.714 E22.04196
G1 X103.756 Y140.863 E22.06043
G1 X102.95 Y140.981 E22.08001
G1 X101.957 Y141.104 E22.10405
G1 X101.661 Y141.125 E22.11118
G1 X100.041 Y141.187 E22.15014
G1 X99.535 Y141.187 E22.1623
G1 X98.896 Y141.162 E22.17767
G1 X97.815 Y141.078 E22.20372
G1 X97.187 Y141.009 E22.21891
G1 X96.219 Y140.855 E22.24246
G1 X95.505 Y140.717 E22.25993
G1 X94.682 Y140.528 E22.28023
G1 X93.847 Y140.294 E22.30107
G1 X93.077 Y140.048 E22.32049
G1 X92.453 Y139.824 E22.33642
G1 X92.45 Y139.819 E22.33656
G1 X92.451 Y100.282 E23.28665
G1 X93.755 Y99.836 E23.31977
G1 X96.253 Y99.149 E23.38203
G1 F2700 E22.38203
G0 F6000 X96.729 Y103.166
;TYPE:SUPPORT
G1 F2700 E23.38203
G1 F1200 X96.793 Y103.188 E23.38365
G1 X103.208 Y103.188 E23.53781
G1 X103.278 Y103.165 E23.53958
G1 X103.55 Y103.239 E23.54635
G1 X103.55 Y136.827 E24.35349
G1 X103.089 Y136.918 E24.36478
G1 X102.425 Y137.015 E24.38091
G1 X101.564 Y137.122 E24.40176
G1 X101.437 Y137.131 E24.40482
G1 X99.966 Y137.187 E24.44019
G1 X99.614 Y137.187 E24.44865
G1 X99.129 Y137.168 E24.46031
G1 X98.186 Y137.095 E24.48304
G1 X97.724 Y137.044 E24.49421
G1 X96.913 Y136.915 E24.51394
G1 X96.45 Y136.826 E24.52527
G1 X96.451 Y103.243 E25.33229
G1 X96.729 Y103.166 E25.33922
G0 F6000 X96.851 Y103.588
G1 F1200 X103.15 Y103.588 E25.49059
G1 X103.15 Y136.499 E26.28145
G1 X103.031 Y136.522 E26.28437
G1 X102.367 Y136.619 E26.30049
G1 X101.525 Y136.724 E26.32088
G1 X101.422 Y136.731 E26.32336
G1 X99.951 Y136.787 E26.35874
G1 X99.63 Y136.787 E26.36645
G1 X99.149 Y136.768 E26.37802
G1 X98.23 Y136.697 E26.40017
G1 X97.768 Y136.646 E26.41134
G1 X96.991 Y136.522 E26.43025
G1 X96.85 Y136.495 E26.4337
G1 X96.851 Y103.588 E27.22447
G0 F6000 X96.931 Y104
G1 F1200 X103.07 Y104 E27.37199
G0 F6000 X102 Y103.668
G1 F1200 X102 Y136.584 E28.16298
G0 F6000 X103.069 Y136
G1 F1200 X96.93 Y136 E28.3105
G0 F6000 X98 Y136.59
G1 F1200 X98 Y103.668 E29.10163
G1 F2700 E28.10163
G0 F6000 X100 Y103.668
G1 F2700 E29.10163
G1 F1200 X100 Y136.705 E29.89552
G1 F2700 E28.89552
G0 F6000 X103.069 Y134
G1 F2700 E29.89552
G1 F1200 X96.93 Y134 E30.04305
G1 F2700 E29.04305
G0 F6000 X96.93 Y132
G1 F2700 E30.04305
G1 F1200 X103.069 Y132 E30.19057
G1 F2700 E29.19057
G0 F6000 X103.069 Y130
G1 F2700 E30.19057
G1 F1200 X96.93 Y130 E30.33809
G1 F2700 E29.33809
G0 F6000 X96.93 Y128
G1 F2700 E30.33809
G1 F1200 X103.069 Y128 E30.48561
G1 F2700 E29.48561
G0 F6000 X103.069 Y126
G1 F2700 E30.48561
G1 F1200 X96.93 Y126 E30.63314
G1 F2700 E29.63314
G0 F6000 X96.93 Y124
G1 F2700 E30.63314
G1 F1200 X103.069 Y124 E30.78066
G1 F2700 E29.78066
G0 F6000 X103.069 Y122
G1 F2700 E30.78066
G1 F1200 X96.93 Y122 E30.92818
G1 F2700 E29.92818
G0 F6000 X96.93 Y120
G1 F2700 E30.92818
G1 F1200 X103.069 Y120 E31.07571
G1 F2700 E30.07571
G0 F6000 X103.07 Y118
G1 F2700 E31.07571
G1 F1200 X96.931 Y118 E31.22323
G1 F2700 E30.22323
G0 F6000 X96.931 Y116
G1 F2700 E31.22323
G1 F1200 X103.07 Y116 E31.37075
G1 F2700 E30.37075
G0 F6000 X103.07 Y114
G1 F2700 E31.37075
G1 F1200 X96.931 Y114 E31.51827
G1 F2700 E30.51827
G0 F6000 X96.931 Y112
G1 F2700 E31.51827
G1 F1200 X103.07 Y112 E31.6658
G1 F2700 E30.6658
G0 F6000 X103.07 Y110
G1 F2700 E31.6658
G1 F1200 X96.931 Y110 E31.81332
G1 F2700 E30.81332
G0 F6000 X96.931 Y108
G1 F2700 E31.81332
G1 F1200 X103.07 Y108 E31.96084
G1 F2700 E30.96084
G0 F6000 X103.07 Y106
G1 F2700 E31.96084
G1 F1200 X96.931 Y106 E32.10837
G1 F2700 E31.10837
;MESH:Zippo_Top.stl
G0 F6000 X97.044 Y96.959
;TYPE:WALL-INNER
G1 F2700 E32.10837
G1 F1200 X97.044 Y96.665 E32.11543
G1 X102.956 Y96.664 E32.2575
G1 X102.956 Y96.958 E32.26456
G1 X97.044 Y96.959 E32.36907
G0 F6000 X96.644 Y97.359
M104 S210
;TYPE:WALL-OUTER
G1 F1200 X96.644 Y96.265 E32.39536
G1 X103.356 Y96.264 E32.55666
G1 X103.356 Y97.358 E32.58295
G1 X96.644 Y97.359 E32.74424
G1 F2700 E31.74424
;MESH:NONMESH
G0 F300 X96.644 Y97.359 Z0.4
G0 F6000 X92.451 Y100.282
;TIME_ELAPSED:80.459634
;LAYER:1
M140 S65
M106 S85
;TYPE:SUPPORT
G1 F2700 E32.74424
G1 F1350 X93.765 Y99.833 E32.78349
G1 X96.318 Y99.131 E32.85835
G1 X96.365 Y99.069 E32.86055
G1 X97.095 Y99.069 E32.88119
G1 X97.449 Y99.188 E32.89175
G1 X102.553 Y99.188 E33.03604
G1 X102.91 Y99.068 E33.04669
G1 X103.633 Y99.068 E33.06713
G1 X103.68 Y99.129 E33.06931
G1 X106.158 Y99.805 E33.14192
G1 X107.55 Y100.297 E33.18366
G1 X107.55 Y139.825 E34.30116
G1 X106.964 Y140.04 E34.31881
G1 X106.178 Y140.284 E34.34208
G1 X105.219 Y140.548 E34.3702
G1 X104.519 Y140.712 E34.39052
G1 X103.748 Y140.864 E34.41274
G1 X102.941 Y140.982 E34.4358
G1 X101.957 Y141.104 E34.46383
G1 X101.653 Y141.126 E34.47244
G1 X100.053 Y141.187 E34.51771
G1 X99.547 Y141.187 E34.53202
G1 X98.886 Y141.161 E34.55072
G1 X97.816 Y141.078 E34.58106
G1 X97.195 Y141.01 E34.59872
G1 X96.205 Y140.853 E34.62706
G1 X95.524 Y140.721 E34.64667
G1 X94.663 Y140.523 E34.67165
G1 X93.862 Y140.299 E34.69516
G1 X93.081 Y140.049 E34.71834
G1 X92.453 Y139.823 E34.73721
G1 X92.45 Y139.819 E34.73735
G1 X92.451 Y100.282 E35.85511
G1 F2700 E34.85511
G0 F7500 X106 Y100.053
G1 F2700 E35.85511
G1 F1350 X104 Y99.507 E35.91372
G1 X104 Y140.53 E37.07349
G1 X103.707 Y140.587 E37.08192
G1 X102.9 Y140.705 E37.10498
G1 X102 Y140.818 E37.13063
G1 X102 Y99.468 E38.29964
G1 X100 Y99.468 E38.35618
G1 X100 Y140.907 E39.52771
G1 X99.558 Y140.907 E39.5402
G1 X98.9 Y140.881 E39.55882
G1 X98 Y140.81 E39.58434
G1 X98 Y99.468 E40.75313
G1 X97.403 Y99.468 E40.77
G1 X97.048 Y99.349 E40.78059
G1 X96.504 Y99.349 E40.79597
G1 X96.483 Y99.376 E40.79694
G1 X96 Y99.508 E40.81109
G1 X96 Y140.528 E41.97077
G1 X95.584 Y140.447 E41.98275
G1 X94.736 Y140.252 E42.00735
G1 X94 Y140.047 E42.02895
G1 X93.937 Y140.03 E42.0308
G1 X93.173 Y139.785 E42.05348
G1 X92.73 Y139.625 E42.0668
G1 X92.731 Y100.483 E43.17338
G1 X93.844 Y100.102 E43.20664
G1 X94 Y100.059 E43.21122
G1 X94 Y140.047 E44.34172
G1 F2700 E43.34172
G0 F7500 X106 Y100.053
G1 F2700 E44.34172
G1 F1350 X106.072 Y100.072 E44.34383
G1 X107.27 Y100.495 E44.37975
G1 X107.27 Y139.629 E45.48611
G1 X106.867 Y139.777 E45.49824
G1 X106.104 Y140.014 E45.52083
G1 X106 Y140.043 E45.52388
G1 X106 Y100.053 E46.65445
G1 F2700 E45.65445
;MESH:Zippo_Top.stl
G0 F7500 X97.444 Y97.069
;TYPE:WALL-INNER
G1 F2700 E46.65445
G1 F1350 X97.444 Y96.87 E46.66007
G1 X97.444 Y96.506 E46.67036
G1 X102.357 Y96.505 E46.80926
G1 X102.556 Y96.505 E46.81489
G1 X102.556 Y96.704 E46.81853
G1 X102.556 Y97.068 E46.82882
G1 X97.643 Y97.069 E46.96771
G1 X97.444 Y97.069 E46.97135
G0 F7500 X97.044 Y97.469
G1 F1350 X97.044 Y97.27 E46.97698
G1 X97.044 Y96.106 E47.00989
G1 X102.757 Y96.105 E47.1714
G1 X102.956 Y96.105 E47.17702
G1 X102.956 Y96.304 E47.18066
G1 X102.956 Y97.468 E47.21357
G1 X97.243 Y97.469 E47.37508
G1 X97.044 Y97.469 E47.37872
G0 F7500 X96.644 Y97.869
;TYPE:WALL-OUTER
G1 F1350 X96.644 Y95.706 E47.43988
G1 X103.356 Y95.705 E47.62963
G1 X103.356 Y97.868 E47.69078
G1 X96.644 Y97.869 E47.88054
G0 F7500 X97.808 Y96.786
;TYPE:SKIN
G1 F1350 X98.091 Y96.786 E47.88521
G1 X102.051 Y96.786 E47.9506
G0 F7500 X102.227 Y96.893
G1 F1350 X102.379 Y96.741 E47.95364
G1 F2700 E46.95364
