;FLAVOR:Marlin
;TIME:3548
;Filament used: 1.66321m
;Layer height: 0.2
;MINX:92.45
;MINY:93.814
;MINZ:0.2
;MAXX:107.55
;MAXY:141.186
;MAXZ:35
;Generated with Cura_SteamEngine master
M82 ;absolute extrusion mode
; Ender 3 Custom Start G-code
M140 S70 ; Set Heat Bed temperature
M104 S160 ; start warming extruder to 160
G28 ; Home all axes
; G29 ; Auto bed-level (BL-Touch)
G92 E0 ; Reset Extruder
M190 S70 ; Wait for Heat Bed temperature
M104 S210 ; Set Extruder temperature
G1 X0 Y0 Z0.3 F5000.0 ; Move to 0 0
M109 S210 ; Wait for Extruder temperature
G1 X3 Y20 Z0.3 F5000.0 ; Move to start position
; G1 Z2.0 F3000 ; Move Z Axis up little to prevent scratching of Heat Bed
G1 X3 Y200.0 Z0.3 F1500.0 E15 ; Draw the first line
G1 X3.3 Y200.0 Z0.3 F5000.0 ; Move to side a little
G1 X3.3 Y20 Z0.3 F1500.0 E30 ; Draw the second line
G92 E0 ; Reset Extruder
G1 Z2.0 F3000 ; Move Z Axis up little to prevent scratching of Heat Bed
G92 E0
G92 E0
G1 F2700 E-1
;LAYER_COUNT:175
;LAYER:0
M107
M204 S500
M205 X8 Y8
G0 F6000 X105.21 Y96.951 Z0.2
;TYPE:SKIRT
G1 F2700 E0
G1 F1200 X105.583 Y96.95 E0.00896
G1 X105.582 Y97.165 E0.01413
G1 X105.21 Y97.077 E0.02332
G1 X105.21 Y96.951 E0.02634
G0 F6000 X104.81 Y96.551
G1 F1200 X105.983 Y96.55 E0.05453
G1 X105.981 Y97.68 E0.08169
G1 X105.729 Y97.611 E0.08796
G1 X104.856 Y97.406 E0.10951
G1 X104.81 Y97.397 E0.11064
G1 X104.81 Y96.551 E0.13097
G0 F6000 X104.779 Y97.798
G1 F1200 X104.41 Y97.726 E0.14
G1 X104.41 Y96.151 E0.17785
G1 X106.384 Y96.15 E0.22529
G1 X106.38 Y98.206 E0.2747
G1 X105.637 Y98 E0.29322
G1 X104.779 Y97.798 E0.31441
G0 F6000 X104.702 Y98.191
G1 F1200 X104.01 Y98.055 E0.33135
G1 X104.01 Y95.893 E0.38331
G1 X104.152 Y95.751 E0.38813
G1 X106.78 Y95.75 E0.45128
G1 X106.785 Y95.755 E0.45145
G1 X106.779 Y98.746 E0.52333
G1 X106.364 Y98.616 E0.53378
G1 X105.545 Y98.389 E0.5542
G1 X104.702 Y98.191 E0.57501
G1 F2700 E-0.42499
G0 F6000 X95.984 Y98.058
G1 F2700 E0.57501
G1 F1200 X95.313 Y98.186 E0.59143
G1 X94.469 Y98.386 E0.61227
G1 X93.631 Y98.617 E0.63316
G1 X93.212 Y98.75 E0.64372
G1 X93.212 Y95.893 E0.71238
G1 X93.354 Y95.751 E0.7172
G1 X95.99 Y95.75 E0.78055
G1 X95.984 Y98.058 E0.83601
G1 F2700 E-0.16399
G0 F6000 X94.787 Y96.95
G1 F2700 E0.83601
G1 F1200 X94.787 Y97.078 E0.83909
G1 X94.412 Y97.167 E0.84835
G1 X94.412 Y96.951 E0.85354
G1 X94.787 Y96.95 E0.86255
G0 F6000 X95.188 Y96.55
G1 F1200 X95.186 Y97.396 E0.88288
G1 X94.292 Y97.606 E0.90495
G1 X94.012 Y97.682 E0.91192
G1 X94.012 Y96.551 E0.9391
G1 X95.188 Y96.55 E0.96736
G0 F6000 X95.589 Y96.15
G1 F1200 X95.585 Y97.727 E1.00525
G1 X95.221 Y97.797 E1.01416
G1 X94.362 Y98.001 E1.03538
G1 X93.612 Y98.208 E1.05407
G1 X93.612 Y96.151 E1.1035
G1 X95.589 Y96.15 E1.15101
G1 F2700 E0.15101
;MESH:Zippo_Bottom.stl
G0 F6000 X106.35 Y138.951
;TYPE:WALL-INNER
G1 F2700 E1.15101
G1 F1200 X105.688 Y139.161 E1.1677
G1 X104.912 Y139.375 E1.18705
G1 X104.204 Y139.543 E1.20453
G1 X103.414 Y139.695 E1.22386
G1 X102.661 Y139.812 E1.24218
G1 X101.934 Y139.897 E1.25977
G1 X101.165 Y139.955 E1.2783
G1 X100.357 Y139.986 E1.29773
G1 X99.643 Y139.986 E1.31489
G1 X98.841 Y139.955 E1.33417
G1 X98.069 Y139.896 E1.35278
G1 X97.336 Y139.813 E1.37051
G1 X96.589 Y139.696 E1.38867
G1 X95.799 Y139.542 E1.40802
G1 X95.088 Y139.375 E1.42557
G1 X94.312 Y139.161 E1.44491
G1 X93.65 Y138.951 E1.4616
G1 X93.65 Y101.13 E2.37046
G1 X94.293 Y100.925 E2.38667
G1 X95.087 Y100.706 E2.40647
G1 X95.795 Y100.538 E2.42395
G1 X96.585 Y100.386 E2.44328
G1 X97.347 Y100.266 E2.46182
G1 X98.131 Y100.178 E2.48078
G1 X98.828 Y100.126 E2.49757
G1 X99.698 Y100.092 E2.5185
G1 X100.355 Y100.093 E2.53429
G1 X101.173 Y100.126 E2.55396
G1 X101.826 Y100.175 E2.56969
G1 X102.626 Y100.264 E2.58904
G1 X103.427 Y100.388 E2.60851
G1 X104.22 Y100.543 E2.62793
G1 X104.93 Y100.71 E2.64546
G1 X105.707 Y100.924 E2.66483
G1 X106.35 Y101.13 E2.68105
G1 X106.35 Y138.951 E3.58991
G0 F6000 X106.75 Y139.234
G1 F1200 X106.526 Y139.315 E3.59563
G1 X105.794 Y139.547 E3.61408
G1 X105.018 Y139.761 E3.63343
G1 X104.28 Y139.936 E3.65165
G1 X103.49 Y140.088 E3.67099
G1 X102.72 Y140.208 E3.68971
G1 X101.964 Y140.296 E3.708
G1 X101.184 Y140.355 E3.7268
G1 X100.372 Y140.386 E3.74633
G1 X99.628 Y140.386 E3.7642
G1 X98.82 Y140.355 E3.78364
G1 X98.038 Y140.295 E3.80248
G1 X97.275 Y140.208 E3.82094
G1 X96.512 Y140.089 E3.83949
G1 X95.722 Y139.935 E3.85883
G1 X94.982 Y139.761 E3.8771
G1 X94.206 Y139.547 E3.89645
G1 X93.455 Y139.309 E3.91538
G1 X93.25 Y139.235 E3.92061
G1 X93.25 Y100.847 E4.8431
G1 X93.482 Y100.764 E4.84902
G1 X94.187 Y100.539 E4.8668
G1 X94.981 Y100.32 E4.88659
G1 X95.719 Y100.145 E4.90482
G1 X96.509 Y99.993 E4.92415
G1 X97.287 Y99.871 E4.94308
G1 X97.302 Y99.87 E4.94344
G1 X98.101 Y99.779 E4.96276
G1 X98.811 Y99.726 E4.97987
G1 X99.683 Y99.692 E5.00084
G1 X100.371 Y99.693 E5.01737
G1 X101.19 Y99.726 E5.03707
G1 X101.87 Y99.777 E5.05346
G1 X102.67 Y99.866 E5.0728
G1 X103.504 Y99.995 E5.09308
G1 X104.297 Y100.15 E5.1125
G1 X105.036 Y100.324 E5.13074
G1 X105.813 Y100.538 E5.15011
G1 X106.449 Y100.74 E5.16614
G1 X106.75 Y100.845 E5.1738
G1 X106.75 Y139.234 E6.09631
G0 F6000 X107.15 Y139.515
G1 F1200 X106.656 Y139.693 E6.10893
G1 X105.9 Y139.933 E6.12799
G1 X105.124 Y140.147 E6.14733
G1 X104.356 Y140.329 E6.1663
G1 X103.566 Y140.481 E6.18563
G1 X102.775 Y140.604 E6.20487
G1 X101.994 Y140.695 E6.22376
G1 X101.203 Y140.755 E6.24282
G1 X100.387 Y140.786 E6.26245
G1 X99.613 Y140.786 E6.28105
G1 X98.799 Y140.755 E6.30062
G1 X98.007 Y140.694 E6.31971
G1 X97.221 Y140.604 E6.33872
G1 X96.435 Y140.482 E6.35784
G1 X95.645 Y140.328 E6.37718
G1 X94.876 Y140.147 E6.39616
G1 X94.1 Y139.933 E6.4155
G1 X93.334 Y139.69 E6.43482
G1 X92.85 Y139.516 E6.44718
G1 X92.85 Y100.565 E7.38319
G1 X93.347 Y100.387 E7.39587
G1 X94.081 Y100.153 E7.41438
G1 X94.875 Y99.934 E7.43418
G1 X95.643 Y99.752 E7.45314
G1 X96.433 Y99.6 E7.47248
G1 X97.227 Y99.476 E7.49179
G1 X97.241 Y99.475 E7.49212
G1 X98.071 Y99.38 E7.5122
G1 X98.794 Y99.326 E7.52962
G1 X99.668 Y99.292 E7.55064
G1 X100.387 Y99.293 E7.56792
G1 X101.207 Y99.326 E7.58764
G1 X101.914 Y99.379 E7.60468
G1 X102.714 Y99.468 E7.62402
G1 X103.581 Y99.602 E7.6451
G1 X104.374 Y99.757 E7.66452
G1 X105.142 Y99.938 E7.68348
G1 X105.919 Y100.152 E7.70285
G1 X106.575 Y100.36 E7.71938
G1 X106.699 Y100.401 E7.72252
G1 X107.15 Y100.564 E7.73405
G1 X107.15 Y139.515 E8.67006
G0 F6000 X107.55 Y139.81
;TYPE:WALL-OUTER
G1 F1200 X107.483 Y139.82 E8.67168
G1 X106.787 Y140.071 E8.68946
G1 X106.006 Y140.319 E8.70916
G1 X105.23 Y140.533 E8.7285
G1 X104.432 Y140.722 E8.74821
G1 X103.642 Y140.874 E8.76754
G1 X102.833 Y141 E8.78721
G1 X102.024 Y141.094 E8.80678
G1 X101.222 Y141.155 E8.82611
G1 X100.402 Y141.186 E8.84583
G1 X99.598 Y141.186 E8.86515
G1 X98.778 Y141.155 E8.88487
G1 X97.976 Y141.093 E8.9042
G1 X97.167 Y141 E8.92377
G1 X96.358 Y140.875 E8.94344
G1 X95.568 Y140.721 E8.96278
G1 X94.77 Y140.533 E8.98248
G1 X93.994 Y140.319 E9.00183
G1 X93.213 Y140.071 E9.02152
G1 X92.45 Y139.797 E9.041
G1 X92.45 Y100.269 E9.99088
G1 X92.516 Y100.259 E9.99248
G1 X93.212 Y100.01 E10.01024
G1 X93.975 Y99.767 E10.02949
G1 X94.769 Y99.548 E10.04928
G1 X95.567 Y99.359 E10.06899
G1 X96.357 Y99.207 E10.08832
G1 X97.166 Y99.081 E10.10799
G1 X98.041 Y98.981 E10.12916
G1 X98.776 Y98.926 E10.14687
G1 X99.654 Y98.892 E10.16798
G1 X100.403 Y98.893 E10.18598
G1 X101.224 Y98.926 E10.20573
G1 X101.958 Y98.981 E10.22341
G1 X102.758 Y99.07 E10.24276
G1 X103.658 Y99.209 E10.26464
G1 X104.451 Y99.364 E10.28406
G1 X105.249 Y99.552 E10.30376
G1 X106.026 Y99.767 E10.32313
G1 X106.701 Y99.98 E10.34014
G1 X106.825 Y100.021 E10.34328
G1 X107.55 Y100.283 E10.3618
G1 X107.55 Y139.81 E11.31166
G0 F6000 X107.11 Y139.522
G0 X105.96 Y138.665
;TYPE:SKIN
G1 F1200 X105.579 Y138.786 E11.32126
G1 X104.822 Y138.995 E11.34013
G1 X104.109 Y139.165 E11.35775
G1 X103.369 Y139.307 E11.37585
G1 X102.608 Y139.425 E11.39436
G1 X101.86 Y139.513 E11.41246
G1 X101.15 Y139.565 E11.42957
G1 X100.342 Y139.596 E11.449
G1 X99.658 Y139.596 E11.46543
G1 X98.856 Y139.565 E11.48472
G1 X98.155 Y139.513 E11.50161
G1 X97.392 Y139.427 E11.52006
G1 X96.614 Y139.305 E11.53899
G1 X95.934 Y139.172 E11.55564
G1 X95.182 Y138.996 E11.5742
G1 X94.421 Y138.786 E11.59317
G1 X94.04 Y138.665 E11.60277
G1 X94.04 Y101.416 E12.49788
G1 X94.412 Y101.297 E12.50727
G1 X95.177 Y101.086 E12.52634
G1 X95.89 Y100.916 E12.54395
G1 X96.636 Y100.773 E12.56221
G1 X97.408 Y100.652 E12.58098
G1 X98.212 Y100.562 E12.60043
G1 X98.843 Y100.516 E12.61563
G1 X99.713 Y100.482 E12.63655
G1 X100.339 Y100.483 E12.65159
G1 X101.157 Y100.515 E12.67127
G1 X101.747 Y100.559 E12.68548
G1 X102.568 Y100.65 E12.70533
G1 X103.409 Y100.781 E12.72579
G1 X104.105 Y100.917 E12.74283
G1 X104.84 Y101.09 E12.76097
G1 X105.596 Y101.298 E12.77982
G1 X105.96 Y101.414 E12.789
G1 X105.96 Y138.665 E13.68415
G1 F2700 E12.68415
G0 F6000 X94.199 Y138.322
G1 F2700 E13.68415
G1 F1200 X94.523 Y138.646 E13.69517
G0 F6000 X95.3 Y138.858
G1 F1200 X94.199 Y137.757 E13.73258
G0 F6000 X94.199 Y137.191
G1 F1200 X96.036 Y139.028 E13.79501
G0 F6000 X96.735 Y139.161
G1 F1200 X94.199 Y136.625 E13.88119
G0 F6000 X94.199 Y136.06
G1 F1200 X97.405 Y139.266 E13.99015
G0 F6000 X98.043 Y139.338
G1 F1200 X94.199 Y135.494 E14.12078
G0 F6000 X94.199 Y134.928
G1 F1200 X98.66 Y139.389 E14.27239
G0 F6000 X99.255 Y139.419
G1 F1200 X94.199 Y134.363 E14.44421
G0 F6000 X94.199 Y133.797
G1 F1200 X99.837 Y139.435 E14.63581
G0 F6000 X100.399 Y139.432
G1 F1200 X94.199 Y133.231 E14.84653
G0 F6000 X94.199 Y132.665
G1 F1200 X100.944 Y139.411 E15.07577
G0 F6000 X101.478 Y139.379
G1 F1200 X94.199 Y132.1 E15.32314
G0 F6000 X94.199 Y131.534
G1 F1200 X101.999 Y139.334 E15.58822
G0 F6000 X102.505 Y139.275
G1 F1200 X94.199 Y130.968 E15.87051
G0 F6000 X94.199 Y130.403
G1 F1200 X102.997 Y139.201 E16.1695
G0 F6000 X103.482 Y139.121
G1 F1200 X94.199 Y129.837 E16.485
G0 F6000 X94.199 Y129.271
G1 F1200 X103.958 Y139.03 E16.81665
G0 F6000 X104.418 Y138.925
G1 F1200 X94.199 Y128.706 E17.16393
G0 F6000 X94.199 Y128.14
G1 F1200 X104.872 Y138.813 E17.52664
G0 F6000 X105.315 Y138.691
G1 F1200 X94.199 Y127.574 E17.90443
G0 F6000 X94.199 Y127.009
G1 F1200 X105.751 Y138.561 E18.29702
G0 F6000 X105.8 Y138.044
G1 F1200 X94.199 Y126.443 E18.69127
G0 F6000 X94.199 Y125.877
G1 F1200 X105.8 Y137.478 E19.08552
G0 F6000 X105.8 Y136.912
G1 F1200 X94.199 Y125.312 E19.47975
G0 F6000 X94.199 Y124.746
G1 F1200 X105.8 Y136.347 E19.874
G0 F6000 X105.8 Y135.781
G1 F1200 X94.199 Y124.18 E20.26825
G0 F6000 X94.199 Y123.614
G1 F1200 X105.8 Y135.215 E20.6625
G0 F6000 X105.8 Y134.65
G1 F1200 X94.199 Y123.049 E21.05675
G0 F6000 X94.199 Y122.483
G1 F1200 X105.8 Y134.084 E21.451
G0 F6000 X105.8 Y133.518
G1 F1200 X94.199 Y121.917 E21.84525
G0 F6000 X94.199 Y121.352
G1 F1200 X105.8 Y132.953 E22.2395
G0 F6000 X105.8 Y132.387
G1 F1200 X94.199 Y120.786 E22.63375
G0 F6000 X94.199 Y120.22
G1 F1200 X105.8 Y131.821 E23.028
G0 F6000 X105.8 Y131.255
G1 F1200 X94.199 Y119.655 E23.42224
G0 F6000 X94.199 Y119.089
G1 F1200 X105.8 Y130.69 E23.81649
G0 F6000 X105.8 Y130.124
G1 F1200 X94.199 Y118.523 E24.21074
G0 F6000 X94.199 Y117.958
G1 F1200 X105.8 Y129.558 E24.60497
G0 F6000 X105.8 Y128.993
G1 F1200 X94.199 Y117.392 E24.99922
G0 F6000 X94.199 Y116.826
G1 F1200 X105.8 Y128.427 E25.39347
G0 F6000 X105.8 Y127.861
G1 F1200 X94.199 Y116.261 E25.78771
G0 F6000 X94.199 Y115.695
G1 F1200 X105.8 Y127.296 E26.18196
G0 F6000 X105.8 Y126.73
G1 F1200 X94.199 Y115.129 E26.57621
G0 F6000 X94.199 Y114.564
G1 F1200 X105.8 Y126.164 E26.97044
G0 F6000 X105.8 Y125.599
G1 F1200 X94.199 Y113.998 E27.36469
G0 F6000 X94.199 Y113.432
G1 F1200 X105.8 Y125.033 E27.75894
G0 F6000 X105.8 Y124.467
G1 F1200 X94.199 Y112.866 E28.15319
G0 F6000 X94.199 Y112.301
G1 F1200 X105.8 Y123.902 E28.54744
G0 F6000 X105.8 Y123.336
G1 F1200 X94.199 Y111.735 E28.94169
G0 F6000 X94.199 Y111.169
G1 F1200 X105.8 Y122.77 E29.33594
G0 F6000 X105.8 Y122.205
G1 F1200 X94.199 Y110.604 E29.7302
G0 F6000 X94.199 Y110.038
G1 F1200 X105.8 Y121.639 E30.12445
G0 F6000 X105.8 Y121.073
G1 F1200 X94.199 Y109.472 E30.5187
G0 F6000 X94.199 Y108.907
G1 F1200 X105.8 Y120.507 E30.91293
G0 F6000 X105.799 Y119.941
G1 F1200 X94.199 Y108.341 E31.30715
G0 F6000 X94.199 Y107.775
G1 F1200 X105.799 Y119.375 E31.70136
G0 F6000 X105.799 Y118.81
G1 F1200 X94.199 Y107.21 E32.09558
G0 F6000 X94.199 Y106.644
G1 F1200 X105.799 Y118.244 E32.4898
G0 F6000 X105.799 Y117.678
G1 F1200 X94.199 Y106.078 E32.88401
G0 F6000 X94.199 Y105.513
G1 F1200 X105.799 Y117.113 E33.27823
G0 F6000 X105.799 Y116.547
G1 F1200 X94.199 Y104.947 E33.67245
G0 F6000 X94.199 Y104.381
G1 F1200 X105.799 Y115.981 E34.06666
G0 F6000 X105.799 Y115.416
G1 F1200 X94.199 Y103.816 E34.46088
G0 F6000 X94.199 Y103.25
G1 F1200 X105.799 Y114.85 E34.8551
G0 F6000 X105.799 Y114.284
G1 F1200 X94.199 Y102.684 E35.24931
G0 F6000 X94.199 Y102.118
G1 F1200 X105.799 Y113.719 E35.64355
G0 F6000 X105.799 Y113.153
G1 F1200 X94.199 Y101.553 E36.03776
G0 F6000 X94.617 Y101.406
G1 F1200 X105.799 Y112.587 E36.41776
G0 F6000 X105.799 Y112.021
G1 F1200 X95.061 Y101.283 E36.78268
G0 F6000 X95.513 Y101.17
G1 F1200 X105.799 Y111.456 E37.13224
G0 F6000 X105.799 Y110.89
G1 F1200 X95.97 Y101.061 E37.46627
G0 F6000 X96.445 Y100.971
G1 F1200 X105.799 Y110.324 E37.78414
G0 F6000 X105.799 Y109.759
G1 F1200 X96.928 Y100.888 E38.08562
G0 F6000 X97.418 Y100.812
G1 F1200 X105.799 Y109.193 E38.37044
G0 F6000 X105.799 Y108.627
G1 F1200 X97.925 Y100.754 E38.63801
G0 F6000 X98.441 Y100.704
G1 F1200 X105.799 Y108.062 E38.88807
G0 F6000 X105.799 Y107.496
G1 F1200 X98.973 Y100.67 E39.12004
G0 F6000 X99.518 Y100.649
G1 F1200 X105.799 Y106.93 E39.3335
G0 F6000 X105.799 Y106.365
G1 F1200 X100.076 Y100.641 E39.52801
G0 F6000 X100.655 Y100.655
G1 F1200 X105.799 Y105.799 E39.70282
G0 F6000 X105.799 Y105.233
G1 F1200 X101.248 Y100.682 E39.85748
G0 F6000 X101.864 Y100.733
G1 F1200 X105.799 Y104.668 E39.99121
G0 F6000 X105.799 Y104.102
G1 F1200 X102.5 Y100.803 E40.10332
G0 F6000 X103.168 Y100.905
G1 F1200 X105.799 Y103.536 E40.19274
G0 F6000 X105.799 Y102.971
G1 F1200 X103.859 Y101.031 E40.25867
G0 F6000 X104.59 Y101.196
G1 F1200 X105.799 Y102.405 E40.29975
G0 F6000 X105.799 Y101.839
M104 S210
G1 F1200 X105.359 Y101.399 E40.31471
G1 F2700 E39.31471
;MESH:NONMESH
G0 F300 X105.359 Y101.399 Z0.4
G0 F6000 X93.353 Y95.751
;TIME_ELAPSED:98.510303
;LAYER:1
M140 S65
M106 S85
;TYPE:SUPPORT
G1 F2700 E40.31471
G1 F1350 X95.99 Y95.75 E40.38926
G1 X95.984 Y98.057 E40.45448
G1 X95.316 Y98.185 E40.47371
G1 X94.471 Y98.385 E40.49826
G1 X93.634 Y98.616 E40.5228
G1 X93.212 Y98.75 E40.53532
G1 X93.212 Y95.892 E40.61612
G1 X93.353 Y95.751 E40.62176
G0 F7500 X94 Y96.03
G1 F1350 X93.492 Y96.031 E40.63612
G1 X93.492 Y98.367 E40.70216
G1 X93.554 Y98.347 E40.704
G1 X94 Y98.224 E40.71708
G1 X94 Y96.03 E40.77911
G1 X95.709 Y96.03 E40.82742
G1 X95.704 Y97.825 E40.87817
G1 X95.257 Y97.911 E40.89104
G1 X94.401 Y98.113 E40.9159
G1 X94 Y98.224 E40.92767
G1 F2700 E39.92767
G0 F7500 X104.01 Y98.055
G1 F2700 E40.92767
G1 F1350 X104.01 Y95.892 E40.98882
G1 X104.151 Y95.751 E40.99446
G1 X106.78 Y95.75 E41.06878
G1 X106.785 Y95.755 E41.06898
G1 X106.779 Y98.747 E41.15357
G1 X106.371 Y98.617 E41.16567
G1 X105.55 Y98.39 E41.18975
G1 X104.706 Y98.191 E41.21427
G1 X104.01 Y98.055 E41.23432
G1 F2700 E40.23432
G0 F7500 X106 Y98.223
G1 F2700 E41.23432
G1 F1350 X105.62 Y98.118 E41.24546
G1 X104.765 Y97.917 E41.2703
G1 X104.29 Y97.824 E41.28398
G1 X104.29 Y96.031 E41.33467
G1 X106 Y96.03 E41.38301
G1 X106 Y98.223 E41.44501
G1 X106.451 Y98.348 E41.45824
G1 X106.5 Y98.364 E41.4597
G1 X106.505 Y96.03 E41.52568
G1 X106 Y96.03 E41.53996
G1 F2700 E40.53996
;MESH:Zippo_Bottom.stl
G0 F7500 X106.349 Y138.952
;TYPE:WALL-INNER
G1 F2700 E41.53996
G1 F1350 X105.688 Y139.161 E41.55956
G1 X104.912 Y139.375 E41.58232
G1 X104.204 Y139.543 E41.60289
G1 X103.414 Y139.695 E41.62563
G1 X102.661 Y139.812 E41.64718
G1 X101.934 Y139.897 E41.66787
G1 X101.165 Y139.955 E41.68967
G1 X100.357 Y139.986 E41.71253
G1 X99.643 Y139.986 E41.73272
G1 X98.841 Y139.955 E41.75541
G1 X98.069 Y139.896 E41.7773
G1 X97.336 Y139.813 E41.79815
G1 X96.589 Y139.696 E41.81953
