;FLAVOR:Marlin
;TIME:269
;Filament used: 0.0474734m
;Layer height: 0.2
;MINX:98.451
;MINY:115.95
;MINZ:0.2
;MAXX:101.548
;MAXY:119.05
;MAXZ:13.8
;Generated with Cura_SteamEngine master
M82 ;absolute extrusion mode
; Ender 3 Custom Start G-code
M140 S70 ; Set Heat Bed temperature
M104 S160 ; start warming extruder to 160
G28 ; Home all axes
; G29 ; Auto bed-level (BL-Touch)
G92 E0 ; Reset Extruder
M190 S70 ; Wait for Heat Bed temperature
M104 S210 ; Set Extruder temperature
G1 X0 Y0 Z0.3 F5000.0 ; Move to 0 0
M109 S210 ; Wait for Extruder temperature
G1 X3 Y20 Z0.3 F5000.0 ; Move to start position
; G1 Z2.0 F3000 ; Move Z Axis up little to prevent scratching of Heat Bed
G1 X3 Y200.0 Z0.3 F1500.0 E15 ; Draw the first line
G1 X3.3 Y200.0 Z0.3 F5000.0 ; Move to side a little
G1 X3.3 Y20 Z0.3 F1500.0 E30 ; Draw the second line
G92 E0 ; Reset Extruder
G1 Z2.0 F3000 ; Move Z Axis up little to prevent scratching of Heat Bed
G92 E0
G92 E0
G1 F2700 E-1
;LAYER_COUNT:69
;LAYER:0
M107
M204 S500
M205 X8 Y8
;MESH:Zippo_JointAxle.stl
G0 F6000 X99.695 Y117.65 Z0.2
;TYPE:WALL-INNER
G1 F2700 E0
G1 F600 X99.671 Y117.426 E0.00541
G1 X99.67 Y117.411 E0.00577
G1 X99.809 Y117.223 E0.01139
G1 X99.812 Y117.219 E0.01151
G1 X99.952 Y117.16 E0.01516
G1 X99.967 Y117.164 E0.01554
G1 X100.202 Y117.234 E0.02143
G1 X100.205 Y117.239 E0.02157
G1 X100.329 Y117.444 E0.02733
G1 X100.285 Y117.675 E0.03298
G1 X100.1 Y117.821 E0.03864
G1 X99.867 Y117.812 E0.04424
G1 X99.695 Y117.65 E0.04992
G0 F6000 X99.328 Y117.826
G1 F600 X99.256 Y117.565 E0.05643
G1 X99.279 Y117.301 E0.0628
G1 X99.392 Y117.069 E0.069
G1 X99.589 Y116.878 E0.07559
G1 X99.854 Y116.767 E0.0825
G1 X99.941 Y116.755 E0.08461
G1 X100.228 Y116.794 E0.09157
G1 X100.457 Y116.917 E0.09781
G1 X100.634 Y117.119 E0.10427
G1 X100.729 Y117.372 E0.11076
G1 X100.729 Y117.63 E0.11696
G1 X100.634 Y117.883 E0.12346
G1 X100.461 Y118.081 E0.12977
G1 X100.227 Y118.207 E0.13616
G1 X100.153 Y118.216 E0.13795
G1 X99.958 Y118.243 E0.14268
G1 X99.705 Y118.185 E0.14892
G1 X99.483 Y118.038 E0.15532
G1 X99.328 Y117.826 E0.16163
G0 F6000 X98.963 Y118.004
G1 F600 X98.944 Y117.934 E0.16337
G1 X98.851 Y117.602 E0.17166
G1 X98.888 Y117.19 E0.1816
G1 X99.063 Y116.83 E0.19122
G1 X99.365 Y116.538 E0.20131
G1 X99.746 Y116.378 E0.21124
G1 X99.941 Y116.351 E0.21597
G1 X100.354 Y116.408 E0.22599
G1 X100.71 Y116.598 E0.23569
G1 X100.984 Y116.912 E0.2457
G1 X101.129 Y117.299 E0.25563
G1 X101.129 Y117.702 E0.26532
G1 X100.983 Y118.091 E0.2753
G1 X100.714 Y118.399 E0.28513
G1 X100.354 Y118.593 E0.29496
G1 X100.281 Y118.602 E0.29672
G1 X100.013 Y118.638 E0.30322
G1 X99.937 Y118.649 E0.30507
G1 X99.546 Y118.559 E0.31471
G1 X99.201 Y118.332 E0.32463
G1 X98.963 Y118.004 E0.33437
G0 F6000 X98.599 Y118.176
;TYPE:WALL-OUTER
G1 F600 X98.501 Y117.909 E0.34121
G1 X98.451 Y117.636 E0.34787
G1 X98.451 Y117.361 E0.35448
G1 X98.502 Y117.082 E0.3613
G1 X98.599 Y116.825 E0.3679
G1 X98.739 Y116.592 E0.37443
G1 X98.929 Y116.375 E0.38136
G1 X99.145 Y116.202 E0.38801
G1 X99.387 Y116.073 E0.3946
G1 X99.653 Y115.987 E0.40132
G1 X99.927 Y115.95 E0.40796
G1 X100.207 Y115.962 E0.4147
G1 X100.477 Y116.025 E0.42136
G1 X100.735 Y116.135 E0.4281
G1 X100.964 Y116.287 E0.43471
G1 X101.164 Y116.48 E0.44139
G1 X101.329 Y116.706 E0.44811
G1 X101.449 Y116.958 E0.45482
G1 X101.524 Y117.227 E0.46153
G1 X101.548 Y117.502 E0.46816
G1 X101.524 Y117.776 E0.47477
G1 X101.447 Y118.05 E0.48161
G1 X101.327 Y118.299 E0.48825
G1 X101.166 Y118.519 E0.4948
G1 X100.961 Y118.715 E0.50162
G1 X100.729 Y118.867 E0.50828
G1 X100.476 Y118.976 E0.5149
G1 X100.203 Y119.038 E0.52163
G1 X99.923 Y119.05 E0.52837
G1 X99.649 Y119.013 E0.53501
G1 X99.386 Y118.927 E0.54166
G1 X99.139 Y118.794 E0.5484
G1 X98.923 Y118.621 E0.55505
G1 X98.739 Y118.409 E0.5618
G1 X98.599 Y118.176 E0.56833
G0 F6000 X98.995 Y117.987
G0 X99.481 Y117.583
;TYPE:SKIN
G1 F600 X99.98 Y117.516 E0.57013
G1 X100.346 Y117.882 E0.57197
G1 X99.923 Y118.025 E0.57357
G1 X100.154 Y118.822 E0.57653
G1 X100.59 Y118.692 E0.57815
G0 F6000 X101.253 Y117.941
G1 F600 X101.338 Y117.46 E0.58004
G1 X101.238 Y117.078 E0.58157
G1 F2700 E-0.41843
G0 F6000 X99.614 Y117.15
G1 F2700 E0.58157
G1 F600 X99.038 Y116.574 E0.58358
G1 X98.802 Y116.904 E0.58458
G1 X98.674 Y117.342 E0.58571
G0 F6000 X99.556 Y116.244
M104 S210
G1 F600 X99.523 Y116.211 E0.58627
;MESH:NONMESH
G0 F300 X99.523 Y116.211 Z0.4
G0 F6000 X99.671 Y117.411
;TIME_ELAPSED:8.057771
;LAYER:1
M140 S65
M106 S85
;TYPE:WALL-INNER
;MESH:Zippo_JointAxle.stl
G1 F600 X99.811 Y117.218 E0.59301
G1 X99.949 Y117.159 E0.59725
G1 X99.965 Y117.163 E0.59772
G1 X100.208 Y117.237 E0.6049
G1 X100.328 Y117.437 E0.61149
G1 X100.284 Y117.672 E0.61825
G1 X100.099 Y117.819 E0.62493
G1 X99.868 Y117.812 E0.63147
G1 X99.693 Y117.647 E0.63827
G1 X99.672 Y117.427 E0.64452
G1 X99.671 Y117.411 E0.64497
G0 F7500 X99.28 Y117.301
G1 F600 X99.399 Y117.058 E0.65262
G1 X99.589 Y116.878 E0.66002
G1 X99.845 Y116.769 E0.66788
G1 X99.948 Y116.756 E0.67082
G1 X100.231 Y116.794 E0.67889
G1 X100.464 Y116.921 E0.68639
G1 X100.637 Y117.122 E0.69389
G1 X100.728 Y117.365 E0.70123
G1 X100.727 Y117.631 E0.70875
G1 X100.633 Y117.881 E0.7163
G1 X100.458 Y118.081 E0.72381
G1 X100.222 Y118.207 E0.73137
G1 X99.953 Y118.242 E0.73904
G1 X99.705 Y118.184 E0.74624
G1 X99.477 Y118.032 E0.75399
G1 X99.326 Y117.821 E0.76133
G1 X99.256 Y117.562 E0.76891
G1 X99.28 Y117.301 E0.77632
G0 F7500 X98.889 Y117.191
G1 F600 X99.072 Y116.817 E0.78809
G1 X99.364 Y116.539 E0.79949
G1 X99.741 Y116.379 E0.81107
G1 X99.946 Y116.352 E0.81691
G1 X100.359 Y116.408 E0.8287
G1 X100.719 Y116.605 E0.8403
G1 X100.987 Y116.916 E0.85191
G1 X101.128 Y117.292 E0.86326
G1 X101.127 Y117.705 E0.87493
G1 X100.981 Y118.091 E0.8866
G1 X100.712 Y118.398 E0.89814
G1 X100.346 Y118.595 E0.90989
G1 X99.934 Y118.648 E0.92164
G1 X99.541 Y118.556 E0.93305
G1 X99.195 Y118.325 E0.94481
G1 X98.959 Y117.995 E0.95628
G1 X98.851 Y117.598 E0.96791
G1 X98.889 Y117.191 E0.97947
G0 F7500 X98.6 Y116.822
;TYPE:WALL-OUTER
G1 F600 X98.746 Y116.582 E0.98741
G1 X98.927 Y116.376 E0.99516
G1 X99.149 Y116.2 E1.00317
G1 X99.392 Y116.07 E1.01096
G1 X99.655 Y115.986 E1.01877
G1 X99.929 Y115.95 E1.02658
G1 X100.211 Y115.963 E1.03456
G1 X100.483 Y116.026 E1.04245
G1 X100.732 Y116.134 E1.05013
G1 X100.97 Y116.292 E1.0582
G1 X101.169 Y116.485 E1.06604
G1 X101.33 Y116.707 E1.07379
G1 X101.451 Y116.962 E1.08177
G1 X101.524 Y117.225 E1.08949
G1 X101.548 Y117.504 E1.0974
G1 X101.522 Y117.779 E1.10521
G1 X101.445 Y118.053 E1.11326
G1 X101.326 Y118.298 E1.12096
G1 X101.164 Y118.521 E1.12875
G1 X100.958 Y118.716 E1.13677
G1 X100.731 Y118.866 E1.14446
G1 X100.471 Y118.977 E1.15246
G1 X100.201 Y119.038 E1.16028
G1 X99.92 Y119.049 E1.16823
G1 X99.645 Y119.012 E1.17608
G1 X99.385 Y118.926 E1.18382
G1 X99.135 Y118.79 E1.19187
G1 X98.92 Y118.617 E1.19967
G1 X98.742 Y118.413 E1.20732
G1 X98.598 Y118.171 E1.21528
G1 X98.499 Y117.904 E1.22333
G1 X98.451 Y117.633 E1.23111
G1 X98.452 Y117.357 E1.23892
G1 X98.503 Y117.081 E1.24685
G1 X98.6 Y116.822 E1.25467
G0 F7500 X98.995 Y117.014
G0 X98.673 Y117.417
;TYPE:SKIN
G1 F600 X99.461 Y117.478 E1.25689
G1 X99.633 Y117.872 E1.25809
G1 X100.002 Y117.502 E1.25956
G1 X100.197 Y117.024 E1.26101
G1 X100.487 Y117.301 E1.26213
G1 X100.504 Y117.566 E1.26287
G1 X100.035 Y118.035 E1.26473
G1 X100.108 Y118.81 E1.26692
G1 X99.212 Y118.575 E1.26951
G1 X98.927 Y118.296 E1.27063
G1 F2700 E0.27063
G0 F7500 X99.533 Y116.275
G1 F2700 E1.27063
G1 F600 X100.192 Y116.181 E1.27293
G1 X100.619 Y116.319 E1.27448
G0 F7500 X101.273 Y117.08
G1 F600 X101.347 Y117.572 E1.27611
G0 F7500 X101.307 Y117.895
G1 F600 X101.176 Y118.026 E1.27873
;MESH:NONMESH
G0 F300 X101.176 Y118.026 Z0.6
G0 F7500 X99.865 Y117.812
;TIME_ELAPSED:12.021112
;LAYER:2
M106 S170
;TYPE:WALL-INNER
;MESH:Zippo_JointAxle.stl
G1 F600 X99.689 Y117.639 E1.2857
G1 X99.671 Y117.412 E1.29214
G1 X99.81 Y117.222 E1.2988
G1 X99.812 Y117.218 E1.29892
G1 X99.953 Y117.159 E1.30325
G1 X100.204 Y117.233 E1.31064
G1 X100.206 Y117.237 E1.31077
G1 X100.328 Y117.44 E1.31747
G1 X100.282 Y117.68 E1.32437
G1 X100.106 Y117.817 E1.33068
G1 X99.865 Y117.812 E1.33749
G0 F9000 X99.488 Y118.042
G1 F600 X99.323 Y117.816 E1.34541
G1 X99.304 Y117.742 E1.34757
G1 X99.256 Y117.565 E1.35275
G1 X99.28 Y117.3 E1.36027
G1 X99.399 Y117.059 E1.36787
G1 X99.587 Y116.879 E1.37523
G1 X99.844 Y116.769 E1.38313
G1 X99.951 Y116.755 E1.38618
G1 X100.229 Y116.793 E1.39412
G1 X100.46 Y116.917 E1.40153
G1 X100.638 Y117.125 E1.40927
G1 X100.729 Y117.37 E1.41666
G1 X100.727 Y117.637 E1.42421
G1 X100.631 Y117.888 E1.4318
G1 X100.582 Y117.943 E1.43389
G1 X100.462 Y118.08 E1.43903
G1 X100.23 Y118.205 E1.44648
G1 X99.951 Y118.242 E1.45444
G1 X99.703 Y118.184 E1.46164
G1 X99.488 Y118.042 E1.46893
G0 F9000 X99.206 Y118.336
G1 F600 X98.957 Y117.992 E1.48093
G1 X98.851 Y117.6 E1.49241
G1 X98.889 Y117.188 E1.50411
G1 X99.071 Y116.819 E1.51574
G1 X99.362 Y116.54 E1.52714
G1 X99.739 Y116.379 E1.53873
G1 X99.951 Y116.352 E1.54477
G1 X100.354 Y116.407 E1.55627
G1 X100.715 Y116.601 E1.56785
G1 X100.988 Y116.918 E1.57968
G1 X101.13 Y117.3 E1.5912
G1 X101.126 Y117.714 E1.60291
G1 X100.979 Y118.098 E1.61453
G1 X100.714 Y118.399 E1.62587
G1 X100.354 Y118.593 E1.63743
G1 X99.931 Y118.648 E1.64949
G1 X99.544 Y118.558 E1.66072
G1 X99.206 Y118.336 E1.67216
G0 F9000 X98.927 Y118.625
;TYPE:WALL-OUTER
G1 F600 X98.736 Y118.402 E1.68046
G1 X98.596 Y118.169 E1.68814
G1 X98.501 Y117.916 E1.69578
G1 X98.451 Y117.638 E1.70377
G1 X98.451 Y117.362 E1.71157
G1 X98.501 Y117.084 E1.71956
G1 X98.597 Y116.83 E1.72723
G1 X98.749 Y116.579 E1.73553
G1 X98.924 Y116.378 E1.74306
G1 X99.141 Y116.205 E1.75091
G1 X99.388 Y116.072 E1.75884
G1 X99.651 Y115.987 E1.76665
G1 X99.934 Y115.95 E1.77472
G1 X100.205 Y115.962 E1.78239
G1 X100.475 Y116.024 E1.79022
G1 X100.733 Y116.135 E1.79816
G1 X100.963 Y116.286 E1.80594
G1 X101.166 Y116.48 E1.81388
G1 X101.333 Y116.713 E1.82198
G1 X101.449 Y116.953 E1.82952
G1 X101.524 Y117.225 E1.8375
G1 X101.548 Y117.499 E1.84527
G1 X101.521 Y117.786 E1.85342
G1 X101.449 Y118.046 E1.86105
G1 X101.322 Y118.306 E1.86923
G1 X101.167 Y118.518 E1.87666
G1 X100.963 Y118.714 E1.88465
G1 X100.733 Y118.865 E1.89243
G1 X100.475 Y118.976 E1.90037
G1 X100.206 Y119.038 E1.90818
G1 X99.915 Y119.049 E1.91641
G1 X99.651 Y119.013 E1.92394
G1 X99.388 Y118.928 E1.93176
G1 X99.141 Y118.795 E1.93969
G1 X98.927 Y118.625 E1.94741
G0 F9000 X99.232 Y118.309
G0 X99.918 Y118.02
;TYPE:SKIN
G1 F600 X100.346 Y117.883 E1.94908
G1 X99.613 Y117.149 E1.95294
G1 X99.477 Y117.578 E1.95461
G1 X98.674 Y117.342 E1.95772
G1 X98.803 Y116.905 E1.95941
G1 X99.036 Y116.572 E1.96092
G1 F2700 E0.96092
G0 F9000 X101.238 Y117.077
G1 F2700 E1.96092
G1 F600 X101.333 Y117.455 E1.96281
G1 X101.254 Y117.942 E1.96519
G0 F9000 X100.561 Y118.663
G1 F600 X100.619 Y118.721 E1.96635
G0 F9000 X100.192 Y118.86
G1 F600 X100.117 Y118.784 E1.96786
;MESH:NONMESH
G0 F300 X100.117 Y118.784 Z0.8
G0 F9000 X99.692 Y117.645
;TIME_ELAPSED:15.709334
;LAYER:3
M106 S255
;TYPE:WALL-INNER
;MESH:Zippo_JointAxle.stl
G1 F600 X99.672 Y117.425 E1.97411
G1 X99.671 Y117.407 E1.97462
G1 X99.809 Y117.222 E1.98114
G1 X99.812 Y117.218 E1.98128
G1 X99.951 Y117.159 E1.98555
G1 X99.968 Y117.164 E1.98605
G1 X100.204 Y117.234 E1.99301
G1 X100.206 Y117.238 E1.99314
G1 X100.33 Y117.446 E1.99999
G1 X100.286 Y117.672 E2.0065
G1 X100.102 Y117.821 E2.01319
G1 X99.866 Y117.81 E2.01987
G1 X99.692 Y117.645 E2.02665
G0 F9000 X99.325 Y117.821
G1 F600 X99.256 Y117.564 E2.03417
G1 X99.28 Y117.297 E2.04175
G1 X99.395 Y117.063 E2.04912
G1 X99.587 Y116.879 E2.05664
G1 X99.851 Y116.767 E2.06475
G1 X99.941 Y116.754 E2.06732
G1 X100.229 Y116.793 E2.07553
G1 X100.459 Y116.917 E2.08292
G1 X100.635 Y117.119 E2.0905
G1 X100.73 Y117.373 E2.09816
G1 X100.73 Y117.627 E2.10534
G1 X100.635 Y117.881 E2.11301
G1 X100.459 Y118.083 E2.12058
G1 X100.229 Y118.207 E2.12797
G1 X100.155 Y118.216 E2.13008
G1 X99.96 Y118.243 E2.13564
G1 X99.705 Y118.184 E2.14304
G1 X99.481 Y118.036 E2.15063
G1 X99.325 Y117.821 E2.15814
G0 F9000 X98.958 Y117.995
G1 F600 X98.851 Y117.6 E2.16971
G1 X98.889 Y117.187 E2.18144
G1 X99.068 Y116.822 E2.19293
G1 X99.362 Y116.54 E2.20445
G1 X99.744 Y116.378 E2.21618
G1 X99.886 Y116.359 E2.22023
G1 X99.939 Y116.351 E2.22174
G1 X100.354 Y116.407 E2.23358
G1 X100.715 Y116.601 E2.24517
G1 X100.984 Y116.91 E2.25675
G1 X101.13 Y117.3 E2.26852
G1 X101.13 Y117.7 E2.27983
G1 X100.984 Y118.09 E2.29161
G1 X100.715 Y118.399 E2.30319
G1 X100.418 Y118.558 E2.31271
G1 X100.354 Y118.593 E2.31477
G1 X100.283 Y118.602 E2.3168
G1 X100.015 Y118.638 E2.32444
G1 X99.939 Y118.649 E2.32661
G1 X99.544 Y118.558 E2.33807
G1 X99.201 Y118.331 E2.3497
G1 X98.958 Y117.995 E2.36142
G0 F9000 X98.501 Y117.916
;TYPE:WALL-OUTER
G1 F600 X98.451 Y117.638 E2.36941
G1 X98.451 Y117.362 E2.37721
G1 X98.501 Y117.084 E2.3852
G1 X98.598 Y116.827 E2.39296
G1 X98.74 Y116.589 E2.4008
G1 X98.924 Y116.378 E2.40871
G1 X99.141 Y116.205 E2.41656
G1 X99.388 Y116.072 E2.42449
G1 X99.651 Y115.987 E2.4323
G1 X99.925 Y115.95 E2.44012
G1 X100.205 Y115.962 E2.44804
G1 X100.475 Y116.024 E2.45588
G1 X100.733 Y116.135 E2.46382
G1 X100.963 Y116.286 E2.4716
G1 X101.164 Y116.478 E2.47945
G1 X101.33 Y116.706 E2.48743
G1 X101.449 Y116.953 E2.49518
G1 X101.524 Y117.225 E2.50315
G1 X101.548 Y117.5 E2.51096
G1 X101.524 Y117.775 E2.51876
G1 X101.449 Y118.047 E2.52674
G1 X101.33 Y118.294 E2.53449
G1 X101.164 Y118.522 E2.54246
G1 X100.963 Y118.714 E2.55032
G1 X100.733 Y118.865 E2.5581
G1 X100.475 Y118.976 E2.56604
G1 X100.205 Y119.038 E2.57387
G1 X99.925 Y119.05 E2.5818
G1 X99.651 Y119.013 E2.58961
G1 X99.388 Y118.928 E2.59743
G1 X99.141 Y118.795 E2.60536
G1 X98.924 Y118.622 E2.6132
G1 X98.74 Y118.411 E2.62112
G1 X98.598 Y118.173 E2.62895
G1 X98.501 Y117.916 E2.63672
G0 F9000 X98.925 Y117.799
G0 X98.733 Y117.923
;TYPE:SKIN
G1 F600 X98.927 Y118.295 E2.63805
G1 X99.212 Y118.576 E2.63932
G1 X99.633 Y117.871 E2.64192
G1 X100.002 Y117.503 E2.64357
G1 X100.199 Y117.023 E2.64521
G1 X100.48 Y117.307 E2.64648
G1 X100.507 Y117.563 E2.64729
G1 X100.038 Y118.032 E2.64939
G1 X100.109 Y118.81 E2.65187
G0 F9000 X101.244 Y117.957
G1 F600 X101.265 Y117.088 E2.65574
G0 F9000 X100.619 Y116.319
G1 F600 X100.191 Y116.182 E2.65728
G1 X99.531 Y116.277 E2.65957
G0 F9000 X99.484 Y117.456
G1 F600 X99.437 Y117.502 E2.6605
G0 F9000 X98.709 Y117.381
G1 F600 X98.625 Y117.465 E2.66218
;MESH:NONMESH
G0 F300 X98.625 Y117.465 Z1
G0 F9000 X99.692 Y117.645
;TIME_ELAPSED:19.535459
;LAYER:4
;TYPE:WALL-INNER
;MESH:Zippo_JointAxle.stl
G1 F600 X99.672 Y117.425 E2.66842
G1 X99.671 Y117.407 E2.66893
G1 X99.809 Y117.222 E2.67546
G1 X99.812 Y117.218 E2.6756
G1 X99.951 Y117.159 E2.67987
G1 X99.968 Y117.164 E2.68037
G1 X100.204 Y117.234 E2.68733
G1 X100.206 Y117.238 E2.68745
G1 X100.33 Y117.446 E2.6943
G1 X100.286 Y117.672 E2.70081
G1 X100.102 Y117.821 E2.7075
G1 X99.866 Y117.81 E2.71418
G1 X99.692 Y117.645 E2.72096
G0 F9000 X99.325 Y117.821
G1 F600 X99.256 Y117.564 E2.72848
G1 X99.28 Y117.297 E2.73606
G1 X99.395 Y117.063 E2.74343
G1 X99.587 Y116.879 E2.75095
G1 X99.851 Y116.767 E2.75906
G1 X99.941 Y116.754 E2.76163
G1 X100.229 Y116.793 E2.76985
G1 X100.459 Y116.917 E2.77723
G1 X100.635 Y117.119 E2.78481
G1 X100.73 Y117.373 E2.79247
G1 X100.73 Y117.627 E2.79966
G1 X100.635 Y117.881 E2.80732
G1 X100.459 Y118.083 E2.8149
G1 X100.229 Y118.207 E2.82228
G1 X100.155 Y118.216 E2.82439
G1 X99.96 Y118.243 E2.82996
G1 X99.705 Y118.184 E2.83736
G1 X99.481 Y118.036 E2.84495
G1 X99.325 Y117.821 E2.85246
G0 F9000 X98.958 Y117.995
G1 F600 X98.851 Y117.6 E2.86403
G1 X98.889 Y117.187 E2.87575
G1 X99.068 Y116.822 E2.88724
G1 X99.362 Y116.54 E2.89876
G1 X99.744 Y116.378 E2.91049
G1 X99.886 Y116.359 E2.91454
G1 X99.939 Y116.351 E2.91606
G1 X100.354 Y116.407 E2.9279
G1 X100.715 Y116.601 E2.93948
G1 X100.984 Y116.91 E2.95106
G1 X101.13 Y117.3 E2.96284
G1 X101.13 Y117.7 E2.97415
G1 X100.984 Y118.09 E2.98592
G1 X100.715 Y118.399 E2.9975
G1 X100.418 Y118.558 E3.00703
G1 X100.354 Y118.593 E3.00909
G1 X100.283 Y118.602 E3.01111
G1 X100.015 Y118.638 E3.01876
G1 X99.939 Y118.649 E3.02093
G1 X99.544 Y118.558 E3.03239
G1 X99.201 Y118.331 E3.04401
