;FLAVOR:Marlin
;TIME:2242
;Filament used: 1.07314m
;Layer height: 0.2
;MINX:106.789
;MINY:108.774
;MINZ:0.2
;MAXX:128.215
;MAXY:126.229
;MAXZ:20
;Generated with Cura_SteamEngine master
M82 ;absolute extrusion mode
; Ender 3 Custom Start G-code
M140 S60 ; Set Heat Bed temperature
M104 S160 ; start warming extruder to 160
G28 ; Home all axes
G29 ; Auto bed-level (BL-Touch)
G92 E0 ; Reset Extruder
M190 S60 ; Wait for Heat Bed temperature
M104 S220 ; Set Extruder temperature
G1 X0 Y0 Z0.3 F5000.0 ; Move to 0 0
M109 S220 ; Wait for Extruder temperature
G1 X1 Y20 Z0.3 F5000.0 ; Move to start position
; G1 Z2.0 F3000 ; Move Z Axis up little to prevent scratching of Heat Bed
G1 X3 Y200.0 Z0.3 F1500.0 E15 ; Draw the first line
G1 X3.3 Y200.0 Z0.3 F5000.0 ; Move to side a little
G1 X3.3 Y20 Z0.3 F1500.0 E30 ; Draw the second line
G92 E0 ; Reset Extruder
G1 Z2.0 F3000 ; Move Z Axis up little to prevent scratching of Heat Bed
G92 E0
G92 E0
G1 F2700 E-5
;LAYER_COUNT:100
;LAYER:0
M107
G0 F6000 X111.841 Y121.55 Z0.2
;TYPE:SKIRT
G1 F2700 E0
G1 F1200 X123.153 Y121.55 E0.37624
G1 X123.153 Y122.25 E0.39952
G1 X122.438 Y122.248 E0.4233
G1 X111.841 Y122.244 E0.77576
G1 X111.841 Y121.55 E0.79884
G0 F6000 X111.441 Y121.15
G1 F1200 X123.553 Y121.15 E1.20169
G1 X123.553 Y122.651 E1.25161
G1 X122.438 Y122.648 E1.2887
G1 X111.441 Y122.644 E1.65446
G1 X111.441 Y121.15 E1.70415
G0 F6000 X111.041 Y120.75
G1 F1200 X123.953 Y120.75 E2.1336
G1 X123.953 Y123.086 E2.2113
G1 X123.699 Y123.051 E2.21983
G1 X122.438 Y123.048 E2.26177
G1 X111.332 Y123.044 E2.63116
G1 X111.041 Y123.075 E2.64089
G1 X111.041 Y120.75 E2.71822
G0 F6000 X110.641 Y120.35
G1 F1200 X124.353 Y120.35 E3.17428
G1 X124.353 Y123.615 E3.28288
G1 X124.036 Y123.493 E3.29417
G1 X123.698 Y123.451 E3.3055
G1 X122.438 Y123.448 E3.34741
G1 X111.332 Y123.444 E3.7168
G1 X111 Y123.484 E3.72792
G1 X110.699 Y123.595 E3.73859
G1 X110.641 Y123.624 E3.74075
G1 X110.641 Y120.35 E3.84964
G0 F6000 X110.241 Y119.95
G1 F1200 X124.753 Y119.95 E4.33231
G1 X124.753 Y124.341 E4.47836
G1 X124.514 Y124.152 E4.48849
G1 X124.161 Y123.966 E4.50176
G1 X123.895 Y123.871 E4.51116
G1 X123.697 Y123.851 E4.51778
G1 X122.437 Y123.848 E4.55968
G1 X111.331 Y123.844 E4.92907
G1 X111.052 Y123.884 E4.93845
G1 X110.88 Y123.952 E4.9446
G1 X110.524 Y124.132 E4.95787
G1 X110.292 Y124.293 E4.96726
G1 X110.241 Y124.351 E4.96983
G1 X110.241 Y119.95 E5.1162
G0 F6000 X111.331 Y124.244
G1 F1200 X111.06 Y124.309 E5.12547
G1 X110.704 Y124.489 E5.13874
G1 X110.49 Y124.67 E5.14806
G1 X110.275 Y124.964 E5.16018
G1 X109.841 Y124.964 E5.17461
G1 X109.841 Y119.55 E5.35468
G1 X125.153 Y119.55 E5.86396
G1 X125.153 Y124.964 E6.04403
G1 X124.723 Y124.964 E6.05833
G1 X124.544 Y124.7 E6.06894
G1 X124.328 Y124.506 E6.0786
G1 X123.975 Y124.32 E6.09187
G1 X123.696 Y124.251 E6.10143
G1 X122.437 Y124.248 E6.1433
G1 X111.331 Y124.244 E6.51269
G0 F6000 X111.331 Y124.644
G1 F1200 X111.241 Y124.666 E6.51577
G1 X110.885 Y124.846 E6.52904
G1 X110.813 Y124.906 E6.53216
G1 X110.478 Y125.364 E6.55103
G1 X109.441 Y125.364 E6.58552
G1 X109.441 Y119.15 E6.7922
G1 X125.553 Y119.15 E7.32809
G1 X125.552 Y125.364 E7.53477
G1 X124.511 Y125.364 E7.56939
G1 X124.213 Y124.925 E7.58704
G1 X124.141 Y124.86 E7.59026
G1 X123.788 Y124.674 E7.60353
G1 X123.695 Y124.651 E7.60672
G1 X122.437 Y124.648 E7.64856
G1 X111.331 Y124.644 E8.01795
G1 F2700 E3.01795
;MESH:End_Clip.STL
G0 F6000 X111.331 Y118.815
G0 X111.331 Y117.53
G0 X126.88 Y117.48
G0 X126.95 Y117.55
;TYPE:WALL-INNER
G1 F2700 E8.01795
G1 F1200 X108.05 Y117.55 E8.64657
G1 X108.05 Y110.036 E8.89648
G1 X126.95 Y110.036 E9.5251
G1 X126.95 Y117.55 E9.77502
G0 F6000 X127.35 Y117.95
;TYPE:WALL-OUTER
G1 F1200 X107.65 Y117.95 E10.43024
G1 X107.65 Y109.636 E10.70677
G1 X127.35 Y109.636 E11.36199
G1 X127.35 Y117.95 E11.63852
G0 F6000 X126.88 Y117.48
G0 X126.56 Y117.16
;TYPE:SKIN
G1 F1200 X108.44 Y117.16 E12.24119
G1 X108.44 Y110.426 E12.46516
G1 X126.56 Y110.426 E13.06784
G1 X126.56 Y117.16 E13.29181
G0 F6000 X126.399 Y111.126
G1 F1200 X125.859 Y110.585 E13.31723
G0 F6000 X125.293 Y110.585
G1 F1200 X126.399 Y111.691 E13.36926
G0 F6000 X126.399 Y112.257
G1 F1200 X124.727 Y110.585 E13.4479
G0 F6000 X124.162 Y110.585
G1 F1200 X126.399 Y112.823 E13.55315
G0 F6000 X126.399 Y113.388
G1 F1200 X123.596 Y110.585 E13.68499
G0 F6000 X123.03 Y110.585
G1 F1200 X126.399 Y113.954 E13.84346
G0 F6000 X126.399 Y114.52
G1 F1200 X122.465 Y110.585 E14.02853
G0 F6000 X121.899 Y110.585
G1 F1200 X126.399 Y115.085 E14.24019
G0 F6000 X126.399 Y115.651
G1 F1200 X121.333 Y110.585 E14.47848
G0 F6000 X120.768 Y110.585
G1 F1200 X126.399 Y116.217 E14.74337
G0 F6000 X126.399 Y116.782
G1 F1200 X120.202 Y110.585 E15.03486
G0 F6000 X119.636 Y110.585
G1 F1200 X126.05 Y116.999 E15.33655
G0 F6000 X125.484 Y116.999
G1 F1200 X119.071 Y110.585 E15.63822
G0 F6000 X118.505 Y110.585
G1 F1200 X124.918 Y116.999 E15.9399
G0 F6000 X124.353 Y116.999
G1 F1200 X117.939 Y110.585 E16.24159
G0 F6000 X117.374 Y110.585
G1 F1200 X123.787 Y116.999 E16.54326
G0 F6000 X123.221 Y116.999
G1 F1200 X116.808 Y110.585 E16.84493
G0 F6000 X116.242 Y110.585
G1 F1200 X122.656 Y116.999 E17.14663
G0 F6000 X122.09 Y116.999
G1 F1200 X115.677 Y110.585 E17.4483
G0 F6000 X115.111 Y110.585
G1 F1200 X121.524 Y116.999 E17.74997
G0 F6000 X120.959 Y116.999
G1 F1200 X114.545 Y110.585 E18.05167
G0 F6000 X113.979 Y110.585
G1 F1200 X120.393 Y116.999 E18.35336
G0 F6000 X119.827 Y116.999
G1 F1200 X113.414 Y110.585 E18.65503
G0 F6000 X112.848 Y110.585
G1 F1200 X119.262 Y116.999 E18.95673
G0 F6000 X118.696 Y116.999
G1 F1200 X112.282 Y110.585 E19.25842
G0 F6000 X111.717 Y110.585
G1 F1200 X118.13 Y116.999 E19.56009
G0 F6000 X117.564 Y116.999
G1 F1200 X111.151 Y110.585 E19.86176
G0 F6000 X110.585 Y110.585
G1 F1200 X116.999 Y116.999 E20.16346
G0 F6000 X116.433 Y116.999
G1 F1200 X110.02 Y110.585 E20.46513
G0 F6000 X109.454 Y110.585
G1 F1200 X115.867 Y116.999 E20.7668
G0 F6000 X115.302 Y116.999
G1 F1200 X108.888 Y110.585 E21.0685
G0 F6000 X108.599 Y110.862
G1 F1200 X114.736 Y116.999 E21.35716
G0 F6000 X114.17 Y116.999
G1 F1200 X108.599 Y111.428 E21.61921
G0 F6000 X108.599 Y111.993
G1 F1200 X113.605 Y116.999 E21.85467
G0 F6000 X113.039 Y116.999
G1 F1200 X108.599 Y112.559 E22.06352
G0 F6000 X108.599 Y113.125
G1 F1200 X112.473 Y116.999 E22.24574
G0 F6000 X111.908 Y116.999
G1 F1200 X108.599 Y113.69 E22.40138
G0 F6000 X108.599 Y114.256
G1 F1200 X111.342 Y116.999 E22.5304
G0 F6000 X110.776 Y116.999
G1 F1200 X108.599 Y114.822 E22.6328
G0 F6000 X108.599 Y115.387
G1 F1200 X110.211 Y116.999 E22.70863
G0 F6000 X109.645 Y116.999
G1 F1200 X108.599 Y115.953 E22.75783
G0 F6000 X108.599 Y116.519
M104 S220
G1 F1200 X109.079 Y116.999 E22.78041
G1 F2700 E17.78041
;MESH:NONMESH
G0 F300 X109.079 Y116.999 Z0.4
G0 F6000 X109.441 Y117.53
G0 X109.441 Y119.15
;TIME_ELAPSED:44.378509
;LAYER:1
M106 S85
;TYPE:SUPPORT
G1 F2700 E22.78041
G1 F1350 X125.553 Y119.15 E23.31629
G1 X125.552 Y125.364 E23.52297
G1 X124.511 Y125.364 E23.5576
G1 X124.184 Y124.884 E23.57691
G1 X123.744 Y124.652 E23.59346
G1 X122.441 Y124.648 E23.6368
G1 X111.283 Y124.644 E24.00791
G1 X110.841 Y124.867 E24.02438
G1 X110.478 Y125.364 E24.04485
G1 X109.441 Y125.364 E24.07934
G1 X109.441 Y119.15 E24.28602
G1 F2700 E19.28602
G0 F7500 X108.576 Y119.15
G0 X108.576 Y125.084
G0 X110 Y125.084
G1 F2700 E24.28602
G1 F1350 X110.335 Y125.084 E24.29716
G1 X110.655 Y124.647 E24.31517
G1 X111.217 Y124.364 E24.3361
G1 X112 Y124.364 E24.36215
G1 X112 Y119.43 E24.52625
G1 X114 Y119.43 E24.59277
G1 X114 Y124.364 E24.75688
G1 X116 Y124.365 E24.8234
G1 X116 Y119.43 E24.98754
G1 X118 Y119.43 E25.05406
G1 X118 Y124.366 E25.21823
G1 X120 Y124.367 E25.28475
G1 X120 Y119.43 E25.44895
G1 X122 Y119.43 E25.51547
G1 X122 Y124.367 E25.67968
G1 X122.442 Y124.368 E25.69438
G1 X123.814 Y124.372 E25.74001
G1 X124 Y124.47 E25.74701
G1 X124 Y119.43 E25.91464
G1 X125.273 Y119.43 E25.95698
G1 X125.272 Y125.084 E26.14503
G1 X124.659 Y125.084 E26.16542
G1 X124.376 Y124.669 E26.18212
G1 X124 Y124.47 E26.19627
G1 F2700 E21.19627
G0 F7500 X123.53 Y125.515
G0 X110 Y126.229
G0 X110 Y125.084
G1 F2700 E26.19627
G1 F1350 X109.721 Y125.084 E26.20555
G1 X109.721 Y119.43 E26.39361
G1 X110 Y119.43 E26.40289
G1 X110 Y125.084 E26.59094
G1 F2700 E21.59094
;MESH:End_Clip.STL
G0 F7500 X110 Y126.229
G0 X109.084 Y126.225
G0 X108.58 Y125.721
G0 X108.588 Y118.803
G0 X110 Y117.53
G0 X126.88 Y117.48
G0 X126.95 Y117.55
;TYPE:WALL-INNER
G1 F2700 E26.59094
G1 F1350 X108.05 Y117.55 E27.21956
G1 X108.05 Y110.036 E27.46947
G1 X126.95 Y110.036 E28.09809
G1 X126.95 Y117.55 E28.34801
G0 F7500 X127.35 Y117.95
;TYPE:WALL-OUTER
G1 F1350 X107.65 Y117.95 E29.00323
G1 X107.65 Y109.636 E29.27975
G1 X127.35 Y109.636 E29.93498
G1 X127.35 Y117.95 E30.2115
G0 F7500 X126.88 Y117.48
G0 X126.56 Y117.16
;TYPE:SKIN
G1 F1350 X108.44 Y117.16 E30.81418
G1 X108.44 Y110.426 E31.03815
G1 X126.56 Y110.426 E31.64083
G1 X126.56 Y117.16 E31.8648
G0 F7500 X126.398 Y116.845
G1 F1350 X126.244 Y117 E31.87207
G0 F7500 X125.679 Y117
G1 F1350 X126.398 Y116.28 E31.90591
G0 F7500 X126.398 Y115.714
G1 F1350 X125.113 Y117 E31.96638
G0 F7500 X124.547 Y117
G1 F1350 X126.398 Y115.148 E32.05346
G0 F7500 X126.398 Y114.583
G1 F1350 X123.981 Y117 E32.16715
G0 F7500 X123.416 Y117
G1 F1350 X126.398 Y114.017 E32.30744
G0 F7500 X126.398 Y113.451
G1 F1350 X122.85 Y117 E32.47435
G0 F7500 X122.284 Y117
G1 F1350 X126.398 Y112.886 E32.66786
G0 F7500 X126.398 Y112.32
G1 F1350 X121.719 Y117 E32.88797
G0 F7500 X121.153 Y117
G1 F1350 X126.398 Y111.754 E33.1347
G0 F7500 X126.398 Y111.189
G1 F1350 X120.587 Y117 E33.40803
G0 F7500 X120.022 Y117
G1 F1350 X126.398 Y110.623 E33.70796
G0 F7500 X125.871 Y110.585
G1 F1350 X119.456 Y117 E34.00971
G0 F7500 X118.89 Y117
G1 F1350 X125.305 Y110.585 E34.31145
G0 F7500 X124.74 Y110.585
G1 F1350 X118.325 Y117 E34.61319
G0 F7500 X117.759 Y117
G1 F1350 X124.174 Y110.585 E34.91493
G0 F7500 X123.608 Y110.585
G1 F1350 X117.193 Y117 E35.21667
G0 F7500 X116.628 Y117
G1 F1350 X123.042 Y110.585 E35.51839
G0 F7500 X122.477 Y110.585
G1 F1350 X116.062 Y117 E35.82013
G0 F7500 X115.496 Y117
G1 F1350 X121.911 Y110.585 E36.12188
G0 F7500 X121.345 Y110.585
G1 F1350 X114.931 Y117 E36.4236
G0 F7500 X114.365 Y117
G1 F1350 X120.78 Y110.585 E36.72534
G0 F7500 X120.214 Y110.585
G1 F1350 X113.799 Y117 E37.02708
G0 F7500 X113.233 Y117
G1 F1350 X119.648 Y110.585 E37.32882
G0 F7500 X119.083 Y110.585
G1 F1350 X112.668 Y117 E37.63056
G0 F7500 X112.102 Y117
G1 F1350 X118.517 Y110.585 E37.9323
G0 F7500 X117.951 Y110.585
G1 F1350 X111.536 Y117 E38.23405
G0 F7500 X110.971 Y117
G1 F1350 X117.386 Y110.585 E38.53579
G0 F7500 X116.82 Y110.585
G1 F1350 X110.405 Y117 E38.83753
G0 F7500 X109.839 Y117
G1 F1350 X116.254 Y110.585 E39.13927
G0 F7500 X115.689 Y110.585
G1 F1350 X109.274 Y117 E39.44101
G0 F7500 X108.708 Y117
G1 F1350 X115.123 Y110.585 E39.74276
G0 F7500 X114.557 Y110.585
G1 F1350 X108.6 Y116.542 E40.02296
G0 F7500 X108.6 Y115.976
G1 F1350 X113.991 Y110.585 E40.27653
G0 F7500 X113.426 Y110.585
G1 F1350 X108.6 Y115.411 E40.50353
G0 F7500 X108.6 Y114.845
G1 F1350 X112.86 Y110.585 E40.70391
G0 F7500 X112.294 Y110.585
G1 F1350 X108.6 Y114.279 E40.87766
G0 F7500 X108.6 Y113.714
G1 F1350 X111.729 Y110.585 E41.02484
G0 F7500 X111.163 Y110.585
G1 F1350 X108.6 Y113.148 E41.1454
G0 F7500 X108.6 Y112.582
G1 F1350 X110.597 Y110.585 E41.23933
G0 F7500 X110.032 Y110.585
G1 F1350 X108.6 Y112.017 E41.30669
G0 F7500 X108.6 Y111.451
G1 F1350 X109.466 Y110.585 E41.34742
G0 F7500 X108.9 Y110.585
G1 F1350 X108.6 Y110.885 E41.36153
G1 F2700 E36.36153
;MESH:NONMESH
G0 F300 X108.6 Y110.885 Z0.6
G0 F7500 X109.441 Y117.53
G0 X109.441 Y119.15
;TIME_ELAPSED:76.745881
;LAYER:2
M106 S170
;TYPE:SUPPORT
G1 F2700 E41.36153
G1 F1500 X125.553 Y119.15 E41.89742
G1 X125.552 Y125.364 E42.1041
G1 X124.51 Y125.364 E42.13876
G1 X124.183 Y124.884 E42.15807
G1 X123.743 Y124.652 E42.17462
G1 X122.444 Y124.648 E42.21782
G1 X111.282 Y124.644 E42.58907
G1 X110.84 Y124.867 E42.60554
G1 X110.477 Y125.364 E42.62601
G1 X109.441 Y125.364 E42.66047
G1 X109.441 Y119.15 E42.86714
G1 F2700 E37.86714
G0 F9000 X108.576 Y119.15
G0 X108.576 Y125.084
G0 X110 Y125.084
G1 F2700 E42.86714
G1 F1500 X110.334 Y125.084 E42.87825
G1 X110.654 Y124.647 E42.89627
G1 X111.216 Y124.364 E42.9172
G1 X112 Y124.364 E42.94327
G1 X112 Y119.43 E43.10738
G1 X114 Y119.43 E43.1739
G1 X114 Y124.364 E43.338
G1 X116 Y124.365 E43.40452
G1 X116 Y119.43 E43.56866
G1 X118 Y119.43 E43.63518
G1 X118 Y124.366 E43.79935
G1 X120 Y124.367 E43.86587
G1 X120 Y119.43 E44.03008
G1 X122 Y119.43 E44.0966
G1 X122 Y124.367 E44.26081
G1 X122.445 Y124.368 E44.27561
G1 X123.813 Y124.372 E44.32111
G1 X124 Y124.47 E44.32813
G1 X124 Y119.43 E44.49576
G1 X125.273 Y119.43 E44.5381
G1 X125.272 Y125.084 E44.72615
G1 X124.658 Y125.084 E44.74657
G1 X124.375 Y124.669 E44.76328
G1 X124 Y124.47 E44.7774
G1 F2700 E39.7774
G0 F9000 X123.529 Y125.515
G0 X110 Y126.229
G0 X110 Y125.084
G1 F2700 E44.7774
G1 F1500 X109.721 Y125.084 E44.78668
G1 X109.721 Y119.43 E44.97473
G1 X110 Y119.43 E44.98401
G1 X110 Y125.084 E45.17207
G1 F2700 E40.17207
;MESH:End_Clip.STL
G0 F9000 X110 Y126.229
G0 X109.084 Y126.225
G0 X108.58 Y125.721
G0 X108.588 Y118.803
G0 X110 Y117.53
G0 X126.88 Y117.48
G0 X126.95 Y117.55
;TYPE:WALL-INNER
G1 F2700 E45.17207
G1 F1500 X108.05 Y117.55 E45.80068
G1 X108.05 Y110.036 E46.0506
G1 X126.95 Y110.036 E46.67922
G1 X126.95 Y117.55 E46.92913
G0 F9000 X127.35 Y117.95
;TYPE:WALL-OUTER
G1 F1500 X107.65 Y117.95 E47.58436
G1 X107.65 Y109.636 E47.86088
G1 X127.35 Y109.636 E48.51611
G1 X127.35 Y117.95 E48.79263
G0 F9000 X126.88 Y117.48
G0 X126.56 Y117.16
;TYPE:SKIN
G1 F1500 X108.44 Y117.16 E49.3953
G1 X108.44 Y110.426 E49.61928
G1 X126.56 Y110.426 E50.22195
G1 X126.56 Y117.16 E50.44593
G0 F9000 X126.399 Y111.126
G1 F1500 X125.859 Y110.585 E50.47135
G0 F9000 X125.293 Y110.585
G1 F1500 X126.399 Y111.691 E50.52337
G0 F9000 X126.399 Y112.257
G1 F1500 X124.727 Y110.585 E50.60202
G0 F9000 X124.162 Y110.585
G1 F1500 X126.399 Y112.823 E50.70726
G0 F9000 X126.399 Y113.388
G1 F1500 X123.596 Y110.585 E50.83911
G0 F9000 X123.03 Y110.585
G1 F1500 X126.399 Y113.954 E50.99758
G0 F9000 X126.399 Y114.52
G1 F1500 X122.465 Y110.585 E51.18264
G0 F9000 X121.899 Y110.585
G1 F1500 X126.399 Y115.085 E51.39431
G0 F9000 X126.399 Y115.651
G1 F1500 X121.333 Y110.585 E51.6326
G0 F9000 X120.768 Y110.585
G1 F1500 X126.399 Y116.217 E51.89749
G0 F9000 X126.399 Y116.782
G1 F1500 X120.202 Y110.585 E52.18897
G0 F9000 X119.636 Y110.585
G1 F1500 X126.05 Y116.999 E52.49067
G0 F9000 X125.484 Y116.999
G1 F1500 X119.071 Y110.585 E52.79234
G0 F9000 X118.505 Y110.585
G1 F1500 X124.918 Y116.999 E53.09401
G0 F9000 X124.353 Y116.999
G1 F1500 X117.939 Y110.585 E53.39571
G0 F9000 X117.374 Y110.585
G1 F1500 X123.787 Y116.999 E53.69738
G0 F9000 X123.221 Y116.999
G1 F1500 X116.808 Y110.585 E53.99905
G0 F9000 X116.242 Y110.585
G1 F1500 X122.656 Y116.999 E54.30074
G0 F9000 X122.09 Y116.999
G1 F1500 X115.677 Y110.585 E54.60242
G0 F9000 X115.111 Y110.585
G1 F1500 X121.524 Y116.999 E54.90409
G0 F9000 X120.959 Y116.999
G1 F1500 X114.545 Y110.585 E55.20578
G0 F9000 X113.979 Y110.585
G1 F1500 X120.393 Y116.999 E55.50748
G0 F9000 X119.827 Y116.999
G1 F1500 X113.414 Y110.585 E55.80915
G0 F9000 X112.848 Y110.585
G1 F1500 X119.262 Y116.999 E56.11084
G0 F9000 X118.696 Y116.999
G1 F1500 X112.282 Y110.585 E56.41254
G0 F9000 X111.717 Y110.585
G1 F1500 X118.13 Y116.999 E56.71421
G0 F9000 X117.564 Y116.999
G1 F1500 X111.151 Y110.585 E57.01588
G0 F9000 X110.585 Y110.585
G1 F1500 X116.999 Y116.999 E57.31758
G0 F9000 X116.433 Y116.999
G1 F1500 X110.02 Y110.585 E57.61925
G0 F9000 X109.454 Y110.585
G1 F1500 X115.867 Y116.999 E57.92092
G0 F9000 X115.302 Y116.999
G1 F1500 X108.888 Y110.585 E58.22261
G0 F9000 X108.599 Y110.862
G1 F1500 X114.736 Y116.999 E58.51128
G0 F9000 X114.17 Y116.999
G1 F1500 X108.599 Y111.428 E58.77332
G0 F9000 X108.599 Y111.993
G1 F1500 X113.605 Y116.999 E59.00879
G0 F9000 X113.039 Y116.999
G1 F1500 X108.599 Y112.559 E59.21763
G0 F9000 X108.599 Y113.125
G1 F1500 X112.473 Y116.999 E59.39985
G0 F9000 X111.908 Y116.999
G1 F1500 X108.599 Y113.69 E59.5555
