;FLAVOR:Marlin
;TIME:2234
;Filament used: 1.12453m
;Layer height: 0.2
;MINX:106.789
;MINY:106.784
;MINZ:0.2
;MAXX:128.215
;MAXY:128.215
;MAXZ:16
;Generated with Cura_SteamEngine master
M82 ;absolute extrusion mode
; Ender 3 Custom Start G-code
M140 S60 ; Set Heat Bed temperature
M104 S160 ; start warming extruder to 160
G28 ; Home all axes
G29 ; Auto bed-level (BL-Touch)
G92 E0 ; Reset Extruder
M190 S60 ; Wait for Heat Bed temperature
M104 S220 ; Set Extruder temperature
G1 X0 Y0 Z0.3 F5000.0 ; Move to 0 0
M109 S220 ; Wait for Extruder temperature
G1 X1 Y20 Z0.3 F5000.0 ; Move to start position
; G1 Z2.0 F3000 ; Move Z Axis up little to prevent scratching of Heat Bed
G1 X3 Y200.0 Z0.3 F1500.0 E15 ; Draw the first line
G1 X3.3 Y200.0 Z0.3 F5000.0 ; Move to side a little
G1 X3.3 Y20 Z0.3 F1500.0 E30 ; Draw the second line
G92 E0 ; Reset Extruder
G1 Z2.0 F3000 ; Move Z Axis up little to prevent scratching of Heat Bed
G92 E0
G92 E0
G1 F2700 E-5
;LAYER_COUNT:80
;LAYER:0
M107
G0 F6000 X117.187 Y111.255 Z0.2
;TYPE:SKIRT
G1 F2700 E0
G1 F1200 X117.8 Y111.255 E0.02039
G1 X117.799 Y119.671 E0.30031
G1 X117.189 Y119.672 E0.32059
G1 X117.187 Y111.255 E0.60055
G0 F6000 X116.787 Y110.854
G1 F1200 X118.2 Y110.856 E0.64754
G1 X118.199 Y120.071 E0.95403
G1 X116.789 Y120.072 E1.00093
G1 X116.787 Y110.854 E1.30752
G0 F6000 X116.387 Y110.454
G1 F1200 X118.6 Y110.456 E1.38113
G1 X118.599 Y120.471 E1.71423
G1 X116.389 Y120.472 E1.78773
G1 X116.387 Y110.454 E2.12093
G0 F6000 X115.987 Y110.054
G1 F1200 X119 Y110.056 E2.22115
G1 X118.999 Y120.871 E2.58085
G1 X115.989 Y120.872 E2.68097
G1 X115.987 Y110.054 E3.04077
G0 F6000 X115.587 Y109.653
G1 F1200 X119.4 Y109.657 E3.1676
G1 X119.399 Y121.271 E3.55388
G1 X115.589 Y121.272 E3.6806
G1 X115.587 Y109.653 E4.06705
G0 F6000 X115.186 Y109.253
G1 F1200 X119.8 Y109.257 E4.22051
G1 X119.799 Y121.671 E4.6334
G1 X115.19 Y121.672 E4.7867
G1 X115.186 Y109.253 E5.19976
G0 F6000 X114.786 Y108.852
G1 F1200 X120.2 Y108.858 E5.37983
G1 X120.199 Y122.071 E5.81929
G1 X114.79 Y122.072 E5.9992
G1 X114.786 Y108.852 E6.4389
G0 F6000 X114.386 Y108.452
G1 F1200 X120.6 Y108.458 E6.64558
G1 X120.599 Y122.47 E7.11162
G1 X114.39 Y122.473 E7.31813
G1 X114.386 Y108.452 E7.78447
G0 F6000 X113.986 Y108.052
G1 F1200 X121 Y108.058 E8.01776
G1 X120.999 Y122.87 E8.5104
G1 X113.99 Y122.873 E8.74352
G1 X113.986 Y108.052 E9.23647
G0 F6000 X113.586 Y107.651
G1 F1200 X121.4 Y107.659 E9.49637
G1 X121.399 Y123.27 E10.01559
G1 X113.59 Y123.273 E10.27532
G1 X113.586 Y107.651 E10.79491
G1 F2700 E5.79491
;MESH:End_Clip.STL
G0 F6000 X121.734 Y108.064
G0 X123.014 Y108.064
G0 X126.88 Y126.88
G0 X126.95 Y126.95
;TYPE:WALL-INNER
G1 F2700 E10.79491
G1 F1200 X108.05 Y126.95 E11.42353
G1 X108.05 Y108.05 E12.05214
G1 X111.986 Y108.05 E12.18306
G1 X111.99 Y124.674 E12.73597
G1 X111.99 Y124.873 E12.74259
G1 X112.189 Y124.873 E12.74687
G1 X122.999 Y124.87 E13.10641
G1 X123 Y108.05 E13.66585
G1 X126.95 Y108.05 E13.79723
G1 X126.95 Y126.95 E14.42584
G0 F6000 X127.35 Y127.35
;TYPE:WALL-OUTER
G1 F1200 X107.65 Y127.35 E15.08107
G1 X107.65 Y107.65 E15.73629
G1 X112.386 Y107.65 E15.89381
G1 X112.39 Y124.473 E16.45335
G1 X122.599 Y124.47 E16.7929
G1 X122.6 Y107.65 E17.35234
G1 X127.35 Y107.65 E17.51032
G1 X127.35 Y127.35 E18.16555
G0 F6000 X126.88 Y126.88
G0 X126.56 Y126.56
;TYPE:SKIN
G1 F1200 X108.44 Y126.56 E18.76822
G1 X108.44 Y108.44 E19.37089
G1 X111.596 Y108.44 E19.47586
G1 X111.6 Y125.263 E20.0354
G1 X123.389 Y125.26 E20.4275
G1 X123.39 Y108.44 E20.98694
G1 X126.56 Y108.44 E21.09237
G1 X126.56 Y126.56 E21.69505
G0 F6000 X126.399 Y108.863
G1 F1200 X126.136 Y108.6 E21.70742
G0 F6000 X125.57 Y108.6
G1 F1200 X126.399 Y109.429 E21.74641
G0 F6000 X126.399 Y109.994
G1 F1200 X125.005 Y108.6 E21.81198
G0 F6000 X124.439 Y108.6
G1 F1200 X126.399 Y110.56 E21.90417
G0 F6000 X126.399 Y111.126
G1 F1200 X123.873 Y108.6 E22.02299
G0 F6000 X123.549 Y108.841
G1 F1200 X126.399 Y111.691 E22.15704
G0 F6000 X126.399 Y112.257
G1 F1200 X123.549 Y109.407 E22.2911
G0 F6000 X123.549 Y109.972
G1 F1200 X126.399 Y112.823 E22.42518
G0 F6000 X126.399 Y113.388
G1 F1200 X123.549 Y110.538 E22.55923
G0 F6000 X123.549 Y111.104
G1 F1200 X126.399 Y113.954 E22.69329
G0 F6000 X126.399 Y114.52
G1 F1200 X123.549 Y111.669 E22.82737
G0 F6000 X123.549 Y112.235
G1 F1200 X126.399 Y115.085 E22.96142
G0 F6000 X126.399 Y115.651
G1 F1200 X123.549 Y112.801 E23.09548
G0 F6000 X123.549 Y113.366
G1 F1200 X126.399 Y116.217 E23.22956
G0 F6000 X126.399 Y116.782
G1 F1200 X123.549 Y113.932 E23.36361
G0 F6000 X123.549 Y114.498
G1 F1200 X126.399 Y117.348 E23.49767
G0 F6000 X126.399 Y117.914
G1 F1200 X123.549 Y115.063 E23.63175
G0 F6000 X123.549 Y115.629
G1 F1200 X126.399 Y118.479 E23.7658
G0 F6000 X126.399 Y119.045
G1 F1200 X123.549 Y116.195 E23.89986
G0 F6000 X123.549 Y116.761
G1 F1200 X126.399 Y119.611 E24.03391
G0 F6000 X126.399 Y120.177
G1 F1200 X123.549 Y117.326 E24.16799
G0 F6000 X123.549 Y117.892
G1 F1200 X126.399 Y120.742 E24.30205
G0 F6000 X126.399 Y121.308
G1 F1200 X123.549 Y118.458 E24.4361
G0 F6000 X123.549 Y119.023
G1 F1200 X126.399 Y121.874 E24.57018
G0 F6000 X126.399 Y122.439
G1 F1200 X123.549 Y119.589 E24.70423
G0 F6000 X123.549 Y120.155
G1 F1200 X126.399 Y123.005 E24.83829
G0 F6000 X126.399 Y123.571
G1 F1200 X123.549 Y120.72 E24.97237
G0 F6000 X123.549 Y121.286
G1 F1200 X126.399 Y124.136 E25.10642
G0 F6000 X126.399 Y124.702
G1 F1200 X123.549 Y121.852 E25.24048
G0 F6000 X123.549 Y122.417
G1 F1200 X126.399 Y125.268 E25.37456
G0 F6000 X126.399 Y125.833
G1 F1200 X123.549 Y122.983 E25.50861
G0 F6000 X123.549 Y123.549
G1 F1200 X126.399 Y126.399 E25.64267
G0 F6000 X125.833 Y126.399
G1 F1200 X123.549 Y124.114 E25.75012
G0 F6000 X123.549 Y124.68
G1 F1200 X125.268 Y126.399 E25.83098
G0 F6000 X124.702 Y126.399
G1 F1200 X123.549 Y125.246 E25.88521
G0 F6000 X123.156 Y125.419
G1 F1200 X124.136 Y126.399 E25.93131
G0 F6000 X123.571 Y126.399
G1 F1200 X122.591 Y125.419 E25.97741
G0 F6000 X122.025 Y125.419
G1 F1200 X123.005 Y126.399 E26.0235
G0 F6000 X122.439 Y126.399
G1 F1200 X121.459 Y125.419 E26.0696
G0 F6000 X120.894 Y125.42
G1 F1200 X121.874 Y126.399 E26.11567
G0 F6000 X121.308 Y126.399
G1 F1200 X120.329 Y125.42 E26.16172
G0 F6000 X119.763 Y125.42
G1 F1200 X120.742 Y126.399 E26.20777
G0 F6000 X120.177 Y126.399
G1 F1200 X119.197 Y125.42 E26.25384
G0 F6000 X118.632 Y125.42
G1 F1200 X119.611 Y126.399 E26.29989
G0 F6000 X119.045 Y126.399
G1 F1200 X118.067 Y125.42 E26.34592
G0 F6000 X117.501 Y125.42
G1 F1200 X118.479 Y126.399 E26.39194
G0 F6000 X117.914 Y126.399
G1 F1200 X116.935 Y125.42 E26.43799
G0 F6000 X116.369 Y125.42
G1 F1200 X117.348 Y126.399 E26.48404
G0 F6000 X116.782 Y126.399
G1 F1200 X115.804 Y125.421 E26.53004
G0 F6000 X115.239 Y125.421
G1 F1200 X116.217 Y126.399 E26.57605
G0 F6000 X115.651 Y126.399
G1 F1200 X114.673 Y125.421 E26.62205
G0 F6000 X114.107 Y125.421
G1 F1200 X115.085 Y126.399 E26.66805
G0 F6000 X114.52 Y126.399
G1 F1200 X113.542 Y125.422 E26.71403
G0 F6000 X112.977 Y125.422
G1 F1200 X113.954 Y126.399 E26.75998
G0 F6000 X113.388 Y126.399
G1 F1200 X112.411 Y125.422 E26.80594
G0 F6000 X111.845 Y125.422
G1 F1200 X112.823 Y126.399 E26.85192
G0 F6000 X112.257 Y126.399
G1 F1200 X108.599 Y122.741 E27.02398
G0 F6000 X108.599 Y122.176
G1 F1200 X111.44 Y125.016 E27.15759
G0 F6000 X111.44 Y124.45
G1 F1200 X108.599 Y121.61 E27.2912
G0 F6000 X108.599 Y121.044
G1 F1200 X111.44 Y123.885 E27.42483
G0 F6000 X111.44 Y123.319
G1 F1200 X108.599 Y120.478 E27.55846
G0 F6000 X108.599 Y119.913
G1 F1200 X111.439 Y122.753 E27.69204
G0 F6000 X111.439 Y122.187
G1 F1200 X108.599 Y119.347 E27.82563
G0 F6000 X108.599 Y118.781
G1 F1200 X111.439 Y121.621 E27.95921
G0 F6000 X111.439 Y121.055
G1 F1200 X108.599 Y118.216 E28.09278
G0 F6000 X108.599 Y117.65
G1 F1200 X111.438 Y120.489 E28.22631
G0 F6000 X111.438 Y119.923
G1 F1200 X108.599 Y117.084 E28.35985
G0 F6000 X108.599 Y116.519
G1 F1200 X111.438 Y119.358 E28.49339
G0 F6000 X111.438 Y118.792
G1 F1200 X108.599 Y115.953 E28.62693
G0 F6000 X108.599 Y115.387
G1 F1200 X111.438 Y118.226 E28.76046
G0 F6000 X111.437 Y117.66
G1 F1200 X108.599 Y114.822 E28.89396
G0 F6000 X108.599 Y114.256
G1 F1200 X111.437 Y117.094 E29.02745
G0 F6000 X111.437 Y116.529
G1 F1200 X108.599 Y113.69 E29.16096
G0 F6000 X108.599 Y113.125
G1 F1200 X111.437 Y115.963 E29.29445
G0 F6000 X111.437 Y115.396
G1 F1200 X108.599 Y112.559 E29.42792
G0 F6000 X108.599 Y111.993
G1 F1200 X111.437 Y114.831 E29.56141
G0 F6000 X111.437 Y114.265
G1 F1200 X108.599 Y111.428 E29.69488
G0 F6000 X108.599 Y110.862
G1 F1200 X111.437 Y113.699 E29.82834
G0 F6000 X111.436 Y113.133
G1 F1200 X108.599 Y110.296 E29.96179
G0 F6000 X108.599 Y109.73
G1 F1200 X111.436 Y112.567 E30.09523
G0 F6000 X111.436 Y112.002
G1 F1200 X108.599 Y109.165 E30.22868
G0 F6000 X108.599 Y108.599
G1 F1200 X111.436 Y111.436 E30.36212
G0 F6000 X111.435 Y110.87
G1 F1200 X109.165 Y108.599 E30.46892
G0 F6000 X109.73 Y108.599
G1 F1200 X111.435 Y110.304 E30.54911
G0 F6000 X111.435 Y109.738
G1 F1200 X110.296 Y108.599 E30.60269
G0 F6000 X110.862 Y108.599
G1 F1200 X111.435 Y109.173 E30.62967
G0 F6000 X108.599 Y123.307
G1 F1200 X111.691 Y126.399 E30.7751
G0 F6000 X111.126 Y126.399
G1 F1200 X108.599 Y123.873 E30.89394
G0 F6000 X108.599 Y124.438
G1 F1200 X110.56 Y126.399 E30.98618
G0 F6000 X109.994 Y126.399
G1 F1200 X108.599 Y125.004 E31.0518
G0 F6000 X108.599 Y125.57
G1 F1200 X109.429 Y126.399 E31.09082
G0 F6000 X108.863 Y126.399
M104 S220
G1 F1200 X108.599 Y126.135 E31.10323
G1 F2700 E26.10323
;MESH:NONMESH
G0 F300 X108.599 Y126.135 Z0.4
G0 F6000 X111.972 Y108.064
G0 X113.588 Y107.651
;TIME_ELAPSED:61.581702
;LAYER:1
M106 S85
;TYPE:SUPPORT
G1 F2700 E31.10323
G1 F1350 X121.399 Y107.659 E31.36303
G1 X121.397 Y123.271 E31.88229
G1 X113.592 Y123.274 E32.14188
G1 X113.593 Y120.112 E32.24705
G1 X113.588 Y107.651 E32.6615
G0 F7500 X113.868 Y107.931
G1 F1350 X113.873 Y120.112 E33.06665
G1 X113.872 Y122.994 E33.1625
G1 X114 Y122.994 E33.16676
G1 X114 Y107.932 E33.66772
G1 X113.868 Y107.931 E33.67211
G1 F2700 E28.67211
G0 F7500 X113.869 Y106.786
G0 X107.293 Y106.789
G0 X106.789 Y107.293
G0 X106.789 Y127.707
G0 X107.293 Y128.211
G0 X114 Y128.215
G0 X114 Y122.994
G1 F2700 E33.67211
G1 F1350 X116 Y122.994 E33.73863
G1 X116 Y107.934 E34.23953
G1 X118 Y107.936 E34.30605
G1 X118 Y122.993 E34.80685
G1 X120 Y122.992 E34.87337
G1 X120 Y107.938 E35.37407
G1 X121.119 Y107.939 E35.41129
G1 X121.117 Y122.991 E35.91192
G1 X120 Y122.992 E35.94907
G1 F2700 E30.94907
;MESH:End_Clip.STL
G0 F7500 X120 Y124.872
G0 X126.88 Y126.88
G0 X126.95 Y126.95
;TYPE:WALL-INNER
G1 F2700 E35.94907
G1 F1350 X108.05 Y126.95 E36.57769
G1 X108.05 Y108.05 E37.2063
G1 X111.988 Y108.05 E37.33728
G1 X111.993 Y120.112 E37.73846
G1 X111.992 Y124.675 E37.89023
G1 X111.992 Y124.874 E37.89685
G1 X112.191 Y124.874 E37.90113
G1 X122.997 Y124.871 E38.26054
G1 X122.999 Y108.05 E38.82001
G1 X126.95 Y108.05 E38.95142
G1 X126.95 Y126.95 E39.58004
G0 F7500 X127.35 Y127.35
;TYPE:WALL-OUTER
G1 F1350 X107.65 Y127.35 E40.23526
G1 X107.65 Y107.65 E40.89049
G1 X112.388 Y107.65 E41.04807
G1 X112.393 Y120.112 E41.46256
G1 X112.392 Y124.474 E41.60764
G1 X122.597 Y124.471 E41.94706
G1 X122.599 Y107.65 E42.50653
G1 X127.35 Y107.65 E42.66455
G1 X127.35 Y127.35 E43.31977
G0 F7500 X126.88 Y126.88
G0 X126.56 Y126.56
;TYPE:SKIN
G1 F1350 X108.44 Y126.56 E43.92245
G1 X108.44 Y108.44 E44.52512
G1 X111.598 Y108.44 E44.63016
G1 X111.603 Y120.112 E45.01837
G1 X111.602 Y125.264 E45.18972
G1 X123.387 Y125.261 E45.58169
G1 X123.389 Y108.44 E46.14116
G1 X126.56 Y108.44 E46.24663
G1 X126.56 Y126.56 E46.84931
G0 F7500 X125.896 Y126.399
G1 F1350 X126.399 Y125.896 E46.87296
G0 F7500 X126.399 Y125.33
G1 F1350 X125.33 Y126.399 E46.92325
G0 F7500 X124.764 Y126.399
G1 F1350 X126.399 Y124.764 E47.00015
G0 F7500 X126.399 Y124.199
G1 F1350 X124.199 Y126.399 E47.10363
G0 F7500 X123.633 Y126.399
G1 F1350 X126.399 Y123.633 E47.23374
G0 F7500 X126.399 Y123.067
G1 F1350 X123.067 Y126.399 E47.39047
G0 F7500 X122.502 Y126.399
G1 F1350 X123.481 Y125.42 E47.43651
G0 F7500 X123.547 Y125.354
G1 F1350 X126.399 Y122.502 E47.57066
G0 F7500 X126.399 Y121.936
G1 F1350 X123.547 Y124.788 E47.70481
G0 F7500 X123.547 Y124.223
G1 F1350 X126.399 Y121.37 E47.83899
G0 F7500 X126.399 Y120.804
G1 F1350 X123.547 Y123.657 E47.97316
G0 F7500 X123.547 Y123.091
G1 F1350 X126.399 Y120.239 E48.10731
G0 F7500 X126.399 Y119.673
G1 F1350 X123.547 Y122.526 E48.24148
G0 F7500 X123.547 Y121.96
G1 F1350 X126.399 Y119.107 E48.37565
G0 F7500 X126.399 Y118.542
G1 F1350 X123.547 Y121.394 E48.5098
G0 F7500 X123.547 Y120.828
G1 F1350 X126.399 Y117.976 E48.64395
G0 F7500 X126.399 Y117.41
G1 F1350 X123.547 Y120.263 E48.77813
G0 F7500 X123.547 Y119.696
G1 F1350 X126.399 Y116.845 E48.91225
G0 F7500 X126.399 Y116.279
G1 F1350 X123.547 Y119.131 E49.0464
G0 F7500 X123.547 Y118.565
G1 F1350 X126.399 Y115.713 E49.18055
G0 F7500 X126.399 Y115.148
G1 F1350 X123.547 Y117.999 E49.31468
G0 F7500 X123.547 Y117.434
G1 F1350 X126.399 Y114.582 E49.44882
G0 F7500 X126.399 Y114.016
G1 F1350 X123.547 Y116.868 E49.58297
G0 F7500 X123.547 Y116.302
G1 F1350 X126.399 Y113.451 E49.7171
G0 F7500 X126.399 Y112.885
G1 F1350 X123.547 Y115.737 E49.85125
G0 F7500 X123.547 Y115.171
G1 F1350 X126.399 Y112.319 E49.9854
G0 F7500 X126.399 Y111.753
G1 F1350 X123.547 Y114.605 E50.11955
G0 F7500 X123.548 Y114.039
G1 F1350 X126.399 Y111.188 E50.25365
G0 F7500 X126.399 Y110.622
G1 F1350 X123.548 Y113.473 E50.38775
G0 F7500 X123.548 Y112.907
G1 F1350 X126.399 Y110.056 E50.52185
G0 F7500 X126.399 Y109.491
G1 F1350 X123.548 Y112.342 E50.65596
G0 F7500 X123.548 Y111.776
G1 F1350 X126.399 Y108.925 E50.79006
G0 F7500 X126.159 Y108.6
G1 F1350 X123.548 Y111.21 E50.91285
G0 F7500 X123.548 Y110.645
G1 F1350 X125.593 Y108.6 E51.00904
G0 F7500 X125.027 Y108.6
G1 F1350 X123.548 Y110.079 E51.07861
G0 F7500 X123.548 Y109.513
G1 F1350 X124.462 Y108.6 E51.12158
G0 F7500 X123.896 Y108.6
G1 F1350 X123.548 Y108.948 E51.13794
G1 F2700 E46.13794
G0 F7500 X123.025 Y124.899
G0 X111.964 Y124.902
G0 X111.437 Y109.18
G1 F2700 E51.13794
G1 F1350 X108.6 Y112.017 E51.27139
G0 F7500 X108.6 Y112.582
G1 F1350 X111.437 Y109.745 E51.40483
G0 F7500 X111.437 Y110.31
G1 F1350 X108.6 Y113.148 E51.5383
G0 F7500 X108.6 Y113.714
G1 F1350 X111.437 Y110.876 E51.67177
G0 F7500 X111.438 Y111.441
G1 F1350 X108.6 Y114.279 E51.80526
G0 F7500 X108.6 Y114.845
G1 F1350 X111.438 Y112.007 E51.93875
G0 F7500 X111.439 Y112.572
G1 F1350 X108.6 Y115.411 E52.07229
G0 F7500 X108.6 Y115.976
G1 F1350 X111.439 Y113.137 E52.20582
G0 F7500 X111.439 Y113.703
G1 F1350 X108.6 Y116.542 E52.33936
G0 F7500 X108.6 Y117.108
G1 F1350 X111.44 Y114.268 E52.47295
G0 F7500 X111.44 Y114.834
G1 F1350 X108.6 Y117.673 E52.60651
G0 F7500 X108.6 Y118.239
G1 F1350 X111.44 Y115.399 E52.74009
G0 F7500 X111.44 Y115.964
G1 F1350 X108.6 Y118.805 E52.8737
G0 F7500 X108.6 Y119.37
G1 F1350 X111.441 Y116.529 E53.00733
G0 F7500 X111.441 Y117.095
G1 F1350 X108.6 Y119.936 E53.14097
G0 F7500 X108.6 Y120.502
G1 F1350 X111.442 Y117.66 E53.27464
G0 F7500 X111.442 Y118.226
G1 F1350 X108.6 Y121.067 E53.4083
G0 F7500 X108.6 Y121.633
G1 F1350 X111.442 Y118.791 E53.54198
G0 F7500 X111.442 Y119.356
G1 F1350 X108.6 Y122.199 E53.67568
G0 F7500 X108.6 Y122.765
G1 F1350 X111.442 Y119.922 E53.80938
G0 F7500 X111.442 Y120.488
G1 F1350 X108.6 Y123.33 E53.94306
G0 F7500 X108.6 Y123.896
G1 F1350 X111.442 Y121.053 E54.07677
G0 F7500 X111.442 Y121.619
G1 F1350 X108.6 Y124.462 E54.21047
G0 F7500 X108.6 Y125.027
G1 F1350 X111.442 Y122.185 E54.34415
G0 F7500 X111.442 Y122.75
G1 F1350 X108.6 Y125.593 E54.47785
G0 F7500 X108.6 Y126.159
G1 F1350 X111.442 Y123.317 E54.61153
G0 F7500 X111.442 Y123.882
G1 F1350 X108.925 Y126.399 E54.72992
G0 F7500 X109.491 Y126.399
G1 F1350 X111.442 Y124.448 E54.82169
G0 F7500 X111.442 Y125.014
G1 F1350 X110.056 Y126.399 E54.88686
G0 F7500 X110.622 Y126.399
G1 F1350 X111.599 Y125.422 E54.93281
G0 F7500 X112.165 Y125.422
G1 F1350 X111.188 Y126.399 E54.97877
G0 F7500 X111.753 Y126.399
G1 F1350 X112.731 Y125.422 E55.02475
G0 F7500 X113.296 Y125.422
G1 F1350 X112.319 Y126.399 E55.0707
G0 F7500 X112.885 Y126.399
