;FLAVOR:Marlin
;TIME:4122
;Filament used: 3.0215m
;Layer height: 0.2
;MINX:91.21
;MINY:59.911
;MINZ:0.2
;MAXX:143.891
;MAXY:175.108
;MAXZ:20
;Generated with Cura_SteamEngine master
M82 ;absolute extrusion mode
G92 E0 ; Reset Extruder
M140 S60 ; Set bed temperature
G28 ; Home all axis
M190 S60 ; Wait for bed temperature
M104 T0 S220 ; Set hotend temperature
G29 ; Auto bed leveling
M109 T0 S220 ; Wait for hotend temperature
G1 Z2.0 F3000 ; Move Z Axis up little to prevent scratching of Heat Bed
G1 X0.1 Y20 Z0.3 F5000.0 ; Move to start position
G1 X0.1 Y200.0 Z0.3 F1500.0 E15 ; Draw the first line
G1 X0.4 Y200.0 Z0.3 F5000.0 ; Move to side a little
G1 X0.4 Y20 Z0.3 F1500.0 E30 ; Draw the second line
G92 E0 ; Reset Extruder
G1 Z2.0 F3000 ; Move Z Axis up little to prevent scratching of Heat Bed
G1 X5 Y20 Z0.3 F5000.0 ; Move over to prevent blob squish
G92 E0
G92 E0 ; Reset Extruder
G28 ; Home all axes
G1 Z2.0 F3000 ; Move Z Axis up little to prevent scratching of Heat Bed
G1 X0.1 Y20 Z0.3 F5000.0 ; Move to start position
G1 X0.1 Y200.0 Z0.3 F1500.0 E15 ; Draw the first line
G1 X0.4 Y200.0 Z0.3 F5000.0 ; Move to side a little
G1 X0.4 Y20 Z0.3 F1500.0 E30 ; Draw the second line
G92 E0 ; Reset Extruder
G1 Z2.0 F3000 ; Move Z Axis up little to prevent scratching of Heat Bed
G1 X5 Y20 Z0.3 F5000.0 ; Move over to prevent blob squish
G92 E0
G1 F2700 E-5
;LAYER_COUNT:101
;LAYER:0
M107
;MESH:Guide_Flat_V2.STL
G0 F6000 X141.32 Y70.079 Z0.2
;TYPE:WALL-INNER
G1 F2700 E0
G1 F1200 X141.407 Y69.556 E0.01763
G1 X141.231 Y67.757 E0.07775
G1 X140.595 Y66.063 E0.13794
G1 X139.543 Y64.591 E0.19811
G1 X138.147 Y63.441 E0.25827
G1 X136.842 Y62.848 E0.30595
G1 X138.148 Y63.441 E0.30602
G1 X139.544 Y64.588 E0.30627
G1 X140.597 Y66.062 E0.30669
G1 X141.232 Y67.754 E0.30706
G1 X141.408 Y69.554 E0.30751
G1 X141.32 Y70.079 E0.30758
G0 F6000 X140.546 Y72.583
G1 F1200 X140.36 Y72.992 E0.32253
G1 X139.215 Y74.386 E0.38253
G1 X137.739 Y75.442 E0.44289
G1 X136.048 Y76.076 E0.50295
G1 X134.831 Y76.194 E0.54362
G1 X134.628 Y76.532 E0.55674
G1 X133.581 Y78.269 E0.62419
G1 X133.403 Y78.312 E0.63028
G1 X118.577 Y109.645 E1.7832
G1 X118.464 Y109.888 E1.79211
G1 X112.18 Y130.249 E2.50084
G1 X109.143 Y165.894 E3.6907
G1 X110.207 Y168.053 E3.77075
G1 X110.348 Y168.34 E3.78139
G1 X110.029 Y168.34 E3.78749
G1 X110.028 Y168.34 E3.78752
G1 X104.658 Y168.34 E3.96613
G1 X104.459 Y168.34 E3.97275
G1 X104.459 Y168.539 E3.97703
G1 X104.462 Y170.082 E4.02835
G1 X107.614 Y171.997 E4.15102
G1 X106.522 Y174.708 E4.24823
G1 X95.488 Y174.702 E4.61522
G1 X94.504 Y172.009 E4.71058
G1 X97.723 Y170.089 E4.83524
G1 X97.755 Y168.542 E4.88671
G1 X97.756 Y168.541 E4.88676
G1 X97.759 Y168.338 E4.89351
G1 X97.556 Y168.338 E4.89786
G1 X97.555 Y168.338 E4.89789
G1 X92.174 Y168.365 E5.07686
G1 X92.172 Y168.366 E5.07694
G1 X91.853 Y168.366 E5.08755
G1 X91.992 Y168.079 E5.09365
G1 X91.993 Y168.078 E5.0937
G1 X93.024 Y165.97 E5.17175
G1 X99.683 Y130.556 E6.37026
G1 X107.919 Y110.388 E7.09483
G1 X128.497 Y76.633 E8.4097
G1 X128.692 Y76.289 E8.42286
G1 X128.582 Y75.869 E8.4373
G1 X128.451 Y73.345 E8.52136
G1 X128.421 Y72.746 E8.54131
G1 X128.361 Y72.585 E8.54702
G1 X127.726 Y70.891 E8.60719
G1 X127.551 Y69.09 E8.66737
G1 X127.849 Y67.303 E8.72763
G1 X128.599 Y65.654 E8.78788
G1 X129.745 Y64.258 E8.84796
G1 X130.239 Y63.906 E8.86813
G1 X131.219 Y63.205 E8.90821
G1 X132.911 Y62.57 E8.96831
G1 X134.711 Y62.394 E9.02847
G1 X135.058 Y62.452 E9.04017
G1 X134.714 Y62.395
G1 X132.914 Y62.57 E9.04039
G1 X131.219 Y63.207 E9.04059
G1 X130.239 Y63.905 E9.04065
G1 X129.747 Y64.26 E9.04076
G1 X128.598 Y65.657 E9.04114
G1 X127.849 Y67.303 E9.04117
G1 X127.552 Y69.088 E9.10135
G1 X127.727 Y70.888 E9.10176
G1 X128.363 Y72.583 E9.1022
G1 X128.459 Y72.718 E9.10264
G1 X128.808 Y73.205 E9.11413
G1 X129.416 Y74.054 E9.14886
G1 X130.812 Y75.204 E9.20902
G1 X132.46 Y75.953 E9.26922
G1 X134.245 Y76.25 E9.32941
G1 X134.437 Y76.231 E9.33583
G1 X134.83 Y76.194 E9.34311
G1 X136.045 Y76.075 E9.34331
G1 X137.74 Y75.439 E9.34383
G1 X139.211 Y74.386 E9.34412
G1 X140.361 Y72.99 E9.34449
G1 X140.546 Y72.583 E9.34449
G1 F2700 E4.34449
G0 F6000 X138.965 Y74.119
G0 X137.567 Y75.119
G0 X135.193 Y75.978
G0 X134.347 Y76.077
G0 X132.529 Y75.861
G0 X132.578 Y75.567
;TYPE:WALL-OUTER
G1 F2700 E9.34449
G1 F1200 X134.259 Y75.847 E9.40117
G1 X135.954 Y75.682 E9.45782
G1 X137.55 Y75.083 E9.51452
G1 X138.936 Y74.091 E9.57121
G1 X140.019 Y72.776 E9.62787
G1 X140.725 Y71.225 E9.68455
G1 X141.004 Y69.543 E9.74125
G1 X140.838 Y67.848 E9.7979
G1 X140.239 Y66.253 E9.85457
G1 X139.248 Y64.866 E9.91126
G1 X137.933 Y63.783 E9.96792
G1 X136.381 Y63.078 E10.02462
G1 X134.7 Y62.798 E10.0813
G1 X133.005 Y62.963 E10.13794
G1 X131.409 Y63.563 E10.19465
G1 X130.472 Y64.23 E10.23291
G1 X130.023 Y64.554 E10.25132
G1 X128.94 Y65.87 E10.30801
G1 X128.235 Y67.421 E10.36468
G1 X127.955 Y69.102 E10.42136
G1 X128.12 Y70.797 E10.478
G1 X128.719 Y72.393 E10.5347
G1 X129.711 Y73.779 E10.59139
G1 X131.026 Y74.862 E10.64805
G1 X132.578 Y75.567 E10.70474
G0 F6000 X132.45 Y75.987
G1 F2700 E5.70474
G0 F6000 X92.87 Y165.919
G0 X91.617 Y168.514
G0 X91.211 Y168.769
G1 F2700 E10.70474
G1 F1200 X92.641 Y165.843 E10.81306
G1 X99.297 Y130.444 E12.01107
G1 X107.545 Y110.245 E12.73674
G1 X107.566 Y110.198 E12.73846
G1 X128.152 Y76.43 E14.05383
G1 X128.264 Y76.233 E14.06137
G1 X128.185 Y75.934 E14.07166
G1 X128.025 Y72.828 E14.1751
G1 X127.389 Y71.132 E14.23535
G1 X127.333 Y70.98 E14.24073
G1 X127.148 Y69.074 E14.30442
G1 X127.462 Y67.187 E14.36805
G1 X128.256 Y65.441 E14.43184
G1 X129.469 Y63.964 E14.49541
G1 X131.03 Y62.848 E14.55924
G1 X132.67 Y62.233 E14.61749
G1 X132.822 Y62.177 E14.62288
G1 X134.727 Y61.991 E14.68654
G1 X136.615 Y62.306 E14.7502
G1 X138.362 Y63.099 E14.81402
G1 X139.838 Y64.312 E14.87756
G1 X140.954 Y65.873 E14.94138
G1 X141.569 Y67.513 E14.99964
G1 X141.625 Y67.665 E15.00503
G1 X141.811 Y69.57 E15.06869
G1 X141.497 Y71.458 E15.13234
G1 X140.703 Y73.205 E15.19617
G1 X139.49 Y74.681 E15.25971
G1 X137.929 Y75.797 E15.32354
G1 X136.289 Y76.413 E15.3818
G1 X136.137 Y76.469 E15.38719
G1 X135.07 Y76.573 E15.42285
G1 X133.879 Y78.549 E15.49958
G1 X133.795 Y78.629 E15.50344
G1 X133.683 Y78.656 E15.50727
G1 X118.939 Y109.815 E16.65379
G1 X118.838 Y110.032 E16.66176
G1 X112.575 Y130.326 E17.36815
G1 X109.551 Y165.817 E18.55286
G1 X110.991 Y168.74 E18.66124
G1 X104.86 Y168.74 E18.86516
G1 X104.862 Y169.857 E18.90231
G1 X108.112 Y171.831 E19.02878
G1 X106.792 Y175.108 E19.14628
G1 X95.208 Y175.102 E19.53157
G1 X94.014 Y171.835 E19.64726
G1 X97.328 Y169.859 E19.77559
G1 X97.351 Y168.74 E19.81282
G1 X91.211 Y168.769 E20.01704
G0 F6000 X91.617 Y168.514
G0 X92.48 Y167.973
;TYPE:SKIN
G1 F1200 X93.398 Y166.094 E20.08659
G1 X100.06 Y130.665 E21.28562
G1 X108.269 Y110.563 E22.00781
G1 X128.833 Y76.83 E23.32182
G1 X129.109 Y76.344 E23.3404
G1 X128.97 Y75.812 E23.35869
G1 X128.875 Y73.968 E23.42011
G1 X129.129 Y74.323 E23.43462
G1 X130.604 Y75.538 E23.49818
G1 X132.345 Y76.329 E23.56179
G1 X134.116 Y76.625 E23.62151
G1 X133.331 Y77.928 E23.6721
G1 X133.13 Y77.977 E23.67898
G1 X118.224 Y109.479 E24.83812
G1 X118.099 Y109.748 E24.84798
G1 X111.795 Y130.175 E25.55901
G1 X108.745 Y165.969 E26.75383
G1 X109.722 Y167.95 E26.8273
G1 X104.069 Y167.95 E27.01532
G1 X104.072 Y170.302 E27.09355
G1 X107.129 Y172.159 E27.21251
G1 X106.258 Y174.318 E27.28995
G1 X95.76 Y174.312 E27.63911
G1 X94.981 Y172.179 E27.71464
G1 X98.109 Y170.313 E27.83578
G1 X98.157 Y167.946 E27.91452
G1 X92.48 Y167.973 E28.10334
G0 F6000 X97.583 Y168.511
G0 X97.56 Y169.994
G0 X96.086 Y174.151
G1 F1200 X95.747 Y173.812 E28.11929
G0 F6000 X95.421 Y172.92
G1 F1200 X96.652 Y174.151 E28.17719
G0 F6000 X97.218 Y174.151
G1 F1200 X95.263 Y172.196 E28.26915
G0 F6000 X95.617 Y171.985
G1 F1200 X97.784 Y174.151 E28.37105
G0 F6000 X98.35 Y174.151
G1 F1200 X95.972 Y171.774 E28.48288
G0 F6000 X96.327 Y171.563
G1 F1200 X98.916 Y174.152 E28.60466
G0 F6000 X99.482 Y174.152
G1 F1200 X96.681 Y171.351 E28.73641
G0 F6000 X97.035 Y171.14
G1 F1200 X100.048 Y174.153 E28.87814
G0 F6000 X100.614 Y174.153
G1 F1200 X97.389 Y170.928 E29.02983
G0 F6000 X97.744 Y170.717
G1 F1200 X101.18 Y174.154 E29.19147
G0 F6000 X101.746 Y174.154
G1 F1200 X98.098 Y170.506 E29.36306
G0 F6000 X98.272 Y170.115
G1 F1200 X102.312 Y174.154 E29.55307
G0 F6000 X102.878 Y174.154
G1 F1200 X98.283 Y169.559 E29.7692
G0 F6000 X98.294 Y169.005
G1 F1200 X103.444 Y174.154 E30.01142
G0 F6000 X104.01 Y174.155
G1 F1200 X98.306 Y168.451 E30.27972
G0 F6000 X98.316 Y167.896
G1 F1200 X104.576 Y174.155 E30.57415
G0 F6000 X105.142 Y174.156
G1 F1200 X94.118 Y163.131 E31.09271
G0 F6000 X94.207 Y162.655
G1 F1200 X105.708 Y174.156 E31.63368
G0 F6000 X106.186 Y174.068
G1 F1200 X94.296 Y162.179 E32.19292
G0 F6000 X94.386 Y161.703
G1 F1200 X106.348 Y173.665 E32.75558
G0 F6000 X106.511 Y173.262
G1 F1200 X94.475 Y161.226 E33.32172
G0 F6000 X94.565 Y160.75
G1 F1200 X103.911 Y170.096 E33.76132
G0 F6000 X103.911 Y169.53
G1 F1200 X94.655 Y160.274 E34.1967
G0 F6000 X94.744 Y159.798
G1 F1200 X103.91 Y168.964 E34.62784
G0 F6000 X103.91 Y168.398
G1 F1200 X94.834 Y159.322 E35.05474
G0 F6000 X94.923 Y158.845
G1 F1200 X103.91 Y167.832 E35.47747
G0 F6000 X104.432 Y167.789
G1 F1200 X95.013 Y158.369 E35.92053
G0 F6000 X95.103 Y157.894
G1 F1200 X104.998 Y167.789 E36.38596
G0 F6000 X105.563 Y167.789
G1 F1200 X95.192 Y157.417 E36.8738
G0 F6000 X95.281 Y156.941
G1 F1200 X106.129 Y167.789 E37.38406
G0 F6000 X106.695 Y167.789
G1 F1200 X95.371 Y156.465 E37.91671
G0 F6000 X95.46 Y155.989
G1 F1200 X107.261 Y167.789 E38.47177
G0 F6000 X107.826 Y167.789
G1 F1200 X95.55 Y155.513 E39.04919
G0 F6000 X95.639 Y155.036
G1 F1200 X108.392 Y167.789 E39.64905
G0 F6000 X108.958 Y167.789
G1 F1200 X95.729 Y154.56 E40.2713
G0 F6000 X95.819 Y154.084
G1 F1200 X109.407 Y167.672 E40.91044
G0 F6000 X108.856 Y166.556
G1 F1200 X95.908 Y153.608 E41.51948
G0 F6000 X95.998 Y153.132
G1 F1200 X108.604 Y165.738 E42.11242
G0 F6000 X108.649 Y165.217
G1 F1200 X96.087 Y152.655 E42.7033
G0 F6000 X96.177 Y152.179
G1 F1200 X108.693 Y164.696 E43.29204
G0 F6000 X108.737 Y164.174
G1 F1200 X96.266 Y151.704 E43.87861
G0 F6000 X96.356 Y151.227
G1 F1200 X108.782 Y163.653 E44.4631
G0 F6000 X108.826 Y163.132
G1 F1200 X96.445 Y150.751 E45.04546
G0 F6000 X96.534 Y150.275
G1 F1200 X108.871 Y162.611 E45.62573
G0 F6000 X108.915 Y162.09
G1 F1200 X96.624 Y149.799 E46.20386
G0 F6000 X96.714 Y149.323
G1 F1200 X108.959 Y161.568 E46.77983
G0 F6000 X109.004 Y161.047
G1 F1200 X96.803 Y148.846 E47.35373
G0 F6000 X96.893 Y148.37
G1 F1200 X109.048 Y160.525 E47.92546
G0 F6000 X109.093 Y160.004
G1 F1200 X96.983 Y147.894 E48.49508
G0 F6000 X97.072 Y147.418
G1 F1200 X109.137 Y159.483 E49.06258
G0 F6000 X109.182 Y158.962
G1 F1200 X97.162 Y146.942 E49.62796
G0 F6000 X97.251 Y146.465
G1 F1200 X109.226 Y158.44 E50.19123
G0 F6000 X109.27 Y157.919
G1 F1200 X97.341 Y145.989 E50.75236
G0 F6000 X97.43 Y145.514
G1 F1200 X109.315 Y157.398 E51.31137
G0 F6000 X109.359 Y156.877
G1 F1200 X97.519 Y145.037 E51.86828
G0 F6000 X97.609 Y144.561
G1 F1200 X109.404 Y156.356 E52.42309
G0 F6000 X109.448 Y155.834
G1 F1200 X97.698 Y144.085 E52.97575
G0 F6000 X97.788 Y143.609
G1 F1200 X109.492 Y155.313 E53.52627
G0 F6000 X109.537 Y154.792
G1 F1200 X97.878 Y143.133 E54.07467
G0 F6000 X97.967 Y142.656
G1 F1200 X109.581 Y154.27 E54.62096
G0 F6000 X109.626 Y153.749
G1 F1200 X98.057 Y142.18 E55.16513
G0 F6000 X98.146 Y141.704
G1 F1200 X109.67 Y153.228 E55.70718
G0 F6000 X109.714 Y152.706
G1 F1200 X98.236 Y141.228 E56.24707
G0 F6000 X98.326 Y140.752
G1 F1200 X109.759 Y152.185 E56.78484
G0 F6000 X109.803 Y151.664
G1 F1200 X98.415 Y140.275 E57.32052
G0 F6000 X98.504 Y139.799
G1 F1200 X109.848 Y151.143 E57.85411
G0 F6000 X109.892 Y150.622
G1 F1200 X98.594 Y139.323 E58.38556
G0 F6000 X98.683 Y138.847
G1 F1200 X109.936 Y150.1 E58.91486
G0 F6000 X109.981 Y149.579
G1 F1200 X98.773 Y138.371 E59.44205
G0 F6000 X98.862 Y137.895
G1 F1200 X110.025 Y149.058 E59.96713
G0 F6000 X110.07 Y148.536
G1 F1200 X98.952 Y137.419 E60.49006
G0 F6000 X99.042 Y136.943
G1 F1200 X110.114 Y148.015 E61.01085
G0 F6000 X110.158 Y147.493
G1 F1200 X99.131 Y136.466 E61.52953
G0 F6000 X99.221 Y135.99
G1 F1200 X110.203 Y146.972 E62.04609
G0 F6000 X110.247 Y146.451
G1 F1200 X99.31 Y135.514 E62.56053
G0 F6000 X99.4 Y135.038
G1 F1200 X110.292 Y145.93 E63.07286
G0 F6000 X110.336 Y145.409
G1 F1200 X99.489 Y134.562 E63.58307
G0 F6000 X99.579 Y134.085
G1 F1200 X110.381 Y144.888 E64.09118
G0 F6000 X110.425 Y144.366
G1 F1200 X99.668 Y133.609 E64.59716
G0 F6000 X99.757 Y133.133
G1 F1200 X110.469 Y143.845 E65.10102
G0 F6000 X110.514 Y143.324
G1 F1200 X99.847 Y132.657 E65.60276
G0 F6000 X99.937 Y132.181
G1 F1200 X110.558 Y142.803 E66.10237
G0 F6000 X110.603 Y142.281
G1 F1200 X100.026 Y131.705 E66.59985
G0 F6000 X100.116 Y131.229
G1 F1200 X110.647 Y141.76 E67.0952
G0 F6000 X110.691 Y141.238
G1 F1200 X100.205 Y130.752 E67.58843
G0 F6000 X100.362 Y130.343
G1 F1200 X110.736 Y140.717 E68.07639
G0 F6000 X110.781 Y140.196
G1 F1200 X100.526 Y129.942 E68.55873
G0 F6000 X100.69 Y129.54
G1 F1200 X110.825 Y139.675 E69.03545
G0 F6000 X110.87 Y139.154
G1 F1200 X100.854 Y129.138 E69.50657
G0 F6000 X101.018 Y128.737
G1 F1200 X110.913 Y138.632 E69.972
G0 F6000 X110.958 Y138.111
G1 F1200 X101.182 Y128.335 E70.43183
G0 F6000 X101.346 Y127.934
G1 F1200 X111.003 Y137.59 E70.88605
G0 F6000 X111.047 Y137.069
G1 F1200 X101.51 Y127.532 E71.33464
G0 F6000 X101.674 Y127.13
G1 F1200 X111.092 Y136.547 E71.77761
G0 F6000 X111.135 Y136.026
G1 F1200 X101.838 Y126.729 E72.21491
G0 F6000 X102.002 Y126.327
G1 F1200 X111.18 Y135.504 E72.64659
G0 F6000 X111.225 Y134.983
G1 F1200 X102.167 Y125.925 E73.07265
G0 F6000 X102.331 Y125.524
G1 F1200 X111.269 Y134.462 E73.49307
G0 F6000 X111.314 Y133.941
G1 F1200 X102.495 Y125.122 E73.90789
G0 F6000 X102.659 Y124.72
G1 F1200 X111.358 Y133.42 E74.31708
G0 F6000 X111.402 Y132.898
G1 F1200 X102.823 Y124.319 E74.72061
G0 F6000 X102.987 Y123.917
G1 F1200 X111.447 Y132.377 E75.11855
G0 F6000 X111.491 Y131.856
G1 F1200 X103.151 Y123.515 E75.51086
G0 F6000 X103.315 Y123.114
G1 F1200 X111.536 Y131.335 E75.89755
G0 F6000 X111.58 Y130.814
G1 F1200 X103.479 Y122.712 E76.27862
G0 F6000 X103.643 Y122.311
G1 F1200 X111.624 Y130.292 E76.65402
G0 F6000 X111.732 Y129.834
G1 F1200 X103.807 Y121.909 E77.02679
G0 F6000 X103.971 Y121.507
G1 F1200 X111.866 Y129.402 E77.39814
G0 F6000 X111.999 Y128.969
G1 F1200 X104.135 Y121.106 E77.76802
G0 F6000 X104.299 Y120.704
G1 F1200 X112.132 Y128.537 E78.13646
G0 F6000 X112.266 Y128.105
G1 F1200 X104.463 Y120.302 E78.50349
G0 F6000 X104.627 Y119.901
G1 F1200 X112.399 Y127.673 E78.86906
G0 F6000 X112.533 Y127.241
G1 F1200 X104.791 Y119.499 E79.23322
G0 F6000 X104.955 Y119.097
G1 F1200 X112.666 Y126.808 E79.59592
G0 F6000 X112.799 Y126.376
G1 F1200 X105.119 Y118.696 E79.95717
G0 F6000 X105.283 Y118.294
G1 F1200 X112.933 Y125.944 E80.317
G0 F6000 X113.066 Y125.511
G1 F1200 X105.448 Y117.893 E80.67533
G0 F6000 X105.612 Y117.491
G1 F1200 X113.2 Y125.079 E81.03224
G0 F6000 X113.333 Y124.647
G1 F1200 X105.776 Y117.089 E81.38772
G0 F6000 X105.94 Y116.688
G1 F1200 X113.466 Y124.214 E81.74172
G0 F6000 X113.6 Y123.782
G1 F1200 X106.104 Y116.286 E82.09431
G0 F6000 X106.268 Y115.884
G1 F1200 X113.733 Y123.35 E82.44547
G0 F6000 X113.866 Y122.917
G1 F1200 X106.432 Y115.483 E82.79514
G0 F6000 X106.596 Y115.081
G1 F1200 X114 Y122.485 E83.1434
G0 F6000 X114.134 Y122.053
G1 F1200 X106.76 Y114.679 E83.49025
G0 F6000 X106.923 Y114.277
G1 F1200 X114.267 Y121.62 E83.83567
G0 F6000 X114.4 Y121.188
G1 F1200 X107.087 Y113.876 E84.17962
G0 F6000 X107.251 Y113.474
G1 F1200 X114.534 Y120.756 E84.52217
G0 F6000 X114.667 Y120.324
G1 F1200 X107.415 Y113.072 E84.86328
G0 F6000 X107.579 Y112.671
G1 F1200 X114.8 Y119.892 E85.20294
G0 F6000 X114.933 Y119.459
G1 F1200 X107.743 Y112.269 E85.54113
G0 F6000 X107.908 Y111.867
G1 F1200 X115.067 Y119.027 E85.87789
G0 F6000 X115.201 Y118.595
G1 F1200 X108.072 Y111.466 E86.21322
G0 F6000 X108.236 Y111.064
G1 F1200 X115.334 Y118.162 E86.54709
G0 F6000 X115.467 Y117.73
G1 F1200 X108.4 Y110.662 E86.87952
