; generated by Slic3r 1.3.0 on 2020-12-12 at 04:21:48

; external perimeters extrusion width = 0.44mm (2.38mm^3/s)
; perimeters extrusion width = 0.56mm (6.20mm^3/s)
; infill extrusion width = 0.50mm (7.31mm^3/s)
; solid infill extrusion width = 0.56mm (2.07mm^3/s)
; top infill extrusion width = 0.56mm (1.55mm^3/s)
; support material extrusion width = 0.44mm (4.76mm^3/s)

M107
M140 S65
M104 S150 T0
G28 ; home all axes
G29; ABL
G1 X0 Y0 Z5 F{Z_TRAVEL_SPEED}
M107 ; Turn off fan
G90 ; Absolute positioning
G1 X0 Y0 F2400 ; move to the X=0 Y=0 position on the bed at a speed of 2400 mm/min
M190 S65  ; Wait for bed to reach temperature
M109 S205 T0 ; Wait for all used extruders to reach temperature
G92 E0 ; Reset extruder position
G1 X5 Y15 Z0.25 F1000.0 ; go intro start pos
G1 X60.0 E9.0 F600.0 ; intro line to prime extruder
G1 X100.0 E16 F800.0 ; intro line
G92 E0.0 ; reset extruder distance position
; Filament gcode

G21 ; set units to millimeters
G90 ; use absolute coordinates
M82 ; use absolute distances for extrusion
G92 E0
G1 Z0.200 F7800.000
G1 E-2.00000 F2400.00000
G92 E0
G1 X96.765 Y96.628 F7800.000
G1 E2.00000 F2400.00000
G1 F1800
G1 X97.547 Y95.900 E2.03171
G1 X97.905 Y95.591 E2.04575
G1 X98.672 Y94.977 E2.07492
G1 X99.703 Y94.253 E2.11232
G1 X100.775 Y93.602 E2.14957
G1 X101.668 Y93.133 E2.17951
G1 X103.046 Y92.517 E2.22435
G1 X104.234 Y92.089 E2.26183
G1 X105.156 Y91.821 E2.29035
G1 X105.615 Y91.705 E2.30439
G1 X106.676 Y91.480 E2.33659
G1 X108.066 Y91.286 E2.37828
G1 X109.177 Y91.202 E2.41136
G1 X110.079 Y91.186 E2.43814
G1 X110.552 Y91.194 E2.45218
G1 X111.700 Y91.261 E2.48632
G1 X112.944 Y91.415 E2.52355
G1 X113.787 Y91.570 E2.54899
G1 X114.249 Y91.671 E2.56302
G1 X115.401 Y91.976 E2.59842
G1 X116.595 Y92.377 E2.63581
G1 X117.346 Y92.678 E2.65983
G1 X117.779 Y92.868 E2.67387
G1 X118.889 Y93.416 E2.71064
G1 X119.966 Y94.040 E2.74761
G1 X120.627 Y94.471 E2.77102
G1 X121.616 Y95.198 E2.80747
G1 X121.985 Y95.494 E2.82150
G1 X122.605 Y96.029 E2.84582
G1 X123.468 Y96.859 E2.88136
G1 X124.360 Y97.838 E2.92070
G1 X125.083 Y98.750 E2.95526
G1 X125.361 Y99.132 E2.96929
G1 X125.855 Y99.863 E2.99547
G1 X126.495 Y100.941 E3.03271
G1 X127.005 Y101.943 E3.06610
G1 X127.202 Y102.373 E3.08013
G1 X127.559 Y103.229 E3.10766
G1 X127.920 Y104.256 E3.14000
G1 X128.306 Y105.631 E3.18239
G1 X128.556 Y106.862 E3.21969
G1 X128.700 Y107.901 E3.25084
G1 X128.747 Y108.372 E3.26488
G1 X128.814 Y109.614 E3.30182
G1 X128.809 Y110.631 E3.33202
G1 X128.747 Y111.628 E3.36169
G1 X128.556 Y113.138 E3.40686
G1 X128.307 Y114.366 E3.44406
G1 X128.058 Y115.292 E3.47253
G1 X127.920 Y115.744 E3.48656
G1 X127.559 Y116.772 E3.51891
G1 X127.066 Y117.931 E3.55632
G1 X126.661 Y118.747 E3.58338
G1 X126.436 Y119.163 E3.59741
G1 X125.853 Y120.140 E3.63119
G1 X125.141 Y121.176 E3.66851
G1 X124.609 Y121.859 E3.69422
G1 X124.307 Y122.223 E3.70825
G1 X123.513 Y123.097 E3.74332
G1 X122.607 Y123.970 E3.78069
G1 X121.985 Y124.506 E3.80506
G1 X121.616 Y124.802 E3.81910
G1 X120.627 Y125.529 E3.85555
G1 X119.966 Y125.960 E3.87896
G1 X118.889 Y126.584 E3.91592
G1 X117.779 Y127.132 E3.95270
G1 X117.346 Y127.322 E3.96673
G1 X116.594 Y127.623 E3.99079
G1 X115.451 Y128.008 E4.02659
G1 X114.183 Y128.345 E4.06555
G1 X113.028 Y128.570 E4.10049
G1 X112.560 Y128.640 E4.11452
G1 X111.693 Y128.740 E4.14043
G1 X110.438 Y128.811 E4.17775
G1 X109.308 Y128.802 E4.21133
G1 X108.835 Y128.778 E4.22537
G1 X107.923 Y128.701 E4.25257
G1 X106.675 Y128.520 E4.28999
G1 X105.615 Y128.295 E4.32218
G1 X105.156 Y128.179 E4.33621
G1 X104.231 Y127.910 E4.36483
G1 X103.047 Y127.484 E4.40218
G1 X101.668 Y126.867 E4.44705
G1 X100.776 Y126.399 E4.47696
G1 X99.703 Y125.747 E4.51424
G1 X98.674 Y125.024 E4.55156
G1 X97.905 Y124.409 E4.58082
G1 X97.547 Y124.100 E4.59485
G1 X96.769 Y123.376 E4.62642
G1 X95.902 Y122.458 E4.66390
G1 X95.302 Y121.741 E4.69167
G1 X95.011 Y121.368 E4.70570
G1 X94.366 Y120.466 E4.73864
G1 X93.701 Y119.395 E4.77606
G1 X93.276 Y118.612 E4.80251
G1 X93.065 Y118.189 E4.81655
G1 X92.593 Y117.135 E4.85084
G1 X92.155 Y115.955 E4.88821
G1 X91.906 Y115.145 E4.91336
G1 X91.783 Y114.689 E4.92739
G1 X91.520 Y113.517 E4.96306
G1 X91.323 Y112.245 E5.00128
G1 X91.216 Y111.016 E5.03791
G1 X91.190 Y110.234 E5.06114
G1 X91.190 Y109.766 E5.07503
G1 X91.247 Y108.523 E5.11197
G1 X91.326 Y107.725 E5.13578
G1 X91.519 Y106.484 E5.17308
G1 X91.783 Y105.311 E5.20878
G1 X91.906 Y104.854 E5.22281
G1 X92.154 Y104.047 E5.24790
G1 X92.592 Y102.866 E5.28529
G1 X93.065 Y101.811 E5.31963
G1 X93.276 Y101.388 E5.33366
G1 X93.700 Y100.605 E5.36010
G1 X94.365 Y99.536 E5.39748
G1 X95.011 Y98.632 E5.43047
G1 X95.302 Y98.259 E5.44450
G1 X95.903 Y97.540 E5.47234
G1 X96.723 Y96.671 E5.50783
G1 X97.018 Y96.880 F7800.000
G1 F1800
G1 X98.129 Y95.869 E5.55243
G1 X98.888 Y95.262 E5.58129
G1 X99.898 Y94.551 E5.61797
G1 X100.950 Y93.913 E5.65449
G1 X101.832 Y93.450 E5.68409
G1 X103.177 Y92.849 E5.72783
G1 X104.342 Y92.430 E5.76458
G1 X105.256 Y92.164 E5.79283
G1 X106.736 Y91.832 E5.83789
G1 X107.959 Y91.654 E5.87457
G1 X108.865 Y91.578 E5.90157
G1 X109.313 Y91.555 E5.91490
G1 X110.425 Y91.546 E5.94790
G1 X111.658 Y91.615 E5.98458
G1 X112.519 Y91.715 E6.01031
G1 X112.963 Y91.781 E6.02364
G1 X114.098 Y92.001 E6.05796
G1 X115.341 Y92.331 E6.09613
G1 X116.464 Y92.710 E6.13132
G1 X117.213 Y93.009 E6.15529
G1 X117.625 Y93.190 E6.16862
G1 X118.714 Y93.727 E6.20470
G1 X119.771 Y94.339 E6.24096
G1 X120.431 Y94.770 E6.26436
G1 X121.402 Y95.483 E6.30012
G1 X121.752 Y95.764 E6.31345
G1 X122.371 Y96.298 E6.33771
G1 X123.217 Y97.113 E6.37262
G1 X124.091 Y98.073 E6.41114
G1 X124.802 Y98.969 E6.44511
G1 X125.066 Y99.332 E6.45844
G1 X125.556 Y100.058 E6.48446
G1 X126.184 Y101.116 E6.52098
G1 X126.686 Y102.103 E6.55385
G1 X126.873 Y102.511 E6.56718
G1 X127.227 Y103.360 E6.59448
G1 X127.582 Y104.372 E6.62634
G1 X127.959 Y105.716 E6.66777
G1 X128.205 Y106.923 E6.70434
G1 X128.346 Y107.948 E6.73509
G1 X128.391 Y108.395 E6.74842
G1 X128.457 Y109.614 E6.78466
G1 X128.453 Y110.619 E6.81449
G1 X128.391 Y111.605 E6.84383
G1 X128.205 Y113.077 E6.88789
G1 X127.960 Y114.281 E6.92437
G1 X127.714 Y115.198 E6.95256
G1 X127.227 Y116.641 E6.99777
G1 X126.744 Y117.778 E7.03445
G1 X126.341 Y118.588 E7.06130
G1 X126.127 Y118.983 E7.07463
G1 X125.555 Y119.944 E7.10786
G1 X124.856 Y120.960 E7.14447
G1 X124.328 Y121.640 E7.17004
G1 X124.040 Y121.985 E7.18338
G1 X123.260 Y122.844 E7.21782
G1 X122.336 Y123.732 E7.25587
G1 X121.429 Y124.497 E7.29110
G1 X120.785 Y124.981 E7.31503
G1 X120.417 Y125.239 E7.32836
G1 X119.392 Y125.891 E7.36445
G1 X118.321 Y126.477 E7.40070
G1 X117.605 Y126.820 E7.42427
G1 X116.497 Y127.277 E7.45986
G1 X116.075 Y127.430 E7.47319
G1 X115.294 Y127.684 E7.49756
G1 X114.098 Y127.999 E7.53427
G1 X112.963 Y128.219 E7.56860
G1 X112.519 Y128.285 E7.58193
G1 X111.657 Y128.385 E7.60770
G1 X110.426 Y128.454 E7.64430
G1 X109.313 Y128.445 E7.67734
G1 X108.865 Y128.422 E7.69067
G1 X107.959 Y128.346 E7.71766
G1 X106.736 Y128.168 E7.75436
G1 X105.256 Y127.836 E7.79941
G1 X104.339 Y127.569 E7.82775
G1 X103.178 Y127.152 E7.86438
G1 X101.832 Y126.550 E7.90815
G1 X100.951 Y126.088 E7.93771
G1 X99.898 Y125.449 E7.97427
G1 X98.890 Y124.740 E8.01086
G1 X98.129 Y124.131 E8.03981
G1 X97.021 Y123.123 E8.08426
G1 X96.171 Y122.224 E8.12101
G1 X95.576 Y121.512 E8.14855
G1 X95.300 Y121.158 E8.16188
G1 X94.665 Y120.270 E8.19431
G1 X94.012 Y119.220 E8.23101
G1 X93.590 Y118.442 E8.25729
G1 X93.389 Y118.040 E8.27062
G1 X92.925 Y117.004 E8.30434
G1 X92.495 Y115.847 E8.34099
G1 X92.247 Y115.041 E8.36603
G1 X92.130 Y114.607 E8.37937
G1 X91.872 Y113.456 E8.41439
G1 X91.679 Y112.209 E8.45186
G1 X91.573 Y111.004 E8.48779
G1 X91.547 Y110.222 E8.51101
G1 X91.573 Y109.007 E8.54711
G1 X91.602 Y108.559 E8.56044
G1 X91.681 Y107.762 E8.58421
G1 X91.871 Y106.545 E8.62079
G1 X92.130 Y105.393 E8.65585
G1 X92.247 Y104.959 E8.66918
G1 X92.494 Y104.155 E8.69416
G1 X92.924 Y102.997 E8.73083
G1 X93.389 Y101.960 E8.76459
G1 X93.590 Y101.558 E8.77792
G1 X94.012 Y100.780 E8.80419
G1 X94.664 Y99.732 E8.84085
G1 X95.300 Y98.842 E8.87333
G1 X95.576 Y98.488 E8.88666
G1 X96.172 Y97.775 E8.91426
G1 X96.976 Y96.923 E8.94902
G1 X97.270 Y97.133 F7800.000
G1 F1800
G1 X98.353 Y96.147 E8.99248
G1 X99.104 Y95.547 E9.02104
G1 X100.094 Y94.850 E9.05699
G1 X101.125 Y94.224 E9.09279
G1 X101.997 Y93.766 E9.12204
G1 X103.308 Y93.181 E9.16468
G1 X104.450 Y92.770 E9.20070
G1 X105.355 Y92.507 E9.22868
G1 X106.797 Y92.184 E9.27257
G1 X107.996 Y92.009 E9.30853
G1 X108.894 Y91.934 E9.33531
G1 X110.413 Y91.903 E9.38040
G1 X111.622 Y91.971 E9.41635
G1 X112.478 Y92.070 E9.44194
G1 X112.899 Y92.133 E9.45458
G1 X114.013 Y92.348 E9.48829
G1 X115.230 Y92.671 E9.52566
G1 X116.333 Y93.042 E9.56020
G1 X117.081 Y93.341 E9.58412
G1 X117.470 Y93.512 E9.59675
G1 X118.539 Y94.039 E9.63213
G1 X119.576 Y94.638 E9.66769
G1 X120.235 Y95.069 E9.69107
G1 X121.187 Y95.768 E9.72615
G1 X121.519 Y96.035 E9.73878
G1 X122.136 Y96.567 E9.76298
G1 X122.967 Y97.368 E9.79724
G1 X123.822 Y98.307 E9.83495
G1 X124.520 Y99.188 E9.86833
G1 X124.770 Y99.532 E9.88096
G1 X125.258 Y100.254 E9.90683
G1 X125.873 Y101.291 E9.94263
G1 X126.544 Y102.649 E9.98759
G1 X126.895 Y103.491 E10.01467
G1 X127.244 Y104.488 E10.04606
G1 X127.612 Y105.800 E10.08651
G1 X127.853 Y106.983 E10.12236
G1 X127.992 Y107.995 E10.15269
G1 X128.034 Y108.419 E10.16533
G1 X128.100 Y109.614 E10.20087
G1 X128.096 Y110.606 E10.23033
G1 X128.034 Y111.581 E10.25933
G1 X127.853 Y113.017 E10.30229
G1 X127.613 Y114.197 E10.33805
G1 X127.369 Y115.105 E10.36597
G1 X126.895 Y116.510 E10.40999
G1 X126.421 Y117.625 E10.44595
G1 X126.022 Y118.428 E10.47260
G1 X125.256 Y119.748 E10.51791
G1 X124.572 Y120.744 E10.55379
G1 X124.046 Y121.421 E10.57923
G1 X123.773 Y121.748 E10.59186
G1 X123.008 Y122.592 E10.62570
G1 X122.103 Y123.461 E10.66295
G1 X121.213 Y124.212 E10.69753
G1 X120.570 Y124.696 E10.72141
G1 X120.222 Y124.940 E10.73404
G1 X119.217 Y125.580 E10.76944
G1 X118.167 Y126.155 E10.80498
G1 X117.451 Y126.497 E10.82853
G1 X116.364 Y126.946 E10.86344
G1 X115.964 Y127.091 E10.87607
G1 X115.186 Y127.344 E10.90038
G1 X114.014 Y127.652 E10.93635
G1 X112.899 Y127.867 E10.97008
G1 X112.478 Y127.930 E10.98271
G1 X111.621 Y128.030 E11.00833
G1 X110.414 Y128.097 E11.04421
G1 X108.894 Y128.066 E11.08934
G1 X107.996 Y127.991 E11.11612
G1 X106.797 Y127.816 E11.15209
G1 X105.355 Y127.493 E11.19597
G1 X104.447 Y127.229 E11.22403
G1 X103.309 Y126.820 E11.25994
G1 X101.997 Y126.234 E11.30261
G1 X101.126 Y125.776 E11.33183
G1 X100.094 Y125.150 E11.36766
G1 X99.106 Y124.455 E11.40353
G1 X98.353 Y123.853 E11.43217
G1 X97.274 Y122.871 E11.47548
G1 X96.440 Y121.989 E11.51151
G1 X95.850 Y121.284 E11.53880
G1 X94.963 Y120.074 E11.58335
G1 X94.323 Y119.045 E11.61932
G1 X93.904 Y118.272 E11.64544
G1 X93.714 Y117.892 E11.65807
G1 X93.257 Y116.873 E11.69121
G1 X92.835 Y115.739 E11.72714
G1 X92.589 Y114.936 E11.75207
G1 X92.478 Y114.525 E11.76471
G1 X92.223 Y113.396 E11.79909
G1 X92.034 Y112.174 E11.83579
G1 X91.930 Y110.992 E11.87104
G1 X91.904 Y110.210 E11.89425
G1 X91.929 Y109.018 E11.92965
G1 X91.957 Y108.594 E11.94228
G1 X92.037 Y107.799 E11.96601
G1 X92.223 Y106.605 E12.00187
G1 X92.478 Y105.475 E12.03628
G1 X92.589 Y105.064 E12.04891
G1 X92.835 Y104.263 E12.07379
G1 X93.257 Y103.128 E12.10974
G1 X93.714 Y102.108 E12.14292
G1 X93.904 Y101.728 E12.15555
G1 X94.323 Y100.955 E12.18165
G1 X94.962 Y99.927 E12.21759
G1 X95.850 Y98.716 E12.26218
G1 X96.441 Y98.009 E12.28954
G1 X97.228 Y97.176 E12.32357
G1 E10.32357 F2400.00000
G92 E0
G1 X114.827 Y114.600 F7800.000
G1 E2.00000 F2400.00000
G1 F1800
G1 X114.368 Y115.037 E2.01883
G1 X113.869 Y115.429 E2.03767
G1 X113.336 Y115.772 E2.05650
G1 X112.772 Y116.063 E2.07533
G1 X112.183 Y116.299 E2.09416
G1 X111.575 Y116.477 E2.11300
G1 X110.952 Y116.597 E2.13183
G1 X110.320 Y116.658 E2.15066
G1 X109.686 Y116.658 E2.16949
G1 X109.055 Y116.597 E2.18833
G1 X108.432 Y116.477 E2.20716
G1 X107.823 Y116.299 E2.22599
G1 X107.234 Y116.063 E2.24483
G1 X106.671 Y115.772 E2.26366
G1 X106.137 Y115.429 E2.28249
G1 X105.638 Y115.037 E2.30132
G1 X105.179 Y114.600 E2.32016
G1 X104.764 Y114.120 E2.33899
G1 X104.396 Y113.603 E2.35782
G1 X104.079 Y113.054 E2.37666
G1 X103.815 Y112.477 E2.39549
G1 X103.608 Y111.878 E2.41432
G1 X103.458 Y111.261 E2.43315
G1 X103.368 Y110.634 E2.45199
G1 X103.338 Y110.000 E2.47082
G1 X103.368 Y109.366 E2.48965
G1 X103.458 Y108.739 E2.50848
G1 X103.608 Y108.122 E2.52732
G1 X103.815 Y107.523 E2.54615
G1 X104.079 Y106.946 E2.56498
G1 X104.396 Y106.397 E2.58382
G1 X104.764 Y105.880 E2.60265
G1 X105.169 Y105.412 E2.62103
G1 X105.638 Y104.963 E2.64028
G1 X106.137 Y104.571 E2.65914
G1 X106.671 Y104.228 E2.67798
G1 X107.234 Y103.937 E2.69681
G1 X107.823 Y103.701 E2.71564
G1 X108.432 Y103.523 E2.73448
G1 X109.055 Y103.403 E2.75331
G1 X109.686 Y103.342 E2.77214
G1 X110.320 Y103.342 E2.79097
G1 X110.952 Y103.403 E2.80981
G1 X111.575 Y103.523 E2.82864
G1 X112.183 Y103.701 E2.84747
G1 X112.772 Y103.937 E2.86630
G1 X113.336 Y104.228 E2.88514
G1 X113.869 Y104.571 E2.90397
G1 X114.368 Y104.963 E2.92280
G1 X114.827 Y105.400 E2.94164
G1 X115.242 Y105.880 E2.96047
G1 X115.610 Y106.397 E2.97930
G1 X115.927 Y106.946 E2.99813
G1 X116.191 Y107.523 E3.01697
G1 X116.398 Y108.122 E3.03580
G1 X116.548 Y108.739 E3.05463
G1 X116.638 Y109.366 E3.07347
G1 X116.668 Y110.000 E3.09230
G1 X116.638 Y110.634 E3.11113
G1 X116.548 Y111.261 E3.12996
G1 X116.398 Y111.878 E3.14880
G1 X116.191 Y112.477 E3.16763
G1 X115.927 Y113.054 E3.18646
G1 X115.610 Y113.603 E3.20529
G1 X115.242 Y114.120 E3.22413
G1 X114.866 Y114.554 E3.24118
G1 X114.568 Y114.353 F7800.000
G1 F1800
G1 X114.134 Y114.767 E3.25900
G1 X113.662 Y115.138 E3.27682
G1 X113.157 Y115.463 E3.29465
G1 X112.624 Y115.738 E3.31247
G1 X112.066 Y115.961 E3.33029
G1 X111.490 Y116.130 E3.34811
G1 X110.901 Y116.244 E3.36594
G1 X110.303 Y116.301 E3.38376
G1 X109.703 Y116.301 E3.40158
G1 X109.106 Y116.244 E3.41941
G1 X108.516 Y116.130 E3.43723
G1 X107.940 Y115.961 E3.45505
G1 X107.383 Y115.738 E3.47287
G1 X106.849 Y115.463 E3.49070
G1 X106.344 Y115.138 E3.50852
G1 X105.873 Y114.767 E3.52634
G1 X105.438 Y114.353 E3.54416
G1 X105.045 Y113.899 E3.56199
G1 X104.697 Y113.410 E3.57981
G1 X104.397 Y112.890 E3.59763
G1 X104.147 Y112.344 E3.61545
G1 X103.951 Y111.777 E3.63328
G1 X103.809 Y111.194 E3.65110
G1 X103.724 Y110.600 E3.66892
G1 X103.696 Y110.000 E3.68675
G1 X103.724 Y109.400 E3.70457
G1 X103.809 Y108.806 E3.72239
G1 X103.951 Y108.223 E3.74021
G1 X104.147 Y107.656 E3.75804
G1 X104.397 Y107.110 E3.77586
G1 X104.697 Y106.590 E3.79368
G1 X105.045 Y106.101 E3.81150
G1 X105.428 Y105.658 E3.82889
G1 X105.872 Y105.233 E3.84713
G1 X106.344 Y104.862 E3.86497
G1 X106.849 Y104.537 E3.88279
G1 X107.383 Y104.262 E3.90062
G1 X107.940 Y104.039 E3.91844
G1 X108.516 Y103.870 E3.93626
G1 X109.106 Y103.756 E3.95408
G1 X109.703 Y103.699 E3.97191
G1 X110.303 Y103.699 E3.98973
G1 X110.901 Y103.756 E4.00755
G1 X111.490 Y103.870 E4.02537
G1 X112.066 Y104.039 E4.04320
G1 X112.624 Y104.262 E4.06102
G1 X113.157 Y104.537 E4.07884
G1 X113.662 Y104.862 E4.09667
G1 X114.134 Y105.233 E4.11449
G1 X114.568 Y105.647 E4.13231
G1 X114.961 Y106.101 E4.15013
G1 X115.310 Y106.590 E4.16796
G1 X115.610 Y107.110 E4.18578
G1 X115.859 Y107.656 E4.20360
G1 X116.055 Y108.223 E4.22142
G1 X116.197 Y108.806 E4.23925
G1 X116.282 Y109.400 E4.25707
G1 X116.311 Y110.000 E4.27489
G1 X116.282 Y110.600 E4.29271
G1 X116.197 Y111.194 E4.31054
G1 X116.055 Y111.777 E4.32836
G1 X115.859 Y112.344 E4.34618
G1 X115.610 Y112.890 E4.36401
G1 X115.310 Y113.410 E4.38183
G1 X114.961 Y113.899 E4.39965
G1 X114.608 Y114.307 E4.41569
G1 X114.310 Y114.106 F7800.000
G1 F1800
G1 X113.900 Y114.497 E4.43250
G1 X113.455 Y114.847 E4.44932
G1 X112.978 Y115.153 E4.46613
G1 X112.475 Y115.413 E4.48294
G1 X111.949 Y115.623 E4.49975
G1 X111.406 Y115.783 E4.51657
G1 X110.850 Y115.890 E4.53338
G1 X110.286 Y115.943 E4.55019
G1 X109.720 Y115.943 E4.56701
G1 X109.156 Y115.890 E4.58382
G1 X108.600 Y115.782 E4.60063
G1 X108.057 Y115.623 E4.61744
G1 X107.531 Y115.413 E4.63426
G1 X107.028 Y115.153 E4.65107
G1 X106.552 Y114.847 E4.66788
