;FLAVOR:Marlin
;TIME:2385
;Filament used: 1.4654m
;Layer height: 0.2
;MINX:107.7
;MINY:107.7
;MINZ:0.2
;MAXX:127.3
;MAXY:127.3
;MAXZ:20
;Generated with Cura_SteamEngine master
M82 ;absolute extrusion mode
; Ender 3 Custom Start G-code
M140 S80 ; Set Heat Bed temperature
M190 S80 ; Wait for Heat Bed temperature
M104 S160; start warming extruder to 160
G28 ; Home all axes
G29 ; Auto bed-level (BL-Touch)
G92 E0 ; Reset Extruder
M104 S270 ; Set Extruder temperature
G1 X0 Y0 Z0.3 F5000.0 ; Move to 0 0
M109 S270 ; Wait for Extruder temperature
G1 X1 Y20 Z0.3 F5000.0 ; Move to start position
; G1 Z2.0 F3000 ; Move Z Axis up little to prevent scratching of Heat Bed
G1 X1 Y200.0 Z0.3 F1500.0 E15 ; Draw the first line
G1 X1.3 Y200.0 Z0.3 F5000.0 ; Move to side a little
G1 X1.3 Y20 Z0.3 F1500.0 E30 ; Draw the second line
G92 E0 ; Reset Extruder
G1 Z2.0 F3000 ; Move Z Axis up little to prevent scratching of Heat Bed
G92 E0
G92 E0
G1 F2700 E-5
;LAYER_COUNT:100
;LAYER:0
M107
;MESH:xyzCalibration_cube.stl
G0 F6000 X126.9 Y126.9 Z0.2
;TYPE:WALL-INNER
G1 F2700 E0
G1 F1200 X108.1 Y126.9 E0.68782
G1 X108.1 Y108.1 E1.37564
G1 X126.9 Y108.1 E2.06346
G1 X126.9 Y126.9 E2.75128
G0 F6000 X127.3 Y127.3
;TYPE:WALL-OUTER
G1 F1200 X107.7 Y127.3 E3.46837
G1 X107.7 Y107.7 E4.18546
G1 X127.3 Y107.7 E4.90254
G1 X127.3 Y127.3 E5.61963
G0 F6000 X126.83 Y126.83
G0 X126.51 Y126.51
;TYPE:SKIN
G1 F1200 X108.49 Y126.51 E6.27891
G1 X108.49 Y108.49 E6.9382
G1 X126.51 Y108.49 E7.59748
G1 X126.51 Y126.51 E8.25676
G0 F6000 X126.349 Y108.813
G1 F1200 X126.186 Y108.65 E8.2652
G0 F6000 X125.621 Y108.65
G1 F1200 X126.349 Y109.378 E8.30286
G0 F6000 X126.349 Y109.944
G1 F1200 X125.055 Y108.65 E8.36982
G0 F6000 X124.489 Y108.65
G1 F1200 X126.349 Y110.51 E8.46605
G0 F6000 X126.349 Y111.075
G1 F1200 X123.923 Y108.65 E8.59155
G0 F6000 X123.358 Y108.65
G1 F1200 X126.349 Y111.641 E8.74631
G0 F6000 X126.349 Y112.207
G1 F1200 X122.792 Y108.65 E8.93035
G0 F6000 X122.226 Y108.65
G1 F1200 X126.349 Y112.772 E9.14365
G0 F6000 X126.349 Y113.338
G1 F1200 X121.661 Y108.65 E9.38621
G0 F6000 X121.095 Y108.65
G1 F1200 X126.349 Y113.904 E9.65805
G0 F6000 X126.349 Y114.469
G1 F1200 X120.529 Y108.65 E9.95916
G0 F6000 X119.964 Y108.65
G1 F1200 X126.349 Y115.035 E10.28952
G0 F6000 X126.349 Y115.601
G1 F1200 X119.398 Y108.65 E10.64917
G0 F6000 X118.832 Y108.65
G1 F1200 X126.349 Y116.167 E11.03811
G0 F6000 X126.349 Y116.732
G1 F1200 X118.267 Y108.65 E11.45627
G0 F6000 X117.701 Y108.65
G1 F1200 X126.349 Y117.298 E11.90373
G0 F6000 X126.349 Y117.864
G1 F1200 X117.135 Y108.65 E12.38046
G0 F6000 X116.57 Y108.65
G1 F1200 X126.349 Y118.429 E12.88644
G0 F6000 X126.349 Y118.995
G1 F1200 X116.004 Y108.65 E13.42169
G0 F6000 X115.438 Y108.65
G1 F1200 X126.349 Y119.561 E13.98623
G0 F6000 X126.349 Y120.126
G1 F1200 X114.873 Y108.65 E14.58001
G0 F6000 X114.307 Y108.65
G1 F1200 X126.349 Y120.692 E15.20307
G0 F6000 X126.349 Y121.258
G1 F1200 X113.741 Y108.65 E15.85542
G0 F6000 X113.175 Y108.65
G1 F1200 X126.349 Y121.823 E16.53702
G0 F6000 X126.349 Y122.389
G1 F1200 X112.61 Y108.65 E17.24789
G0 F6000 X112.044 Y108.65
G1 F1200 X126.349 Y122.955 E17.98804
G0 F6000 X126.349 Y123.52
G1 F1200 X111.478 Y108.65 E18.75744
G0 F6000 X110.913 Y108.65
G1 F1200 X126.349 Y124.086 E19.55611
G0 F6000 X126.349 Y124.652
G1 F1200 X110.347 Y108.65 E20.38407
G0 F6000 X109.781 Y108.65
G1 F1200 X126.349 Y125.218 E21.24131
G0 F6000 X126.349 Y125.783
G1 F1200 X109.216 Y108.65 E22.12778
G0 F6000 X108.649 Y108.649
G1 F1200 X126.349 Y126.349 E23.04359
G0 F6000 X125.783 Y126.349
G1 F1200 X108.649 Y109.215 E23.93011
G0 F6000 X108.649 Y109.781
G1 F1200 X125.218 Y126.349 E24.78738
G0 F6000 X124.652 Y126.349
G1 F1200 X108.649 Y110.346 E25.61538
G0 F6000 X108.649 Y110.912
G1 F1200 X124.086 Y126.349 E26.4141
G0 F6000 X123.52 Y126.349
G1 F1200 X108.649 Y111.478 E27.18354
G0 F6000 X108.649 Y112.043
G1 F1200 X122.955 Y126.349 E27.92374
G0 F6000 X122.389 Y126.349
G1 F1200 X108.649 Y112.609 E28.63465
G0 F6000 X108.649 Y113.175
G1 F1200 X121.823 Y126.349 E29.31628
G0 F6000 X121.258 Y126.349
G1 F1200 X108.649 Y113.74 E29.96868
G0 F6000 X108.649 Y114.306
G1 F1200 X120.692 Y126.349 E30.59179
G0 F6000 X120.126 Y126.349
G1 F1200 X108.649 Y114.872 E31.18562
G0 F6000 X108.649 Y115.438
G1 F1200 X119.561 Y126.349 E31.75019
G0 F6000 X118.995 Y126.349
G1 F1200 X108.649 Y116.003 E32.2855
G0 F6000 X108.649 Y116.569
G1 F1200 X118.429 Y126.349 E32.79152
G0 F6000 X117.864 Y126.349
G1 F1200 X108.649 Y117.135 E33.26828
G0 F6000 X108.649 Y117.7
G1 F1200 X117.298 Y126.349 E33.71579
G0 F6000 X116.732 Y126.349
G1 F1200 X108.649 Y118.266 E34.13401
G0 F6000 X108.649 Y118.832
G1 F1200 X116.167 Y126.349 E34.52297
G0 F6000 X115.601 Y126.349
G1 F1200 X108.649 Y119.397 E34.88267
G0 F6000 X108.649 Y119.963
G1 F1200 X115.035 Y126.349 E35.21309
G0 F6000 X114.469 Y126.349
G1 F1200 X108.649 Y120.529 E35.51422
G0 F6000 X108.649 Y121.094
G1 F1200 X113.904 Y126.349 E35.78611
G0 F6000 X113.338 Y126.349
G1 F1200 X108.649 Y121.66 E36.02872
G0 F6000 X108.649 Y122.226
G1 F1200 X112.772 Y126.349 E36.24205
G0 F6000 X112.207 Y126.349
G1 F1200 X108.649 Y122.791 E36.42614
G0 F6000 X108.649 Y123.357
G1 F1200 X111.641 Y126.349 E36.58095
G0 F6000 X111.075 Y126.349
G1 F1200 X108.649 Y123.923 E36.70648
G0 F6000 X108.649 Y124.488
G1 F1200 X110.51 Y126.349 E36.80276
G0 F6000 X109.944 Y126.349
G1 F1200 X108.649 Y125.054 E36.86977
G0 F6000 X108.649 Y125.62
G1 F1200 X109.378 Y126.349 E36.90749
G0 F6000 X108.813 Y126.349
M104 S270
G1 F1200 X108.649 Y126.186 E36.91595
;MESH:NONMESH
G0 F300 X108.649 Y126.186 Z0.4
G0 F6000 X126.83 Y126.83
G0 X126.9 Y126.9
;TIME_ELAPSED:60.394131
;LAYER:1
;TYPE:WALL-INNER
;MESH:xyzCalibration_cube.stl
G1 F1050 X108.1 Y126.9 E37.60377
G1 X108.1 Y108.1 E38.29159
G1 X126.9 Y108.1 E38.97941
G1 X126.9 Y126.9 E39.66723
G0 F7500 X127.3 Y127.3
;TYPE:WALL-OUTER
G1 F1050 X107.7 Y127.3 E40.38431
G1 X107.7 Y107.7 E41.1014
G1 X127.3 Y107.7 E41.81849
G1 X127.3 Y127.3 E42.53558
G0 F7500 X126.83 Y126.83
G0 X126.51 Y126.51
;TYPE:SKIN
G1 F900 X108.49 Y126.51 E43.19486
G1 X108.49 Y108.49 E43.85414
G1 X126.51 Y108.49 E44.51343
G1 X126.51 Y126.51 E45.17271
G0 F7500 X125.946 Y126.349
G1 F900 X126.349 Y125.946 E45.19356
G0 F7500 X126.349 Y125.38
G1 F900 X125.38 Y126.349 E45.2437
G0 F7500 X124.814 Y126.349
G1 F900 X126.349 Y124.814 E45.32312
G0 F7500 X126.349 Y124.249
G1 F900 X124.249 Y126.349 E45.43177
G0 F7500 X123.683 Y126.349
G1 F900 X126.349 Y123.683 E45.56972
G0 F7500 X126.349 Y123.117
G1 F900 X123.117 Y126.349 E45.73694
G0 F7500 X122.552 Y126.349
G1 F900 X126.349 Y122.552 E45.9334
G0 F7500 X126.349 Y121.986
G1 F900 X121.986 Y126.349 E46.15914
G0 F7500 X121.42 Y126.349
G1 F900 X126.349 Y121.42 E46.41417
G0 F7500 X126.349 Y120.855
G1 F900 X120.855 Y126.349 E46.69844
G0 F7500 X120.289 Y126.349
G1 F900 X126.349 Y120.289 E47.01199
G0 F7500 X126.349 Y119.723
G1 F900 X119.723 Y126.349 E47.35482
G0 F7500 X119.158 Y126.349
G1 F900 X126.349 Y119.158 E47.72689
G0 F7500 X126.349 Y118.592
G1 F900 X118.592 Y126.349 E48.12824
G0 F7500 X118.026 Y126.349
G1 F900 X126.349 Y118.026 E48.55887
G0 F7500 X126.349 Y117.461
G1 F900 X117.461 Y126.349 E49.01875
G0 F7500 X116.895 Y126.349
G1 F900 X126.349 Y116.895 E49.5079
G0 F7500 X126.349 Y116.329
G1 F900 X116.329 Y126.349 E50.02634
G0 F7500 X115.763 Y126.349
G1 F900 X126.349 Y115.763 E50.57407
G0 F7500 X126.349 Y115.198
G1 F900 X115.198 Y126.349 E51.15103
G0 F7500 X114.632 Y126.349
G1 F900 X126.349 Y114.632 E51.75727
G0 F7500 X126.349 Y114.066
G1 F900 X114.066 Y126.349 E52.3928
G0 F7500 X113.501 Y126.349
G1 F900 X126.349 Y113.501 E53.05757
G0 F7500 X126.349 Y112.935
G1 F900 X112.935 Y126.349 E53.75162
G0 F7500 X112.369 Y126.349
G1 F900 X126.349 Y112.369 E54.47495
G0 F7500 X126.349 Y111.804
G1 F900 X111.804 Y126.349 E55.22752
G0 F7500 X111.238 Y126.349
G1 F900 X126.349 Y111.238 E56.00937
G0 F7500 X126.349 Y110.672
G1 F900 X110.672 Y126.349 E56.82051
G0 F7500 X110.107 Y126.349
G1 F900 X126.349 Y110.107 E57.66088
G0 F7500 X126.349 Y109.541
G1 F900 X109.541 Y126.349 E58.53054
G0 F7500 X108.975 Y126.349
G1 F900 X126.349 Y108.975 E59.42948
G0 F7500 X126.109 Y108.649
G1 F900 X108.65 Y126.108 E60.33282
G0 F7500 X108.65 Y125.543
G1 F900 X125.543 Y108.649 E61.2069
G0 F7500 X124.978 Y108.649
G1 F900 X108.65 Y124.977 E62.05172
G0 F7500 X108.65 Y124.411
G1 F900 X124.412 Y108.649 E62.86725
G0 F7500 X123.846 Y108.649
G1 F900 X108.65 Y123.846 E63.65353
G0 F7500 X108.65 Y123.28
G1 F900 X123.281 Y108.649 E64.41055
G0 F7500 X122.715 Y108.649
G1 F900 X108.65 Y122.714 E65.13828
G0 F7500 X108.65 Y122.149
G1 F900 X122.149 Y108.649 E65.83675
G0 F7500 X121.584 Y108.649
G1 F900 X108.65 Y121.583 E66.50597
G0 F7500 X108.65 Y121.017
G1 F900 X121.018 Y108.649 E67.14589
G0 F7500 X120.452 Y108.649
G1 F900 X108.65 Y120.452 E67.75656
G0 F7500 X108.65 Y119.886
G1 F900 X119.887 Y108.649 E68.33797
G0 F7500 X119.321 Y108.649
G1 F900 X108.65 Y119.32 E68.8901
G0 F7500 X108.65 Y118.755
G1 F900 X118.755 Y108.649 E69.41296
G0 F7500 X118.19 Y108.649
G1 F900 X108.65 Y118.189 E69.90657
G0 F7500 X108.65 Y117.623
G1 F900 X117.624 Y108.649 E70.37089
G0 F7500 X117.058 Y108.649
G1 F900 X108.65 Y117.057 E70.80592
G0 F7500 X108.65 Y116.492
G1 F900 X116.493 Y108.649 E71.21172
G0 F7500 X115.927 Y108.649
G1 F900 X108.65 Y115.926 E71.58824
G0 F7500 X108.65 Y115.36
G1 F900 X115.361 Y108.649 E71.93547
G0 F7500 X114.795 Y108.649
G1 F900 X108.65 Y114.795 E72.25344
G0 F7500 X108.65 Y114.229
G1 F900 X114.23 Y108.649 E72.54216
G0 F7500 X113.664 Y108.649
G1 F900 X108.65 Y113.663 E72.80158
G0 F7500 X108.65 Y113.098
G1 F900 X113.098 Y108.649 E73.03175
G0 F7500 X112.533 Y108.649
G1 F900 X108.65 Y112.532 E73.23266
G0 F7500 X108.65 Y111.966
G1 F900 X111.967 Y108.649 E73.40428
G0 F7500 X111.401 Y108.649
G1 F900 X108.65 Y111.401 E73.54665
G0 F7500 X108.65 Y110.835
G1 F900 X110.836 Y108.649 E73.65975
G0 F7500 X110.27 Y108.649
G1 F900 X108.65 Y110.269 E73.74357
G0 F7500 X108.65 Y109.704
G1 F900 X109.704 Y108.649 E73.79813
G0 F7500 X109.139 Y108.649
G1 F900 X108.65 Y109.138 E73.82344
;MESH:NONMESH
G0 F300 X108.65 Y109.138 Z0.6
G0 F7500 X126.83 Y126.83
G0 X126.9 Y126.9
;TIME_ELAPSED:130.994205
;LAYER:2
;TYPE:WALL-INNER
;MESH:xyzCalibration_cube.stl
G1 F900 X108.1 Y126.9 E74.51125
G1 X108.1 Y108.1 E75.19907
G1 X126.9 Y108.1 E75.88689
G1 X126.9 Y126.9 E76.57471
G0 F9000 X127.3 Y127.3
;TYPE:WALL-OUTER
G1 F900 X107.7 Y127.3 E77.2918
G1 X107.7 Y107.7 E78.00889
G1 X127.3 Y107.7 E78.72598
G1 X127.3 Y127.3 E79.44307
G0 F9000 X126.83 Y126.83
G0 X126.51 Y126.51
;TYPE:SKIN
G1 F600 X108.49 Y126.51 E80.10235
G1 X108.49 Y108.49 E80.76163
G1 X126.51 Y108.49 E81.42091
G1 X126.51 Y126.51 E82.0802
G0 F9000 X126.349 Y108.813
G1 F600 X126.186 Y108.65 E82.08863
G0 F9000 X125.621 Y108.65
G1 F600 X126.349 Y109.378 E82.1263
G0 F9000 X126.349 Y109.944
G1 F600 X125.055 Y108.65 E82.19325
G0 F9000 X124.489 Y108.65
G1 F600 X126.349 Y110.51 E82.28949
G0 F9000 X126.349 Y111.075
G1 F600 X123.923 Y108.65 E82.41498
G0 F9000 X123.358 Y108.65
G1 F600 X126.349 Y111.641 E82.56974
G0 F9000 X126.349 Y112.207
G1 F600 X122.792 Y108.65 E82.75378
G0 F9000 X122.226 Y108.65
G1 F600 X126.349 Y112.772 E82.96708
G0 F9000 X126.349 Y113.338
G1 F600 X121.661 Y108.65 E83.20964
G0 F9000 X121.095 Y108.65
G1 F600 X126.349 Y113.904 E83.48149
G0 F9000 X126.349 Y114.469
G1 F600 X120.529 Y108.65 E83.78259
G0 F9000 X119.964 Y108.65
G1 F600 X126.349 Y115.035 E84.11296
G0 F9000 X126.349 Y115.601
G1 F600 X119.398 Y108.65 E84.47261
G0 F9000 X118.832 Y108.65
G1 F600 X126.349 Y116.167 E84.86154
G0 F9000 X126.349 Y116.732
G1 F600 X118.267 Y108.65 E85.27971
G0 F9000 X117.701 Y108.65
G1 F600 X126.349 Y117.298 E85.72716
G0 F9000 X126.349 Y117.864
G1 F600 X117.135 Y108.65 E86.2039
G0 F9000 X116.57 Y108.65
G1 F600 X126.349 Y118.429 E86.70987
G0 F9000 X126.349 Y118.995
G1 F600 X116.004 Y108.65 E87.24513
G0 F9000 X115.438 Y108.65
G1 F600 X126.349 Y119.561 E87.80967
G0 F9000 X126.349 Y120.126
G1 F600 X114.873 Y108.65 E88.40345
G0 F9000 X114.307 Y108.65
G1 F600 X126.349 Y120.692 E89.02651
G0 F9000 X126.349 Y121.258
G1 F600 X113.741 Y108.65 E89.67885
G0 F9000 X113.175 Y108.65
G1 F600 X126.349 Y121.823 E90.36046
G0 F9000 X126.349 Y122.389
G1 F600 X112.61 Y108.65 E91.07132
G0 F9000 X112.044 Y108.65
G1 F600 X126.349 Y122.955 E91.81147
G0 F9000 X126.349 Y123.52
G1 F600 X111.478 Y108.65 E92.58088
G0 F9000 X110.913 Y108.65
G1 F600 X126.349 Y124.086 E93.37955
G0 F9000 X126.349 Y124.652
G1 F600 X110.347 Y108.65 E94.2075
G0 F9000 X109.781 Y108.65
G1 F600 X126.349 Y125.218 E95.06474
G0 F9000 X126.349 Y125.783
G1 F600 X109.216 Y108.65 E95.95121
G0 F9000 X108.649 Y108.649
G1 F600 X126.349 Y126.349 E96.86702
G0 F9000 X125.783 Y126.349
G1 F600 X108.649 Y109.215 E97.75355
G0 F9000 X108.649 Y109.781
G1 F600 X125.218 Y126.349 E98.61081
G0 F9000 X124.652 Y126.349
G1 F600 X108.649 Y110.346 E99.43882
G0 F9000 X108.649 Y110.912
G1 F600 X124.086 Y126.349 E100.23754
G0 F9000 X123.52 Y126.349
G1 F600 X108.649 Y111.478 E101.00697
G0 F9000 X108.649 Y112.043
G1 F600 X122.955 Y126.349 E101.74717
G0 F9000 X122.389 Y126.349
G1 F600 X108.649 Y112.609 E102.45809
G0 F9000 X108.649 Y113.175
G1 F600 X121.823 Y126.349 E103.13972
G0 F9000 X121.258 Y126.349
G1 F600 X108.649 Y113.74 E103.79212
G0 F9000 X108.649 Y114.306
G1 F600 X120.692 Y126.349 E104.41523
G0 F9000 X120.126 Y126.349
G1 F600 X108.649 Y114.872 E105.00906
G0 F9000 X108.649 Y115.438
G1 F600 X119.561 Y126.349 E105.57362
G0 F9000 X118.995 Y126.349
G1 F600 X108.649 Y116.003 E106.10893
G0 F9000 X108.649 Y116.569
G1 F600 X118.429 Y126.349 E106.61496
G0 F9000 X117.864 Y126.349
G1 F600 X108.649 Y117.135 E107.09172
G0 F9000 X108.649 Y117.7
G1 F600 X117.298 Y126.349 E107.53922
G0 F9000 X116.732 Y126.349
G1 F600 X108.649 Y118.266 E107.95744
G0 F9000 X108.649 Y118.832
G1 F600 X116.167 Y126.349 E108.3464
G0 F9000 X115.601 Y126.349
G1 F600 X108.649 Y119.397 E108.70611
G0 F9000 X108.649 Y119.963
G1 F600 X115.035 Y126.349 E109.03652
G0 F9000 X114.469 Y126.349
G1 F600 X108.649 Y120.529 E109.33765
G0 F9000 X108.649 Y121.094
G1 F600 X113.904 Y126.349 E109.60955
G0 F9000 X113.338 Y126.349
G1 F600 X108.649 Y121.66 E109.85216
G0 F9000 X108.649 Y122.226
G1 F600 X112.772 Y126.349 E110.06549
G0 F9000 X112.207 Y126.349
G1 F600 X108.649 Y122.791 E110.24958
G0 F9000 X108.649 Y123.357
G1 F600 X111.641 Y126.349 E110.40439
G0 F9000 X111.075 Y126.349
G1 F600 X108.649 Y123.923 E110.52991
G0 F9000 X108.649 Y124.488
G1 F600 X110.51 Y126.349 E110.6262
G0 F9000 X109.944 Y126.349
G1 F600 X108.649 Y125.054 E110.6932
G0 F9000 X108.649 Y125.62
G1 F600 X109.378 Y126.349 E110.73092
G0 F9000 X108.813 Y126.349
G1 F600 X108.649 Y126.186 E110.73938
;MESH:NONMESH
G0 F300 X108.649 Y126.186 Z0.8
G0 F9000 X126.83 Y126.83
G0 X126.9 Y126.9
;TIME_ELAPSED:231.557642
;LAYER:3
;TYPE:WALL-INNER
;MESH:xyzCalibration_cube.stl
G1 F900 X108.1 Y126.9 E111.4272
G1 X108.1 Y108.1 E112.11502
G1 X126.9 Y108.1 E112.80284
G1 X126.9 Y126.9 E113.49066
G0 F9000 X127.3 Y127.3
;TYPE:WALL-OUTER
G1 F900 X107.7 Y127.3 E114.20775
G1 X107.7 Y107.7 E114.92484
G1 X127.3 Y107.7 E115.64193
G1 X127.3 Y127.3 E116.35901
G0 F9000 X126.83 Y126.83
G0 X126.51 Y126.51
;TYPE:SKIN
G1 F600 X108.49 Y126.51 E117.0183
G1 X108.49 Y108.49 E117.67758
G1 X126.51 Y108.49 E118.33686
G1 X126.51 Y126.51 E118.99614
G0 F9000 X125.946 Y126.349
G1 F600 X126.349 Y125.946 E119.017
G0 F9000 X126.349 Y125.38
G1 F600 X125.38 Y126.349 E119.06713
G0 F9000 X124.814 Y126.349
G1 F600 X126.349 Y124.814 E119.14655
G0 F9000 X126.349 Y124.249
G1 F600 X124.249 Y126.349 E119.25521
G0 F9000 X123.683 Y126.349
G1 F600 X126.349 Y123.683 E119.39315
G0 F9000 X126.349 Y123.117
G1 F600 X123.117 Y126.349 E119.56038
G0 F9000 X122.552 Y126.349
G1 F600 X126.349 Y122.552 E119.75684
G0 F9000 X126.349 Y121.986
G1 F600 X121.986 Y126.349 E119.98258
G0 F9000 X121.42 Y126.349
G1 F600 X126.349 Y121.42 E120.23761
G0 F9000 X126.349 Y120.855
G1 F600 X120.855 Y126.349 E120.52187
G0 F9000 X120.289 Y126.349
G1 F600 X126.349 Y120.289 E120.83542
G0 F9000 X126.349 Y119.723
G1 F600 X119.723 Y126.349 E121.17825
G0 F9000 X119.158 Y126.349
G1 F600 X126.349 Y119.158 E121.55032
G0 F9000 X126.349 Y118.592
