;FLAVOR:Marlin
;TIME:2480
;Filament used: 1.82904m
;Layer height: 0.2
;MINX:107.7
;MINY:107.7
;MINZ:0.2
;MAXX:127.3
;MAXY:127.3
;MAXZ:20
;Generated with Cura_SteamEngine master
M82 ;absolute extrusion mode
; Ender 3 Custom Start G-code
M140 S75 ; Set Heat Bed temperature
M104 S160 ; start warming extruder to 160
G28 ; Home all axes
G29 ; Auto bed-level (BL-Touch)
G92 E0 ; Reset Extruder
M190 S75 ; Wait for Heat Bed temperature
M104 S210 ; Set Extruder temperature
G1 X0 Y0 Z0.3 F5000.0 ; Move to 0 0
M109 S210 ; Wait for Extruder temperature
G1 X1 Y20 Z0.3 F5000.0 ; Move to start position
; G1 Z2.0 F3000 ; Move Z Axis up little to prevent scratching of Heat Bed
G1 X3 Y200.0 Z0.3 F1500.0 E15 ; Draw the first line
G1 X3.3 Y200.0 Z0.3 F5000.0 ; Move to side a little
G1 X3.3 Y20 Z0.3 F1500.0 E30 ; Draw the second line
G92 E0 ; Reset Extruder
G1 Z2.0 F3000 ; Move Z Axis up little to prevent scratching of Heat Bed
G92 E0
G92 E0
G1 F2700 E-5
;LAYER_COUNT:100
;LAYER:0
M107
M204 S500
M205 X8 Y8
;MESH:xyzCalibration_cube.stl
G0 F6000 X126.1 Y126.1 Z0.2
;TYPE:WALL-INNER
G1 F2700 E0
G1 F1200 X108.9 Y126.1 E0.57207
G1 X108.9 Y108.9 E1.14415
G1 X126.1 Y108.9 E1.71622
G1 X126.1 Y126.1 E2.2883
G0 F6000 X126.5 Y126.5
G1 F1200 X108.5 Y126.5 E2.88698
G1 X108.5 Y108.5 E3.48566
G1 X126.5 Y108.5 E4.08434
G1 X126.5 Y126.5 E4.68303
G0 F6000 X126.9 Y126.9
G1 F1200 X108.1 Y126.9 E5.30832
G1 X108.1 Y108.1 E5.93361
G1 X126.9 Y108.1 E6.5589
G1 X126.9 Y126.9 E7.18419
G0 F6000 X127.3 Y127.3
;TYPE:WALL-OUTER
G1 F1200 X107.7 Y127.3 E7.83609
G1 X107.7 Y107.7 E8.48799
G1 X127.3 Y107.7 E9.13989
G1 X127.3 Y127.3 E9.79178
G0 F6000 X126.83 Y126.83
G0 X125.71 Y125.71
;TYPE:SKIN
G1 F1200 X109.29 Y125.71 E10.33792
G1 X109.29 Y109.29 E10.88405
G1 X125.71 Y109.29 E11.43018
G1 X125.71 Y125.71 E11.97631
G0 F6000 X125.549 Y109.71
G1 F1200 X125.289 Y109.45 E11.98854
G0 F6000 X124.723 Y109.45
G1 F1200 X125.549 Y110.276 E12.02739
G0 F6000 X125.549 Y110.841
G1 F1200 X124.158 Y109.45 E12.09282
G0 F6000 X123.592 Y109.45
G1 F1200 X125.549 Y111.407 E12.18487
G0 F6000 X125.549 Y111.973
G1 F1200 X123.026 Y109.45 E12.30355
G0 F6000 X122.46 Y109.45
G1 F1200 X125.549 Y112.538 E12.44882
G0 F6000 X125.549 Y113.104
G1 F1200 X121.895 Y109.45 E12.62069
G0 F6000 X121.329 Y109.45
G1 F1200 X125.549 Y113.67 E12.81919
G0 F6000 X125.549 Y114.235
G1 F1200 X120.763 Y109.45 E13.04428
G0 F6000 X120.198 Y109.45
G1 F1200 X125.549 Y114.801 E13.29598
G0 F6000 X125.549 Y115.367
G1 F1200 X119.632 Y109.45 E13.5743
G0 F6000 X119.066 Y109.45
G1 F1200 X125.549 Y115.932 E13.87921
G0 F6000 X125.549 Y116.498
G1 F1200 X118.501 Y109.45 E14.21073
G0 F6000 X117.935 Y109.45
G1 F1200 X125.549 Y117.064 E14.56887
G0 F6000 X125.549 Y117.63
G1 F1200 X117.369 Y109.45 E14.95363
G0 F6000 X116.804 Y109.45
G1 F1200 X125.549 Y118.195 E15.36497
G0 F6000 X125.549 Y118.761
G1 F1200 X116.238 Y109.45 E15.80293
G0 F6000 X115.672 Y109.45
G1 F1200 X125.549 Y119.327 E16.26751
G0 F6000 X125.549 Y119.892
G1 F1200 X115.107 Y109.45 E16.75867
G0 F6000 X114.541 Y109.45
G1 F1200 X125.549 Y120.458 E17.27645
G0 F6000 X125.549 Y121.024
G1 F1200 X113.975 Y109.45 E17.82086
G0 F6000 X113.41 Y109.45
G1 F1200 X125.549 Y121.589 E18.39184
G0 F6000 X125.549 Y122.155
G1 F1200 X112.844 Y109.45 E18.98945
G0 F6000 X112.278 Y109.45
G1 F1200 X125.549 Y122.721 E19.61367
G0 F6000 X125.549 Y123.286
G1 F1200 X111.712 Y109.45 E20.2645
G0 F6000 X111.147 Y109.45
G1 F1200 X125.549 Y123.852 E20.94193
G0 F6000 X125.549 Y124.418
G1 F1200 X110.581 Y109.45 E21.64597
G0 F6000 X110.015 Y109.45
G1 F1200 X125.549 Y124.983 E22.37662
G0 F6000 X125.549 Y125.549
G1 F1200 X109.449 Y109.449 E23.13392
G0 F6000 X109.449 Y110.015
G1 F1200 X124.983 Y125.549 E23.86459
G0 F6000 X124.418 Y125.549
G1 F1200 X109.449 Y110.58 E24.56868
G0 F6000 X109.449 Y111.146
G1 F1200 X123.852 Y125.549 E25.24616
G0 F6000 X123.286 Y125.549
G1 F1200 X109.449 Y111.712 E25.89701
G0 F6000 X109.449 Y112.277
G1 F1200 X122.721 Y125.549 E26.52128
G0 F6000 X122.155 Y125.549
G1 F1200 X109.449 Y112.843 E27.11893
G0 F6000 X109.449 Y113.409
G1 F1200 X121.589 Y125.549 E27.68996
G0 F6000 X121.024 Y125.549
G1 F1200 X109.449 Y113.975 E28.23439
G0 F6000 X109.449 Y114.54
G1 F1200 X120.458 Y125.549 E28.75222
G0 F6000 X119.892 Y125.549
G1 F1200 X109.449 Y115.106 E29.24343
G0 F6000 X109.449 Y115.672
G1 F1200 X119.327 Y125.549 E29.70803
G0 F6000 X118.761 Y125.549
G1 F1200 X109.449 Y116.237 E30.14604
G0 F6000 X109.449 Y116.803
G1 F1200 X118.195 Y125.549 E30.55743
G0 F6000 X117.63 Y125.549
G1 F1200 X109.449 Y117.369 E30.94221
G0 F6000 X109.449 Y117.934
G1 F1200 X117.064 Y125.549 E31.3004
G0 F6000 X116.498 Y125.549
G1 F1200 X109.449 Y118.5 E31.63196
G0 F6000 X109.449 Y119.066
G1 F1200 X115.932 Y125.549 E31.9369
G0 F6000 X115.367 Y125.549
G1 F1200 X109.449 Y119.631 E32.21527
G0 F6000 X109.449 Y120.197
G1 F1200 X114.801 Y125.549 E32.46701
G0 F6000 X114.235 Y125.549
G1 F1200 X109.449 Y120.763 E32.69213
G0 F6000 X109.449 Y121.328
G1 F1200 X113.67 Y125.549 E32.89067
G0 F6000 X113.104 Y125.549
G1 F1200 X109.449 Y121.894 E33.06259
G0 F6000 X109.449 Y122.46
G1 F1200 X112.538 Y125.549 E33.20789
G0 F6000 X111.973 Y125.549
G1 F1200 X109.449 Y123.025 E33.32661
G0 F6000 X109.449 Y123.591
G1 F1200 X111.407 Y125.549 E33.41871
G0 F6000 X110.841 Y125.549
G1 F1200 X109.449 Y124.157 E33.48418
G0 F6000 X109.449 Y124.723
G1 F1200 X110.276 Y125.549 E33.52306
G0 F6000 X109.71 Y125.549
M104 S210
G1 F1200 X109.449 Y125.288 E33.53534
;MESH:NONMESH
G0 F300 X109.449 Y125.288 Z0.4
G0 F6000 X126.1 Y126.1
;TIME_ELAPSED:60.582120
;LAYER:1
M140 S70
M106 S85
;TYPE:WALL-INNER
;MESH:xyzCalibration_cube.stl
G1 F1350 X108.9 Y126.1 E34.10741
G1 X108.9 Y108.9 E34.67948
G1 X126.1 Y108.9 E35.25156
G1 X126.1 Y126.1 E35.82363
G0 F7500 X126.5 Y126.5
G1 F1350 X108.5 Y126.5 E36.42232
G1 X108.5 Y108.5 E37.021
G1 X126.5 Y108.5 E37.61968
G1 X126.5 Y126.5 E38.21836
G0 F7500 X126.9 Y126.9
G1 F1350 X108.1 Y126.9 E38.84365
G1 X108.1 Y108.1 E39.46894
G1 X126.9 Y108.1 E40.09423
G1 X126.9 Y126.9 E40.71952
G0 F7500 X127.3 Y127.3
;TYPE:WALL-OUTER
G1 F1350 X107.7 Y127.3 E41.37142
G1 X107.7 Y107.7 E42.02332
G1 X127.3 Y107.7 E42.67522
G1 X127.3 Y127.3 E43.32712
G0 F7500 X126.83 Y126.83
G0 X125.71 Y125.71
;TYPE:SKIN
G1 F1350 X109.29 Y125.71 E43.87325
G1 X109.29 Y109.29 E44.41938
G1 X125.71 Y109.29 E44.96551
G1 X125.71 Y125.71 E45.51164
G0 F7500 X125.049 Y125.549
G1 F1350 X125.549 Y125.049 E45.53516
G0 F7500 X125.549 Y124.483
G1 F1350 X124.483 Y125.549 E45.5853
G0 F7500 X123.917 Y125.549
G1 F1350 X125.549 Y123.917 E45.66207
G0 F7500 X125.549 Y123.351
G1 F1350 X123.351 Y125.549 E45.76546
G0 F7500 X122.786 Y125.549
G1 F1350 X125.549 Y122.786 E45.89542
G0 F7500 X125.549 Y122.22
G1 F1350 X122.22 Y125.549 E46.05201
G0 F7500 X121.654 Y125.549
G1 F1350 X125.549 Y121.654 E46.23521
G0 F7500 X125.549 Y121.089
G1 F1350 X121.089 Y125.549 E46.445
G0 F7500 X120.523 Y125.549
G1 F1350 X125.549 Y120.523 E46.68141
G0 F7500 X125.549 Y119.957
G1 F1350 X119.957 Y125.549 E46.94444
G0 F7500 X119.392 Y125.549
G1 F1350 X125.549 Y119.392 E47.23404
G0 F7500 X125.549 Y118.826
G1 F1350 X118.826 Y125.549 E47.55027
G0 F7500 X118.26 Y125.549
G1 F1350 X125.549 Y118.26 E47.89312
G0 F7500 X125.549 Y117.695
G1 F1350 X117.695 Y125.549 E48.26255
G0 F7500 X117.129 Y125.549
G1 F1350 X125.549 Y117.129 E48.6586
G0 F7500 X125.549 Y116.563
G1 F1350 X116.563 Y125.549 E49.08128
G0 F7500 X115.998 Y125.549
G1 F1350 X125.549 Y115.998 E49.53053
G0 F7500 X125.549 Y115.432
G1 F1350 X115.432 Y125.549 E50.0064
G0 F7500 X114.866 Y125.549
G1 F1350 X125.549 Y114.866 E50.5089
G0 F7500 X125.549 Y114.3
G1 F1350 X114.3 Y125.549 E51.03801
G0 F7500 X113.735 Y125.549
G1 F1350 X125.549 Y113.735 E51.59371
G0 F7500 X125.549 Y113.169
G1 F1350 X113.169 Y125.549 E52.17603
G0 F7500 X112.603 Y125.549
G1 F1350 X125.549 Y112.603 E52.78497
G0 F7500 X125.549 Y112.038
G1 F1350 X112.038 Y125.549 E53.42048
G0 F7500 X111.472 Y125.549
G1 F1350 X125.549 Y111.472 E54.08262
G0 F7500 X125.549 Y110.906
G1 F1350 X110.906 Y125.549 E54.77138
G0 F7500 X110.341 Y125.549
G1 F1350 X125.549 Y110.341 E55.48672
G0 F7500 X125.549 Y109.775
G1 F1350 X109.775 Y125.549 E56.22868
G0 F7500 X109.45 Y125.309
G1 F1350 X125.309 Y109.449 E56.97466
G0 F7500 X124.744 Y109.449
G1 F1350 X109.45 Y124.743 E57.69405
G0 F7500 X109.45 Y124.177
G1 F1350 X124.178 Y109.449 E58.38681
G0 F7500 X123.612 Y109.449
G1 F1350 X109.45 Y123.612 E59.05297
G0 F7500 X109.45 Y123.046
G1 F1350 X123.047 Y109.449 E59.69253
G0 F7500 X122.481 Y109.449
G1 F1350 X109.45 Y122.48 E60.30547
G0 F7500 X109.45 Y121.915
G1 F1350 X121.915 Y109.449 E60.89181
G0 F7500 X121.35 Y109.449
G1 F1350 X109.45 Y121.349 E61.45154
G0 F7500 X109.45 Y120.783
G1 F1350 X120.784 Y109.449 E61.98466
G0 F7500 X120.218 Y109.449
G1 F1350 X109.45 Y120.218 E62.49118
G0 F7500 X109.45 Y119.652
G1 F1350 X119.653 Y109.449 E62.9711
G0 F7500 X119.087 Y109.449
G1 F1350 X109.45 Y119.086 E63.42439
G0 F7500 X109.45 Y118.52
G1 F1350 X118.521 Y109.449 E63.85106
G0 F7500 X117.956 Y109.449
G1 F1350 X109.45 Y117.955 E64.25116
G0 F7500 X109.45 Y117.389
G1 F1350 X117.39 Y109.449 E64.62463
G0 F7500 X116.824 Y109.449
G1 F1350 X109.45 Y116.823 E64.97148
G0 F7500 X109.45 Y116.258
G1 F1350 X116.258 Y109.449 E65.29173
G0 F7500 X115.693 Y109.449
G1 F1350 X109.45 Y115.692 E65.58539
G0 F7500 X109.45 Y115.126
G1 F1350 X115.127 Y109.449 E65.85241
G0 F7500 X114.561 Y109.449
G1 F1350 X109.45 Y114.561 E66.09284
G0 F7500 X109.45 Y113.995
G1 F1350 X113.996 Y109.449 E66.30667
G0 F7500 X113.43 Y109.449
G1 F1350 X109.45 Y113.429 E66.49388
G0 F7500 X109.45 Y112.864
G1 F1350 X112.864 Y109.449 E66.65449
G0 F7500 X112.299 Y109.449
G1 F1350 X109.45 Y112.298 E66.7885
G0 F7500 X109.45 Y111.732
G1 F1350 X111.733 Y109.449 E66.89588
G0 F7500 X111.167 Y109.449
G1 F1350 X109.45 Y111.167 E66.97667
G0 F7500 X109.45 Y110.601
G1 F1350 X110.602 Y109.449 E67.03085
G0 F7500 X110.036 Y109.449
G1 F1350 X109.45 Y110.035 E67.05842
;MESH:NONMESH
G0 F300 X109.45 Y110.035 Z0.6
G0 F7500 X126.1 Y126.1
;TIME_ELAPSED:111.204692
;LAYER:2
M106 S170
;TYPE:WALL-INNER
;MESH:xyzCalibration_cube.stl
G1 F1500 X108.9 Y126.1 E67.63049
G1 X108.9 Y108.9 E68.20257
G1 X126.1 Y108.9 E68.77464
G1 X126.1 Y126.1 E69.34671
G0 F9000 X126.5 Y126.5
G1 F1500 X108.5 Y126.5 E69.9454
G1 X108.5 Y108.5 E70.54408
G1 X126.5 Y108.5 E71.14276
G1 X126.5 Y126.5 E71.74144
G0 F9000 X126.9 Y126.9
G1 F1500 X108.1 Y126.9 E72.36674
G1 X108.1 Y108.1 E72.99203
G1 X126.9 Y108.1 E73.61732
G1 X126.9 Y126.9 E74.24261
G0 F9000 X127.3 Y127.3
;TYPE:WALL-OUTER
G1 F1500 X107.7 Y127.3 E74.89451
G1 X107.7 Y107.7 E75.5464
G1 X127.3 Y107.7 E76.1983
G1 X127.3 Y127.3 E76.8502
G0 F9000 X126.83 Y126.83
G0 X125.71 Y125.71
;TYPE:SKIN
G1 F1500 X109.29 Y125.71 E77.39633
G1 X109.29 Y109.29 E77.94246
G1 X125.71 Y109.29 E78.4886
G1 X125.71 Y125.71 E79.03473
G0 F9000 X125.549 Y109.71
G1 F1500 X125.289 Y109.45 E79.04696
G0 F9000 X124.723 Y109.45
G1 F1500 X125.549 Y110.276 E79.08581
G0 F9000 X125.549 Y110.841
G1 F1500 X124.158 Y109.45 E79.15124
G0 F9000 X123.592 Y109.45
G1 F1500 X125.549 Y111.407 E79.24329
G0 F9000 X125.549 Y111.973
G1 F1500 X123.026 Y109.45 E79.36196
G0 F9000 X122.46 Y109.45
G1 F1500 X125.549 Y112.538 E79.50724
G0 F9000 X125.549 Y113.104
G1 F1500 X121.895 Y109.45 E79.67911
G0 F9000 X121.329 Y109.45
G1 F1500 X125.549 Y113.67 E79.87761
G0 F9000 X125.549 Y114.235
G1 F1500 X120.763 Y109.45 E80.1027
G0 F9000 X120.198 Y109.45
G1 F1500 X125.549 Y114.801 E80.3544
G0 F9000 X125.549 Y115.367
G1 F1500 X119.632 Y109.45 E80.63271
G0 F9000 X119.066 Y109.45
G1 F1500 X125.549 Y115.932 E80.93763
G0 F9000 X125.549 Y116.498
G1 F1500 X118.501 Y109.45 E81.26915
G0 F9000 X117.935 Y109.45
G1 F1500 X125.549 Y117.064 E81.62729
G0 F9000 X125.549 Y117.63
G1 F1500 X117.369 Y109.45 E82.01205
G0 F9000 X116.804 Y109.45
G1 F1500 X125.549 Y118.195 E82.42339
G0 F9000 X125.549 Y118.761
G1 F1500 X116.238 Y109.45 E82.86135
G0 F9000 X115.672 Y109.45
G1 F1500 X125.549 Y119.327 E83.32593
G0 F9000 X125.549 Y119.892
G1 F1500 X115.107 Y109.45 E83.81709
G0 F9000 X114.541 Y109.45
G1 F1500 X125.549 Y120.458 E84.33487
G0 F9000 X125.549 Y121.024
G1 F1500 X113.975 Y109.45 E84.87928
G0 F9000 X113.41 Y109.45
G1 F1500 X125.549 Y121.589 E85.45026
G0 F9000 X125.549 Y122.155
G1 F1500 X112.844 Y109.45 E86.04786
G0 F9000 X112.278 Y109.45
G1 F1500 X125.549 Y122.721 E86.67209
G0 F9000 X125.549 Y123.286
G1 F1500 X111.712 Y109.45 E87.32292
G0 F9000 X111.147 Y109.45
G1 F1500 X125.549 Y123.852 E88.00034
G0 F9000 X125.549 Y124.418
G1 F1500 X110.581 Y109.45 E88.70439
G0 F9000 X110.015 Y109.45
G1 F1500 X125.549 Y124.983 E89.43504
G0 F9000 X125.549 Y125.549
G1 F1500 X109.449 Y109.449 E90.19233
G0 F9000 X109.449 Y110.015
G1 F1500 X124.983 Y125.549 E90.92301
G0 F9000 X124.418 Y125.549
G1 F1500 X109.449 Y110.58 E91.6271
G0 F9000 X109.449 Y111.146
G1 F1500 X123.852 Y125.549 E92.30458
G0 F9000 X123.286 Y125.549
G1 F1500 X109.449 Y111.712 E92.95543
G0 F9000 X109.449 Y112.277
G1 F1500 X122.721 Y125.549 E93.5797
G0 F9000 X122.155 Y125.549
G1 F1500 X109.449 Y112.843 E94.17735
G0 F9000 X109.449 Y113.409
G1 F1500 X121.589 Y125.549 E94.74838
G0 F9000 X121.024 Y125.549
G1 F1500 X109.449 Y113.975 E95.29281
G0 F9000 X109.449 Y114.54
G1 F1500 X120.458 Y125.549 E95.81064
G0 F9000 X119.892 Y125.549
G1 F1500 X109.449 Y115.106 E96.30184
G0 F9000 X109.449 Y115.672
G1 F1500 X119.327 Y125.549 E96.76645
G0 F9000 X118.761 Y125.549
G1 F1500 X109.449 Y116.237 E97.20446
G0 F9000 X109.449 Y116.803
G1 F1500 X118.195 Y125.549 E97.61584
G0 F9000 X117.63 Y125.549
G1 F1500 X109.449 Y117.369 E98.00063
G0 F9000 X109.449 Y117.934
G1 F1500 X117.064 Y125.549 E98.35882
G0 F9000 X116.498 Y125.549
G1 F1500 X109.449 Y118.5 E98.69038
G0 F9000 X109.449 Y119.066
G1 F1500 X115.932 Y125.549 E98.99532
G0 F9000 X115.367 Y125.549
G1 F1500 X109.449 Y119.631 E99.27369
G0 F9000 X109.449 Y120.197
G1 F1500 X114.801 Y125.549 E99.52543
G0 F9000 X114.235 Y125.549
G1 F1500 X109.449 Y120.763 E99.75055
G0 F9000 X109.449 Y121.328
G1 F1500 X113.67 Y125.549 E99.94909
G0 F9000 X113.104 Y125.549
G1 F1500 X109.449 Y121.894 E100.12101
G0 F9000 X109.449 Y122.46
G1 F1500 X112.538 Y125.549 E100.26631
G0 F9000 X111.973 Y125.549
G1 F1500 X109.449 Y123.025 E100.38503
G0 F9000 X109.449 Y123.591
G1 F1500 X111.407 Y125.549 E100.47712
G0 F9000 X110.841 Y125.549
G1 F1500 X109.449 Y124.157 E100.5426
G0 F9000 X109.449 Y124.723
G1 F1500 X110.276 Y125.549 E100.58148
G0 F9000 X109.71 Y125.549
G1 F1500 X109.449 Y125.288 E100.59375
;MESH:NONMESH
G0 F300 X109.449 Y125.288 Z0.8
G0 F9000 X126.1 Y126.1
;TIME_ELAPSED:158.041027
;LAYER:3
M106 S255
;TYPE:WALL-INNER
;MESH:xyzCalibration_cube.stl
G1 F1500 X108.9 Y126.1 E101.16583
G1 X108.9 Y108.9 E101.7379
G1 X126.1 Y108.9 E102.30998
G1 X126.1 Y126.1 E102.88205
G0 F9000 X126.5 Y126.5
G1 F1500 X108.5 Y126.5 E103.48073
G1 X108.5 Y108.5 E104.07942
G1 X126.5 Y108.5 E104.6781
G1 X126.5 Y126.5 E105.27678
G0 F9000 X126.9 Y126.9
G1 F1500 X108.1 Y126.9 E105.90207
G1 X108.1 Y108.1 E106.52736
G1 X126.9 Y108.1 E107.15265
G1 X126.9 Y126.9 E107.77794
G0 F9000 X127.3 Y127.3
;TYPE:WALL-OUTER
G1 F1500 X107.7 Y127.3 E108.42984
G1 X107.7 Y107.7 E109.08174
G1 X127.3 Y107.7 E109.73364
G1 X127.3 Y127.3 E110.38554
G0 F9000 X126.83 Y126.83
G0 X125.71 Y125.71
;TYPE:SKIN
G1 F1500 X109.29 Y125.71 E110.93167
G1 X109.29 Y109.29 E111.4778
G1 X125.71 Y109.29 E112.02393
G1 X125.71 Y125.71 E112.57006
G0 F9000 X125.049 Y125.549
G1 F1500 X125.549 Y125.049 E112.59358
G0 F9000 X125.549 Y124.483
G1 F1500 X124.483 Y125.549 E112.64372
G0 F9000 X123.917 Y125.549
G1 F1500 X125.549 Y123.917 E112.72049
G0 F9000 X125.549 Y123.351
G1 F1500 X123.351 Y125.549 E112.82387
G0 F9000 X122.786 Y125.549
G1 F1500 X125.549 Y122.786 E112.95384
G0 F9000 X125.549 Y122.22
G1 F1500 X122.22 Y125.549 E113.11042
G0 F9000 X121.654 Y125.549
G1 F1500 X125.549 Y121.654 E113.29363
G0 F9000 X125.549 Y121.089
G1 F1500 X121.089 Y125.549 E113.50342
G0 F9000 X120.523 Y125.549
G1 F1500 X125.549 Y120.523 E113.73982
G0 F9000 X125.549 Y119.957
G1 F1500 X119.957 Y125.549 E114.00285
G0 F9000 X119.392 Y125.549
G1 F1500 X125.549 Y119.392 E114.29246
G0 F9000 X125.549 Y118.826
G1 F1500 X118.826 Y125.549 E114.60869
G0 F9000 X118.26 Y125.549
